; generated by PrusaSlicer 2.5.0+win64 on 2023-02-27 at 00:43:00 UTC


;
;

;
;
; 

; external perimeters extrusion width = 0.45mm
; perimeters extrusion width = 0.45mm
; infill extrusion width = 0.45mm
; solid infill extrusion width = 0.45mm
; top infill extrusion width = 0.40mm
; support material extrusion width = 0.35mm
; first layer extrusion width = 0.42mm

M73 P0 R194
M201 X2500 Y2500 Z400 E5000 ; sets maximum accelerations, mm/sec^2
M203 X180 Y180 Z12 E80 ; sets maximum feedrates, mm / sec
M204 P1250 R1250 T2500 ; sets acceleration (P, T) and retract acceleration (R), mm/sec^2
M205 X8.00 Y8.00 Z2.00 E10.00 ; sets the jerk limits, mm/sec
M205 S0 T0 ; sets the minimum extruding and travel feed rate, mm/sec
M107
;TYPE:Custom
M862.3 P "MINI" ; printer model check
G90 ; use absolute coordinates
M83 ; extruder relative mode
M104 S170 ; set extruder temp for bed leveling
M140 S60 ; set bed temp
M109 R170 ; wait for bed leveling temp
M190 S60 ; wait for bed temp
M204 T1250 ; set travel acceleration
G28 ; home all without mesh bed level
G29 ; mesh bed leveling 
M204 T2500 ; restore travel acceleration
M104 S215 ; set extruder temp
G92 E0
G1 Y-2 X179 F2400
G1 Z3 F720
M109 S215 ; wait for extruder temp

; intro line
G1 X170 F1000
G1 Z0.2 F720
G1 X110 E8 F900
G1 X40 E10 F700
G92 E0

M221 S95 ; set flow
G21 ; set units to millimeters
G90 ; use absolute coordinates
M83 ; use relative distances for extrusion
M900 K0.2 ; Filament gcode LA 1.5
; ; Filament gcode LA 1.0
M107
;LAYER_CHANGE
;Z:0.2
;HEIGHT:0.2
;BEFORE_LAYER_CHANGE
G92 E0.0
;0.2


G1 E-3.2 F4200
G1 Z.2 F720
;AFTER_LAYER_CHANGE
;0.2
G1 Z.4
G1 X44.237 Y44.087 F9000
G1 Z.2 F720
G1 E3.2 F2400
M204 P800
;TYPE:Skirt/Brim
;WIDTH:0.42
G1 F1200
G1 X46.533 Y41.791 E.10182
G1 X48.214 Y41.095 E.05704
G1 X155.129 Y41.095 E3.35226
G1 X156.81 Y41.791 E.05704
G1 X159.107 Y44.087 E.10182
G1 X159.803 Y45.768 E.05704
G1 X159.803 Y138.906 E2.92026
G1 X159.107 Y140.586 E.05704
G1 X156.81 Y142.883 E.10182
G1 X155.129 Y143.579 E.05704
G1 X48.214 Y143.579 E3.35226
G1 X46.533 Y142.883 E.05704
G1 X44.237 Y140.586 E.10182
G1 X43.54 Y138.906 E.05704
G1 X43.54 Y45.768 E2.92026
G1 X44.214 Y44.143 E.05516
M204 P1000
; printing object base_cards_box_lid.stl id:0 copy 0
G1 E-2.24 F4200
;WIPE_START
G1 F7200
G1 X45.369 Y42.971 E-.912
;WIPE_END
G1 E-.048 F4200
G1 Z.4 F720
G1 X155.129 Y45.768 F9000
G1 Z.2 F720
G1 E3.2 F2400
M204 P800
;TYPE:Support material
G1 F1200
G1 X157.426 Y45.768 E.072
G1 X157.426 Y138.906 E2.92026
G1 X155.129 Y138.906 E.072
M73 P0 R193
G1 X155.129 Y141.202 E.072
G1 X48.214 Y141.202 E3.35226
G1 X48.214 Y138.906 E.072
G1 X45.917 Y138.906 E.072
G1 X45.917 Y45.768 E2.92026
G1 X48.214 Y45.768 E.072
G1 X48.214 Y43.472 E.072
G1 X155.129 Y43.472 E3.35226
G1 X155.129 Y45.712 E.07023
M204 P1000
G1 X51.812 Y48.856 F9000
M204 P800
G1 F1200
G1 X51.635 Y48.929 E.00599
G1 X51.4 Y49.165 E.01042
G1 X51.327 Y49.341 E.00599
G1 X51.327 Y135.333 E2.69622
G1 X51.4 Y135.509 E.00599
G1 X51.635 Y135.744 E.01042
G1 X51.812 Y135.817 E.00599
G1 X151.504 Y135.817 E3.12577
G1 X151.68 Y135.744 E.00599
G1 X151.915 Y135.509 E.01042
G1 X151.988 Y135.333 E.00599
G1 X151.988 Y49.341 E2.69622
G1 X151.915 Y49.165 E.00599
G1 X151.68 Y48.929 E.01042
G1 X151.504 Y48.856 E.00599
G1 X51.868 Y48.856 E3.124
M204 P1000
G1 E-2.24 F4200
;WIPE_START
G1 F7200
G1 X53.514 Y48.856 E-.912
;WIPE_END
G1 E-.048 F4200
G1 Z.4 F720
G1 X156.977 Y138.736 F9000
G1 Z.2 F720
G1 E3.2 F2400
M204 P800
G1 F1200
G1 X156.977 Y46.108 E2.9043
G1 X156.558 Y46.108 E.01314
G1 X156.558 Y138.566 E2.89898
G1 X156.139 Y138.566 E.01314
G1 X156.139 Y46.108 E2.89898
G1 X155.72 Y46.108 E.01314
G1 X155.72 Y138.566 E2.89898
G1 X155.301 Y138.566 E.01314
G1 X155.301 Y46.108 E2.89898
G1 X154.882 Y46.108 E.01314
M73 P0 R192
G1 X154.882 Y138.566 E2.89898
G1 X154.79 Y138.566 E.00287
G1 X154.79 Y140.863 E.072
G1 X154.463 Y140.863 E.01026
G1 X154.463 Y43.811 E3.04298
G1 X154.044 Y43.811 E.01314
G1 X154.044 Y140.863 E3.04298
G1 X153.625 Y140.863 E.01314
M73 P1 R192
G1 X153.625 Y43.811 E3.04298
G1 X153.206 Y43.811 E.01314
G1 X153.206 Y140.863 E3.04298
G1 X152.787 Y140.863 E.01314
G1 X152.787 Y43.811 E3.04298
G1 X152.368 Y43.811 E.01314
G1 X152.368 Y140.863 E3.04298
G1 X151.949 Y140.863 E.01314
G1 X151.949 Y135.955 E.15386
G1 X151.872 Y136.032 E.0034
G1 X151.571 Y136.157 E.01022
G1 X151.53 Y136.157 E.00129
G1 X151.53 Y140.863 E.14755
G1 X151.111 Y140.863 E.01314
G1 X151.111 Y136.157 E.14755
G1 X150.692 Y136.157 E.01314
G1 X150.692 Y140.863 E.14755
G1 X150.273 Y140.863 E.01314
G1 X150.273 Y136.157 E.14755
G1 X149.854 Y136.157 E.01314
G1 X149.854 Y140.863 E.14755
G1 X149.435 Y140.863 E.01314
G1 X149.435 Y136.157 E.14755
G1 X149.016 Y136.157 E.01314
G1 X149.016 Y140.863 E.14755
G1 X148.597 Y140.863 E.01314
G1 X148.597 Y136.157 E.14755
G1 X148.178 Y136.157 E.01314
G1 X148.178 Y140.863 E.14755
G1 X147.759 Y140.863 E.01314
G1 X147.759 Y136.157 E.14755
G1 X147.34 Y136.157 E.01314
G1 X147.34 Y140.863 E.14755
G1 X146.921 Y140.863 E.01314
G1 X146.921 Y136.157 E.14755
G1 X146.502 Y136.157 E.01314
G1 X146.502 Y140.863 E.14755
G1 X146.083 Y140.863 E.01314
G1 X146.083 Y136.157 E.14755
G1 X145.664 Y136.157 E.01314
G1 X145.664 Y140.863 E.14755
G1 X145.245 Y140.863 E.01314
G1 X145.245 Y136.157 E.14755
G1 X144.826 Y136.157 E.01314
G1 X144.826 Y140.863 E.14755
G1 X144.407 Y140.863 E.01314
G1 X144.407 Y136.157 E.14755
G1 X143.988 Y136.157 E.01314
G1 X143.988 Y140.863 E.14755
G1 X143.569 Y140.863 E.01314
G1 X143.569 Y136.157 E.14755
G1 X143.15 Y136.157 E.01314
G1 X143.15 Y140.863 E.14755
G1 X142.731 Y140.863 E.01314
G1 X142.731 Y136.157 E.14755
G1 X142.312 Y136.157 E.01314
G1 X142.312 Y140.863 E.14755
G1 X141.893 Y140.863 E.01314
G1 X141.893 Y136.157 E.14755
G1 X141.474 Y136.157 E.01314
G1 X141.474 Y140.863 E.14755
G1 X141.055 Y140.863 E.01314
G1 X141.055 Y136.157 E.14755
G1 X140.636 Y136.157 E.01314
G1 X140.636 Y140.863 E.14755
G1 X140.217 Y140.863 E.01314
G1 X140.217 Y136.157 E.14755
G1 X139.798 Y136.157 E.01314
G1 X139.798 Y140.863 E.14755
G1 X139.38 Y140.863 E.01314
G1 X139.38 Y136.157 E.14755
G1 X138.961 Y136.157 E.01314
G1 X138.961 Y140.863 E.14755
G1 X138.542 Y140.863 E.01314
G1 X138.542 Y136.157 E.14755
G1 X138.123 Y136.157 E.01314
G1 X138.123 Y140.863 E.14755
G1 X137.704 Y140.863 E.01314
G1 X137.704 Y136.157 E.14755
G1 X137.285 Y136.157 E.01314
G1 X137.285 Y140.863 E.14755
G1 X136.866 Y140.863 E.01314
G1 X136.866 Y136.157 E.14755
G1 X136.447 Y136.157 E.01314
G1 X136.447 Y140.863 E.14755
G1 X136.028 Y140.863 E.01314
G1 X136.028 Y136.157 E.14755
G1 X135.609 Y136.157 E.01314
G1 X135.609 Y140.863 E.14755
G1 X135.19 Y140.863 E.01314
G1 X135.19 Y136.157 E.14755
G1 X134.771 Y136.157 E.01314
G1 X134.771 Y140.863 E.14755
G1 X134.352 Y140.863 E.01314
G1 X134.352 Y136.157 E.14755
G1 X133.933 Y136.157 E.01314
G1 X133.933 Y140.863 E.14755
G1 X133.514 Y140.863 E.01314
G1 X133.514 Y136.157 E.14755
G1 X133.095 Y136.157 E.01314
G1 X133.095 Y140.863 E.14755
G1 X132.676 Y140.863 E.01314
G1 X132.676 Y136.157 E.14755
G1 X132.257 Y136.157 E.01314
G1 X132.257 Y140.863 E.14755
G1 X131.838 Y140.863 E.01314
G1 X131.838 Y136.157 E.14755
G1 X131.419 Y136.157 E.01314
G1 X131.419 Y140.863 E.14755
G1 X131 Y140.863 E.01314
G1 X131 Y136.157 E.14755
G1 X130.581 Y136.157 E.01314
G1 X130.581 Y140.863 E.14755
G1 X130.162 Y140.863 E.01314
G1 X130.162 Y136.157 E.14755
G1 X129.743 Y136.157 E.01314
G1 X129.743 Y140.863 E.14755
G1 X129.324 Y140.863 E.01314
G1 X129.324 Y136.157 E.14755
G1 X128.905 Y136.157 E.01314
G1 X128.905 Y140.863 E.14755
G1 X128.486 Y140.863 E.01314
G1 X128.486 Y136.157 E.14755
G1 X128.067 Y136.157 E.01314
G1 X128.067 Y140.863 E.14755
G1 X127.648 Y140.863 E.01314
G1 X127.648 Y136.157 E.14755
G1 X127.229 Y136.157 E.01314
G1 X127.229 Y140.863 E.14755
G1 X126.81 Y140.863 E.01314
G1 X126.81 Y136.157 E.14755
G1 X126.391 Y136.157 E.01314
G1 X126.391 Y140.863 E.14755
G1 X125.972 Y140.863 E.01314
G1 X125.972 Y136.157 E.14755
G1 X125.553 Y136.157 E.01314
G1 X125.553 Y140.863 E.14755
G1 X125.134 Y140.863 E.01314
G1 X125.134 Y136.157 E.14755
G1 X124.715 Y136.157 E.01314
G1 X124.715 Y140.863 E.14755
G1 X124.296 Y140.863 E.01314
G1 X124.296 Y136.157 E.14755
G1 X123.877 Y136.157 E.01314
G1 X123.877 Y140.863 E.14755
G1 X123.458 Y140.863 E.01314
G1 X123.458 Y136.157 E.14755
G1 X123.039 Y136.157 E.01314
G1 X123.039 Y140.863 E.14755
G1 X122.62 Y140.863 E.01314
G1 X122.62 Y136.157 E.14755
G1 X122.201 Y136.157 E.01314
G1 X122.201 Y140.863 E.14755
G1 X121.782 Y140.863 E.01314
G1 X121.782 Y136.157 E.14755
G1 X121.364 Y136.157 E.01314
G1 X121.364 Y140.863 E.14755
G1 X120.945 Y140.863 E.01314
G1 X120.945 Y136.157 E.14755
G1 X120.526 Y136.157 E.01314
G1 X120.526 Y140.863 E.14755
G1 X120.107 Y140.863 E.01314
G1 X120.107 Y136.157 E.14755
G1 X119.688 Y136.157 E.01314
G1 X119.688 Y140.863 E.14755
G1 X119.269 Y140.863 E.01314
G1 X119.269 Y136.157 E.14755
G1 X118.85 Y136.157 E.01314
G1 X118.85 Y140.863 E.14755
G1 X118.431 Y140.863 E.01314
M73 P1 R191
G1 X118.431 Y136.157 E.14755
G1 X118.012 Y136.157 E.01314
G1 X118.012 Y140.863 E.14755
G1 X117.593 Y140.863 E.01314
G1 X117.593 Y136.157 E.14755
G1 X117.174 Y136.157 E.01314
G1 X117.174 Y140.863 E.14755
G1 X116.755 Y140.863 E.01314
G1 X116.755 Y136.157 E.14755
G1 X116.336 Y136.157 E.01314
G1 X116.336 Y140.863 E.14755
G1 X115.917 Y140.863 E.01314
G1 X115.917 Y136.157 E.14755
G1 X115.498 Y136.157 E.01314
G1 X115.498 Y140.863 E.14755
G1 X115.079 Y140.863 E.01314
G1 X115.079 Y136.157 E.14755
G1 X114.66 Y136.157 E.01314
G1 X114.66 Y140.863 E.14755
G1 X114.241 Y140.863 E.01314
G1 X114.241 Y136.157 E.14755
G1 X113.822 Y136.157 E.01314
G1 X113.822 Y140.863 E.14755
G1 X113.403 Y140.863 E.01314
G1 X113.403 Y136.157 E.14755
G1 X112.984 Y136.157 E.01314
G1 X112.984 Y140.863 E.14755
G1 X112.565 Y140.863 E.01314
G1 X112.565 Y136.157 E.14755
G1 X112.146 Y136.157 E.01314
G1 X112.146 Y140.863 E.14755
G1 X111.727 Y140.863 E.01314
G1 X111.727 Y136.157 E.14755
G1 X111.308 Y136.157 E.01314
G1 X111.308 Y140.863 E.14755
G1 X110.889 Y140.863 E.01314
G1 X110.889 Y136.157 E.14755
G1 X110.47 Y136.157 E.01314
G1 X110.47 Y140.863 E.14755
G1 X110.051 Y140.863 E.01314
G1 X110.051 Y136.157 E.14755
G1 X109.632 Y136.157 E.01314
G1 X109.632 Y140.863 E.14755
G1 X109.213 Y140.863 E.01314
G1 X109.213 Y136.157 E.14755
G1 X108.794 Y136.157 E.01314
G1 X108.794 Y140.863 E.14755
G1 X108.375 Y140.863 E.01314
G1 X108.375 Y136.157 E.14755
G1 X107.956 Y136.157 E.01314
G1 X107.956 Y140.863 E.14755
G1 X107.537 Y140.863 E.01314
G1 X107.537 Y136.157 E.14755
G1 X107.118 Y136.157 E.01314
G1 X107.118 Y140.863 E.14755
G1 X106.699 Y140.863 E.01314
G1 X106.699 Y136.157 E.14755
G1 X106.28 Y136.157 E.01314
G1 X106.28 Y140.863 E.14755
G1 X105.861 Y140.863 E.01314
G1 X105.861 Y136.157 E.14755
G1 X105.442 Y136.157 E.01314
G1 X105.442 Y140.863 E.14755
G1 X105.023 Y140.863 E.01314
G1 X105.023 Y136.157 E.14755
G1 X104.604 Y136.157 E.01314
G1 X104.604 Y140.863 E.14755
G1 X104.185 Y140.863 E.01314
G1 X104.185 Y136.157 E.14755
G1 X103.766 Y136.157 E.01314
G1 X103.766 Y140.863 E.14755
G1 X103.347 Y140.863 E.01314
G1 X103.347 Y136.157 E.14755
G1 X102.929 Y136.157 E.01314
G1 X102.929 Y140.863 E.14755
G1 X102.51 Y140.863 E.01314
G1 X102.51 Y136.157 E.14755
G1 X102.091 Y136.157 E.01314
G1 X102.091 Y140.863 E.14755
G1 X101.672 Y140.863 E.01314
G1 X101.672 Y136.157 E.14755
G1 X101.253 Y136.157 E.01314
G1 X101.253 Y140.863 E.14755
G1 X100.834 Y140.863 E.01314
G1 X100.834 Y136.157 E.14755
G1 X100.415 Y136.157 E.01314
G1 X100.415 Y140.863 E.14755
G1 X99.996 Y140.863 E.01314
G1 X99.996 Y136.157 E.14755
G1 X99.577 Y136.157 E.01314
G1 X99.577 Y140.863 E.14755
G1 X99.158 Y140.863 E.01314
G1 X99.158 Y136.157 E.14755
G1 X98.739 Y136.157 E.01314
G1 X98.739 Y140.863 E.14755
G1 X98.32 Y140.863 E.01314
G1 X98.32 Y136.157 E.14755
G1 X97.901 Y136.157 E.01314
G1 X97.901 Y140.863 E.14755
G1 X97.482 Y140.863 E.01314
G1 X97.482 Y136.157 E.14755
G1 X97.063 Y136.157 E.01314
G1 X97.063 Y140.863 E.14755
G1 X96.644 Y140.863 E.01314
G1 X96.644 Y136.157 E.14755
G1 X96.225 Y136.157 E.01314
G1 X96.225 Y140.863 E.14755
G1 X95.806 Y140.863 E.01314
G1 X95.806 Y136.157 E.14755
G1 X95.387 Y136.157 E.01314
G1 X95.387 Y140.863 E.14755
G1 X94.968 Y140.863 E.01314
G1 X94.968 Y136.157 E.14755
G1 X94.549 Y136.157 E.01314
G1 X94.549 Y140.863 E.14755
G1 X94.13 Y140.863 E.01314
G1 X94.13 Y136.157 E.14755
G1 X93.711 Y136.157 E.01314
G1 X93.711 Y140.863 E.14755
G1 X93.292 Y140.863 E.01314
G1 X93.292 Y136.157 E.14755
G1 X92.873 Y136.157 E.01314
G1 X92.873 Y140.863 E.14755
G1 X92.454 Y140.863 E.01314
G1 X92.454 Y136.157 E.14755
G1 X92.035 Y136.157 E.01314
G1 X92.035 Y140.863 E.14755
G1 X91.616 Y140.863 E.01314
G1 X91.616 Y136.157 E.14755
G1 X91.197 Y136.157 E.01314
G1 X91.197 Y140.863 E.14755
G1 X90.778 Y140.863 E.01314
G1 X90.778 Y136.157 E.14755
G1 X90.359 Y136.157 E.01314
G1 X90.359 Y140.863 E.14755
G1 X89.94 Y140.863 E.01314
G1 X89.94 Y136.157 E.14755
G1 X89.521 Y136.157 E.01314
G1 X89.521 Y140.863 E.14755
G1 X89.102 Y140.863 E.01314
G1 X89.102 Y136.157 E.14755
G1 X88.683 Y136.157 E.01314
G1 X88.683 Y140.863 E.14755
G1 X88.264 Y140.863 E.01314
G1 X88.264 Y136.157 E.14755
G1 X87.845 Y136.157 E.01314
G1 X87.845 Y140.863 E.14755
G1 X87.426 Y140.863 E.01314
G1 X87.426 Y136.157 E.14755
G1 X87.007 Y136.157 E.01314
G1 X87.007 Y140.863 E.14755
G1 X86.588 Y140.863 E.01314
G1 X86.588 Y136.157 E.14755
G1 X86.169 Y136.157 E.01314
G1 X86.169 Y140.863 E.14755
G1 X85.75 Y140.863 E.01314
G1 X85.75 Y136.157 E.14755
G1 X85.331 Y136.157 E.01314
G1 X85.331 Y140.863 E.14755
G1 X84.913 Y140.863 E.01314
G1 X84.913 Y136.157 E.14755
G1 X84.494 Y136.157 E.01314
G1 X84.494 Y140.863 E.14755
G1 X84.075 Y140.863 E.01314
G1 X84.075 Y136.157 E.14755
G1 X83.656 Y136.157 E.01314
G1 X83.656 Y140.863 E.14755
G1 X83.237 Y140.863 E.01314
G1 X83.237 Y136.157 E.14755
G1 X82.818 Y136.157 E.01314
G1 X82.818 Y140.863 E.14755
G1 X82.399 Y140.863 E.01314
G1 X82.399 Y136.157 E.14755
G1 X81.98 Y136.157 E.01314
G1 X81.98 Y140.863 E.14755
G1 X81.561 Y140.863 E.01314
G1 X81.561 Y136.157 E.14755
G1 X81.142 Y136.157 E.01314
G1 X81.142 Y140.863 E.14755
G1 X80.723 Y140.863 E.01314
G1 X80.723 Y136.157 E.14755
G1 X80.304 Y136.157 E.01314
G1 X80.304 Y140.863 E.14755
G1 X79.885 Y140.863 E.01314
G1 X79.885 Y136.157 E.14755
G1 X79.466 Y136.157 E.01314
G1 X79.466 Y140.863 E.14755
G1 X79.047 Y140.863 E.01314
G1 X79.047 Y136.157 E.14755
G1 X78.628 Y136.157 E.01314
G1 X78.628 Y140.863 E.14755
G1 X78.209 Y140.863 E.01314
G1 X78.209 Y136.157 E.14755
G1 X77.79 Y136.157 E.01314
G1 X77.79 Y140.863 E.14755
G1 X77.371 Y140.863 E.01314
G1 X77.371 Y136.157 E.14755
G1 X76.952 Y136.157 E.01314
G1 X76.952 Y140.863 E.14755
G1 X76.533 Y140.863 E.01314
G1 X76.533 Y136.157 E.14755
G1 X76.114 Y136.157 E.01314
G1 X76.114 Y140.863 E.14755
G1 X75.695 Y140.863 E.01314
G1 X75.695 Y136.157 E.14755
G1 X75.276 Y136.157 E.01314
G1 X75.276 Y140.863 E.14755
G1 X74.857 Y140.863 E.01314
G1 X74.857 Y136.157 E.14755
G1 X74.438 Y136.157 E.01314
G1 X74.438 Y140.863 E.14755
G1 X74.019 Y140.863 E.01314
G1 X74.019 Y136.157 E.14755
G1 X73.6 Y136.157 E.01314
G1 X73.6 Y140.863 E.14755
G1 X73.181 Y140.863 E.01314
G1 X73.181 Y136.157 E.14755
G1 X72.762 Y136.157 E.01314
G1 X72.762 Y140.863 E.14755
G1 X72.343 Y140.863 E.01314
G1 X72.343 Y136.157 E.14755
G1 X71.924 Y136.157 E.01314
G1 X71.924 Y140.863 E.14755
G1 X71.505 Y140.863 E.01314
G1 X71.505 Y136.157 E.14755
G1 X71.086 Y136.157 E.01314
G1 X71.086 Y140.863 E.14755
G1 X70.667 Y140.863 E.01314
G1 X70.667 Y136.157 E.14755
G1 X70.248 Y136.157 E.01314
G1 X70.248 Y140.863 E.14755
G1 X69.829 Y140.863 E.01314
G1 X69.829 Y136.157 E.14755
G1 X69.41 Y136.157 E.01314
G1 X69.41 Y140.863 E.14755
G1 X68.991 Y140.863 E.01314
G1 X68.991 Y136.157 E.14755
G1 X68.572 Y136.157 E.01314
G1 X68.572 Y140.863 E.14755
G1 X68.153 Y140.863 E.01314
G1 X68.153 Y136.157 E.14755
G1 X67.734 Y136.157 E.01314
G1 X67.734 Y140.863 E.14755
G1 X67.315 Y140.863 E.01314
G1 X67.315 Y136.157 E.14755
G1 X66.896 Y136.157 E.01314
G1 X66.896 Y140.863 E.14755
G1 X66.478 Y140.863 E.01314
G1 X66.478 Y136.157 E.14755
G1 X66.059 Y136.157 E.01314
G1 X66.059 Y140.863 E.14755
