; generated by PrusaSlicer 2.5.0+win64 on 2023-02-16 at 18:31:28 UTC


;
;

;
;
; 

; external perimeters extrusion width = 0.45mm
; perimeters extrusion width = 0.45mm
; infill extrusion width = 0.45mm
; solid infill extrusion width = 0.45mm
; top infill extrusion width = 0.40mm
; first layer extrusion width = 0.42mm

M73 P0 R274
M201 X2500 Y2500 Z400 E5000 ; sets maximum accelerations, mm/sec^2
M203 X180 Y180 Z12 E80 ; sets maximum feedrates, mm / sec
M204 P1250 R1250 T2500 ; sets acceleration (P, T) and retract acceleration (R), mm/sec^2
M205 X8.00 Y8.00 Z2.00 E10.00 ; sets the jerk limits, mm/sec
M205 S0 T0 ; sets the minimum extruding and travel feed rate, mm/sec
M107
;TYPE:Custom
M862.3 P "MINI" ; printer model check
G90 ; use absolute coordinates
M83 ; extruder relative mode
M104 S170 ; set extruder temp for bed leveling
M140 S60 ; set bed temp
M109 R170 ; wait for bed leveling temp
M190 S60 ; wait for bed temp
M204 T1250 ; set travel acceleration
G28 ; home all without mesh bed level
G29 ; mesh bed leveling 
M204 T2500 ; restore travel acceleration
M104 S215 ; set extruder temp
G92 E0
G1 Y-2 X179 F2400
G1 Z3 F720
M109 S215 ; wait for extruder temp

; intro line
G1 X170 F1000
G1 Z0.2 F720
G1 X110 E8 F900
G1 X40 E10 F700
G92 E0

M221 S95 ; set flow
G21 ; set units to millimeters
G90 ; use absolute coordinates
M83 ; use relative distances for extrusion
M900 K0.2 ; Filament gcode LA 1.5
; ; Filament gcode LA 1.0
M107
;LAYER_CHANGE
;Z:0.2
;HEIGHT:0.2
;BEFORE_LAYER_CHANGE
G92 E0.0
;0.2


G1 E-3.2 F4200
G1 Z.2 F720
;AFTER_LAYER_CHANGE
;0.2
G1 Z.4
G1 X38.569 Y44.919 F9000
G1 Z.2 F720
G1 E3.2 F2400
M204 P800
;TYPE:Skirt/Brim
;WIDTH:0.42
G1 F1200
G1 X40.25 Y44.222 E.05704
G1 X139.751 Y44.222 E3.11978
G1 X141.431 Y44.919 E.05704
G1 X141.931 Y45.419 E.02217
G1 X142.628 Y47.1 E.05704
G1 X142.628 Y132.901 E2.69023
G1 X141.931 Y134.581 E.05704
M73 P0 R273
G1 X141.431 Y135.081 E.02217
G1 X139.751 Y135.778 E.05704
G1 X40.25 Y135.778 E3.11978
G1 X38.569 Y135.081 E.05704
G1 X38.069 Y134.581 E.02217
G1 X37.372 Y132.901 E.05704
G1 X37.372 Y47.1 E2.69023
G1 X38.069 Y45.419 E.05704
G1 X38.526 Y44.961 E.02029
M204 P1000
; printing object base_cards_box.stl id:0 copy 0
G1 E-2.24 F4200
;WIPE_START
G1 F7200
G1 X40.039 Y44.313 E-.912
;WIPE_END
G1 E-.048 F4200
G1 Z.4 F720
G1 X40.937 Y132.213 F9000
G1 Z.2 F720
G1 E3.2 F2400
M204 P800
;TYPE:Perimeter
;WIDTH:0.419999
G1 F1200
G1 X40.937 Y47.787 E2.64714
G1 X139.063 Y47.787 E3.07669
G1 X139.063 Y132.213 E2.64714
G1 X40.997 Y132.213 E3.07481
M204 P1000
G1 X40.559 Y132.591 F9000
M204 P800
;TYPE:External perimeter
G1 F1200
G1 X40.559 Y47.409 E2.67079
G1 X139.441 Y47.409 E3.10034
G1 X139.441 Y132.591 E2.67079
G1 X40.619 Y132.591 E3.09846
M204 P1000
G1 X40.673 Y132.207 F9000
G1 E-2.24 F4200
;WIPE_START
G1 F7200
G1 X40.618 Y130.945 E-.912
;WIPE_END
G1 E-.048 F4200
G1 Z.4 F720
G1 X138.187 Y47.9 F9000
G1 Z.2 F720
G1 E3.2 F2400
M204 P800
;TYPE:Solid infill
;WIDTH:0.420686
G1 F1200
G1 X138.781 Y48.494 E.02639
G1 X138.781 Y49.028 E.01678
G1 X137.822 Y48.069 E.04258
G1 X137.288 Y48.069 E.01678
G1 X138.781 Y49.562 E.06632
G1 X138.781 Y50.096 E.01678
G1 X136.754 Y48.069 E.09005
G1 X136.219 Y48.069 E.01678
G1 X138.781 Y50.631 E.11378
G1 X138.781 Y51.165 E.01678
G1 X135.685 Y48.069 E.13751
G1 X135.151 Y48.069 E.01678
G1 X138.781 Y51.699 E.16124
G1 X138.781 Y52.233 E.01678
G1 X134.617 Y48.069 E.18498
G1 X134.082 Y48.069 E.01678
G1 X138.781 Y52.768 E.20871
G1 X138.781 Y53.302 E.01678
G1 X133.548 Y48.069 E.23244
G1 X133.014 Y48.069 E.01678
G1 X138.781 Y53.836 E.25617
G1 X138.781 Y54.37 E.01678
G1 X132.48 Y48.069 E.27991
G1 X131.945 Y48.069 E.01678
G1 X138.781 Y54.905 E.30364
G1 X138.781 Y55.439 E.01678
G1 X131.411 Y48.069 E.32737
G1 X130.877 Y48.069 E.01678
G1 X138.781 Y55.973 E.3511
G1 X138.781 Y56.507 E.01678
G1 X130.343 Y48.069 E.37484
G1 X129.808 Y48.069 E.01678
G1 X138.781 Y57.042 E.39857
G1 X138.781 Y57.576 E.01678
G1 X129.274 Y48.069 E.4223
G1 X128.74 Y48.069 E.01678
G1 X138.781 Y58.11 E.44603
G1 X138.781 Y58.644 E.01678
G1 X128.206 Y48.069 E.46976
G1 X127.671 Y48.069 E.01678
G1 X138.781 Y59.179 E.4935
G1 X138.781 Y59.713 E.01678
M73 P0 R272
G1 X127.137 Y48.069 E.51723
G1 X126.603 Y48.069 E.01678
G1 X138.781 Y60.247 E.54096
G1 X138.781 Y60.781 E.01678
G1 X126.069 Y48.069 E.56469
G1 X125.534 Y48.069 E.01678
G1 X138.781 Y61.316 E.58843
G1 X138.781 Y61.85 E.01678
G1 X125 Y48.069 E.61216
G1 X124.466 Y48.069 E.01678
G1 X138.781 Y62.384 E.63589
G1 X138.781 Y62.918 E.01678
G1 X123.932 Y48.069 E.65962
G1 X123.397 Y48.069 E.01678
G1 X138.781 Y63.453 E.68336
G1 X138.781 Y63.987 E.01678
G1 X122.863 Y48.069 E.70709
G1 X122.329 Y48.069 E.01678
G1 X138.781 Y64.521 E.73082
G1 X138.781 Y65.055 E.01678
G1 X121.795 Y48.069 E.75455
G1 X121.261 Y48.069 E.01678
G1 X138.781 Y65.589 E.77828
G1 X138.781 Y66.124 E.01678
G1 X120.726 Y48.069 E.80202
G1 X120.192 Y48.069 E.01678
G1 X138.781 Y66.658 E.82575
G1 X138.781 Y67.192 E.01678
G1 X119.658 Y48.069 E.84948
G1 X119.124 Y48.069 E.01678
G1 X138.781 Y67.726 E.87321
G1 X138.781 Y68.261 E.01678
G1 X118.589 Y48.069 E.89695
G1 X118.055 Y48.069 E.01678
G1 X138.781 Y68.795 E.92068
G1 X138.781 Y69.329 E.01678
G1 X117.521 Y48.069 E.94441
G1 X116.987 Y48.069 E.01678
G1 X138.781 Y69.863 E.96814
G1 X138.781 Y70.398 E.01678
G1 X116.452 Y48.069 E.99188
G1 X115.918 Y48.069 E.01678
G1 X138.781 Y70.932 E1.01561
G1 X138.781 Y71.466 E.01678
G1 X115.384 Y48.069 E1.03934
G1 X114.85 Y48.069 E.01678
G1 X138.781 Y72 E1.06307
G1 X138.781 Y72.535 E.01678
G1 X114.315 Y48.069 E1.0868
G1 X113.781 Y48.069 E.01678
G1 X138.781 Y73.069 E1.11054
G1 X138.781 Y73.603 E.01678
G1 X113.247 Y48.069 E1.13427
G1 X112.713 Y48.069 E.01678
G1 X138.781 Y74.137 E1.158
G1 X138.781 Y74.672 E.01678
G1 X112.178 Y48.069 E1.18173
G1 X111.644 Y48.069 E.01678
G1 X138.781 Y75.206 E1.20547
G1 X138.781 Y75.74 E.01678
G1 X111.11 Y48.069 E1.2292
G1 X110.576 Y48.069 E.01678
G1 X138.781 Y76.274 E1.25293
G1 X138.781 Y76.809 E.01678
G1 X110.041 Y48.069 E1.27666
G1 X109.507 Y48.069 E.01678
G1 X138.781 Y77.343 E1.3004
G1 X138.781 Y77.877 E.01678
G1 X108.973 Y48.069 E1.32413
G1 X108.439 Y48.069 E.01678
G1 X138.781 Y78.411 E1.34786
G1 X138.781 Y78.946 E.01678
G1 X107.904 Y48.069 E1.37159
G1 X107.37 Y48.069 E.01678
G1 X138.781 Y79.48 E1.39532
G1 X138.781 Y80.014 E.01678
G1 X106.836 Y48.069 E1.41906
G1 X106.302 Y48.069 E.01678
M73 P0 R271
G1 X138.781 Y80.548 E1.44279
G1 X138.781 Y81.082 E.01678
G1 X105.768 Y48.069 E1.46652
G1 X105.233 Y48.069 E.01678
G1 X138.781 Y81.617 E1.49025
G1 X138.781 Y82.151 E.01678
G1 X104.699 Y48.069 E1.51399
G1 X104.165 Y48.069 E.01678
G1 X138.781 Y82.685 E1.53772
G1 X138.781 Y83.219 E.01678
G1 X103.631 Y48.069 E1.56145
G1 X103.096 Y48.069 E.01678
G1 X138.781 Y83.754 E1.58518
G1 X138.781 Y84.288 E.01678
G1 X102.562 Y48.069 E1.60891
G1 X102.028 Y48.069 E.01678
M73 P1 R271
G1 X138.781 Y84.822 E1.63265
G1 X138.781 Y85.356 E.01678
G1 X101.494 Y48.069 E1.65638
G1 X100.959 Y48.069 E.01678
G1 X138.781 Y85.891 E1.68011
G1 X138.781 Y86.425 E.01678
G1 X100.425 Y48.069 E1.70384
G1 X99.891 Y48.069 E.01678
G1 X138.781 Y86.959 E1.72758
G1 X138.781 Y87.493 E.01678
G1 X99.357 Y48.069 E1.75131
G1 X98.822 Y48.069 E.01678
G1 X138.781 Y88.028 E1.77504
G1 X138.781 Y88.562 E.01678
G1 X98.288 Y48.069 E1.79877
G1 X97.754 Y48.069 E.01678
G1 X138.781 Y89.096 E1.82251
G1 X138.781 Y89.63 E.01678
G1 X97.22 Y48.069 E1.84624
G1 X96.685 Y48.069 E.01678
G1 X138.781 Y90.165 E1.86997
G1 X138.781 Y90.699 E.01678
G1 X96.151 Y48.069 E1.8937
G1 X95.617 Y48.069 E.01678
G1 X138.781 Y91.233 E1.91743
G1 X138.781 Y91.767 E.01678
G1 X95.083 Y48.069 E1.94117
G1 X94.548 Y48.069 E.01678
M73 P1 R270
G1 X138.781 Y92.302 E1.9649
G1 X138.781 Y92.836 E.01678
G1 X94.014 Y48.069 E1.98863
G1 X93.48 Y48.069 E.01678
G1 X138.781 Y93.37 E2.01236
G1 X138.781 Y93.904 E.01678
G1 X92.946 Y48.069 E2.0361
G1 X92.411 Y48.069 E.01678
G1 X138.781 Y94.439 E2.05983
G1 X138.781 Y94.973 E.01678
G1 X91.877 Y48.069 E2.08356
G1 X91.343 Y48.069 E.01678
G1 X138.781 Y95.507 E2.10729
G1 X138.781 Y96.041 E.01678
G1 X90.809 Y48.069 E2.13103
G1 X90.275 Y48.069 E.01678
G1 X138.781 Y96.575 E2.15476
G1 X138.781 Y97.11 E.01678
G1 X89.74 Y48.069 E2.17849
G1 X89.206 Y48.069 E.01678
G1 X138.781 Y97.644 E2.20222
G1 X138.781 Y98.178 E.01678
G1 X88.672 Y48.069 E2.22595
G1 X88.138 Y48.069 E.01678
G1 X138.781 Y98.712 E2.24969
G1 X138.781 Y99.247 E.01678
G1 X87.603 Y48.069 E2.27342
G1 X87.069 Y48.069 E.01678
G1 X138.781 Y99.781 E2.29715
G1 X138.781 Y100.315 E.01678
G1 X86.535 Y48.069 E2.32088
G1 X86.001 Y48.069 E.01678
G1 X138.781 Y100.849 E2.34462
G1 X138.781 Y101.384 E.01678
M73 P1 R269
G1 X85.466 Y48.069 E2.36835
G1 X84.932 Y48.069 E.01678
G1 X138.781 Y101.918 E2.39208
G1 X138.781 Y102.452 E.01678
G1 X84.398 Y48.069 E2.41581
G1 X83.864 Y48.069 E.01678
G1 X138.781 Y102.986 E2.43955
G1 X138.781 Y103.521 E.01678
G1 X83.329 Y48.069 E2.46328
G1 X82.795 Y48.069 E.01678
G1 X138.781 Y104.055 E2.48701
G1 X138.781 Y104.589 E.01678
G1 X82.261 Y48.069 E2.51074
G1 X81.727 Y48.069 E.01678
G1 X138.781 Y105.123 E2.53447
G1 X138.781 Y105.658 E.01678
G1 X81.192 Y48.069 E2.55821
G1 X80.658 Y48.069 E.01678
G1 X138.781 Y106.192 E2.58194
G1 X138.781 Y106.726 E.01678
G1 X80.124 Y48.069 E2.60567
G1 X79.59 Y48.069 E.01678
G1 X138.781 Y107.26 E2.6294
G1 X138.781 Y107.795 E.01678
G1 X79.055 Y48.069 E2.65314
G1 X78.521 Y48.069 E.01678
G1 X138.781 Y108.329 E2.67687
G1 X138.781 Y108.863 E.01678
G1 X77.987 Y48.069 E2.7006
G1 X77.453 Y48.069 E.01678
M73 P1 R268
G1 X138.781 Y109.397 E2.72433
G1 X138.781 Y109.932 E.01678
M73 P2 R268
G1 X76.918 Y48.069 E2.74807
G1 X76.384 Y48.069 E.01678
G1 X138.781 Y110.466 E2.7718
G1 X138.781 Y111 E.01678
G1 X75.85 Y48.069 E2.79553
G1 X75.316 Y48.069 E.01678
G1 X138.781 Y111.534 E2.81926
G1 X138.781 Y112.069 E.01678
G1 X74.781 Y48.069 E2.84299
G1 X74.247 Y48.069 E.01678
G1 X138.781 Y112.603 E2.86673
G1 X138.781 Y113.137 E.01678
G1 X73.713 Y48.069 E2.89046
G1 X73.179 Y48.069 E.01678
G1 X138.781 Y113.671 E2.91419
G1 X138.781 Y114.205 E.01678
G1 X72.645 Y48.069 E2.93792
G1 X72.11 Y48.069 E.01678
G1 X138.781 Y114.74 E2.96166
G1 X138.781 Y115.274 E.01678
G1 X71.576 Y48.069 E2.98539
G1 X71.042 Y48.069 E.01678
G1 X138.781 Y115.808 E3.00912
G1 X138.781 Y116.342 E.01678
M73 P2 R267
G1 X70.508 Y48.069 E3.03285
G1 X69.973 Y48.069 E.01678
G1 X138.781 Y116.877 E3.05659
G1 X138.781 Y117.411 E.01678
G1 X69.439 Y48.069 E3.08032
G1 X68.905 Y48.069 E.01678
G1 X138.781 Y117.945 E3.10405
G1 X138.781 Y118.479 E.01678
G1 X68.371 Y48.069 E3.12778
G1 X67.836 Y48.069 E.01678
G1 X138.781 Y119.014 E3.15151
G1 X138.781 Y119.548 E.01678
G1 X67.302 Y48.069 E3.17525
G1 X66.768 Y48.069 E.01678
G1 X138.781 Y120.082 E3.19898
G1 X138.781 Y120.616 E.01678
G1 X66.234 Y48.069 E3.22271
G1 X65.699 Y48.069 E.01678
G1 X138.781 Y121.151 E3.24644
G1 X138.781 Y121.685 E.01678
G1 X65.165 Y48.069 E3.27018
G1 X64.631 Y48.069 E.01678
G1 X138.781 Y122.219 E3.29391
G1 X138.781 Y122.753 E.01678
M73 P2 R266
G1 X64.097 Y48.069 E3.31764
G1 X63.562 Y48.069 E.01678
G1 X138.781 Y123.288 E3.34137
G1 X138.781 Y123.822 E.01678
G1 X63.028 Y48.069 E3.3651
G1 X62.494 Y48.069 E.01678
G1 X138.781 Y124.356 E3.38884
G1 X138.781 Y124.89 E.01678
G1 X61.96 Y48.069 E3.41257
G1 X61.425 Y48.069 E.01678
G1 X138.781 Y125.425 E3.4363
G1 X138.781 Y125.959 E.01678
G1 X60.891 Y48.069 E3.46003
G1 X60.357 Y48.069 E.01678
G1 X138.781 Y126.493 E3.48377
G1 X138.781 Y127.027 E.01678
G1 X59.823 Y48.069 E3.5075
G1 X59.288 Y48.069 E.01678
M73 P3 R266
G1 X138.781 Y127.562 E3.53123
G1 X138.781 Y128.096 E.01678
G1 X58.754 Y48.069 E3.55496
G1 X58.22 Y48.069 E.01678
M73 P3 R265
G1 X138.781 Y128.63 E3.5787
G1 X138.781 Y129.164 E.01678
G1 X57.686 Y48.069 E3.60243
G1 X57.152 Y48.069 E.01678
G1 X138.781 Y129.698 E3.62616
G1 X138.781 Y130.233 E.01678
G1 X56.617 Y48.069 E3.64989
G1 X56.083 Y48.069 E.01678
G1 X138.781 Y130.767 E3.67362
G1 X138.781 Y131.301 E.01678
G1 X55.549 Y48.069 E3.69736
G1 X55.015 Y48.069 E.01678
G1 X138.781 Y131.835 E3.72109
G1 X138.781 Y131.931 E.00299
G1 X138.342 Y131.931 E.01379
G1 X54.48 Y48.069 E3.72532
G1 X53.946 Y48.069 E.01678
G1 X137.807 Y131.931 E3.72532
G1 X137.273 Y131.931 E.01678
G1 X53.412 Y48.069 E3.72532
G1 X52.878 Y48.069 E.01678
M73 P3 R264
G1 X136.739 Y131.931 E3.72532
G1 X136.205 Y131.931 E.01678
G1 X52.343 Y48.069 E3.72532
G1 X51.809 Y48.069 E.01678
G1 X135.67 Y131.931 E3.72532
G1 X135.136 Y131.931 E.01678
G1 X51.275 Y48.069 E3.72532
G1 X50.741 Y48.069 E.01678
G1 X134.602 Y131.931 E3.72532
G1 X134.068 Y131.931 E.01678
G1 X50.206 Y48.069 E3.72532
G1 X49.672 Y48.069 E.01678
G1 X133.533 Y131.931 E3.72532
G1 X132.999 Y131.931 E.01678
G1 X49.138 Y48.069 E3.72532
G1 X48.604 Y48.069 E.01678
G1 X132.465 Y131.931 E3.72532
G1 X131.931 Y131.931 E.01678
G1 X48.069 Y48.069 E3.72532
G1 X47.535 Y48.069 E.01678
M73 P3 R263
G1 X131.396 Y131.931 E3.72532
G1 X130.862 Y131.931 E.01678
G1 X47.001 Y48.069 E3.72532
G1 X46.467 Y48.069 E.01678
G1 X130.328 Y131.931 E3.72532
G1 X129.794 Y131.931 E.01678
G1 X45.932 Y48.069 E3.72532
G1 X45.398 Y48.069 E.01678
G1 X129.259 Y131.931 E3.72532
G1 X128.725 Y131.931 E.01678
G1 X44.864 Y48.069 E3.72532
G1 X44.33 Y48.069 E.01678
M73 P4 R263
G1 X128.191 Y131.931 E3.72532
G1 X127.657 Y131.931 E.01678
G1 X43.795 Y48.069 E3.72532
G1 X43.261 Y48.069 E.01678
G1 X127.122 Y131.931 E3.72532
G1 X126.588 Y131.931 E.01678
G1 X42.727 Y48.069 E3.72532
G1 X42.193 Y48.069 E.01678
M73 P4 R262
G1 X126.054 Y131.931 E3.72532
G1 X125.52 Y131.931 E.01678
G1 X41.659 Y48.069 E3.72532
G1 X41.219 Y48.069 E.01379
G1 X41.219 Y48.164 E.00299
G1 X124.986 Y131.931 E3.72109
G1 X124.451 Y131.931 E.01678
G1 X41.219 Y48.699 E3.69736
G1 X41.219 Y49.233 E.01678
G1 X123.917 Y131.931 E3.67363
G1 X123.383 Y131.931 E.01678
G1 X41.219 Y49.767 E3.6499
G1 X41.219 Y50.301 E.01678
G1 X122.849 Y131.931 E3.62616
G1 X122.314 Y131.931 E.01678
G1 X41.219 Y50.836 E3.60243
G1 X41.219 Y51.37 E.01678
G1 X121.78 Y131.931 E3.5787
G1 X121.246 Y131.931 E.01678
G1 X41.219 Y51.904 E3.55497
G1 X41.219 Y52.438 E.01678
M73 P4 R261
G1 X120.712 Y131.931 E3.53123
G1 X120.177 Y131.931 E.01678
G1 X41.219 Y52.973 E3.5075
G1 X41.219 Y53.507 E.01678
G1 X119.643 Y131.931 E3.48377
G1 X119.109 Y131.931 E.01678
G1 X41.219 Y54.041 E3.46004
G1 X41.219 Y54.575 E.01678
G1 X118.575 Y131.931 E3.4363
G1 X118.04 Y131.931 E.01678
G1 X41.219 Y55.11 E3.41257
G1 X41.219 Y55.644 E.01678
G1 X117.506 Y131.931 E3.38884
G1 X116.972 Y131.931 E.01678
G1 X41.219 Y56.178 E3.36511
G1 X41.219 Y56.712 E.01678
G1 X116.438 Y131.931 E3.34138
G1 X115.903 Y131.931 E.01678
G1 X41.219 Y57.247 E3.31764
G1 X41.219 Y57.781 E.01678
G1 X115.369 Y131.931 E3.29391
G1 X114.835 Y131.931 E.01678
M73 P4 R260
G1 X41.219 Y58.315 E3.27018
G1 X41.219 Y58.849 E.01678
G1 X114.301 Y131.931 E3.24645
G1 X113.766 Y131.931 E.01678
G1 X41.219 Y59.384 E3.22271
G1 X41.219 Y59.918 E.01678
G1 X113.232 Y131.931 E3.19898
G1 X112.698 Y131.931 E.01678
M73 P5 R260
G1 X41.219 Y60.452 E3.17525
G1 X41.219 Y60.986 E.01678
G1 X112.164 Y131.931 E3.15152
G1 X111.629 Y131.931 E.01678
G1 X41.219 Y61.521 E3.12778
G1 X41.219 Y62.055 E.01678
G1 X111.095 Y131.931 E3.10405
G1 X110.561 Y131.931 E.01678
G1 X41.219 Y62.589 E3.08032
G1 X41.219 Y63.123 E.01678
G1 X110.027 Y131.931 E3.05659
G1 X109.492 Y131.931 E.01678
G1 X41.219 Y63.658 E3.03286
G1 X41.219 Y64.192 E.01678
G1 X108.958 Y131.931 E3.00912
G1 X108.424 Y131.931 E.01678
M73 P5 R259
G1 X41.219 Y64.726 E2.98539
G1 X41.219 Y65.26 E.01678
G1 X107.89 Y131.931 E2.96166
G1 X107.356 Y131.931 E.01678
G1 X41.219 Y65.794 E2.93793
G1 X41.219 Y66.329 E.01678
G1 X106.821 Y131.931 E2.91419
G1 X106.287 Y131.931 E.01678
G1 X41.219 Y66.863 E2.89046
G1 X41.219 Y67.397 E.01678
G1 X105.753 Y131.931 E2.86673
G1 X105.219 Y131.931 E.01678
G1 X41.219 Y67.931 E2.843
G1 X41.219 Y68.466 E.01678
G1 X104.684 Y131.931 E2.81926
G1 X104.15 Y131.931 E.01678
G1 X41.219 Y69 E2.79553
G1 X41.219 Y69.534 E.01678
G1 X103.616 Y131.931 E2.7718
G1 X103.082 Y131.931 E.01678
G1 X41.219 Y70.068 E2.74807
G1 X41.219 Y70.603 E.01678
G1 X102.547 Y131.931 E2.72434
G1 X102.013 Y131.931 E.01678
G1 X41.219 Y71.137 E2.7006
G1 X41.219 Y71.671 E.01678
M73 P5 R258
