; generated by PrusaSlicer 2.5.0+win64 on 2023-05-31 at 17:02:55 UTC


;
;

;
;
; 

; external perimeters extrusion width = 0.45mm
; perimeters extrusion width = 0.45mm
; infill extrusion width = 0.45mm
; solid infill extrusion width = 0.45mm
; top infill extrusion width = 0.40mm
; support material extrusion width = 0.35mm
; first layer extrusion width = 0.42mm

M73 P0 R231
M201 X2500 Y2500 Z400 E5000 ; sets maximum accelerations, mm/sec^2
M203 X180 Y180 Z12 E80 ; sets maximum feedrates, mm / sec
M204 P1250 R1250 T2500 ; sets acceleration (P, T) and retract acceleration (R), mm/sec^2
M205 X8.00 Y8.00 Z2.00 E10.00 ; sets the jerk limits, mm/sec
M205 S0 T0 ; sets the minimum extruding and travel feed rate, mm/sec
M107
;TYPE:Custom
M862.3 P "MINI" ; printer model check
G90 ; use absolute coordinates
M83 ; extruder relative mode
M104 S170 ; set extruder temp for bed leveling
M140 S60 ; set bed temp
M109 R170 ; wait for bed leveling temp
M190 S60 ; wait for bed temp
M204 T1250 ; set travel acceleration
G28 ; home all without mesh bed level
G29 ; mesh bed leveling 
M204 T2500 ; restore travel acceleration
M104 S215 ; set extruder temp
G92 E0
G1 Y-2 X179 F2400
G1 Z3 F720
M109 S215 ; wait for extruder temp

; intro line
G1 X170 F1000
G1 Z0.2 F720
G1 X110 E8 F900
G1 X40 E10 F700
G92 E0

M221 S95 ; set flow
G21 ; set units to millimeters
G90 ; use absolute coordinates
M83 ; use relative distances for extrusion
M900 K0.2 ; Filament gcode LA 1.5
; ; Filament gcode LA 1.0
M107
;LAYER_CHANGE
;Z:0.2
;HEIGHT:0.2
;BEFORE_LAYER_CHANGE
G92 E0.0
;0.2


M73 P0 R230
G1 E-3.2 F4200
G1 Z.2 F720
;AFTER_LAYER_CHANGE
;0.2
G1 Z.4
G1 X32.26 Y21.457 F9000
G1 Z.2 F720
G1 E3.2 F2400
M204 P800
;TYPE:Skirt/Brim
;WIDTH:0.42
G1 F1200
G1 X33.306 Y20.581 E.04278
G1 X34.246 Y20.387 E.03008
G1 X145.754 Y20.387 E3.49626
G1 X147.061 Y20.779 E.04278
G1 X147.938 Y21.824 E.04278
G1 X148.131 Y22.764 E.03008
G1 X148.131 Y157.236 E4.21627
G1 X147.74 Y158.543 E.04278
G1 X146.694 Y159.419 E.04278
G1 X145.754 Y159.613 E.03008
G1 X34.246 Y159.613 E3.49626
G1 X32.939 Y159.221 E.04278
G1 X32.062 Y158.176 E.04278
G1 X31.869 Y157.236 E.03008
G1 X31.869 Y22.764 E4.21627
G1 X32.243 Y21.515 E.0409
M204 P1000
; printing object base_cards_box_lid_sleeved_curse4.stl id:0 copy 0
G1 E-2.24 F4200
;WIPE_START
G1 F7200
G1 X33.306 Y20.581 E-.78411
G1 X33.532 Y20.534 E-.12789
;WIPE_END
G1 E-.048 F4200
G1 Z.4 F720
G1 X145.754 Y157.236 F9000
G1 Z.2 F720
G1 E3.2 F2400
M204 P800
;TYPE:Support material
G1 F1200
G1 X34.246 Y157.236 E3.49626
G1 X34.246 Y22.764 E4.21627
G1 X145.754 Y22.764 E3.49626
G1 X145.754 Y157.179 E4.21449
M204 P1000
G1 E-2.24 F4200
;WIPE_START
M73 P0 R229
G1 F7200
G1 X145.754 Y155.534 E-.912
;WIPE_END
G1 E-.048 F4200
G1 Z.4 F720
G1 X40.14 Y26.965 F9000
G1 Z.2 F720
G1 E3.2 F2400
M204 P800
G1 F1200
G1 X39.964 Y27.038 E.00599
G1 X39.729 Y27.273 E.01042
G1 X39.656 Y27.449 E.00599
G1 X39.656 Y152.551 E3.92248
G1 X39.729 Y152.727 E.00599
G1 X39.964 Y152.962 E.01042
G1 X40.14 Y153.035 E.00599
G1 X139.832 Y153.035 E3.12577
G1 X140.008 Y152.962 E.00599
G1 X140.243 Y152.727 E.01042
G1 X140.317 Y152.551 E.00599
G1 X140.317 Y27.449 E3.92248
G1 X140.243 Y27.273 E.00599
G1 X140.008 Y27.038 E.01042
G1 X139.832 Y26.965 E.00599
G1 X40.197 Y26.965 E3.124
M204 P1000
G1 E-2.24 F4200
;WIPE_START
G1 F7200
G1 X41.842 Y26.965 E-.912
;WIPE_END
G1 E-.048 F4200
G1 Z.4 F720
G1 X145.305 Y157.066 F9000
G1 Z.2 F720
G1 E3.2 F2400
M204 P800
G1 F1200
G1 X145.305 Y23.104 E4.20031
G1 X144.886 Y23.104 E.01314
G1 X144.886 Y156.897 E4.19499
G1 X144.467 Y156.897 E.01314
G1 X144.467 Y23.104 E4.19499
G1 X144.048 Y23.104 E.01314
G1 X144.048 Y156.897 E4.19499
G1 X143.629 Y156.897 E.01314
G1 X143.629 Y23.104 E4.19499
G1 X143.21 Y23.104 E.01314
M73 P0 R228
G1 X143.21 Y156.897 E4.19499
G1 X142.791 Y156.897 E.01314
G1 X142.791 Y23.104 E4.19499
G1 X142.372 Y23.104 E.01314
M73 P1 R228
G1 X142.372 Y156.897 E4.19499
G1 X141.953 Y156.897 E.01314
G1 X141.953 Y23.104 E4.19499
G1 X141.534 Y23.104 E.01314
G1 X141.534 Y156.897 E4.19499
G1 X141.115 Y156.897 E.01314
G1 X141.115 Y23.104 E4.19499
G1 X140.696 Y23.104 E.01314
G1 X140.696 Y156.897 E4.19499
G1 X140.277 Y156.897 E.01314
G1 X140.277 Y153.174 E.11673
G1 X140.201 Y153.25 E.0034
G1 X139.899 Y153.375 E.01022
G1 X139.858 Y153.375 E.00129
G1 X139.858 Y156.897 E.11042
G1 X139.439 Y156.897 E.01314
G1 X139.439 Y153.375 E.11042
G1 X139.02 Y153.375 E.01314
G1 X139.02 Y156.897 E.11042
G1 X138.601 Y156.897 E.01314
G1 X138.601 Y153.375 E.11042
G1 X138.182 Y153.375 E.01314
G1 X138.182 Y156.897 E.11042
G1 X137.763 Y156.897 E.01314
G1 X137.763 Y153.375 E.11042
G1 X137.344 Y153.375 E.01314
G1 X137.344 Y156.897 E.11042
G1 X136.925 Y156.897 E.01314
G1 X136.925 Y153.375 E.11042
G1 X136.506 Y153.375 E.01314
G1 X136.506 Y156.897 E.11042
G1 X136.087 Y156.897 E.01314
G1 X136.087 Y153.375 E.11042
G1 X135.668 Y153.375 E.01314
G1 X135.668 Y156.897 E.11042
G1 X135.25 Y156.897 E.01314
G1 X135.25 Y153.375 E.11042
G1 X134.831 Y153.375 E.01314
G1 X134.831 Y156.897 E.11042
G1 X134.412 Y156.897 E.01314
G1 X134.412 Y153.375 E.11042
G1 X133.993 Y153.375 E.01314
G1 X133.993 Y156.897 E.11042
G1 X133.574 Y156.897 E.01314
G1 X133.574 Y153.375 E.11042
G1 X133.155 Y153.375 E.01314
G1 X133.155 Y156.897 E.11042
G1 X132.736 Y156.897 E.01314
G1 X132.736 Y153.375 E.11042
G1 X132.317 Y153.375 E.01314
G1 X132.317 Y156.897 E.11042
G1 X131.898 Y156.897 E.01314
G1 X131.898 Y153.375 E.11042
G1 X131.479 Y153.375 E.01314
G1 X131.479 Y156.897 E.11042
G1 X131.06 Y156.897 E.01314
G1 X131.06 Y153.375 E.11042
G1 X130.641 Y153.375 E.01314
G1 X130.641 Y156.897 E.11042
G1 X130.222 Y156.897 E.01314
G1 X130.222 Y153.375 E.11042
G1 X129.803 Y153.375 E.01314
G1 X129.803 Y156.897 E.11042
G1 X129.384 Y156.897 E.01314
G1 X129.384 Y153.375 E.11042
G1 X128.965 Y153.375 E.01314
G1 X128.965 Y156.897 E.11042
G1 X128.546 Y156.897 E.01314
G1 X128.546 Y153.375 E.11042
G1 X128.127 Y153.375 E.01314
G1 X128.127 Y156.897 E.11042
G1 X127.708 Y156.897 E.01314
G1 X127.708 Y153.375 E.11042
G1 X127.289 Y153.375 E.01314
G1 X127.289 Y156.897 E.11042
G1 X126.87 Y156.897 E.01314
G1 X126.87 Y153.375 E.11042
G1 X126.451 Y153.375 E.01314
G1 X126.451 Y156.897 E.11042
G1 X126.032 Y156.897 E.01314
G1 X126.032 Y153.375 E.11042
G1 X125.613 Y153.375 E.01314
G1 X125.613 Y156.897 E.11042
G1 X125.194 Y156.897 E.01314
G1 X125.194 Y153.375 E.11042
G1 X124.775 Y153.375 E.01314
G1 X124.775 Y156.897 E.11042
G1 X124.356 Y156.897 E.01314
G1 X124.356 Y153.375 E.11042
G1 X123.937 Y153.375 E.01314
G1 X123.937 Y156.897 E.11042
G1 X123.518 Y156.897 E.01314
G1 X123.518 Y153.375 E.11042
G1 X123.099 Y153.375 E.01314
G1 X123.099 Y156.897 E.11042
G1 X122.68 Y156.897 E.01314
G1 X122.68 Y153.375 E.11042
G1 X122.261 Y153.375 E.01314
G1 X122.261 Y156.897 E.11042
G1 X121.842 Y156.897 E.01314
G1 X121.842 Y153.375 E.11042
G1 X121.423 Y153.375 E.01314
G1 X121.423 Y156.897 E.11042
G1 X121.004 Y156.897 E.01314
G1 X121.004 Y153.375 E.11042
G1 X120.585 Y153.375 E.01314
G1 X120.585 Y156.897 E.11042
G1 X120.166 Y156.897 E.01314
G1 X120.166 Y153.375 E.11042
G1 X119.747 Y153.375 E.01314
G1 X119.747 Y156.897 E.11042
G1 X119.328 Y156.897 E.01314
G1 X119.328 Y153.375 E.11042
G1 X118.909 Y153.375 E.01314
G1 X118.909 Y156.897 E.11042
G1 X118.49 Y156.897 E.01314
G1 X118.49 Y153.375 E.11042
G1 X118.071 Y153.375 E.01314
G1 X118.071 Y156.897 E.11042
G1 X117.652 Y156.897 E.01314
G1 X117.652 Y153.375 E.11042
G1 X117.233 Y153.375 E.01314
G1 X117.233 Y156.897 E.11042
G1 X116.815 Y156.897 E.01314
G1 X116.815 Y153.375 E.11042
G1 X116.396 Y153.375 E.01314
G1 X116.396 Y156.897 E.11042
G1 X115.977 Y156.897 E.01314
G1 X115.977 Y153.375 E.11042
G1 X115.558 Y153.375 E.01314
M73 P1 R227
G1 X115.558 Y156.897 E.11042
G1 X115.139 Y156.897 E.01314
G1 X115.139 Y153.375 E.11042
G1 X114.72 Y153.375 E.01314
G1 X114.72 Y156.897 E.11042
G1 X114.301 Y156.897 E.01314
G1 X114.301 Y153.375 E.11042
G1 X113.882 Y153.375 E.01314
G1 X113.882 Y156.897 E.11042
G1 X113.463 Y156.897 E.01314
G1 X113.463 Y153.375 E.11042
G1 X113.044 Y153.375 E.01314
G1 X113.044 Y156.897 E.11042
G1 X112.625 Y156.897 E.01314
G1 X112.625 Y153.375 E.11042
G1 X112.206 Y153.375 E.01314
G1 X112.206 Y156.897 E.11042
G1 X111.787 Y156.897 E.01314
G1 X111.787 Y153.375 E.11042
G1 X111.368 Y153.375 E.01314
G1 X111.368 Y156.897 E.11042
G1 X110.949 Y156.897 E.01314
G1 X110.949 Y153.375 E.11042
G1 X110.53 Y153.375 E.01314
G1 X110.53 Y156.897 E.11042
G1 X110.111 Y156.897 E.01314
G1 X110.111 Y153.375 E.11042
G1 X109.692 Y153.375 E.01314
G1 X109.692 Y156.897 E.11042
G1 X109.273 Y156.897 E.01314
G1 X109.273 Y153.375 E.11042
G1 X108.854 Y153.375 E.01314
G1 X108.854 Y156.897 E.11042
G1 X108.435 Y156.897 E.01314
G1 X108.435 Y153.375 E.11042
G1 X108.016 Y153.375 E.01314
G1 X108.016 Y156.897 E.11042
G1 X107.597 Y156.897 E.01314
G1 X107.597 Y153.375 E.11042
G1 X107.178 Y153.375 E.01314
G1 X107.178 Y156.897 E.11042
G1 X106.759 Y156.897 E.01314
G1 X106.759 Y153.375 E.11042
G1 X106.34 Y153.375 E.01314
G1 X106.34 Y156.897 E.11042
G1 X105.921 Y156.897 E.01314
G1 X105.921 Y153.375 E.11042
G1 X105.502 Y153.375 E.01314
G1 X105.502 Y156.897 E.11042
G1 X105.083 Y156.897 E.01314
G1 X105.083 Y153.375 E.11042
G1 X104.664 Y153.375 E.01314
G1 X104.664 Y156.897 E.11042
G1 X104.245 Y156.897 E.01314
G1 X104.245 Y153.375 E.11042
G1 X103.826 Y153.375 E.01314
G1 X103.826 Y156.897 E.11042
G1 X103.407 Y156.897 E.01314
G1 X103.407 Y153.375 E.11042
G1 X102.988 Y153.375 E.01314
G1 X102.988 Y156.897 E.11042
G1 X102.569 Y156.897 E.01314
G1 X102.569 Y153.375 E.11042
G1 X102.15 Y153.375 E.01314
G1 X102.15 Y156.897 E.11042
G1 X101.731 Y156.897 E.01314
G1 X101.731 Y153.375 E.11042
G1 X101.312 Y153.375 E.01314
G1 X101.312 Y156.897 E.11042
G1 X100.893 Y156.897 E.01314
G1 X100.893 Y153.375 E.11042
G1 X100.474 Y153.375 E.01314
G1 X100.474 Y156.897 E.11042
G1 X100.055 Y156.897 E.01314
G1 X100.055 Y153.375 E.11042
G1 X99.636 Y153.375 E.01314
G1 X99.636 Y156.897 E.11042
G1 X99.217 Y156.897 E.01314
G1 X99.217 Y153.375 E.11042
G1 X98.799 Y153.375 E.01314
G1 X98.799 Y156.897 E.11042
G1 X98.38 Y156.897 E.01314
G1 X98.38 Y153.375 E.11042
G1 X97.961 Y153.375 E.01314
G1 X97.961 Y156.897 E.11042
G1 X97.542 Y156.897 E.01314
G1 X97.542 Y153.375 E.11042
G1 X97.123 Y153.375 E.01314
G1 X97.123 Y156.897 E.11042
G1 X96.704 Y156.897 E.01314
G1 X96.704 Y153.375 E.11042
G1 X96.285 Y153.375 E.01314
G1 X96.285 Y156.897 E.11042
G1 X95.866 Y156.897 E.01314
G1 X95.866 Y153.375 E.11042
G1 X95.447 Y153.375 E.01314
G1 X95.447 Y156.897 E.11042
G1 X95.028 Y156.897 E.01314
G1 X95.028 Y153.375 E.11042
G1 X94.609 Y153.375 E.01314
G1 X94.609 Y156.897 E.11042
G1 X94.19 Y156.897 E.01314
G1 X94.19 Y153.375 E.11042
G1 X93.771 Y153.375 E.01314
G1 X93.771 Y156.897 E.11042
G1 X93.352 Y156.897 E.01314
G1 X93.352 Y153.375 E.11042
G1 X92.933 Y153.375 E.01314
G1 X92.933 Y156.897 E.11042
G1 X92.514 Y156.897 E.01314
G1 X92.514 Y153.375 E.11042
G1 X92.095 Y153.375 E.01314
G1 X92.095 Y156.897 E.11042
G1 X91.676 Y156.897 E.01314
G1 X91.676 Y153.375 E.11042
G1 X91.257 Y153.375 E.01314
G1 X91.257 Y156.897 E.11042
G1 X90.838 Y156.897 E.01314
G1 X90.838 Y153.375 E.11042
G1 X90.419 Y153.375 E.01314
G1 X90.419 Y156.897 E.11042
G1 X90 Y156.897 E.01314
G1 X90 Y153.375 E.11042
G1 X89.581 Y153.375 E.01314
G1 X89.581 Y156.897 E.11042
G1 X89.162 Y156.897 E.01314
G1 X89.162 Y153.375 E.11042
G1 X88.743 Y153.375 E.01314
G1 X88.743 Y156.897 E.11042
G1 X88.324 Y156.897 E.01314
G1 X88.324 Y153.375 E.11042
G1 X87.905 Y153.375 E.01314
G1 X87.905 Y156.897 E.11042
G1 X87.486 Y156.897 E.01314
G1 X87.486 Y153.375 E.11042
G1 X87.067 Y153.375 E.01314
G1 X87.067 Y156.897 E.11042
G1 X86.648 Y156.897 E.01314
G1 X86.648 Y153.375 E.11042
G1 X86.229 Y153.375 E.01314
G1 X86.229 Y156.897 E.11042
G1 X85.81 Y156.897 E.01314
G1 X85.81 Y153.375 E.11042
G1 X85.391 Y153.375 E.01314
G1 X85.391 Y156.897 E.11042
G1 X84.972 Y156.897 E.01314
G1 X84.972 Y153.375 E.11042
G1 X84.553 Y153.375 E.01314
G1 X84.553 Y156.897 E.11042
G1 X84.134 Y156.897 E.01314
G1 X84.134 Y153.375 E.11042
G1 X83.715 Y153.375 E.01314
G1 X83.715 Y156.897 E.11042
G1 X83.296 Y156.897 E.01314
G1 X83.296 Y153.375 E.11042
G1 X82.877 Y153.375 E.01314
G1 X82.877 Y156.897 E.11042
G1 X82.458 Y156.897 E.01314
G1 X82.458 Y153.375 E.11042
G1 X82.039 Y153.375 E.01314
G1 X82.039 Y156.897 E.11042
G1 X81.62 Y156.897 E.01314
G1 X81.62 Y153.375 E.11042
G1 X81.201 Y153.375 E.01314
G1 X81.201 Y156.897 E.11042
G1 X80.783 Y156.897 E.01314
G1 X80.783 Y153.375 E.11042
G1 X80.364 Y153.375 E.01314
G1 X80.364 Y156.897 E.11042
G1 X79.945 Y156.897 E.01314
G1 X79.945 Y153.375 E.11042
G1 X79.526 Y153.375 E.01314
G1 X79.526 Y156.897 E.11042
G1 X79.107 Y156.897 E.01314
G1 X79.107 Y153.375 E.11042
G1 X78.688 Y153.375 E.01314
G1 X78.688 Y156.897 E.11042
G1 X78.269 Y156.897 E.01314
G1 X78.269 Y153.375 E.11042
G1 X77.85 Y153.375 E.01314
G1 X77.85 Y156.897 E.11042
G1 X77.431 Y156.897 E.01314
G1 X77.431 Y153.375 E.11042
G1 X77.012 Y153.375 E.01314
G1 X77.012 Y156.897 E.11042
G1 X76.593 Y156.897 E.01314
G1 X76.593 Y153.375 E.11042
G1 X76.174 Y153.375 E.01314
G1 X76.174 Y156.897 E.11042
G1 X75.755 Y156.897 E.01314
G1 X75.755 Y153.375 E.11042
G1 X75.336 Y153.375 E.01314
G1 X75.336 Y156.897 E.11042
G1 X74.917 Y156.897 E.01314
G1 X74.917 Y153.375 E.11042
G1 X74.498 Y153.375 E.01314
G1 X74.498 Y156.897 E.11042
G1 X74.079 Y156.897 E.01314
G1 X74.079 Y153.375 E.11042
G1 X73.66 Y153.375 E.01314
G1 X73.66 Y156.897 E.11042
G1 X73.241 Y156.897 E.01314
G1 X73.241 Y153.375 E.11042
G1 X72.822 Y153.375 E.01314
G1 X72.822 Y156.897 E.11042
G1 X72.403 Y156.897 E.01314
G1 X72.403 Y153.375 E.11042
G1 X71.984 Y153.375 E.01314
G1 X71.984 Y156.897 E.11042
G1 X71.565 Y156.897 E.01314
G1 X71.565 Y153.375 E.11042
G1 X71.146 Y153.375 E.01314
G1 X71.146 Y156.897 E.11042
G1 X70.727 Y156.897 E.01314
G1 X70.727 Y153.375 E.11042
G1 X70.308 Y153.375 E.01314
G1 X70.308 Y156.897 E.11042
G1 X69.889 Y156.897 E.01314
G1 X69.889 Y153.375 E.11042
G1 X69.47 Y153.375 E.01314
G1 X69.47 Y156.897 E.11042
G1 X69.051 Y156.897 E.01314
G1 X69.051 Y153.375 E.11042
G1 X68.632 Y153.375 E.01314
G1 X68.632 Y156.897 E.11042
G1 X68.213 Y156.897 E.01314
G1 X68.213 Y153.375 E.11042
G1 X67.794 Y153.375 E.01314
G1 X67.794 Y156.897 E.11042
G1 X67.375 Y156.897 E.01314
G1 X67.375 Y153.375 E.11042
G1 X66.956 Y153.375 E.01314
G1 X66.956 Y156.897 E.11042
G1 X66.537 Y156.897 E.01314
G1 X66.537 Y153.375 E.11042
G1 X66.118 Y153.375 E.01314
G1 X66.118 Y156.897 E.11042
G1 X65.699 Y156.897 E.01314
G1 X65.699 Y153.375 E.11042
G1 X65.28 Y153.375 E.01314
G1 X65.28 Y156.897 E.11042
G1 X64.861 Y156.897 E.01314
G1 X64.861 Y153.375 E.11042
G1 X64.442 Y153.375 E.01314
G1 X64.442 Y156.897 E.11042
G1 X64.023 Y156.897 E.01314
G1 X64.023 Y153.375 E.11042
G1 X63.604 Y153.375 E.01314
G1 X63.604 Y156.897 E.11042
G1 X63.185 Y156.897 E.01314
G1 X63.185 Y153.375 E.11042
G1 X62.766 Y153.375 E.01314
G1 X62.766 Y156.897 E.11042
G1 X62.348 Y156.897 E.01314
G1 X62.348 Y153.375 E.11042
G1 X61.929 Y153.375 E.01314
G1 X61.929 Y156.897 E.11042
G1 X61.51 Y156.897 E.01314
G1 X61.51 Y153.375 E.11042
G1 X61.091 Y153.375 E.01314
G1 X61.091 Y156.897 E.11042
G1 X60.672 Y156.897 E.01314
G1 X60.672 Y153.375 E.11042
G1 X60.253 Y153.375 E.01314
G1 X60.253 Y156.897 E.11042
G1 X59.834 Y156.897 E.01314
G1 X59.834 Y153.375 E.11042
G1 X59.415 Y153.375 E.01314
G1 X59.415 Y156.897 E.11042
G1 X58.996 Y156.897 E.01314
G1 X58.996 Y153.375 E.11042
G1 X58.577 Y153.375 E.01314
G1 X58.577 Y156.897 E.11042
G1 X58.158 Y156.897 E.01314
G1 X58.158 Y153.375 E.11042
G1 X57.739 Y153.375 E.01314
G1 X57.739 Y156.897 E.11042
G1 X57.32 Y156.897 E.01314
G1 X57.32 Y153.375 E.11042
G1 X56.901 Y153.375 E.01314
G1 X56.901 Y156.897 E.11042
G1 X56.482 Y156.897 E.01314
G1 X56.482 Y153.375 E.11042
G1 X56.063 Y153.375 E.01314
G1 X56.063 Y156.897 E.11042
G1 X55.644 Y156.897 E.01314
G1 X55.644 Y153.375 E.11042
G1 X55.225 Y153.375 E.01314
G1 X55.225 Y156.897 E.11042
G1 X54.806 Y156.897 E.01314
G1 X54.806 Y153.375 E.11042
G1 X54.387 Y153.375 E.01314
G1 X54.387 Y156.897 E.11042
G1 X53.968 Y156.897 E.01314
G1 X53.968 Y153.375 E.11042
G1 X53.549 Y153.375 E.01314
G1 X53.549 Y156.897 E.11042
