; generated by PrusaSlicer 2.5.0+win64 on 2023-05-30 at 01:08:02 UTC


;
;

;
;
; 

; external perimeters extrusion width = 0.45mm
; perimeters extrusion width = 0.45mm
; infill extrusion width = 0.45mm
; solid infill extrusion width = 0.45mm
; top infill extrusion width = 0.40mm
; first layer extrusion width = 0.42mm

M73 P0 R275
M201 X2500 Y2500 Z400 E5000 ; sets maximum accelerations, mm/sec^2
M203 X180 Y180 Z12 E80 ; sets maximum feedrates, mm / sec
M204 P1250 R1250 T1250 ; sets acceleration (P, T) and retract acceleration (R), mm/sec^2
M205 X8.00 Y8.00 Z2.00 E10.00 ; sets the jerk limits, mm/sec
M205 S0 T0 ; sets the minimum extruding and travel feed rate, mm/sec
M107
;TYPE:Custom
M862.3 P "MINI" ; printer model check
G90 ; use absolute coordinates
M83 ; extruder relative mode
M104 S170 ; set extruder temp for bed leveling
M140 S60 ; set bed temp
M109 R170 ; wait for bed leveling temp
M190 S60 ; wait for bed temp
M204 T1250 ; set travel acceleration
G28 ; home all without mesh bed level
G29 ; mesh bed leveling 
M204 T2500 ; restore travel acceleration
M104 S215 ; set extruder temp
G92 E0
G1 Y-2 X179 F2400
G1 Z3 F720
M109 S215 ; wait for extruder temp

; intro line
G1 X170 F1000
G1 Z0.2 F720
G1 X110 E8 F900
G1 X40 E10 F700
G92 E0

M221 S95 ; set flow
G21 ; set units to millimeters
G90 ; use absolute coordinates
M83 ; use relative distances for extrusion
M900 K0.2 ; Filament gcode LA 1.5
; ; Filament gcode LA 1.0
M107
;LAYER_CHANGE
;Z:0.2
;HEIGHT:0.2
;BEFORE_LAYER_CHANGE
G92 E0.0
;0.2


G1 E-3.2 F4200
M73 P0 R274
G1 Z.2 F720
;AFTER_LAYER_CHANGE
;0.2
G1 Z.4
G1 X37.994 Y25.864 F9000
G1 Z.2 F720
G1 E3.2 F2400
M204 S800
;TYPE:Skirt/Brim
;WIDTH:0.42
G1 F1200
G1 X38.569 Y25.289 E.0255
G1 X40.25 Y24.592 E.05704
G1 X139.751 Y24.592 E3.11978
G1 X141.431 Y25.289 E.05704
G1 X142.006 Y25.864 E.0255
G1 X142.703 Y27.545 E.05704
G1 X142.703 Y152.456 E3.9165
G1 X142.006 Y154.136 E.05704
G1 X141.431 Y154.711 E.0255
G1 X139.751 Y155.408 E.05704
G1 X40.25 Y155.408 E3.11978
G1 X38.569 Y154.711 E.05704
G1 X37.994 Y154.136 E.0255
G1 X37.297 Y152.456 E.05704
G1 X37.297 Y27.545 E3.9165
G1 X37.971 Y25.919 E.05516
M204 S1000
; printing object base_cards_box_bottom_sleeved_curse4.stl id:0 copy 0
G1 E-2.24 F4200
;WIPE_START
G1 F7200
G1 X38.569 Y25.289 E-.48152
G1 X39.286 Y24.991 E-.43048
;WIPE_END
G1 E-.048 F4200
G1 Z.4 F720
G1 X40.937 Y151.768 F9000
G1 Z.2 F720
G1 E3.2 F2400
M204 S800
;TYPE:Perimeter
;WIDTH:0.419999
G1 F1200
G1 X40.937 Y28.232 E3.8734
G1 X139.063 Y28.232 E3.07669
G1 X139.063 Y151.768 E3.8734
G1 X40.997 Y151.768 E3.07481
M204 S1000
G1 X40.559 Y152.146 F9000
M204 S800
;TYPE:External perimeter
G1 F1200
G1 X40.559 Y27.855 E3.89705
G1 X139.441 Y27.855 E3.10034
G1 X139.441 Y152.146 E3.89705
M73 P0 R273
G1 X40.619 Y152.146 E3.09846
M204 S1000
G1 X40.648 Y151.755 F9000
G1 E-2.24 F4200
;WIPE_START
G1 F7200
G1 X40.619 Y150.5 E-.912
;WIPE_END
G1 E-.048 F4200
G1 Z.4 F720
G1 X138.186 Y28.345 F9000
G1 Z.2 F720
G1 E3.2 F2400
M204 S800
;TYPE:Solid infill
;WIDTH:0.420874
G1 F1200
G1 X138.781 Y28.939 E.02642
G1 X138.781 Y29.474 E.0168
G1 X137.821 Y28.514 E.04263
G1 X137.287 Y28.514 E.0168
G1 X138.781 Y30.008 E.06639
G1 X138.781 Y30.543 E.0168
G1 X136.752 Y28.514 E.09015
G1 X136.218 Y28.514 E.0168
G1 X138.781 Y31.077 E.1139
G1 X138.781 Y31.612 E.0168
G1 X135.683 Y28.514 E.13766
G1 X135.149 Y28.514 E.0168
G1 X138.781 Y32.146 E.16141
G1 X138.781 Y32.681 E.0168
G1 X134.614 Y28.514 E.18517
G1 X134.08 Y28.514 E.0168
G1 X138.781 Y33.215 E.20893
G1 X138.781 Y33.75 E.0168
G1 X133.545 Y28.514 E.23268
G1 X133.011 Y28.514 E.0168
G1 X138.781 Y34.284 E.25644
G1 X138.781 Y34.819 E.0168
G1 X132.476 Y28.514 E.28019
G1 X131.942 Y28.514 E.0168
G1 X138.781 Y35.353 E.30395
G1 X138.781 Y35.888 E.0168
G1 X131.407 Y28.514 E.32771
G1 X130.873 Y28.514 E.0168
G1 X138.781 Y36.422 E.35146
G1 X138.781 Y36.957 E.0168
G1 X130.338 Y28.514 E.37522
G1 X129.804 Y28.514 E.0168
G1 X138.781 Y37.491 E.39897
G1 X138.781 Y38.026 E.0168
G1 X129.269 Y28.514 E.42273
G1 X128.735 Y28.514 E.0168
G1 X138.781 Y38.56 E.44648
G1 X138.781 Y39.095 E.0168
G1 X128.2 Y28.514 E.47024
G1 X127.666 Y28.514 E.0168
G1 X138.781 Y39.629 E.494
G1 X138.781 Y40.164 E.0168
G1 X127.131 Y28.514 E.51775
G1 X126.597 Y28.514 E.0168
G1 X138.781 Y40.698 E.54151
G1 X138.781 Y41.233 E.0168
G1 X126.062 Y28.514 E.56526
G1 X125.528 Y28.514 E.0168
G1 X138.781 Y41.767 E.58902
G1 X138.781 Y42.302 E.0168
G1 X124.993 Y28.514 E.61278
G1 X124.459 Y28.514 E.0168
G1 X138.781 Y42.836 E.63653
G1 X138.781 Y43.371 E.0168
G1 X123.924 Y28.514 E.66029
G1 X123.39 Y28.514 E.0168
G1 X138.781 Y43.905 E.68404
G1 X138.781 Y44.44 E.0168
G1 X122.855 Y28.514 E.7078
G1 X122.321 Y28.514 E.0168
G1 X138.781 Y44.974 E.73156
G1 X138.781 Y45.509 E.0168
G1 X121.786 Y28.514 E.75531
G1 X121.252 Y28.514 E.0168
G1 X138.781 Y46.043 E.77907
G1 X138.781 Y46.578 E.0168
G1 X120.717 Y28.514 E.80282
G1 X120.183 Y28.514 E.0168
G1 X138.781 Y47.112 E.82658
G1 X138.781 Y47.647 E.0168
G1 X119.648 Y28.514 E.85034
G1 X119.114 Y28.514 E.0168
G1 X138.781 Y48.181 E.87409
G1 X138.781 Y48.716 E.0168
G1 X118.579 Y28.514 E.89785
G1 X118.045 Y28.514 E.0168
G1 X138.781 Y49.25 E.9216
G1 X138.781 Y49.785 E.0168
G1 X117.51 Y28.514 E.94536
G1 X116.976 Y28.514 E.0168
G1 X138.781 Y50.319 E.96911
G1 X138.781 Y50.854 E.0168
G1 X116.441 Y28.514 E.99287
G1 X115.907 Y28.514 E.0168
G1 X138.781 Y51.388 E1.01663
G1 X138.781 Y51.923 E.0168
G1 X115.372 Y28.514 E1.04038
G1 X114.838 Y28.514 E.0168
G1 X138.781 Y52.457 E1.06414
G1 X138.781 Y52.992 E.0168
G1 X114.303 Y28.514 E1.08789
G1 X113.769 Y28.514 E.0168
G1 X138.781 Y53.526 E1.11165
G1 X138.781 Y54.061 E.0168
G1 X113.234 Y28.514 E1.13541
M73 P0 R272
G1 X112.7 Y28.514 E.0168
G1 X138.781 Y54.596 E1.15916
G1 X138.781 Y55.13 E.0168
G1 X112.165 Y28.514 E1.18292
G1 X111.63 Y28.514 E.0168
G1 X138.781 Y55.665 E1.20667
G1 X138.781 Y56.199 E.0168
G1 X111.096 Y28.514 E1.23043
G1 X110.561 Y28.514 E.0168
G1 X138.781 Y56.734 E1.25419
G1 X138.781 Y57.268 E.0168
G1 X110.027 Y28.514 E1.27794
G1 X109.492 Y28.514 E.0168
G1 X138.781 Y57.803 E1.3017
G1 X138.781 Y58.337 E.0168
G1 X108.958 Y28.514 E1.32545
G1 X108.423 Y28.514 E.0168
G1 X138.781 Y58.872 E1.34921
G1 X138.781 Y59.406 E.0168
G1 X107.889 Y28.514 E1.37297
G1 X107.354 Y28.514 E.0168
G1 X138.781 Y59.941 E1.39672
G1 X138.781 Y60.475 E.0168
G1 X106.82 Y28.514 E1.42048
G1 X106.285 Y28.514 E.0168
G1 X138.781 Y61.01 E1.44423
G1 X138.781 Y61.544 E.0168
G1 X105.751 Y28.514 E1.46799
G1 X105.216 Y28.514 E.0168
G1 X138.781 Y62.079 E1.49175
G1 X138.781 Y62.613 E.0168
G1 X104.682 Y28.514 E1.5155
G1 X104.147 Y28.514 E.0168
M73 P1 R272
G1 X138.781 Y63.148 E1.53926
G1 X138.781 Y63.682 E.0168
G1 X103.613 Y28.514 E1.56301
G1 X103.078 Y28.514 E.0168
G1 X138.781 Y64.217 E1.58677
G1 X138.781 Y64.751 E.0168
G1 X102.544 Y28.514 E1.61052
G1 X102.009 Y28.514 E.0168
G1 X138.781 Y65.286 E1.63428
G1 X138.781 Y65.82 E.0168
G1 X101.475 Y28.514 E1.65804
G1 X100.94 Y28.514 E.0168
G1 X138.781 Y66.355 E1.68179
G1 X138.781 Y66.889 E.0168
G1 X100.406 Y28.514 E1.70555
G1 X99.871 Y28.514 E.0168
G1 X138.781 Y67.424 E1.7293
G1 X138.781 Y67.958 E.0168
M73 P1 R271
G1 X99.337 Y28.514 E1.75306
G1 X98.802 Y28.514 E.0168
G1 X138.781 Y68.493 E1.77682
G1 X138.781 Y69.027 E.0168
G1 X98.268 Y28.514 E1.80057
G1 X97.733 Y28.514 E.0168
G1 X138.781 Y69.562 E1.82433
G1 X138.781 Y70.096 E.0168
G1 X97.199 Y28.514 E1.84808
G1 X96.664 Y28.514 E.0168
G1 X138.781 Y70.631 E1.87184
G1 X138.781 Y71.165 E.0168
G1 X96.13 Y28.514 E1.8956
G1 X95.595 Y28.514 E.0168
G1 X138.781 Y71.7 E1.91935
G1 X138.781 Y72.234 E.0168
G1 X95.061 Y28.514 E1.94311
G1 X94.526 Y28.514 E.0168
G1 X138.781 Y72.769 E1.96686
G1 X138.781 Y73.303 E.0168
G1 X93.992 Y28.514 E1.99062
G1 X93.457 Y28.514 E.0168
G1 X138.781 Y73.838 E2.01438
G1 X138.781 Y74.372 E.0168
G1 X92.923 Y28.514 E2.03813
G1 X92.388 Y28.514 E.0168
G1 X138.781 Y74.907 E2.06189
G1 X138.781 Y75.441 E.0168
G1 X91.854 Y28.514 E2.08564
G1 X91.319 Y28.514 E.0168
G1 X138.781 Y75.976 E2.1094
G1 X138.781 Y76.51 E.0168
G1 X90.785 Y28.514 E2.13316
G1 X90.25 Y28.514 E.0168
G1 X138.781 Y77.045 E2.15691
G1 X138.781 Y77.579 E.0168
G1 X89.716 Y28.514 E2.18067
G1 X89.181 Y28.514 E.0168
M73 P1 R270
G1 X138.781 Y78.114 E2.20442
G1 X138.781 Y78.648 E.0168
G1 X88.647 Y28.514 E2.22818
G1 X88.112 Y28.514 E.0168
G1 X138.781 Y79.183 E2.25193
G1 X138.781 Y79.717 E.0168
G1 X87.578 Y28.514 E2.27569
G1 X87.043 Y28.514 E.0168
G1 X138.781 Y80.252 E2.29945
G1 X138.781 Y80.786 E.0168
G1 X86.509 Y28.514 E2.3232
G1 X85.974 Y28.514 E.0168
G1 X138.781 Y81.321 E2.34696
G1 X138.781 Y81.855 E.0168
G1 X85.44 Y28.514 E2.37071
G1 X84.905 Y28.514 E.0168
G1 X138.781 Y82.39 E2.39447
G1 X138.781 Y82.924 E.0168
G1 X84.371 Y28.514 E2.41823
G1 X83.836 Y28.514 E.0168
G1 X138.781 Y83.459 E2.44198
G1 X138.781 Y83.993 E.0168
G1 X83.302 Y28.514 E2.46574
G1 X82.767 Y28.514 E.0168
G1 X138.781 Y84.528 E2.48949
G1 X138.781 Y85.062 E.0168
G1 X82.233 Y28.514 E2.51325
G1 X81.698 Y28.514 E.0168
G1 X138.781 Y85.597 E2.53701
G1 X138.781 Y86.131 E.0168
G1 X81.164 Y28.514 E2.56076
G1 X80.629 Y28.514 E.0168
M73 P1 R269
G1 X138.781 Y86.666 E2.58452
G1 X138.781 Y87.2 E.0168
G1 X80.095 Y28.514 E2.60827
G1 X79.56 Y28.514 E.0168
G1 X138.781 Y87.735 E2.63203
G1 X138.781 Y88.269 E.0168
G1 X79.026 Y28.514 E2.65579
G1 X78.491 Y28.514 E.0168
G1 X138.781 Y88.804 E2.67954
G1 X138.781 Y89.339 E.0168
M73 P2 R269
G1 X77.957 Y28.514 E2.7033
G1 X77.422 Y28.514 E.0168
G1 X138.781 Y89.873 E2.72705
G1 X138.781 Y90.408 E.0168
G1 X76.887 Y28.514 E2.75081
G1 X76.353 Y28.514 E.0168
G1 X138.781 Y90.942 E2.77457
G1 X138.781 Y91.477 E.0168
G1 X75.818 Y28.514 E2.79832
G1 X75.284 Y28.514 E.0168
G1 X138.781 Y92.011 E2.82208
G1 X138.781 Y92.546 E.0168
G1 X74.749 Y28.514 E2.84583
G1 X74.215 Y28.514 E.0168
G1 X138.781 Y93.08 E2.86959
G1 X138.781 Y93.615 E.0168
G1 X73.68 Y28.514 E2.89334
G1 X73.146 Y28.514 E.0168
M73 P2 R268
G1 X138.781 Y94.149 E2.9171
G1 X138.781 Y94.684 E.0168
G1 X72.611 Y28.514 E2.94086
G1 X72.077 Y28.514 E.0168
G1 X138.781 Y95.218 E2.96461
G1 X138.781 Y95.753 E.0168
G1 X71.542 Y28.514 E2.98837
G1 X71.008 Y28.514 E.0168
G1 X138.781 Y96.287 E3.01212
G1 X138.781 Y96.822 E.0168
G1 X70.473 Y28.514 E3.03588
G1 X69.939 Y28.514 E.0168
G1 X138.781 Y97.356 E3.05964
G1 X138.781 Y97.891 E.0168
G1 X69.404 Y28.514 E3.08339
G1 X68.87 Y28.514 E.0168
G1 X138.781 Y98.425 E3.10715
G1 X138.781 Y98.96 E.0168
G1 X68.335 Y28.514 E3.1309
G1 X67.801 Y28.514 E.0168
G1 X138.781 Y99.494 E3.15466
G1 X138.781 Y100.029 E.0168
G1 X67.266 Y28.514 E3.17842
G1 X66.732 Y28.514 E.0168
M73 P2 R267
G1 X138.781 Y100.563 E3.20217
G1 X138.781 Y101.098 E.0168
G1 X66.197 Y28.514 E3.22593
G1 X65.663 Y28.514 E.0168
G1 X138.781 Y101.632 E3.24968
G1 X138.781 Y102.167 E.0168
G1 X65.128 Y28.514 E3.27344
G1 X64.594 Y28.514 E.0168
G1 X138.781 Y102.701 E3.2972
G1 X138.781 Y103.236 E.0168
G1 X64.059 Y28.514 E3.32095
G1 X63.525 Y28.514 E.0168
G1 X138.781 Y103.77 E3.34471
G1 X138.781 Y104.305 E.0168
G1 X62.99 Y28.514 E3.36846
G1 X62.456 Y28.514 E.0168
G1 X138.781 Y104.839 E3.39222
G1 X138.781 Y105.374 E.0168
G1 X61.921 Y28.514 E3.41598
G1 X61.387 Y28.514 E.0168
G1 X138.781 Y105.908 E3.43973
G1 X138.781 Y106.443 E.0168
M73 P2 R266
G1 X60.852 Y28.514 E3.46349
G1 X60.318 Y28.514 E.0168
M73 P3 R266
G1 X138.781 Y106.977 E3.48724
G1 X138.781 Y107.512 E.0168
G1 X59.783 Y28.514 E3.511
G1 X59.249 Y28.514 E.0168
G1 X138.781 Y108.046 E3.53475
G1 X138.781 Y108.581 E.0168
G1 X58.714 Y28.514 E3.55851
G1 X58.18 Y28.514 E.0168
G1 X138.781 Y109.115 E3.58227
G1 X138.781 Y109.65 E.0168
G1 X57.645 Y28.514 E3.60602
G1 X57.111 Y28.514 E.0168
G1 X138.781 Y110.184 E3.62978
G1 X138.781 Y110.719 E.0168
G1 X56.576 Y28.514 E3.65353
G1 X56.042 Y28.514 E.0168
G1 X138.781 Y111.253 E3.67729
G1 X138.781 Y111.788 E.0168
G1 X55.507 Y28.514 E3.70105
G1 X54.973 Y28.514 E.0168
M73 P3 R265
G1 X138.781 Y112.322 E3.7248
G1 X138.781 Y112.857 E.0168
G1 X54.438 Y28.514 E3.74856
G1 X53.904 Y28.514 E.0168
G1 X138.781 Y113.391 E3.77231
G1 X138.781 Y113.926 E.0168
G1 X53.369 Y28.514 E3.79607
G1 X52.835 Y28.514 E.0168
G1 X138.781 Y114.46 E3.81983
G1 X138.781 Y114.995 E.0168
G1 X52.3 Y28.514 E3.84358
G1 X51.766 Y28.514 E.0168
G1 X138.781 Y115.529 E3.86734
G1 X138.781 Y116.064 E.0168
G1 X51.231 Y28.514 E3.89109
G1 X50.697 Y28.514 E.0168
G1 X138.781 Y116.598 E3.91485
G1 X138.781 Y117.133 E.0168
G1 X50.162 Y28.514 E3.93861
G1 X49.628 Y28.514 E.0168
M73 P3 R264
G1 X138.781 Y117.667 E3.96236
G1 X138.781 Y118.202 E.0168
G1 X49.093 Y28.514 E3.98612
G1 X48.559 Y28.514 E.0168
G1 X138.781 Y118.736 E4.00987
G1 X138.781 Y119.271 E.0168
G1 X48.024 Y28.514 E4.03363
G1 X47.49 Y28.514 E.0168
G1 X138.781 Y119.805 E4.05739
G1 X138.781 Y120.34 E.0168
G1 X46.955 Y28.514 E4.08114
G1 X46.421 Y28.514 E.0168
G1 X138.781 Y120.874 E4.1049
G1 X138.781 Y121.409 E.0168
M73 P4 R264
G1 X45.886 Y28.514 E4.12865
G1 X45.352 Y28.514 E.0168
G1 X138.781 Y121.943 E4.15241
G1 X138.781 Y122.478 E.0168
M73 P4 R263
G1 X44.817 Y28.514 E4.17616
G1 X44.283 Y28.514 E.0168
G1 X138.781 Y123.012 E4.19992
G1 X138.781 Y123.547 E.0168
G1 X43.748 Y28.514 E4.22368
G1 X43.214 Y28.514 E.0168
G1 X138.781 Y124.082 E4.24743
G1 X138.781 Y124.616 E.0168
G1 X42.679 Y28.514 E4.27119
G1 X42.144 Y28.514 E.0168
G1 X138.781 Y125.151 E4.29494
G1 X138.781 Y125.685 E.0168
G1 X41.61 Y28.514 E4.3187
G1 X41.219 Y28.514 E.01228
G1 X41.219 Y28.658 E.00452
G1 X138.781 Y126.22 E4.33606
G1 X138.781 Y126.754 E.0168
G1 X41.219 Y29.193 E4.33606
G1 X41.219 Y29.727 E.0168
M73 P4 R262
G1 X138.781 Y127.289 E4.33606
G1 X138.781 Y127.823 E.0168
G1 X41.219 Y30.262 E4.33606
G1 X41.219 Y30.796 E.0168
G1 X138.781 Y128.358 E4.33606
G1 X138.781 Y128.892 E.0168
G1 X41.219 Y31.331 E4.33606
G1 X41.219 Y31.865 E.0168
G1 X138.781 Y129.427 E4.33606
G1 X138.781 Y129.961 E.0168
G1 X41.219 Y32.4 E4.33606
G1 X41.219 Y32.934 E.0168
G1 X138.781 Y130.496 E4.33606
G1 X138.781 Y131.03 E.0168
G1 X41.219 Y33.469 E4.33606
G1 X41.219 Y34.003 E.0168
M73 P4 R261
G1 X138.781 Y131.565 E4.33606
G1 X138.781 Y132.099 E.0168
G1 X41.219 Y34.538 E4.33606
G1 X41.219 Y35.072 E.0168
G1 X138.781 Y132.634 E4.33606
G1 X138.781 Y133.168 E.0168
G1 X41.219 Y35.607 E4.33606
G1 X41.219 Y36.141 E.0168
G1 X138.781 Y133.703 E4.33606
G1 X138.781 Y134.237 E.0168
M73 P5 R261
G1 X41.219 Y36.676 E4.33606
G1 X41.219 Y37.21 E.0168
G1 X138.781 Y134.772 E4.33606
G1 X138.781 Y135.306 E.0168
G1 X41.219 Y37.745 E4.33606
G1 X41.219 Y38.279 E.0168
G1 X138.781 Y135.841 E4.33606
G1 X138.781 Y136.375 E.0168
M73 P5 R260
G1 X41.219 Y38.814 E4.33606
G1 X41.219 Y39.348 E.0168
G1 X138.781 Y136.91 E4.33606
G1 X138.781 Y137.444 E.0168
G1 X41.219 Y39.883 E4.33606
G1 X41.219 Y40.417 E.0168
G1 X138.781 Y137.979 E4.33606
G1 X138.781 Y138.513 E.0168
G1 X41.219 Y40.952 E4.33606
G1 X41.219 Y41.486 E.0168
G1 X138.781 Y139.048 E4.33606
G1 X138.781 Y139.582 E.0168
G1 X41.219 Y42.021 E4.33606
G1 X41.219 Y42.555 E.0168
G1 X138.781 Y140.117 E4.33606
G1 X138.781 Y140.651 E.0168
G1 X41.219 Y43.09 E4.33606
G1 X41.219 Y43.624 E.0168
M73 P5 R259
G1 X138.781 Y141.186 E4.33606
G1 X138.781 Y141.72 E.0168
G1 X41.219 Y44.159 E4.33606
G1 X41.219 Y44.694 E.0168
G1 X138.781 Y142.255 E4.33606
G1 X138.781 Y142.789 E.0168
G1 X41.219 Y45.228 E4.33606
G1 X41.219 Y45.763 E.0168
G1 X138.781 Y143.324 E4.33606
G1 X138.781 Y143.858 E.0168
G1 X41.219 Y46.297 E4.33606
G1 X41.219 Y46.832 E.0168
G1 X138.781 Y144.393 E4.33606
G1 X138.781 Y144.927 E.0168
G1 X41.219 Y47.366 E4.33606
G1 X41.219 Y47.901 E.0168
M73 P5 R258
G1 X138.781 Y145.462 E4.33606
G1 X138.781 Y145.996 E.0168
G1 X41.219 Y48.435 E4.33606
G1 X41.219 Y48.97 E.0168
G1 X138.781 Y146.531 E4.33606
G1 X138.781 Y147.065 E.0168
M73 P6 R258
G1 X41.219 Y49.504 E4.33606
G1 X41.219 Y50.039 E.0168
G1 X138.781 Y147.6 E4.33606
G1 X138.781 Y148.134 E.0168
G1 X41.219 Y50.573 E4.33606
G1 X41.219 Y51.108 E.0168
G1 X138.781 Y148.669 E4.33606
G1 X138.781 Y149.203 E.0168
G1 X41.219 Y51.642 E4.33606
G1 X41.219 Y52.177 E.0168
G1 X138.781 Y149.738 E4.33606
G1 X138.781 Y150.272 E.0168
M73 P6 R257
G1 X41.219 Y52.711 E4.33606
G1 X41.219 Y53.246 E.0168
G1 X138.781 Y150.807 E4.33606
G1 X138.781 Y151.341 E.0168
G1 X41.219 Y53.78 E4.33606
