; generated by PrusaSlicer 2.5.0+win64 on 2023-02-17 at 00:55:45 UTC


;
;

;
;
; 

; external perimeters extrusion width = 0.45mm
; perimeters extrusion width = 0.45mm
; infill extrusion width = 0.45mm
; solid infill extrusion width = 0.45mm
; top infill extrusion width = 0.40mm
; first layer extrusion width = 0.42mm

M73 P0 R16
M201 X2500 Y2500 Z400 E5000 ; sets maximum accelerations, mm/sec^2
M203 X180 Y180 Z12 E80 ; sets maximum feedrates, mm / sec
M204 P1250 R1250 T2500 ; sets acceleration (P, T) and retract acceleration (R), mm/sec^2
M205 X8.00 Y8.00 Z2.00 E10.00 ; sets the jerk limits, mm/sec
M205 S0 T0 ; sets the minimum extruding and travel feed rate, mm/sec
M107
;TYPE:Custom
M862.3 P "MINI" ; printer model check
G90 ; use absolute coordinates
M83 ; extruder relative mode
M104 S170 ; set extruder temp for bed leveling
M140 S60 ; set bed temp
M109 R170 ; wait for bed leveling temp
M190 S60 ; wait for bed temp
M204 T1250 ; set travel acceleration
G28 ; home all without mesh bed level
G29 ; mesh bed leveling 
M204 T2500 ; restore travel acceleration
M104 S215 ; set extruder temp
G92 E0
G1 Y-2 X179 F2400
G1 Z3 F720
M109 S215 ; wait for extruder temp

; intro line
G1 X170 F1000
G1 Z0.2 F720
G1 X110 E8 F900
G1 X40 E10 F700
G92 E0

M221 S95 ; set flow
G21 ; set units to millimeters
G90 ; use absolute coordinates
M83 ; use relative distances for extrusion
M900 K0.2 ; Filament gcode LA 1.5
; ; Filament gcode LA 1.0
M107
;LAYER_CHANGE
;Z:0.2
;HEIGHT:0.2
;BEFORE_LAYER_CHANGE
G92 E0.0
;0.2


G1 E-3.2 F4200
M73 P1 R16
G1 Z.2 F720
;AFTER_LAYER_CHANGE
;0.2
G1 Z.4
G1 X40.167 Y54.752 F9000
G1 Z.2 F720
G1 E3.2 F2400
M204 P800
;TYPE:Skirt/Brim
;WIDTH:0.42
G1 F1200
G1 X41.107 Y54.558 E.03008
G1 X135.107 Y54.558 E2.9473
G1 X136.414 Y54.95 E.04278
M73 P2 R16
G1 X137.29 Y55.995 E.04278
G1 X137.484 Y56.935 E.03008
G1 X137.484 Y80.935 E.7525
G1 X137.249 Y81.965 E.03312
G1 X116.099 Y125.965 E1.53069
G1 X115.18 Y126.973 E.04278
G1 X113.957 Y127.312 E.0398
G1 X62.257 Y127.312 E1.62102
G1 X60.95 Y126.921 E.04278
G1 X60.115 Y125.965 E.0398
G1 X38.965 Y81.965 E1.53069
G1 X38.73 Y80.935 E.03312
G1 X38.73 Y56.935 E.7525
G1 X39.121 Y55.628 E.04278
M73 P3 R16
G1 X40.121 Y54.79 E.0409
M204 P1000
; printing object copper_divider.stl id:0 copy 0
G1 E-2.24 F4200
;WIPE_START
G1 F7200
G1 X41.107 Y54.558 E-.56121
G1 X41.74 Y54.558 E-.35079
;WIPE_END
G1 E-.048 F4200
G1 Z.4 F720
G1 X91.814 Y117.708 F9000
G1 Z.2 F720
G1 E3.2 F2400
M204 P800
;TYPE:Perimeter
;WIDTH:0.419999
G1 F1200
G1 X91.886 Y117.722 E.00229
G1 X113.17 Y117.722 E.66736
G1 X113.17 Y124.148 E.20148
G1 X63.044 Y124.148 E1.57166
G1 X63.044 Y117.722 E.20148
G1 X84.328 Y117.722 E.66736
G1 X84.426 Y117.714 E.00308
G1 X84.64 Y117.629 E.00721
G1 X84.821 Y117.434 E.00835
G1 X84.894 Y117.157 E.00899
G1 X84.894 Y80.714 E1.14264
G1 X84.886 Y80.621 E.00293
G1 X84.799 Y80.4 E.00744
G1 X84.581 Y80.208 E.0091
G1 X84.328 Y80.148 E.00815
G1 X41.894 Y80.148 E1.3305
G1 X41.894 Y73.722 E.20148
M73 P4 R16
G1 X84.421 Y73.715 E1.33341
G1 X84.642 Y73.627 E.00744
G1 X84.834 Y73.41 E.0091
G1 X84.894 Y73.157 E.00815
G1 X84.894 Y64.714 E.26472
G1 X84.884 Y64.61 E.00328
G1 X84.781 Y64.374 E.00805
G1 X84.546 Y64.192 E.00933
G1 X84.328 Y64.148 E.00696
G1 X41.894 Y64.148 E1.3305
G1 X41.894 Y57.722 E.20148
G1 X134.32 Y57.722 E2.89794
G1 X134.32 Y64.148 E.20148
M73 P5 R15
G1 X91.886 Y64.148 E1.3305
G1 X91.788 Y64.157 E.00308
G1 X91.574 Y64.242 E.00721
G1 X91.393 Y64.436 E.00835
G1 X91.32 Y64.714 E.00899
G1 X91.322 Y73.206 E.26627
G1 X91.415 Y73.47 E.00879
G1 X91.633 Y73.663 E.0091
G1 X91.886 Y73.722 E.00815
G1 X134.32 Y73.722 E1.3305
G1 X134.32 Y80.148 E.20148
G1 X91.886 Y80.148 E1.3305
G1 X91.572 Y80.243 E.01028
G1 X91.38 Y80.461 E.0091
G1 X91.32 Y80.714 E.00815
G1 X91.32 Y117.157 E1.14264
G1 X91.33 Y117.261 E.00328
M73 P6 R15
G1 X91.433 Y117.496 E.00805
G1 X91.668 Y117.679 E.00933
G1 X91.755 Y117.696 E.00279
M204 P1000
G1 X91.886 Y117.345 F9000
M204 P800
;TYPE:External perimeter
G1 F1200
G1 X113.547 Y117.345 E.67918
G1 X113.547 Y124.525 E.22512
G1 X62.667 Y124.525 E1.5953
G1 X62.667 Y117.345 E.22512
G1 X84.328 Y117.345 E.67918
G1 X84.458 Y117.293 E.00439
G1 X84.517 Y117.157 E.00466
G1 X84.517 Y80.714 E1.14264
G1 X84.473 Y80.593 E.00402
G1 X84.328 Y80.525 E.00501
G1 X41.517 Y80.525 E1.34232
G1 X41.517 Y73.345 E.22512
M73 P7 R15
G1 X84.328 Y73.345 E1.34232
G1 X84.449 Y73.302 E.00402
G1 X84.517 Y73.157 E.00501
G1 X84.517 Y64.714 E.26472
G1 X84.458 Y64.577 E.00466
G1 X84.328 Y64.525 E.00439
G1 X41.517 Y64.525 E1.34232
G1 X41.517 Y57.345 E.22512
G1 X134.697 Y57.345 E2.92159
G1 X134.697 Y64.525 E.22512
M73 P8 R15
G1 X91.886 Y64.525 E1.34232
G1 X91.755 Y64.577 E.00439
G1 X91.697 Y64.714 E.00466
G1 X91.697 Y73.157 E.26472
G1 X91.741 Y73.277 E.00402
G1 X91.886 Y73.345 E.00501
G1 X134.697 Y73.345 E1.34232
G1 X134.697 Y80.525 E.22512
G1 X91.886 Y80.525 E1.34232
G1 X91.765 Y80.569 E.00402
G1 X91.697 Y80.714 E.00501
G1 X91.697 Y117.157 E1.14264
G1 X91.755 Y117.293 E.00466
G1 X91.83 Y117.323 E.00251
M204 P1000
G1 X91.989 Y117.732 F9000
G1 E-2.24 F4200
;WIPE_START
G1 F7200
G1 X93.476 Y117.325 E-.912
;WIPE_END
G1 E-.048 F4200
G1 Z.4 F720
G1 X134.207 Y74.629 F9000
G1 Z.2 F720
M73 P9 R15
G1 E3.2 F2400
M204 P800
;TYPE:Solid infill
;WIDTH:0.420753
G1 F1200
G1 X133.582 Y74.005 E.02774
G1 X133.048 Y74.005 E.01679
G1 X134.037 Y74.994 E.04395
G1 X134.037 Y75.528 E.01679
G1 X132.513 Y74.005 E.0677
G1 X131.979 Y74.005 E.01679
G1 X134.037 Y76.063 E.09144
G1 X134.037 Y76.597 E.01679
G1 X131.444 Y74.004 E.11519
G1 X130.91 Y74.004 E.01679
G1 X134.037 Y77.131 E.13894
G1 X134.037 Y77.666 E.01679
G1 X130.376 Y74.004 E.16268
G1 X129.841 Y74.004 E.01679
G1 X134.037 Y78.2 E.18643
G1 X134.037 Y78.734 E.01679
G1 X129.307 Y74.004 E.21018
G1 X128.772 Y74.004 E.01679
G1 X134.037 Y79.269 E.23392
G1 X134.037 Y79.803 E.01679
G1 X128.238 Y74.004 E.25767
G1 X127.703 Y74.004 E.01679
G1 X133.565 Y79.865 E.26044
G1 X133.031 Y79.865 E.01679
G1 X127.169 Y74.003 E.26045
G1 X126.634 Y74.003 E.01679
G1 X132.496 Y79.865 E.26045
G1 X131.962 Y79.865 E.01679
G1 X126.1 Y74.003 E.26046
G1 X125.565 Y74.003 E.01679
G1 X131.428 Y79.865 E.26046
G1 X130.893 Y79.865 E.01679
G1 X125.031 Y74.003 E.26047
G1 X124.496 Y74.003 E.01679
G1 X130.359 Y79.865 E.26048
G1 X129.825 Y79.865 E.01679
G1 X123.962 Y74.003 E.26048
G1 X123.428 Y74.003 E.01679
G1 X129.29 Y79.865 E.26049
G1 X128.756 Y79.865 E.01679
G1 X122.893 Y74.002 E.26049
G1 X122.359 Y74.002 E.01679
G1 X128.222 Y79.865 E.2605
G1 X127.687 Y79.865 E.01679
G1 X121.824 Y74.002 E.2605
G1 X121.29 Y74.002 E.01679
G1 X127.153 Y79.865 E.26051
G1 X126.619 Y79.865 E.01679
G1 X120.755 Y74.002 E.26052
G1 X120.221 Y74.002 E.01679
G1 X126.084 Y79.865 E.26052
G1 X125.55 Y79.865 E.01679
G1 X119.686 Y74.002 E.26053
G1 X119.152 Y74.001 E.01679
M73 P10 R15
G1 X125.016 Y79.865 E.26053
G1 X124.481 Y79.865 E.01679
G1 X118.617 Y74.001 E.26054
G1 X118.083 Y74.001 E.01679
G1 X123.947 Y79.865 E.26054
G1 X123.413 Y79.865 E.01679
G1 X117.548 Y74.001 E.26055
G1 X117.014 Y74.001 E.01679
G1 X122.878 Y79.865 E.26056
G1 X122.344 Y79.865 E.01679
G1 X116.479 Y74.001 E.26056
G1 X115.945 Y74.001 E.01679
G1 X121.81 Y79.865 E.26057
G1 X121.275 Y79.865 E.01679
G1 X115.411 Y74.001 E.26057
G1 X114.876 Y74 E.01679
G1 X120.741 Y79.865 E.26058
G1 X120.207 Y79.865 E.01679
G1 X114.342 Y74 E.26059
G1 X113.807 Y74 E.01679
G1 X119.672 Y79.865 E.26059
G1 X119.138 Y79.865 E.01679
G1 X113.273 Y74 E.2606
G1 X112.738 Y74 E.01679
G1 X118.604 Y79.865 E.2606
G1 X118.069 Y79.865 E.01679
G1 X112.204 Y74 E.26061
G1 X111.669 Y74 E.01679
G1 X117.535 Y79.865 E.26061
G1 X117.001 Y79.865 E.01679
G1 X111.135 Y74 E.26062
G1 X110.6 Y73.999 E.01679
G1 X116.466 Y79.865 E.26063
G1 X115.932 Y79.865 E.01679
G1 X110.066 Y73.999 E.26063
G1 X109.531 Y73.999 E.01679
G1 X115.398 Y79.865 E.26064
G1 X114.863 Y79.865 E.01679
G1 X108.997 Y73.999 E.26064
G1 X108.462 Y73.999 E.01679
G1 X114.329 Y79.865 E.26065
G1 X113.795 Y79.865 E.01679
G1 X107.928 Y73.999 E.26065
M73 P10 R14
G1 X107.394 Y73.999 E.01679
M73 P11 R14
G1 X113.26 Y79.865 E.26066
G1 X112.726 Y79.865 E.01679
G1 X106.859 Y73.999 E.26067
G1 X106.325 Y73.998 E.01679
G1 X112.192 Y79.865 E.26067
G1 X111.657 Y79.865 E.01679
G1 X105.79 Y73.998 E.26068
G1 X105.256 Y73.998 E.01679
G1 X111.123 Y79.865 E.26068
G1 X110.589 Y79.865 E.01679
G1 X104.721 Y73.998 E.26069
G1 X104.187 Y73.998 E.01679
G1 X110.054 Y79.865 E.26069
G1 X109.52 Y79.865 E.01679
G1 X103.652 Y73.998 E.2607
G1 X103.118 Y73.998 E.01679
G1 X108.986 Y79.865 E.26071
G1 X108.451 Y79.865 E.01679
G1 X102.583 Y73.997 E.26071
G1 X102.049 Y73.997 E.01679
G1 X107.917 Y79.865 E.26072
G1 X107.383 Y79.865 E.01679
G1 X101.514 Y73.997 E.26072
G1 X100.98 Y73.997 E.01679
G1 X106.848 Y79.865 E.26073
G1 X106.314 Y79.865 E.01679
G1 X100.445 Y73.997 E.26073
G1 X99.911 Y73.997 E.01679
G1 X105.78 Y79.865 E.26074
G1 X105.245 Y79.865 E.01679
G1 X99.377 Y73.997 E.26075
G1 X98.842 Y73.997 E.01679
G1 X104.711 Y79.865 E.26075
G1 X104.177 Y79.865 E.01679
G1 X98.308 Y73.996 E.26076
G1 X97.773 Y73.996 E.01679
G1 X103.642 Y79.865 E.26076
G1 X103.108 Y79.865 E.01679
G1 X97.239 Y73.996 E.26077
G1 X96.704 Y73.996 E.01679
G1 X102.574 Y79.865 E.26077
G1 X102.039 Y79.865 E.01679
G1 X96.17 Y73.996 E.26078
G1 X95.635 Y73.996 E.01679
M73 P12 R14
G1 X101.505 Y79.865 E.26079
G1 X100.971 Y79.865 E.01679
G1 X95.101 Y73.996 E.26079
G1 X94.566 Y73.996 E.01679
G1 X100.436 Y79.865 E.2608
G1 X99.902 Y79.865 E.01679
G1 X94.032 Y73.995 E.2608
G1 X93.497 Y73.995 E.01679
G1 X99.367 Y79.865 E.26081
G1 X98.833 Y79.865 E.01679
G1 X92.963 Y73.995 E.26082
G1 X92.428 Y73.995 E.01679
G1 X98.469 Y80.035 E.26836
M204 P1000
G1 E-2.24 F4200
;WIPE_START
G1 F7200
G1 X97.305 Y78.871 E-.912
;WIPE_END
G1 E-.048 F4200
G1 Z.4 F720
G1 X133.443 Y57.835 F9000
G1 Z.2 F720
G1 E3.2 F2400
M204 P800
G1 F1200
G1 X134.037 Y58.43 E.0264
G1 X134.037 Y58.964 E.01679
G1 X133.078 Y58.005 E.0426
G1 X132.544 Y58.005 E.01679
G1 X134.037 Y59.498 E.06634
G1 X134.037 Y60.033 E.01679
G1 X132.01 Y58.005 E.09008
G1 X131.475 Y58.005 E.01679
G1 X134.037 Y60.567 E.11382
G1 X134.037 Y61.101 E.01679
G1 X130.941 Y58.005 E.13756
G1 X130.407 Y58.005 E.01679
G1 X134.037 Y61.636 E.1613
G1 X134.037 Y62.17 E.01679
G1 X129.872 Y58.005 E.18505
G1 X129.338 Y58.005 E.01679
G1 X134.037 Y62.704 E.20879
G1 X134.037 Y63.239 E.01679
G1 X128.804 Y58.005 E.23253
G1 X128.269 Y58.005 E.01679
G1 X134.037 Y63.773 E.25627
G1 X134.037 Y63.865 E.0029
G1 X133.595 Y63.865 E.01388
G1 X127.735 Y58.005 E.26037
G1 X127.201 Y58.005 E.01679
G1 X133.061 Y63.865 E.26037
G1 X132.526 Y63.865 E.01679
G1 X126.666 Y58.005 E.26037
G1 X126.132 Y58.005 E.01679
G1 X131.992 Y63.865 E.26037
G1 X131.458 Y63.865 E.01679
G1 X125.598 Y58.005 E.26037
G1 X125.063 Y58.005 E.01679
G1 X130.923 Y63.865 E.26037
G1 X130.389 Y63.865 E.01679
G1 X124.529 Y58.005 E.26037
G1 X123.995 Y58.005 E.01679
G1 X129.855 Y63.865 E.26037
G1 X129.32 Y63.865 E.01679
M73 P13 R14
G1 X123.46 Y58.005 E.26037
G1 X122.926 Y58.005 E.01679
G1 X128.786 Y63.865 E.26037
G1 X128.252 Y63.865 E.01679
G1 X122.392 Y58.005 E.26037
G1 X121.857 Y58.005 E.01679
G1 X127.717 Y63.865 E.26037
G1 X127.183 Y63.865 E.01679
G1 X121.323 Y58.005 E.26037
G1 X120.789 Y58.005 E.01679
G1 X126.649 Y63.865 E.26037
G1 X126.114 Y63.865 E.01679
G1 X120.254 Y58.005 E.26037
G1 X119.72 Y58.005 E.01679
G1 X125.58 Y63.865 E.26037
G1 X125.046 Y63.865 E.01679
G1 X119.186 Y58.005 E.26037
G1 X118.651 Y58.005 E.01679
G1 X124.511 Y63.865 E.26037
G1 X123.977 Y63.865 E.01679
G1 X118.117 Y58.005 E.26037
G1 X117.582 Y58.005 E.01679
G1 X123.443 Y63.865 E.26037
G1 X122.908 Y63.865 E.01679
G1 X117.048 Y58.005 E.26037
G1 X116.514 Y58.005 E.01679
G1 X122.374 Y63.865 E.26037
G1 X121.84 Y63.865 E.01679
G1 X115.979 Y58.005 E.26037
G1 X115.445 Y58.005 E.01679
G1 X121.305 Y63.865 E.26037
G1 X120.771 Y63.865 E.01679
G1 X114.911 Y58.005 E.26037
G1 X114.376 Y58.005 E.01679
G1 X120.237 Y63.865 E.26037
G1 X119.702 Y63.865 E.01679
G1 X113.842 Y58.005 E.26037
G1 X113.308 Y58.005 E.01679
G1 X119.168 Y63.865 E.26037
G1 X118.634 Y63.865 E.01679
G1 X112.773 Y58.005 E.26037
G1 X112.239 Y58.005 E.01679
G1 X118.099 Y63.865 E.26037
G1 X117.565 Y63.865 E.01679
M73 P14 R14
G1 X111.705 Y58.005 E.26037
G1 X111.17 Y58.005 E.01679
G1 X117.031 Y63.865 E.26037
G1 X116.496 Y63.865 E.01679
G1 X110.636 Y58.005 E.26037
G1 X110.102 Y58.005 E.01679
G1 X115.962 Y63.865 E.26037
G1 X115.428 Y63.865 E.01679
G1 X109.567 Y58.005 E.26037
G1 X109.033 Y58.005 E.01679
G1 X114.893 Y63.865 E.26037
G1 X114.359 Y63.865 E.01679
G1 X108.499 Y58.005 E.26037
G1 X107.964 Y58.005 E.01679
G1 X113.825 Y63.865 E.26037
G1 X113.29 Y63.865 E.01679
G1 X107.43 Y58.005 E.26037
G1 X106.896 Y58.005 E.01679
G1 X112.756 Y63.865 E.26037
G1 X112.222 Y63.865 E.01679
G1 X106.361 Y58.005 E.26037
G1 X105.827 Y58.005 E.01679
G1 X111.687 Y63.865 E.26037
G1 X111.153 Y63.865 E.01679
G1 X105.293 Y58.005 E.26037
G1 X104.758 Y58.005 E.01679
G1 X110.619 Y63.865 E.26037
G1 X110.084 Y63.865 E.01679
G1 X104.224 Y58.005 E.26037
G1 X103.69 Y58.005 E.01679
G1 X109.55 Y63.865 E.26037
G1 X109.016 Y63.865 E.01679
G1 X103.155 Y58.005 E.26037
G1 X102.621 Y58.005 E.01679
G1 X108.481 Y63.865 E.26037
G1 X107.947 Y63.865 E.01679
G1 X102.087 Y58.005 E.26037
G1 X101.552 Y58.005 E.01679
G1 X107.413 Y63.865 E.26037
G1 X106.878 Y63.865 E.01679
G1 X101.018 Y58.005 E.26037
G1 X100.484 Y58.005 E.01679
G1 X106.344 Y63.865 E.26037
G1 X105.81 Y63.865 E.01679
M73 P15 R14
G1 X99.949 Y58.005 E.26037
G1 X99.415 Y58.005 E.01679
G1 X105.275 Y63.865 E.26037
G1 X104.741 Y63.865 E.01679
G1 X98.881 Y58.005 E.26037
G1 X98.346 Y58.005 E.01679
G1 X104.207 Y63.865 E.26037
G1 X103.672 Y63.865 E.01679
G1 X97.812 Y58.005 E.26037
G1 X97.278 Y58.005 E.01679
G1 X103.138 Y63.865 E.26037
G1 X102.604 Y63.865 E.01679
G1 X96.743 Y58.005 E.26037
G1 X96.209 Y58.005 E.01679
G1 X102.069 Y63.865 E.26037
G1 X101.535 Y63.865 E.01679
G1 X95.675 Y58.005 E.26037
G1 X95.14 Y58.005 E.01679
G1 X101.001 Y63.865 E.26037
G1 X100.466 Y63.865 E.01679
G1 X94.606 Y58.005 E.26037
G1 X94.072 Y58.005 E.01679
G1 X99.932 Y63.865 E.26037
G1 X99.398 Y63.865 E.01679
G1 X93.537 Y58.005 E.26037
G1 X93.003 Y58.005 E.01679
G1 X98.863 Y63.865 E.26037
G1 X98.329 Y63.865 E.01679
G1 X92.469 Y58.005 E.26037
G1 X91.934 Y58.005 E.01679
G1 X97.795 Y63.865 E.26037
G1 X97.26 Y63.865 E.01679
G1 X91.4 Y58.005 E.26037
G1 X90.866 Y58.005 E.01679
G1 X96.726 Y63.865 E.26037
G1 X96.192 Y63.865 E.01679
G1 X90.331 Y58.005 E.26037
G1 X89.797 Y58.005 E.01679
G1 X95.657 Y63.865 E.26037
G1 X95.123 Y63.865 E.01679
G1 X89.263 Y58.005 E.26037
G1 X88.728 Y58.005 E.01679
G1 X94.589 Y63.865 E.26037
G1 X94.054 Y63.865 E.01679
M73 P16 R14
G1 X88.194 Y58.005 E.26037
G1 X87.66 Y58.005 E.01679
G1 X93.52 Y63.865 E.26037
G1 X92.986 Y63.865 E.01679
G1 X87.125 Y58.005 E.26037
G1 X86.591 Y58.005 E.01679
G1 X92.451 Y63.865 E.26037
G1 X91.917 Y63.865 E.01679
G1 X86.057 Y58.005 E.26037
G1 X85.522 Y58.005 E.01679
G1 X91.486 Y63.969 E.26498
G1 X91.415 Y64.007 E.00253
G1 X91.199 Y64.216 E.00945
G1 X84.988 Y58.005 E.27597
G1 X84.454 Y58.005 E.01679
G1 X91.055 Y64.606 E.2933
G1 X91.037 Y64.705 E.00316
G1 X91.037 Y65.123 E.01312
G1 X83.919 Y58.005 E.31625
G1 X83.385 Y58.005 E.01679
G1 X91.037 Y65.658 E.34
G1 X91.038 Y66.192 E.01679
G1 X82.851 Y58.005 E.36375
G1 X82.316 Y58.005 E.01679
G1 X91.038 Y66.727 E.3875
G1 X91.038 Y67.261 E.01679
G1 X81.782 Y58.005 E.41125
G1 X81.248 Y58.005 E.01679
G1 X91.038 Y67.796 E.435
G1 X91.038 Y68.33 E.01679
G1 X80.713 Y58.005 E.45874
G1 X80.179 Y58.005 E.01679
G1 X91.038 Y68.865 E.48249
G1 X91.039 Y69.399 E.01679
G1 X79.645 Y58.005 E.50624
G1 X79.11 Y58.005 E.01679
M73 P16 R13
G1 X91.039 Y69.934 E.52999
G1 X91.039 Y70.468 E.01679
M73 P17 R13
G1 X78.576 Y58.005 E.55374
G1 X78.042 Y58.005 E.01679
G1 X83.902 Y63.865 E.26037
G1 X83.367 Y63.865 E.01679
G1 X77.507 Y58.005 E.26037
G1 X76.973 Y58.005 E.01679
G1 X82.833 Y63.865 E.26037
G1 X82.299 Y63.865 E.01679
G1 X76.439 Y58.005 E.26037
G1 X75.904 Y58.005 E.01679
G1 X81.764 Y63.865 E.26037
G1 X81.23 Y63.865 E.01679
G1 X75.37 Y58.005 E.26037
G1 X74.836 Y58.005 E.01679
G1 X80.696 Y63.865 E.26037
G1 X80.161 Y63.865 E.01679
