; generated by PrusaSlicer 2.5.0+win64 on 2023-06-09 at 22:19:15 UTC


;
;

;
;
; 

; external perimeters extrusion width = 0.45mm
; perimeters extrusion width = 0.45mm
; infill extrusion width = 0.45mm
; solid infill extrusion width = 0.45mm
; top infill extrusion width = 0.40mm
; first layer extrusion width = 0.42mm

; external perimeters extrusion width = 0.45mm
; perimeters extrusion width = 0.45mm
; infill extrusion width = 0.45mm
; solid infill extrusion width = 0.45mm
; top infill extrusion width = 0.40mm
; first layer extrusion width = 0.42mm

; external perimeters extrusion width = 0.45mm
; perimeters extrusion width = 0.45mm
; infill extrusion width = 0.45mm
; solid infill extrusion width = 0.45mm
; top infill extrusion width = 0.40mm
; first layer extrusion width = 0.42mm

; external perimeters extrusion width = 0.45mm
; perimeters extrusion width = 0.45mm
; infill extrusion width = 0.45mm
; solid infill extrusion width = 0.45mm
; top infill extrusion width = 0.40mm
; first layer extrusion width = 0.42mm

M73 P0 R53
M201 X2500 Y2500 Z400 E5000 ; sets maximum accelerations, mm/sec^2
M203 X180 Y180 Z12 E80 ; sets maximum feedrates, mm / sec
M204 P1250 R1250 T2500 ; sets acceleration (P, T) and retract acceleration (R), mm/sec^2
M205 X8.00 Y8.00 Z2.00 E10.00 ; sets the jerk limits, mm/sec
M205 S0 T0 ; sets the minimum extruding and travel feed rate, mm/sec
M107
;TYPE:Custom
M862.3 P "MINI" ; printer model check
G90 ; use absolute coordinates
M83 ; extruder relative mode
M104 S170 ; set extruder temp for bed leveling
M140 S60 ; set bed temp
M109 R170 ; wait for bed leveling temp
M190 S60 ; wait for bed temp
M204 T1250 ; set travel acceleration
G28 ; home all without mesh bed level
G29 ; mesh bed leveling 
M204 T2500 ; restore travel acceleration
M104 S215 ; set extruder temp
G92 E0
G1 Y-2 X179 F2400
G1 Z3 F720
M109 S215 ; wait for extruder temp

; intro line
G1 X170 F1000
G1 Z0.2 F720
G1 X110 E8 F900
G1 X40 E10 F700
G92 E0

M221 S95 ; set flow
G21 ; set units to millimeters
G90 ; use absolute coordinates
M83 ; use relative distances for extrusion
M900 K0.2 ; Filament gcode LA 1.5
; ; Filament gcode LA 1.0
M107
;LAYER_CHANGE
;Z:0.2
;HEIGHT:0.2
;BEFORE_LAYER_CHANGE
G92 E0.0
;0.2


G1 E-3.2 F4200
G1 Z.2 F720
;AFTER_LAYER_CHANGE
;0.2
G1 Z.4
G1 X25.474 Y12.245 F9000
G1 Z.2 F720
G1 E3.2 F2400
M204 P800
;TYPE:Skirt/Brim
;WIDTH:0.42
G1 F1200
G1 X30.447 Y1.898 E.35996
G1 X31.366 Y.889 E.04278
G1 X32.59 Y.55 E.0398
G1 X84.63 Y.575 E1.63168
G1 X166.472 Y12.404 E2.59276
G1 X167.709 Y12.979 E.04278
M73 P0 R52
G1 X168.509 Y14.757 E.06113
G1 X168.497 Y38.986 E.75968
G1 X159.72 Y129.722 E2.85824
G1 X159.496 Y130.523 E.02607
G1 X138.346 Y174.523 E1.53069
G1 X137.427 Y175.531 E.04278
G1 X136.204 Y175.87 E.0398
G1 X84.153 Y175.844 E1.63203
G1 X7.553 Y164.398 E2.4284
M73 P1 R52
G1 X6.318 Y163.818 E.04278
G1 X5.527 Y162.047 E.0608
G1 X5.529 Y137.955 E.75539
G1 X9.064 Y46.835 E2.85915
G1 X9.297 Y45.898 E.03029
G1 X25.448 Y12.299 E1.16885
M204 P1000
; printing object copper_silver_gold_platinum_dividers.stl_1 id:0 copy 0
G1 E-2.24 F4200
;WIPE_START
G1 F7200
G1 X26.161 Y10.816 E-.912
;WIPE_END
G1 E-.048 F4200
G1 Z.4 F720
G1 X55.222 Y10.655 F9000
G1 Z.2 F720
G1 E3.2 F2400
M204 P800
;TYPE:Perimeter
;WIDTH:0.419999
G1 F1200
G1 X55.217 Y10.602 E.00167
G1 X55.114 Y10.367 E.00805
G1 X54.879 Y10.184 E.00933
G1 X54.661 Y10.14 E.00696
G1 X33.377 Y10.14 E.66736
G1 X33.377 Y3.715 E.20148
G1 X83.503 Y3.715 E1.57166
G1 X83.503 Y10.14 E.20148
G1 X62.218 Y10.14 E.66736
G1 X62.12 Y10.149 E.00308
G1 X61.907 Y10.234 E.00721
G1 X61.725 Y10.429 E.00835
G1 X61.653 Y10.706 E.00899
G1 X61.653 Y47.149 E1.14264
G1 X61.748 Y47.463 E.01028
G1 X61.965 Y47.655 E.0091
G1 X62.218 Y47.715 E.00815
G1 X104.653 Y47.715 E1.3305
G1 X104.653 Y54.14 E.20148
G1 X62.218 Y54.14 E1.3305
G1 X61.904 Y54.235 E.01028
G1 X61.712 Y54.453 E.0091
G1 X61.653 Y54.706 E.00815
G1 X61.653 Y63.149 E.26472
G1 X61.662 Y63.253 E.00328
G1 X61.766 Y63.488 E.00805
G1 X62.001 Y63.671 E.00933
G1 X62.218 Y63.715 E.00696
G1 X104.653 Y63.715 E1.3305
G1 X104.653 Y70.14 E.20148
G1 X12.227 Y70.14 E2.89794
G1 X12.227 Y63.715 E.20148
M73 P2 R52
G1 X54.661 Y63.715 E1.3305
G1 X54.759 Y63.706 E.00308
G1 X54.972 Y63.621 E.00721
G1 X55.154 Y63.426 E.00835
G1 X55.227 Y63.149 E.00899
G1 X55.227 Y54.706 E.26472
G1 X55.219 Y54.613 E.00293
G1 X55.132 Y54.392 E.00744
G1 X54.914 Y54.2 E.0091
G1 X54.661 Y54.14 E.00815
G1 X12.227 Y54.14 E1.3305
G1 X12.227 Y47.715 E.20148
G1 X54.661 Y47.715 E1.3305
G1 X54.754 Y47.707 E.00293
G1 X54.975 Y47.62 E.00744
G1 X55.167 Y47.402 E.0091
G1 X55.227 Y47.149 E.00815
G1 X55.227 Y10.715 E1.14237
M204 P1000
G1 X54.85 Y10.706 F9000
M204 P800
;TYPE:External perimeter
G1 F1200
G1 X54.791 Y10.569 E.00466
G1 X54.661 Y10.517 E.00439
G1 X33 Y10.517 E.67918
G1 X33 Y3.337 E.22512
G1 X83.88 Y3.337 E1.5953
G1 X83.88 Y10.517 E.22512
G1 X62.218 Y10.517 E.67918
G1 X62.088 Y10.569 E.00439
G1 X62.03 Y10.706 E.00466
G1 X62.03 Y47.149 E1.14264
G1 X62.073 Y47.27 E.00402
M73 P2 R51
G1 X62.218 Y47.337 E.00501
G1 X105.03 Y47.337 E1.34232
G1 X105.03 Y54.517 E.22512
G1 X62.218 Y54.517 E1.34232
G1 X62.097 Y54.561 E.00402
G1 X62.03 Y54.706 E.00501
G1 X62.03 Y63.149 E.26472
G1 X62.088 Y63.285 E.00466
G1 X62.218 Y63.337 E.00439
G1 X105.03 Y63.337 E1.34232
G1 X105.03 Y70.517 E.22512
G1 X11.85 Y70.517 E2.92159
G1 X11.85 Y63.337 E.22512
G1 X54.661 Y63.337 E1.34232
G1 X54.791 Y63.285 E.00439
M73 P3 R51
G1 X54.85 Y63.149 E.00466
G1 X54.85 Y54.706 E.26472
G1 X54.806 Y54.585 E.00402
G1 X54.661 Y54.517 E.00501
G1 X11.85 Y54.517 E1.34232
G1 X11.85 Y47.337 E.22512
G1 X54.661 Y47.337 E1.34232
G1 X54.782 Y47.294 E.00402
G1 X54.85 Y47.149 E.00501
G1 X54.85 Y10.766 E1.14076
M204 P1000
G1 X54.954 Y10.6 F9000
G1 E-2.24 F4200
;WIPE_START
G1 F7200
G1 X54.791 Y10.569 E-.11363
G1 X54.661 Y10.517 E-.07761
G1 X53.361 Y10.517 E-.72076
;WIPE_END
G1 E-.048 F4200
G1 Z.4 F720
G1 X82.626 Y3.828 F9000
G1 Z.2 F720
G1 E3.2 F2400
M204 P800
;TYPE:Solid infill
;WIDTH:0.420753
G1 F1200
G1 X83.22 Y4.422 E.0264
G1 X83.22 Y4.956 E.01679
G1 X82.261 Y3.997 E.0426
G1 X81.727 Y3.997 E.01679
G1 X83.22 Y5.49 E.06634
G1 X83.22 Y6.025 E.01679
G1 X81.192 Y3.997 E.09008
G1 X80.658 Y3.997 E.01679
G1 X83.22 Y6.559 E.11382
G1 X83.22 Y7.093 E.01679
G1 X80.124 Y3.997 E.13756
G1 X79.589 Y3.997 E.01679
G1 X83.22 Y7.628 E.1613
G1 X83.22 Y8.162 E.01679
G1 X79.055 Y3.997 E.18505
G1 X78.521 Y3.997 E.01679
G1 X83.22 Y8.696 E.20879
G1 X83.22 Y9.231 E.01679
G1 X77.986 Y3.997 E.23253
G1 X77.452 Y3.997 E.01679
G1 X83.22 Y9.765 E.25627
G1 X83.22 Y9.858 E.0029
G1 X82.778 Y9.858 E.01388
G1 X76.918 Y3.997 E.26037
G1 X76.383 Y3.997 E.01679
G1 X82.243 Y9.858 E.26037
G1 X81.709 Y9.858 E.01679
G1 X75.849 Y3.997 E.26037
G1 X75.315 Y3.997 E.01679
G1 X81.175 Y9.858 E.26037
G1 X80.64 Y9.858 E.01679
G1 X74.78 Y3.997 E.26037
G1 X74.246 Y3.997 E.01679
G1 X80.106 Y9.858 E.26037
G1 X79.572 Y9.858 E.01679
G1 X73.712 Y3.997 E.26037
G1 X73.177 Y3.997 E.01679
G1 X79.037 Y9.858 E.26037
G1 X78.503 Y9.858 E.01679
G1 X72.643 Y3.997 E.26037
G1 X72.109 Y3.997 E.01679
G1 X77.969 Y9.858 E.26037
G1 X77.434 Y9.858 E.01679
G1 X71.574 Y3.997 E.26037
G1 X71.04 Y3.997 E.01679
G1 X76.9 Y9.858 E.26037
G1 X76.366 Y9.858 E.01679
G1 X70.506 Y3.997 E.26037
G1 X69.971 Y3.997 E.01679
G1 X75.831 Y9.858 E.26037
G1 X75.297 Y9.858 E.01679
G1 X69.437 Y3.997 E.26037
G1 X68.903 Y3.997 E.01679
G1 X74.763 Y9.858 E.26037
G1 X74.228 Y9.858 E.01679
G1 X68.368 Y3.997 E.26037
G1 X67.834 Y3.997 E.01679
G1 X73.694 Y9.858 E.26037
G1 X73.16 Y9.858 E.01679
G1 X67.3 Y3.997 E.26037
G1 X66.765 Y3.997 E.01679
G1 X72.625 Y9.858 E.26037
G1 X72.091 Y9.858 E.01679
G1 X66.231 Y3.997 E.26037
G1 X65.697 Y3.997 E.01679
G1 X71.557 Y9.858 E.26037
G1 X71.022 Y9.858 E.01679
G1 X65.162 Y3.997 E.26037
G1 X64.628 Y3.997 E.01679
G1 X70.488 Y9.858 E.26037
G1 X69.954 Y9.858 E.01679
G1 X64.094 Y3.997 E.26037
G1 X63.559 Y3.997 E.01679
G1 X69.419 Y9.858 E.26037
G1 X68.885 Y9.858 E.01679
G1 X63.025 Y3.997 E.26037
G1 X62.491 Y3.997 E.01679
G1 X68.351 Y9.858 E.26037
G1 X67.816 Y9.858 E.01679
G1 X61.956 Y3.997 E.26037
G1 X61.422 Y3.997 E.01679
G1 X67.282 Y9.858 E.26037
G1 X66.748 Y9.858 E.01679
G1 X60.887 Y3.997 E.26037
G1 X60.353 Y3.997 E.01679
G1 X66.213 Y9.858 E.26037
G1 X65.679 Y9.858 E.01679
G1 X59.819 Y3.997 E.26037
G1 X59.284 Y3.997 E.01679
G1 X65.145 Y9.858 E.26037
G1 X64.61 Y9.858 E.01679
G1 X58.75 Y3.997 E.26037
G1 X58.216 Y3.997 E.01679
G1 X64.076 Y9.858 E.26037
G1 X63.542 Y9.858 E.01679
G1 X57.681 Y3.997 E.26037
G1 X57.147 Y3.997 E.01679
G1 X63.007 Y9.858 E.26037
G1 X62.473 Y9.858 E.01679
G1 X56.613 Y3.997 E.26037
G1 X56.078 Y3.997 E.01679
G1 X61.977 Y9.896 E.26209
G1 X61.751 Y9.997 E.00778
G1 X61.636 Y10.089 E.00463
G1 X55.544 Y3.997 E.27065
G1 X55.01 Y3.997 E.01679
G1 X61.431 Y10.418 E.28529
G1 X61.384 Y10.546 E.00428
G1 X61.37 Y10.892 E.01086
G1 X54.475 Y3.997 E.30632
G1 X53.941 Y3.997 E.01679
G1 X61.37 Y11.426 E.33006
G1 X61.37 Y11.96 E.01679
M73 P4 R51
G1 X53.407 Y3.997 E.3538
G1 X52.872 Y3.997 E.01679
G1 X61.37 Y12.495 E.37754
G1 X61.37 Y13.029 E.01679
G1 X52.338 Y3.997 E.40128
G1 X51.804 Y3.997 E.01679
G1 X61.37 Y13.563 E.42502
G1 X61.37 Y14.098 E.01679
G1 X51.269 Y3.997 E.44876
G1 X50.735 Y3.997 E.01679
G1 X61.37 Y14.632 E.4725
G1 X61.37 Y15.166 E.01679
G1 X50.201 Y3.997 E.49624
G1 X49.666 Y3.997 E.01679
G1 X61.37 Y15.701 E.51998
G1 X61.37 Y16.235 E.01679
G1 X49.132 Y3.997 E.54372
G1 X48.598 Y3.997 E.01679
G1 X54.458 Y9.858 E.26037
G1 X53.924 Y9.858 E.01679
G1 X48.063 Y3.997 E.26037
G1 X47.529 Y3.997 E.01679
G1 X53.389 Y9.858 E.26037
G1 X52.855 Y9.858 E.01679
G1 X46.995 Y3.997 E.26037
G1 X46.46 Y3.997 E.01679
G1 X52.321 Y9.858 E.26037
G1 X51.786 Y9.858 E.01679
G1 X45.926 Y3.997 E.26037
G1 X45.392 Y3.997 E.01679
G1 X51.252 Y9.858 E.26037
G1 X50.718 Y9.858 E.01679
G1 X44.857 Y3.997 E.26037
G1 X44.323 Y3.997 E.01679
G1 X50.183 Y9.858 E.26037
G1 X49.649 Y9.858 E.01679
G1 X43.789 Y3.997 E.26037
G1 X43.254 Y3.997 E.01679
G1 X49.115 Y9.858 E.26037
G1 X48.58 Y9.858 E.01679
G1 X42.72 Y3.997 E.26037
G1 X42.186 Y3.997 E.01679
G1 X48.046 Y9.858 E.26037
G1 X47.512 Y9.858 E.01679
G1 X41.651 Y3.997 E.26037
G1 X41.117 Y3.997 E.01679
G1 X46.977 Y9.858 E.26037
G1 X46.443 Y9.858 E.01679
G1 X40.583 Y3.997 E.26037
G1 X40.048 Y3.997 E.01679
G1 X45.909 Y9.858 E.26037
G1 X45.374 Y9.858 E.01679
M73 P4 R50
G1 X39.514 Y3.997 E.26037
G1 X38.98 Y3.997 E.01679
G1 X44.84 Y9.858 E.26037
G1 X44.306 Y9.858 E.01679
G1 X38.445 Y3.997 E.26037
G1 X37.911 Y3.997 E.01679
G1 X43.771 Y9.858 E.26037
G1 X43.237 Y9.858 E.01679
G1 X37.377 Y3.997 E.26037
G1 X36.842 Y3.997 E.01679
G1 X42.703 Y9.858 E.26037
G1 X42.168 Y9.858 E.01679
G1 X36.308 Y3.997 E.26037
G1 X35.774 Y3.997 E.01679
G1 X41.634 Y9.858 E.26037
G1 X41.1 Y9.858 E.01679
G1 X35.239 Y3.997 E.26037
G1 X34.705 Y3.997 E.01679
G1 X40.565 Y9.858 E.26037
G1 X40.031 Y9.858 E.01679
G1 X34.171 Y3.997 E.26037
G1 X33.66 Y3.997 E.01606
G1 X33.66 Y4.021 E.00073
G1 X39.497 Y9.858 E.25934
G1 X38.962 Y9.858 E.01679
G1 X33.66 Y4.555 E.2356
G1 X33.66 Y5.089 E.01679
G1 X38.428 Y9.858 E.21186
G1 X37.894 Y9.858 E.01679
G1 X33.66 Y5.624 E.18812
G1 X33.66 Y6.158 E.01679
G1 X37.359 Y9.858 E.16438
G1 X36.825 Y9.858 E.01679
G1 X33.66 Y6.692 E.14064
G1 X33.66 Y7.227 E.01679
G1 X36.291 Y9.858 E.1169
G1 X35.756 Y9.858 E.01679
G1 X33.66 Y7.761 E.09316
G1 X33.66 Y8.295 E.01679
G1 X35.222 Y9.858 E.06942
G1 X34.688 Y9.858 E.01679
G1 X33.66 Y8.83 E.04568
G1 X33.66 Y9.364 E.01679
G1 X34.323 Y10.027 E.02947
M204 P1000
G1 E-2.24 F4200
;WIPE_START
G1 F7200
G1 X33.66 Y9.364 E-.51989
G1 X33.66 Y8.83 E-.29611
G1 X33.782 Y8.952 E-.096
;WIPE_END
G1 E-.048 F4200
G1 Z.4 F720
G1 X55.34 Y10.739 F9000
G1 Z.2 F720
G1 E3.2 F2400
M204 P800
G1 F1200
G1 X61.37 Y16.769 E.26791
G1 X61.37 Y17.304 E.01679
G1 X55.51 Y11.443 E.26037
G1 X55.51 Y11.978 E.01679
G1 X61.37 Y17.838 E.26037
G1 X61.37 Y18.372 E.01679
G1 X55.51 Y12.512 E.26037
G1 X55.51 Y13.046 E.01679
G1 X61.37 Y18.907 E.26037
G1 X61.37 Y19.441 E.01679
G1 X55.51 Y13.581 E.26037
G1 X55.51 Y14.115 E.01679
G1 X61.37 Y19.975 E.26037
G1 X61.37 Y20.51 E.01679
G1 X55.51 Y14.649 E.26037
G1 X55.51 Y15.184 E.01679
G1 X61.37 Y21.044 E.26037
G1 X61.37 Y21.578 E.01679
G1 X55.51 Y15.718 E.26037
G1 X55.51 Y16.252 E.01679
G1 X61.37 Y22.113 E.26037
G1 X61.37 Y22.647 E.01679
G1 X55.51 Y16.787 E.26037
G1 X55.51 Y17.321 E.01679
G1 X61.37 Y23.181 E.26037
G1 X61.37 Y23.716 E.01679
G1 X55.51 Y17.855 E.26037
G1 X55.51 Y18.39 E.01679
G1 X61.37 Y24.25 E.26037
G1 X61.37 Y24.784 E.01679
G1 X55.51 Y18.924 E.26037
G1 X55.51 Y19.458 E.01679
G1 X61.37 Y25.319 E.26037
G1 X61.37 Y25.853 E.01679
G1 X55.51 Y19.993 E.26037
G1 X55.51 Y20.527 E.01679
G1 X61.37 Y26.387 E.26037
G1 X61.37 Y26.922 E.01679
G1 X55.51 Y21.061 E.26037
G1 X55.51 Y21.596 E.01679
M73 P5 R50
G1 X61.37 Y27.456 E.26037
G1 X61.37 Y27.99 E.01679
G1 X55.51 Y22.13 E.26037
G1 X55.51 Y22.664 E.01679
G1 X61.37 Y28.525 E.26037
G1 X61.37 Y29.059 E.01679
G1 X55.51 Y23.199 E.26037
G1 X55.51 Y23.733 E.01679
G1 X61.37 Y29.593 E.26037
G1 X61.37 Y30.128 E.01679
G1 X55.51 Y24.268 E.26037
G1 X55.51 Y24.802 E.01679
G1 X61.37 Y30.662 E.26037
G1 X61.37 Y31.196 E.01679
G1 X55.51 Y25.336 E.26037
G1 X55.51 Y25.871 E.01679
G1 X61.37 Y31.731 E.26037
G1 X61.37 Y32.265 E.01679
G1 X55.51 Y26.405 E.26037
G1 X55.51 Y26.939 E.01679
G1 X61.37 Y32.799 E.26037
G1 X61.37 Y33.334 E.01679
G1 X55.51 Y27.474 E.26037
G1 X55.51 Y28.008 E.01679
G1 X61.37 Y33.868 E.26037
G1 X61.37 Y34.402 E.01679
G1 X55.51 Y28.542 E.26037
G1 X55.51 Y29.077 E.01679
G1 X61.37 Y34.937 E.26037
G1 X61.37 Y35.471 E.01679
G1 X55.51 Y29.611 E.26037
G1 X55.51 Y30.145 E.01679
G1 X61.37 Y36.005 E.26037
G1 X61.37 Y36.54 E.01679
G1 X55.51 Y30.68 E.26037
G1 X55.51 Y31.214 E.01679
G1 X61.37 Y37.074 E.26037
G1 X61.37 Y37.608 E.01679
G1 X55.51 Y31.748 E.26037
G1 X55.51 Y32.283 E.01679
G1 X61.37 Y38.143 E.26037
G1 X61.37 Y38.677 E.01679
G1 X55.51 Y32.817 E.26037
G1 X55.51 Y33.351 E.01679
G1 X61.37 Y39.211 E.26037
G1 X61.37 Y39.746 E.01679
G1 X55.51 Y33.886 E.26037
G1 X55.51 Y34.42 E.01679
G1 X61.37 Y40.28 E.26037
G1 X61.37 Y40.814 E.01679
G1 X55.51 Y34.954 E.26037
G1 X55.51 Y35.489 E.01679
G1 X61.37 Y41.349 E.26037
G1 X61.37 Y41.883 E.01679
G1 X55.51 Y36.023 E.26037
G1 X55.51 Y36.557 E.01679
G1 X61.37 Y42.417 E.26037
G1 X61.37 Y42.952 E.01679
G1 X55.51 Y37.092 E.26037
G1 X55.51 Y37.626 E.01679
G1 X61.37 Y43.486 E.26037
G1 X61.37 Y44.021 E.01679
G1 X55.51 Y38.16 E.26037
G1 X55.51 Y38.695 E.01679
G1 X61.37 Y44.555 E.26037
G1 X61.37 Y45.089 E.01679
G1 X55.51 Y39.229 E.26037
G1 X55.51 Y39.763 E.01679
G1 X61.37 Y45.624 E.26037
G1 X61.37 Y46.158 E.01679
G1 X55.51 Y40.298 E.26037
G1 X55.51 Y40.832 E.01679
G1 X61.539 Y46.862 E.26791
M204 P1000
G1 E-2.24 F4200
;WIPE_START
G1 F7200
G1 X60.376 Y45.698 E-.912
;WIPE_END
G1 E-.048 F4200
G1 Z.4 F720
G1 X104.153 Y63.828 F9000
G1 Z.2 F720
G1 E3.2 F2400
M204 P800
G1 F1200
G1 X104.37 Y64.044 E.00962
G1 X104.37 Y64.578 E.01679
G1 X103.789 Y63.997 E.02582
G1 X103.254 Y63.997 E.01679
G1 X104.37 Y65.113 E.04956
G1 X104.37 Y65.647 E.01679
G1 X102.72 Y63.997 E.0733
G1 X102.186 Y63.997 E.01679
G1 X104.37 Y66.181 E.09704
G1 X104.37 Y66.716 E.01679
G1 X101.651 Y63.997 E.12078
G1 X101.117 Y63.997 E.01679
G1 X104.37 Y67.25 E.14452
G1 X104.37 Y67.784 E.01679
G1 X100.583 Y63.997 E.16826
G1 X100.048 Y63.997 E.01679
G1 X104.37 Y68.319 E.192
G1 X104.37 Y68.853 E.01679
G1 X99.514 Y63.997 E.21574
G1 X98.98 Y63.997 E.01679
G1 X104.37 Y69.387 E.23948
G1 X104.37 Y69.858 E.01477
G1 X104.306 Y69.858 E.00202
G1 X98.445 Y63.997 E.26037
G1 X97.911 Y63.997 E.01679
G1 X103.771 Y69.858 E.26037
G1 X103.237 Y69.858 E.01679
G1 X97.377 Y63.997 E.26037
G1 X96.842 Y63.997 E.01679
G1 X102.703 Y69.858 E.26037
G1 X102.168 Y69.858 E.01679
G1 X96.308 Y63.997 E.26037
G1 X95.774 Y63.997 E.01679
G1 X101.634 Y69.858 E.26037
G1 X101.1 Y69.858 E.01679
G1 X95.239 Y63.997 E.26037
G1 X94.705 Y63.997 E.01679
G1 X100.565 Y69.858 E.26037
G1 X100.031 Y69.858 E.01679
G1 X94.171 Y63.997 E.26037
G1 X93.636 Y63.997 E.01679
G1 X99.497 Y69.858 E.26037
G1 X98.962 Y69.858 E.01679
G1 X93.102 Y63.997 E.26037
G1 X92.568 Y63.997 E.01679
G1 X98.428 Y69.858 E.26037
