; generated by PrusaSlicer 2.5.0+win64 on 2023-06-10 at 03:36:09 UTC


;
;

;
;
; 

; external perimeters extrusion width = 0.45mm
; perimeters extrusion width = 0.45mm
; infill extrusion width = 0.45mm
; solid infill extrusion width = 0.45mm
; top infill extrusion width = 0.40mm
; first layer extrusion width = 0.42mm

; external perimeters extrusion width = 0.45mm
; perimeters extrusion width = 0.45mm
; infill extrusion width = 0.45mm
; solid infill extrusion width = 0.45mm
; top infill extrusion width = 0.40mm
; first layer extrusion width = 0.42mm

; external perimeters extrusion width = 0.45mm
; perimeters extrusion width = 0.45mm
; infill extrusion width = 0.45mm
; solid infill extrusion width = 0.45mm
; top infill extrusion width = 0.40mm
; first layer extrusion width = 0.42mm

; external perimeters extrusion width = 0.45mm
; perimeters extrusion width = 0.45mm
; infill extrusion width = 0.45mm
; solid infill extrusion width = 0.45mm
; top infill extrusion width = 0.40mm
; first layer extrusion width = 0.42mm

M73 P0 R53
M201 X2500 Y2500 Z400 E5000 ; sets maximum accelerations, mm/sec^2
M203 X180 Y180 Z12 E80 ; sets maximum feedrates, mm / sec
M204 P1250 R1250 T2500 ; sets acceleration (P, T) and retract acceleration (R), mm/sec^2
M205 X8.00 Y8.00 Z2.00 E10.00 ; sets the jerk limits, mm/sec
M205 S0 T0 ; sets the minimum extruding and travel feed rate, mm/sec
M107
;TYPE:Custom
M862.3 P "MINI" ; printer model check
G90 ; use absolute coordinates
M83 ; extruder relative mode
M104 S170 ; set extruder temp for bed leveling
M140 S60 ; set bed temp
M109 R170 ; wait for bed leveling temp
M190 S60 ; wait for bed temp
M204 T1250 ; set travel acceleration
G28 ; home all without mesh bed level
G29 ; mesh bed leveling 
M204 T2500 ; restore travel acceleration
M104 S215 ; set extruder temp
G92 E0
G1 Y-2 X179 F2400
G1 Z3 F720
M109 S215 ; wait for extruder temp

; intro line
G1 X170 F1000
G1 Z0.2 F720
G1 X110 E8 F900
G1 X40 E10 F700
G92 E0

M221 S95 ; set flow
G21 ; set units to millimeters
G90 ; use absolute coordinates
M83 ; use relative distances for extrusion
M900 K0.2 ; Filament gcode LA 1.5
; ; Filament gcode LA 1.0
M107
;LAYER_CHANGE
;Z:0.2
;HEIGHT:0.2
;BEFORE_LAYER_CHANGE
G92 E0.0
;0.2


G1 E-3.2 F4200
M73 P0 R52
G1 Z.2 F720
;AFTER_LAYER_CHANGE
;0.2
G1 Z.4
G1 X35.099 Y16.871 F9000
G1 Z.2 F720
G1 E3.2 F2400
M204 P800
;TYPE:Skirt/Brim
;WIDTH:0.42
G1 F1200
G1 X39.984 Y6.707 E.35359
G1 X40.903 Y5.699 E.04278
G1 X42.127 Y5.36 E.0398
G1 X94.162 Y5.384 E1.63152
G1 X173.566 Y16.691 E2.51477
G1 X174.804 Y17.263 E.04278
G1 X175.608 Y19.044 E.06127
G1 X175.582 Y43.394 E.76347
G1 X162.426 Y131.819 E2.80303
G1 X162.218 Y132.499 E.0223
G1 X141.068 Y176.499 E1.53069
G1 X140.148 Y177.508 E.04278
G1 X138.925 Y177.847 E.0398
G1 X86.919 Y177.827 E1.63061
G1 X5.49 Y167.263 E2.57455
M73 P1 R52
G1 X4.244 Y166.706 E.04278
G1 X3.419 Y164.905 E.06211
G1 X3.453 Y140.507 E.76501
G1 X18.633 Y51.338 E2.83604
G1 X18.834 Y50.707 E.02076
G1 X35.073 Y16.925 E1.17523
M204 P1000
; printing object curse_divider.stl id:3 copy 0
G1 E-2.24 F4200
;WIPE_START
G1 F7200
G1 X35.785 Y15.442 E-.912
;WIPE_END
G1 E-.048 F4200
G1 Z.4 F720
G1 X49.089 Y104.133 F9000
G1 Z.2 F720
G1 E3.2 F2400
M204 P800
;TYPE:Perimeter
;WIDTH:0.419999
G1 F1200
G1 X49.018 Y104.118 E.00229
G1 X27.733 Y104.118 E.66736
G1 X27.733 Y97.693 E.20148
G1 X77.859 Y97.693 E1.57166
G1 X77.859 Y104.118 E.20148
G1 X56.575 Y104.118 E.66736
G1 X56.477 Y104.127 E.00308
G1 X56.263 Y104.212 E.00721
G1 X56.082 Y104.407 E.00835
G1 X56.009 Y104.684 E.00899
G1 X56.009 Y141.127 E1.14264
G1 X56.104 Y141.441 E.01028
G1 X56.322 Y141.633 E.0091
G1 X56.575 Y141.693 E.00815
G1 X99.009 Y141.693 E1.3305
G1 X99.009 Y148.118 E.20148
G1 X56.575 Y148.118 E1.3305
G1 X56.261 Y148.213 E.01028
G1 X56.069 Y148.431 E.0091
G1 X56.009 Y148.684 E.00815
G1 X56.009 Y157.127 E.26472
G1 X56.019 Y157.231 E.00328
G1 X56.122 Y157.466 E.00805
G1 X56.357 Y157.649 E.00933
G1 X56.575 Y157.693 E.00696
G1 X99.009 Y157.693 E1.3305
G1 X99.009 Y164.118 E.20148
G1 X6.583 Y164.118 E2.89794
G1 X6.583 Y157.693 E.20148
M73 P2 R52
G1 X49.018 Y157.693 E1.3305
G1 X49.115 Y157.684 E.00308
G1 X49.329 Y157.599 E.00721
G1 X49.511 Y157.404 E.00835
G1 X49.583 Y157.127 E.00899
G1 X49.583 Y148.684 E.26472
G1 X49.575 Y148.591 E.00293
G1 X49.488 Y148.37 E.00744
G1 X49.271 Y148.178 E.0091
G1 X49.018 Y148.118 E.00815
G1 X6.583 Y148.118 E1.3305
G1 X6.583 Y141.693 E.20148
M73 P2 R51
G1 X49.018 Y141.693 E1.3305
G1 X49.111 Y141.685 E.00293
G1 X49.331 Y141.598 E.00744
G1 X49.523 Y141.38 E.0091
G1 X49.583 Y141.127 E.00815
G1 X49.583 Y104.684 E1.14264
G1 X49.573 Y104.58 E.00328
G1 X49.47 Y104.345 E.00805
G1 X49.235 Y104.162 E.00933
G1 X49.148 Y104.144 E.00279
M204 P1000
G1 X49.018 Y104.495 F9000
M204 P800
;TYPE:External perimeter
G1 F1200
G1 X27.356 Y104.495 E.67918
G1 X27.356 Y97.315 E.22512
G1 X78.236 Y97.315 E1.5953
G1 X78.236 Y104.495 E.22512
G1 X56.575 Y104.495 E.67918
G1 X56.445 Y104.547 E.00439
G1 X56.386 Y104.684 E.00466
G1 X56.386 Y141.127 E1.14264
G1 X56.43 Y141.248 E.00402
G1 X56.575 Y141.315 E.00501
G1 X99.386 Y141.315 E1.34232
G1 X99.386 Y148.495 E.22512
G1 X56.575 Y148.495 E1.34232
G1 X56.454 Y148.539 E.00402
G1 X56.386 Y148.684 E.00501
G1 X56.386 Y157.127 E.26472
G1 X56.445 Y157.263 E.00466
G1 X56.575 Y157.315 E.00439
G1 X99.386 Y157.315 E1.34232
G1 X99.386 Y164.495 E.22512
G1 X6.206 Y164.495 E2.92159
G1 X6.206 Y157.315 E.22512
M73 P3 R51
G1 X49.018 Y157.315 E1.34232
G1 X49.148 Y157.263 E.00439
G1 X49.206 Y157.127 E.00466
G1 X49.206 Y148.684 E.26472
G1 X49.162 Y148.563 E.00402
G1 X49.018 Y148.495 E.00501
G1 X6.206 Y148.495 E1.34232
G1 X6.206 Y141.315 E.22512
G1 X49.018 Y141.315 E1.34232
G1 X49.138 Y141.272 E.00402
G1 X49.206 Y141.127 E.00501
G1 X49.206 Y104.684 E1.14264
G1 X49.148 Y104.547 E.00466
G1 X49.073 Y104.518 E.00251
M204 P1000
G1 X48.914 Y104.109 F9000
G1 E-2.24 F4200
;WIPE_START
G1 F7200
G1 X47.428 Y104.516 E-.912
;WIPE_END
G1 E-.048 F4200
G1 Z.4 F720
G1 X76.982 Y97.806 F9000
G1 Z.2 F720
G1 E3.2 F2400
M204 P800
;TYPE:Solid infill
;WIDTH:0.420753
G1 F1200
G1 X77.576 Y98.4 E.0264
G1 X77.576 Y98.934 E.01679
G1 X76.617 Y97.975 E.0426
G1 X76.083 Y97.975 E.01679
G1 X77.576 Y99.469 E.06634
G1 X77.576 Y100.003 E.01679
G1 X75.549 Y97.975 E.09008
G1 X75.014 Y97.975 E.01679
G1 X77.576 Y100.537 E.11382
G1 X77.576 Y101.072 E.01679
G1 X74.48 Y97.975 E.13756
G1 X73.946 Y97.975 E.01679
G1 X77.576 Y101.606 E.1613
G1 X77.576 Y102.14 E.01679
G1 X73.411 Y97.975 E.18505
G1 X72.877 Y97.975 E.01679
G1 X77.576 Y102.675 E.20879
G1 X77.576 Y103.209 E.01679
G1 X72.343 Y97.975 E.23253
G1 X71.808 Y97.975 E.01679
G1 X77.576 Y103.743 E.25627
G1 X77.576 Y103.836 E.0029
G1 X77.134 Y103.836 E.01388
G1 X71.274 Y97.975 E.26037
G1 X70.74 Y97.975 E.01679
G1 X76.6 Y103.836 E.26037
G1 X76.066 Y103.836 E.01679
G1 X70.205 Y97.975 E.26037
G1 X69.671 Y97.975 E.01679
G1 X75.531 Y103.836 E.26037
G1 X74.997 Y103.836 E.01679
G1 X69.137 Y97.975 E.26037
G1 X68.602 Y97.975 E.01679
G1 X74.463 Y103.836 E.26037
G1 X73.928 Y103.836 E.01679
G1 X68.068 Y97.975 E.26037
G1 X67.534 Y97.975 E.01679
G1 X73.394 Y103.836 E.26037
G1 X72.86 Y103.836 E.01679
G1 X66.999 Y97.975 E.26037
G1 X66.465 Y97.975 E.01679
G1 X72.325 Y103.836 E.26037
G1 X71.791 Y103.836 E.01679
G1 X65.931 Y97.975 E.26037
G1 X65.396 Y97.975 E.01679
G1 X71.257 Y103.836 E.26037
G1 X70.722 Y103.836 E.01679
G1 X64.862 Y97.975 E.26037
G1 X64.328 Y97.975 E.01679
G1 X70.188 Y103.836 E.26037
G1 X69.654 Y103.836 E.01679
G1 X63.793 Y97.975 E.26037
G1 X63.259 Y97.975 E.01679
G1 X69.119 Y103.836 E.26037
G1 X68.585 Y103.836 E.01679
G1 X62.725 Y97.975 E.26037
G1 X62.19 Y97.975 E.01679
G1 X68.051 Y103.836 E.26037
G1 X67.516 Y103.836 E.01679
G1 X61.656 Y97.975 E.26037
G1 X61.122 Y97.975 E.01679
G1 X66.982 Y103.836 E.26037
G1 X66.448 Y103.836 E.01679
G1 X60.587 Y97.975 E.26037
G1 X60.053 Y97.975 E.01679
G1 X65.913 Y103.836 E.26037
G1 X65.379 Y103.836 E.01679
G1 X59.519 Y97.975 E.26037
G1 X58.984 Y97.975 E.01679
G1 X64.845 Y103.836 E.26037
G1 X64.31 Y103.836 E.01679
G1 X58.45 Y97.975 E.26037
G1 X57.916 Y97.975 E.01679
G1 X63.776 Y103.836 E.26037
G1 X63.242 Y103.836 E.01679
G1 X57.381 Y97.975 E.26037
G1 X56.847 Y97.975 E.01679
G1 X62.707 Y103.836 E.26037
G1 X62.173 Y103.836 E.01679
G1 X56.313 Y97.975 E.26037
G1 X55.778 Y97.975 E.01679
G1 X61.639 Y103.836 E.26037
G1 X61.104 Y103.836 E.01679
G1 X55.244 Y97.975 E.26037
G1 X54.71 Y97.975 E.01679
G1 X60.57 Y103.836 E.26037
G1 X60.036 Y103.836 E.01679
G1 X54.175 Y97.975 E.26037
G1 X53.641 Y97.975 E.01679
G1 X59.501 Y103.836 E.26037
G1 X58.967 Y103.836 E.01679
G1 X53.107 Y97.975 E.26037
G1 X52.572 Y97.975 E.01679
G1 X58.433 Y103.836 E.26037
G1 X57.898 Y103.836 E.01679
G1 X52.038 Y97.975 E.26037
G1 X51.504 Y97.975 E.01679
G1 X57.364 Y103.836 E.26037
G1 X56.829 Y103.836 E.01679
G1 X50.969 Y97.975 E.26037
G1 X50.435 Y97.975 E.01679
G1 X56.334 Y103.874 E.26209
G1 X56.108 Y103.975 E.00778
G1 X55.992 Y104.067 E.00463
G1 X49.901 Y97.975 E.27065
G1 X49.366 Y97.975 E.01679
G1 X55.787 Y104.396 E.28529
G1 X55.741 Y104.524 E.00428
M73 P4 R51
G1 X55.726 Y104.87 E.01086
G1 X48.832 Y97.975 E.30632
G1 X48.298 Y97.975 E.01679
G1 X55.726 Y105.404 E.33006
G1 X55.726 Y105.938 E.01679
G1 X47.763 Y97.975 E.3538
G1 X47.229 Y97.975 E.01679
G1 X55.726 Y106.473 E.37754
G1 X55.726 Y107.007 E.01679
G1 X46.695 Y97.975 E.40128
G1 X46.16 Y97.975 E.01679
G1 X55.726 Y107.541 E.42502
G1 X55.726 Y108.076 E.01679
M73 P4 R50
G1 X45.626 Y97.975 E.44876
G1 X45.092 Y97.975 E.01679
G1 X55.726 Y108.61 E.4725
G1 X55.726 Y109.144 E.01679
G1 X44.557 Y97.975 E.49624
G1 X44.023 Y97.975 E.01679
G1 X55.726 Y109.679 E.51998
G1 X55.726 Y110.213 E.01679
G1 X43.489 Y97.975 E.54372
G1 X42.954 Y97.975 E.01679
G1 X48.814 Y103.836 E.26037
G1 X48.28 Y103.836 E.01679
G1 X42.42 Y97.975 E.26037
G1 X41.886 Y97.975 E.01679
G1 X47.746 Y103.836 E.26037
G1 X47.211 Y103.836 E.01679
G1 X41.351 Y97.975 E.26037
G1 X40.817 Y97.975 E.01679
G1 X46.677 Y103.836 E.26037
G1 X46.143 Y103.836 E.01679
G1 X40.283 Y97.975 E.26037
G1 X39.748 Y97.975 E.01679
G1 X45.608 Y103.836 E.26037
G1 X45.074 Y103.836 E.01679
G1 X39.214 Y97.975 E.26037
G1 X38.68 Y97.975 E.01679
G1 X44.54 Y103.836 E.26037
G1 X44.005 Y103.836 E.01679
G1 X38.145 Y97.975 E.26037
G1 X37.611 Y97.975 E.01679
G1 X43.471 Y103.836 E.26037
G1 X42.937 Y103.836 E.01679
G1 X37.076 Y97.975 E.26037
G1 X36.542 Y97.975 E.01679
G1 X42.402 Y103.836 E.26037
G1 X41.868 Y103.836 E.01679
G1 X36.008 Y97.975 E.26037
G1 X35.473 Y97.975 E.01679
G1 X41.334 Y103.836 E.26037
G1 X40.799 Y103.836 E.01679
G1 X34.939 Y97.975 E.26037
G1 X34.405 Y97.975 E.01679
G1 X40.265 Y103.836 E.26037
G1 X39.731 Y103.836 E.01679
G1 X33.87 Y97.975 E.26037
G1 X33.336 Y97.975 E.01679
G1 X39.196 Y103.836 E.26037
G1 X38.662 Y103.836 E.01679
G1 X32.802 Y97.975 E.26037
G1 X32.267 Y97.975 E.01679
G1 X38.128 Y103.836 E.26037
G1 X37.593 Y103.836 E.01679
G1 X31.733 Y97.975 E.26037
G1 X31.199 Y97.975 E.01679
G1 X37.059 Y103.836 E.26037
G1 X36.525 Y103.836 E.01679
G1 X30.664 Y97.975 E.26037
G1 X30.13 Y97.975 E.01679
G1 X35.99 Y103.836 E.26037
G1 X35.456 Y103.836 E.01679
G1 X29.596 Y97.975 E.26037
G1 X29.061 Y97.975 E.01679
G1 X34.922 Y103.836 E.26037
G1 X34.387 Y103.836 E.01679
G1 X28.527 Y97.975 E.26037
G1 X28.016 Y97.975 E.01606
G1 X28.016 Y97.999 E.00073
G1 X33.853 Y103.836 E.25934
G1 X33.319 Y103.836 E.01679
G1 X28.016 Y98.533 E.2356
G1 X28.016 Y99.067 E.01679
G1 X32.784 Y103.836 E.21186
G1 X32.25 Y103.836 E.01679
G1 X28.016 Y99.602 E.18812
G1 X28.016 Y100.136 E.01679
G1 X31.716 Y103.836 E.16438
G1 X31.181 Y103.836 E.01679
G1 X28.016 Y100.67 E.14064
G1 X28.016 Y101.205 E.01679
G1 X30.647 Y103.836 E.1169
G1 X30.113 Y103.836 E.01679
G1 X28.016 Y101.739 E.09316
G1 X28.016 Y102.273 E.01679
G1 X29.578 Y103.836 E.06942
G1 X29.044 Y103.836 E.01679
G1 X28.016 Y102.808 E.04568
G1 X28.016 Y103.342 E.01679
G1 X28.679 Y104.005 E.02947
M204 P1000
G1 E-2.24 F4200
;WIPE_START
G1 F7200
G1 X28.016 Y103.342 E-.51989
G1 X28.016 Y102.808 E-.29611
G1 X28.138 Y102.93 E-.096
;WIPE_END
G1 E-.048 F4200
G1 Z.4 F720
G1 X49.696 Y104.717 F9000
G1 Z.2 F720
G1 E3.2 F2400
M204 P800
G1 F1200
G1 X55.726 Y110.747 E.26791
G1 X55.726 Y111.282 E.01679
G1 X49.866 Y105.421 E.26037
G1 X49.866 Y105.956 E.01679
G1 X55.726 Y111.816 E.26037
G1 X55.726 Y112.35 E.01679
G1 X49.866 Y106.49 E.26037
G1 X49.866 Y107.024 E.01679
G1 X55.726 Y112.885 E.26037
G1 X55.726 Y113.419 E.01679
G1 X49.866 Y107.559 E.26037
G1 X49.866 Y108.093 E.01679
G1 X55.726 Y113.953 E.26037
G1 X55.726 Y114.488 E.01679
G1 X49.866 Y108.628 E.26037
G1 X49.866 Y109.162 E.01679
G1 X55.726 Y115.022 E.26037
G1 X55.726 Y115.556 E.01679
G1 X49.866 Y109.696 E.26037
G1 X49.866 Y110.231 E.01679
G1 X55.726 Y116.091 E.26037
G1 X55.726 Y116.625 E.01679
G1 X49.866 Y110.765 E.26037
G1 X49.866 Y111.299 E.01679
G1 X55.726 Y117.159 E.26037
G1 X55.726 Y117.694 E.01679
G1 X49.866 Y111.834 E.26037
G1 X49.866 Y112.368 E.01679
G1 X55.726 Y118.228 E.26037
G1 X55.726 Y118.762 E.01679
G1 X49.866 Y112.902 E.26037
G1 X49.866 Y113.437 E.01679
G1 X55.726 Y119.297 E.26037
G1 X55.726 Y119.831 E.01679
M73 P5 R50
G1 X49.866 Y113.971 E.26037
G1 X49.866 Y114.505 E.01679
G1 X55.726 Y120.365 E.26037
G1 X55.726 Y120.9 E.01679
G1 X49.866 Y115.04 E.26037
G1 X49.866 Y115.574 E.01679
G1 X55.726 Y121.434 E.26037
G1 X55.726 Y121.968 E.01679
G1 X49.866 Y116.108 E.26037
G1 X49.866 Y116.643 E.01679
G1 X55.726 Y122.503 E.26037
G1 X55.726 Y123.037 E.01679
G1 X49.866 Y117.177 E.26037
G1 X49.866 Y117.711 E.01679
G1 X55.726 Y123.571 E.26037
G1 X55.726 Y124.106 E.01679
G1 X49.866 Y118.246 E.26037
G1 X49.866 Y118.78 E.01679
G1 X55.726 Y124.64 E.26037
G1 X55.726 Y125.174 E.01679
G1 X49.866 Y119.314 E.26037
G1 X49.866 Y119.849 E.01679
G1 X55.726 Y125.709 E.26037
G1 X55.726 Y126.243 E.01679
G1 X49.866 Y120.383 E.26037
G1 X49.866 Y120.917 E.01679
G1 X55.726 Y126.777 E.26037
G1 X55.726 Y127.312 E.01679
G1 X49.866 Y121.452 E.26037
G1 X49.866 Y121.986 E.01679
G1 X55.726 Y127.846 E.26037
G1 X55.726 Y128.381 E.01679
G1 X49.866 Y122.52 E.26037
G1 X49.866 Y123.055 E.01679
G1 X55.726 Y128.915 E.26037
G1 X55.726 Y129.449 E.01679
G1 X49.866 Y123.589 E.26037
G1 X49.866 Y124.123 E.01679
G1 X55.726 Y129.984 E.26037
G1 X55.726 Y130.518 E.01679
G1 X49.866 Y124.658 E.26037
G1 X49.866 Y125.192 E.01679
G1 X55.726 Y131.052 E.26037
G1 X55.726 Y131.587 E.01679
G1 X49.866 Y125.726 E.26037
G1 X49.866 Y126.261 E.01679
G1 X55.726 Y132.121 E.26037
G1 X55.726 Y132.655 E.01679
G1 X49.866 Y126.795 E.26037
G1 X49.866 Y127.329 E.01679
G1 X55.726 Y133.19 E.26037
G1 X55.726 Y133.724 E.01679
G1 X49.866 Y127.864 E.26037
G1 X49.866 Y128.398 E.01679
G1 X55.726 Y134.258 E.26037
G1 X55.726 Y134.793 E.01679
G1 X49.866 Y128.932 E.26037
G1 X49.866 Y129.467 E.01679
G1 X55.726 Y135.327 E.26037
G1 X55.726 Y135.861 E.01679
G1 X49.866 Y130.001 E.26037
G1 X49.866 Y130.535 E.01679
G1 X55.726 Y136.396 E.26037
G1 X55.726 Y136.93 E.01679
G1 X49.866 Y131.07 E.26037
G1 X49.866 Y131.604 E.01679
G1 X55.726 Y137.464 E.26037
G1 X55.726 Y137.999 E.01679
G1 X49.866 Y132.138 E.26037
G1 X49.866 Y132.673 E.01679
G1 X55.726 Y138.533 E.26037
G1 X55.726 Y139.067 E.01679
G1 X49.866 Y133.207 E.26037
G1 X49.866 Y133.741 E.01679
G1 X55.726 Y139.602 E.26037
G1 X55.726 Y140.136 E.01679
G1 X49.866 Y134.276 E.26037
G1 X49.866 Y134.81 E.01679
G1 X55.896 Y140.84 E.26791
M204 P1000
G1 E-2.24 F4200
;WIPE_START
G1 F7200
G1 X54.732 Y139.676 E-.912
;WIPE_END
G1 E-.048 F4200
G1 Z.4 F720
G1 X98.51 Y157.806 F9000
G1 Z.2 F720
G1 E3.2 F2400
M204 P800
G1 F1200
G1 X98.726 Y158.022 E.00962
G1 X98.726 Y158.556 E.01679
G1 X98.145 Y157.975 E.02582
G1 X97.611 Y157.975 E.01679
G1 X98.726 Y159.091 E.04956
G1 X98.726 Y159.625 E.01679
G1 X97.077 Y157.975 E.0733
G1 X96.542 Y157.975 E.01679
G1 X98.726 Y160.159 E.09704
G1 X98.726 Y160.694 E.01679
G1 X96.008 Y157.975 E.12078
G1 X95.473 Y157.975 E.01679
G1 X98.726 Y161.228 E.14452
G1 X98.726 Y161.762 E.01679
G1 X94.939 Y157.975 E.16826
G1 X94.405 Y157.975 E.01679
G1 X98.726 Y162.297 E.192
G1 X98.726 Y162.831 E.01679
G1 X93.87 Y157.975 E.21574
G1 X93.336 Y157.975 E.01679
G1 X98.726 Y163.365 E.23948
G1 X98.726 Y163.836 E.01477
