; generated by PrusaSlicer 2.5.0+win64 on 2023-06-09 at 22:19:39 UTC


;
;

;
;
; 

; external perimeters extrusion width = 0.45mm
; perimeters extrusion width = 0.45mm
; infill extrusion width = 0.45mm
; solid infill extrusion width = 0.45mm
; top infill extrusion width = 0.40mm
; first layer extrusion width = 0.42mm

M73 P0 R13
M201 X2500 Y2500 Z400 E5000 ; sets maximum accelerations, mm/sec^2
M203 X180 Y180 Z12 E80 ; sets maximum feedrates, mm / sec
M204 P1250 R1250 T2500 ; sets acceleration (P, T) and retract acceleration (R), mm/sec^2
M205 X8.00 Y8.00 Z2.00 E10.00 ; sets the jerk limits, mm/sec
M205 S0 T0 ; sets the minimum extruding and travel feed rate, mm/sec
M107
;TYPE:Custom
M862.3 P "MINI" ; printer model check
G90 ; use absolute coordinates
M83 ; extruder relative mode
M104 S170 ; set extruder temp for bed leveling
M140 S60 ; set bed temp
M109 R170 ; wait for bed leveling temp
M190 S60 ; wait for bed temp
M204 T1250 ; set travel acceleration
G28 ; home all without mesh bed level
G29 ; mesh bed leveling 
M204 T2500 ; restore travel acceleration
M104 S215 ; set extruder temp
G92 E0
G1 Y-2 X179 F2400
G1 Z3 F720
M109 S215 ; wait for extruder temp

; intro line
G1 X170 F1000
G1 Z0.2 F720
G1 X110 E8 F900
G1 X40 E10 F700
G92 E0

M221 S95 ; set flow
G21 ; set units to millimeters
G90 ; use absolute coordinates
M83 ; use relative distances for extrusion
M900 K0.2 ; Filament gcode LA 1.5
; ; Filament gcode LA 1.0
M107
;LAYER_CHANGE
;Z:0.2
;HEIGHT:0.2
;BEFORE_LAYER_CHANGE
G92 E0.0
;0.2


M73 P1 R13
G1 E-3.2 F4200
G1 Z.2 F720
;AFTER_LAYER_CHANGE
;0.2
G1 Z.4
G1 X42.06 Y53.817 F9000
G1 Z.2 F720
G1 E3.2 F2400
M204 P800
;TYPE:Skirt/Brim
;WIDTH:0.42
G1 F1200
G1 X43 Y53.623 E.03008
G1 X137 Y53.623 E2.9473
G1 X138.307 Y54.015 E.04278
M73 P2 R13
G1 X139.183 Y55.06 E.04278
G1 X139.377 Y56 E.03008
G1 X139.377 Y80 E.7525
G1 X139.142 Y81.03 E.03312
G1 X117.992 Y125.03 E1.53069
G1 X117.073 Y126.038 E.04278
M73 P3 R13
G1 X115.85 Y126.377 E.0398
G1 X64.15 Y126.377 E1.62102
G1 X62.843 Y125.985 E.04278
G1 X62.008 Y125.03 E.0398
G1 X40.858 Y81.03 E1.53069
G1 X40.623 Y80 E.03312
G1 X40.623 Y56 E.7525
G1 X41.015 Y54.693 E.04278
G1 X42.014 Y53.855 E.0409
M204 P1000
; printing object curse_divider.stl id:0 copy 0
G1 E-2.24 F4200
;WIPE_START
G1 F7200
G1 X43 Y53.623 E-.56121
G1 X43.633 Y53.623 E-.35079
;WIPE_END
G1 E-.048 F4200
G1 Z.4 F720
G1 X93.707 Y116.773 F9000
G1 Z.2 F720
G1 E3.2 F2400
M204 P800
;TYPE:Perimeter
;WIDTH:0.419999
G1 F1200
G1 X93.779 Y116.787 E.00229
G1 X115.063 Y116.787 E.66736
G1 X115.063 Y123.213 E.20148
M73 P4 R13
G1 X64.937 Y123.213 E1.57166
G1 X64.937 Y116.787 E.20148
G1 X86.221 Y116.787 E.66736
G1 X86.319 Y116.779 E.00308
G1 X86.533 Y116.694 E.00721
G1 X86.714 Y116.499 E.00835
G1 X86.787 Y116.221 E.00899
G1 X86.787 Y79.779 E1.14264
G1 X86.779 Y79.686 E.00293
G1 X86.692 Y79.465 E.00744
G1 X86.474 Y79.273 E.0091
G1 X86.221 Y79.213 E.00815
G1 X43.787 Y79.213 E1.3305
G1 X43.787 Y72.787 E.20148
M73 P5 R13
G1 X86.314 Y72.779 E1.33341
G1 X86.535 Y72.692 E.00744
G1 X86.727 Y72.474 E.0091
G1 X86.787 Y72.221 E.00815
G1 X86.787 Y63.779 E.26472
G1 X86.777 Y63.674 E.00328
G1 X86.674 Y63.439 E.00805
G1 X86.439 Y63.256 E.00933
G1 X86.221 Y63.213 E.00696
G1 X43.787 Y63.213 E1.3305
G1 X43.787 Y56.787 E.20148
G1 X136.213 Y56.787 E2.89794
G1 X136.213 Y63.213 E.20148
M73 P6 R12
G1 X93.779 Y63.213 E1.3305
G1 X93.681 Y63.221 E.00308
G1 X93.467 Y63.306 E.00721
G1 X93.286 Y63.501 E.00835
G1 X93.213 Y63.779 E.00899
G1 X93.215 Y72.271 E.26627
G1 X93.308 Y72.535 E.00879
G1 X93.526 Y72.727 E.0091
G1 X93.779 Y72.787 E.00815
G1 X136.213 Y72.787 E1.3305
G1 X136.213 Y79.213 E.20148
G1 X93.779 Y79.213 E1.3305
G1 X93.465 Y79.308 E.01028
M73 P7 R12
G1 X93.273 Y79.526 E.0091
G1 X93.213 Y79.779 E.00815
G1 X93.213 Y116.221 E1.14264
G1 X93.223 Y116.326 E.00328
G1 X93.326 Y116.561 E.00805
G1 X93.561 Y116.744 E.00933
G1 X93.648 Y116.761 E.00279
M204 P1000
G1 X93.779 Y116.41 F9000
M204 P800
;TYPE:External perimeter
G1 F1200
G1 X115.44 Y116.41 E.67918
G1 X115.44 Y123.59 E.22512
G1 X64.56 Y123.59 E1.5953
G1 X64.56 Y116.41 E.22512
G1 X86.221 Y116.41 E.67918
G1 X86.351 Y116.358 E.00439
M73 P8 R12
G1 X86.41 Y116.221 E.00466
G1 X86.41 Y79.779 E1.14264
G1 X86.366 Y79.658 E.00402
G1 X86.221 Y79.59 E.00501
G1 X43.41 Y79.59 E1.34232
G1 X43.41 Y72.41 E.22512
G1 X86.221 Y72.41 E1.34232
G1 X86.342 Y72.366 E.00402
G1 X86.41 Y72.221 E.00501
G1 X86.41 Y63.779 E.26472
G1 X86.351 Y63.642 E.00466
G1 X86.221 Y63.59 E.00439
G1 X43.41 Y63.59 E1.34232
G1 X43.41 Y56.41 E.22512
M73 P9 R12
G1 X136.59 Y56.41 E2.92159
G1 X136.59 Y63.59 E.22512
G1 X93.779 Y63.59 E1.34232
G1 X93.649 Y63.642 E.00439
M73 P10 R12
G1 X93.59 Y63.779 E.00466
G1 X93.59 Y72.221 E.26472
G1 X93.634 Y72.342 E.00402
G1 X93.779 Y72.41 E.00501
G1 X136.59 Y72.41 E1.34232
G1 X136.59 Y79.59 E.22512
G1 X93.779 Y79.59 E1.34232
G1 X93.658 Y79.634 E.00402
G1 X93.59 Y79.779 E.00501
G1 X93.59 Y116.221 E1.14264
G1 X93.649 Y116.358 E.00466
G1 X93.723 Y116.388 E.00251
M204 P1000
G1 X93.882 Y116.796 F9000
G1 E-2.24 F4200
;WIPE_START
G1 F7200
G1 X95.369 Y116.389 E-.912
;WIPE_END
G1 E-.048 F4200
G1 Z.4 F720
G1 X136.1 Y73.694 F9000
G1 Z.2 F720
G1 E3.2 F2400
M204 P800
;TYPE:Solid infill
;WIDTH:0.420753
G1 F1200
M73 P11 R12
G1 X135.475 Y73.07 E.02774
G1 X134.941 Y73.07 E.01679
G1 X135.93 Y74.059 E.04395
G1 X135.93 Y74.593 E.01679
G1 X134.406 Y73.069 E.0677
G1 X133.872 Y73.069 E.01679
G1 X135.93 Y75.127 E.09144
G1 X135.93 Y75.662 E.01679
G1 X133.338 Y73.069 E.11519
G1 X132.803 Y73.069 E.01679
G1 X135.93 Y76.196 E.13894
G1 X135.93 Y76.73 E.01679
G1 X132.269 Y73.069 E.16268
G1 X131.734 Y73.069 E.01679
G1 X135.93 Y77.265 E.18643
G1 X135.93 Y77.799 E.01679
G1 X131.2 Y73.069 E.21018
G1 X130.665 Y73.069 E.01679
G1 X135.93 Y78.333 E.23392
G1 X135.93 Y78.868 E.01679
G1 X130.131 Y73.068 E.25767
G1 X129.596 Y73.068 E.01679
G1 X135.458 Y78.93 E.26044
G1 X134.924 Y78.93 E.01679
G1 X129.062 Y73.068 E.26045
G1 X128.527 Y73.068 E.01679
G1 X134.389 Y78.93 E.26045
G1 X133.855 Y78.93 E.01679
G1 X127.993 Y73.068 E.26046
G1 X127.458 Y73.068 E.01679
G1 X133.321 Y78.93 E.26046
G1 X132.786 Y78.93 E.01679
G1 X126.924 Y73.068 E.26047
G1 X126.389 Y73.068 E.01679
G1 X132.252 Y78.93 E.26048
G1 X131.718 Y78.93 E.01679
G1 X125.855 Y73.067 E.26048
G1 X125.321 Y73.067 E.01679
G1 X131.183 Y78.93 E.26049
G1 X130.649 Y78.93 E.01679
G1 X124.786 Y73.067 E.26049
G1 X124.252 Y73.067 E.01679
G1 X130.115 Y78.93 E.2605
G1 X129.58 Y78.93 E.01679
G1 X123.717 Y73.067 E.2605
G1 X123.183 Y73.067 E.01679
M73 P12 R12
G1 X129.046 Y78.93 E.26051
G1 X128.512 Y78.93 E.01679
G1 X122.648 Y73.067 E.26052
G1 X122.114 Y73.067 E.01679
G1 X127.977 Y78.93 E.26052
G1 X127.443 Y78.93 E.01679
G1 X121.579 Y73.066 E.26053
G1 X121.045 Y73.066 E.01679
G1 X126.909 Y78.93 E.26053
G1 X126.374 Y78.93 E.01679
G1 X120.51 Y73.066 E.26054
G1 X119.976 Y73.066 E.01679
G1 X125.84 Y78.93 E.26054
G1 X125.306 Y78.93 E.01679
G1 X119.441 Y73.066 E.26055
G1 X118.907 Y73.066 E.01679
G1 X124.771 Y78.93 E.26056
G1 X124.237 Y78.93 E.01679
G1 X118.372 Y73.066 E.26056
G1 X117.838 Y73.065 E.01679
G1 X123.703 Y78.93 E.26057
G1 X123.168 Y78.93 E.01679
G1 X117.304 Y73.065 E.26057
G1 X116.769 Y73.065 E.01679
G1 X122.634 Y78.93 E.26058
G1 X122.1 Y78.93 E.01679
G1 X116.235 Y73.065 E.26059
G1 X115.7 Y73.065 E.01679
G1 X121.565 Y78.93 E.26059
G1 X121.031 Y78.93 E.01679
G1 X115.166 Y73.065 E.2606
G1 X114.631 Y73.065 E.01679
G1 X120.497 Y78.93 E.2606
G1 X119.962 Y78.93 E.01679
G1 X114.097 Y73.065 E.26061
G1 X113.562 Y73.064 E.01679
M73 P13 R12
G1 X119.428 Y78.93 E.26061
G1 X118.894 Y78.93 E.01679
G1 X113.028 Y73.064 E.26062
G1 X112.493 Y73.064 E.01679
M73 P13 R11
G1 X118.359 Y78.93 E.26063
G1 X117.825 Y78.93 E.01679
G1 X111.959 Y73.064 E.26063
G1 X111.424 Y73.064 E.01679
G1 X117.291 Y78.93 E.26064
G1 X116.756 Y78.93 E.01679
G1 X110.89 Y73.064 E.26064
G1 X110.355 Y73.064 E.01679
G1 X116.222 Y78.93 E.26065
G1 X115.688 Y78.93 E.01679
G1 X109.821 Y73.064 E.26065
G1 X109.287 Y73.063 E.01679
G1 X115.153 Y78.93 E.26066
G1 X114.619 Y78.93 E.01679
G1 X108.752 Y73.063 E.26067
G1 X108.218 Y73.063 E.01679
G1 X114.085 Y78.93 E.26067
G1 X113.55 Y78.93 E.01679
G1 X107.683 Y73.063 E.26068
G1 X107.149 Y73.063 E.01679
G1 X113.016 Y78.93 E.26068
G1 X112.482 Y78.93 E.01679
G1 X106.614 Y73.063 E.26069
G1 X106.08 Y73.063 E.01679
G1 X111.947 Y78.93 E.26069
G1 X111.413 Y78.93 E.01679
G1 X105.545 Y73.062 E.2607
G1 X105.011 Y73.062 E.01679
G1 X110.879 Y78.93 E.26071
G1 X110.344 Y78.93 E.01679
G1 X104.476 Y73.062 E.26071
G1 X103.942 Y73.062 E.01679
G1 X109.81 Y78.93 E.26072
G1 X109.276 Y78.93 E.01679
M73 P14 R11
G1 X103.407 Y73.062 E.26072
G1 X102.873 Y73.062 E.01679
G1 X108.741 Y78.93 E.26073
G1 X108.207 Y78.93 E.01679
G1 X102.339 Y73.062 E.26073
G1 X101.804 Y73.062 E.01679
G1 X107.673 Y78.93 E.26074
G1 X107.138 Y78.93 E.01679
G1 X101.27 Y73.061 E.26075
G1 X100.735 Y73.061 E.01679
G1 X106.604 Y78.93 E.26075
G1 X106.07 Y78.93 E.01679
G1 X100.201 Y73.061 E.26076
G1 X99.666 Y73.061 E.01679
G1 X105.535 Y78.93 E.26076
G1 X105.001 Y78.93 E.01679
G1 X99.132 Y73.061 E.26077
G1 X98.597 Y73.061 E.01679
G1 X104.467 Y78.93 E.26077
G1 X103.932 Y78.93 E.01679
G1 X98.063 Y73.061 E.26078
G1 X97.528 Y73.061 E.01679
G1 X103.398 Y78.93 E.26079
G1 X102.864 Y78.93 E.01679
G1 X96.994 Y73.06 E.26079
G1 X96.459 Y73.06 E.01679
G1 X102.329 Y78.93 E.2608
G1 X101.795 Y78.93 E.01679
G1 X95.925 Y73.06 E.2608
G1 X95.39 Y73.06 E.01679
G1 X101.261 Y78.93 E.26081
G1 X100.726 Y78.93 E.01679
G1 X94.856 Y73.06 E.26082
G1 X94.322 Y73.06 E.01679
G1 X100.362 Y79.1 E.26836
M204 P1000
G1 E-2.24 F4200
;WIPE_START
M73 P15 R11
G1 F7200
G1 X99.198 Y77.936 E-.912
;WIPE_END
G1 E-.048 F4200
G1 Z.4 F720
G1 X135.336 Y56.9 F9000
G1 Z.2 F720
G1 E3.2 F2400
M204 P800
G1 F1200
G1 X135.93 Y57.494 E.0264
G1 X135.93 Y58.029 E.01679
G1 X134.971 Y57.07 E.0426
G1 X134.437 Y57.07 E.01679
G1 X135.93 Y58.563 E.06634
G1 X135.93 Y59.097 E.01679
G1 X133.903 Y57.07 E.09008
G1 X133.368 Y57.07 E.01679
G1 X135.93 Y59.632 E.11382
G1 X135.93 Y60.166 E.01679
G1 X132.834 Y57.07 E.13756
G1 X132.3 Y57.07 E.01679
G1 X135.93 Y60.7 E.1613
G1 X135.93 Y61.235 E.01679
G1 X131.765 Y57.07 E.18505
G1 X131.231 Y57.07 E.01679
G1 X135.93 Y61.769 E.20879
G1 X135.93 Y62.303 E.01679
G1 X130.697 Y57.07 E.23253
G1 X130.162 Y57.07 E.01679
G1 X135.93 Y62.838 E.25627
G1 X135.93 Y62.93 E.0029
G1 X135.488 Y62.93 E.01388
G1 X129.628 Y57.07 E.26037
G1 X129.094 Y57.07 E.01679
G1 X134.954 Y62.93 E.26037
G1 X134.419 Y62.93 E.01679
G1 X128.559 Y57.07 E.26037
G1 X128.025 Y57.07 E.01679
G1 X133.885 Y62.93 E.26037
G1 X133.351 Y62.93 E.01679
G1 X127.491 Y57.07 E.26037
G1 X126.956 Y57.07 E.01679
G1 X132.816 Y62.93 E.26037
G1 X132.282 Y62.93 E.01679
G1 X126.422 Y57.07 E.26037
G1 X125.888 Y57.07 E.01679
G1 X131.748 Y62.93 E.26037
G1 X131.213 Y62.93 E.01679
G1 X125.353 Y57.07 E.26037
G1 X124.819 Y57.07 E.01679
G1 X130.679 Y62.93 E.26037
G1 X130.145 Y62.93 E.01679
M73 P16 R11
G1 X124.285 Y57.07 E.26037
G1 X123.75 Y57.07 E.01679
G1 X129.61 Y62.93 E.26037
G1 X129.076 Y62.93 E.01679
G1 X123.216 Y57.07 E.26037
G1 X122.682 Y57.07 E.01679
G1 X128.542 Y62.93 E.26037
G1 X128.007 Y62.93 E.01679
G1 X122.147 Y57.07 E.26037
G1 X121.613 Y57.07 E.01679
G1 X127.473 Y62.93 E.26037
G1 X126.939 Y62.93 E.01679
G1 X121.079 Y57.07 E.26037
G1 X120.544 Y57.07 E.01679
G1 X126.404 Y62.93 E.26037
G1 X125.87 Y62.93 E.01679
G1 X120.01 Y57.07 E.26037
G1 X119.476 Y57.07 E.01679
G1 X125.336 Y62.93 E.26037
G1 X124.801 Y62.93 E.01679
G1 X118.941 Y57.07 E.26037
G1 X118.407 Y57.07 E.01679
G1 X124.267 Y62.93 E.26037
G1 X123.733 Y62.93 E.01679
G1 X117.873 Y57.07 E.26037
G1 X117.338 Y57.07 E.01679
G1 X123.198 Y62.93 E.26037
G1 X122.664 Y62.93 E.01679
G1 X116.804 Y57.07 E.26037
G1 X116.27 Y57.07 E.01679
G1 X122.13 Y62.93 E.26037
G1 X121.595 Y62.93 E.01679
G1 X115.735 Y57.07 E.26037
G1 X115.201 Y57.07 E.01679
G1 X121.061 Y62.93 E.26037
G1 X120.527 Y62.93 E.01679
G1 X114.667 Y57.07 E.26037
M73 P17 R11
G1 X114.132 Y57.07 E.01679
G1 X119.992 Y62.93 E.26037
G1 X119.458 Y62.93 E.01679
G1 X113.598 Y57.07 E.26037
G1 X113.063 Y57.07 E.01679
G1 X118.924 Y62.93 E.26037
G1 X118.389 Y62.93 E.01679
G1 X112.529 Y57.07 E.26037
G1 X111.995 Y57.07 E.01679
G1 X117.855 Y62.93 E.26037
G1 X117.321 Y62.93 E.01679
G1 X111.46 Y57.07 E.26037
G1 X110.926 Y57.07 E.01679
G1 X116.786 Y62.93 E.26037
G1 X116.252 Y62.93 E.01679
G1 X110.392 Y57.07 E.26037
G1 X109.857 Y57.07 E.01679
G1 X115.718 Y62.93 E.26037
G1 X115.183 Y62.93 E.01679
G1 X109.323 Y57.07 E.26037
G1 X108.789 Y57.07 E.01679
G1 X114.649 Y62.93 E.26037
G1 X114.115 Y62.93 E.01679
G1 X108.254 Y57.07 E.26037
G1 X107.72 Y57.07 E.01679
G1 X113.58 Y62.93 E.26037
G1 X113.046 Y62.93 E.01679
G1 X107.186 Y57.07 E.26037
G1 X106.651 Y57.07 E.01679
G1 X112.512 Y62.93 E.26037
G1 X111.977 Y62.93 E.01679
G1 X106.117 Y57.07 E.26037
G1 X105.583 Y57.07 E.01679
G1 X111.443 Y62.93 E.26037
G1 X110.909 Y62.93 E.01679
G1 X105.048 Y57.07 E.26037
G1 X104.514 Y57.07 E.01679
M73 P18 R11
G1 X110.374 Y62.93 E.26037
G1 X109.84 Y62.93 E.01679
G1 X103.98 Y57.07 E.26037
G1 X103.445 Y57.07 E.01679
G1 X109.306 Y62.93 E.26037
G1 X108.771 Y62.93 E.01679
G1 X102.911 Y57.07 E.26037
G1 X102.377 Y57.07 E.01679
G1 X108.237 Y62.93 E.26037
G1 X107.703 Y62.93 E.01679
G1 X101.842 Y57.07 E.26037
G1 X101.308 Y57.07 E.01679
G1 X107.168 Y62.93 E.26037
G1 X106.634 Y62.93 E.01679
G1 X100.774 Y57.07 E.26037
G1 X100.239 Y57.07 E.01679
G1 X106.1 Y62.93 E.26037
G1 X105.565 Y62.93 E.01679
G1 X99.705 Y57.07 E.26037
G1 X99.171 Y57.07 E.01679
G1 X105.031 Y62.93 E.26037
G1 X104.497 Y62.93 E.01679
G1 X98.636 Y57.07 E.26037
G1 X98.102 Y57.07 E.01679
G1 X103.962 Y62.93 E.26037
G1 X103.428 Y62.93 E.01679
G1 X97.568 Y57.07 E.26037
G1 X97.033 Y57.07 E.01679
G1 X102.894 Y62.93 E.26037
G1 X102.359 Y62.93 E.01679
G1 X96.499 Y57.07 E.26037
G1 X95.965 Y57.07 E.01679
G1 X101.825 Y62.93 E.26037
G1 X101.291 Y62.93 E.01679
G1 X95.43 Y57.07 E.26037
G1 X94.896 Y57.07 E.01679
M73 P19 R11
G1 X100.756 Y62.93 E.26037
G1 X100.222 Y62.93 E.01679
G1 X94.362 Y57.07 E.26037
G1 X93.827 Y57.07 E.01679
G1 X99.688 Y62.93 E.26037
G1 X99.153 Y62.93 E.01679
G1 X93.293 Y57.07 E.26037
G1 X92.759 Y57.07 E.01679
G1 X98.619 Y62.93 E.26037
G1 X98.085 Y62.93 E.01679
G1 X92.224 Y57.07 E.26037
G1 X91.69 Y57.07 E.01679
G1 X97.55 Y62.93 E.26037
G1 X97.016 Y62.93 E.01679
G1 X91.156 Y57.07 E.26037
G1 X90.621 Y57.07 E.01679
G1 X96.482 Y62.93 E.26037
G1 X95.947 Y62.93 E.01679
G1 X90.087 Y57.07 E.26037
G1 X89.553 Y57.07 E.01679
G1 X95.413 Y62.93 E.26037
G1 X94.879 Y62.93 E.01679
G1 X89.018 Y57.07 E.26037
G1 X88.484 Y57.07 E.01679
G1 X94.344 Y62.93 E.26037
G1 X93.81 Y62.93 E.01679
G1 X87.95 Y57.07 E.26037
G1 X87.415 Y57.07 E.01679
G1 X93.379 Y63.034 E.26498
G1 X93.308 Y63.072 E.00253
G1 X93.092 Y63.281 E.00945
G1 X86.881 Y57.07 E.27597
G1 X86.347 Y57.07 E.01679
G1 X92.948 Y63.671 E.2933
G1 X92.93 Y63.77 E.00316
G1 X92.93 Y64.188 E.01312
G1 X85.812 Y57.07 E.31625
G1 X85.278 Y57.07 E.01679
M73 P20 R11
G1 X92.93 Y64.722 E.34
G1 X92.931 Y65.257 E.01679
G1 X84.744 Y57.07 E.36375
G1 X84.209 Y57.07 E.01679
G1 X92.931 Y65.791 E.3875
G1 X92.931 Y66.326 E.01679
G1 X83.675 Y57.07 E.41125
G1 X83.141 Y57.07 E.01679
G1 X92.931 Y66.86 E.435
G1 X92.931 Y67.395 E.01679
M73 P20 R10
G1 X82.606 Y57.07 E.45874
G1 X82.072 Y57.07 E.01679
G1 X92.932 Y67.929 E.48249
G1 X92.932 Y68.464 E.01679
G1 X81.538 Y57.07 E.50624
G1 X81.003 Y57.07 E.01679
G1 X92.932 Y68.998 E.52999
G1 X92.932 Y69.533 E.01679
G1 X80.469 Y57.07 E.55374
G1 X79.935 Y57.07 E.01679
G1 X85.795 Y62.93 E.26037
G1 X85.261 Y62.93 E.01679
M73 P21 R10
G1 X79.4 Y57.07 E.26037
G1 X78.866 Y57.07 E.01679
G1 X84.726 Y62.93 E.26037
G1 X84.192 Y62.93 E.01679
G1 X78.332 Y57.07 E.26037
G1 X77.797 Y57.07 E.01679
G1 X83.658 Y62.93 E.26037
G1 X83.123 Y62.93 E.01679
G1 X77.263 Y57.07 E.26037
G1 X76.729 Y57.07 E.01679
G1 X82.589 Y62.93 E.26037
G1 X82.055 Y62.93 E.01679
G1 X76.194 Y57.07 E.26037
G1 X75.66 Y57.07 E.01679
G1 X81.52 Y62.93 E.26037
G1 X80.986 Y62.93 E.01679
G1 X75.126 Y57.07 E.26037
G1 X74.591 Y57.07 E.01679
G1 X80.452 Y62.93 E.26037
G1 X79.917 Y62.93 E.01679
G1 X74.057 Y57.07 E.26037
G1 X73.523 Y57.07 E.01679
