; generated by PrusaSlicer 2.5.0+win64 on 2023-02-18 at 02:12:01 UTC


;
;

;
;
; 

; external perimeters extrusion width = 0.45mm
; perimeters extrusion width = 0.45mm
; infill extrusion width = 0.45mm
; solid infill extrusion width = 0.45mm
; top infill extrusion width = 0.40mm
; first layer extrusion width = 0.42mm

; external perimeters extrusion width = 0.45mm
; perimeters extrusion width = 0.45mm
; infill extrusion width = 0.45mm
; solid infill extrusion width = 0.45mm
; top infill extrusion width = 0.40mm
; first layer extrusion width = 0.42mm

; external perimeters extrusion width = 0.45mm
; perimeters extrusion width = 0.45mm
; infill extrusion width = 0.45mm
; solid infill extrusion width = 0.45mm
; top infill extrusion width = 0.40mm
; first layer extrusion width = 0.42mm

; external perimeters extrusion width = 0.45mm
; perimeters extrusion width = 0.45mm
; infill extrusion width = 0.45mm
; solid infill extrusion width = 0.45mm
; top infill extrusion width = 0.40mm
; first layer extrusion width = 0.42mm

M73 P0 R65
M201 X2500 Y2500 Z400 E5000 ; sets maximum accelerations, mm/sec^2
M203 X180 Y180 Z12 E80 ; sets maximum feedrates, mm / sec
M204 P1250 R1250 T2500 ; sets acceleration (P, T) and retract acceleration (R), mm/sec^2
M205 X8.00 Y8.00 Z2.00 E10.00 ; sets the jerk limits, mm/sec
M205 S0 T0 ; sets the minimum extruding and travel feed rate, mm/sec
M107
;TYPE:Custom
M862.3 P "MINI" ; printer model check
G90 ; use absolute coordinates
M83 ; extruder relative mode
M104 S170 ; set extruder temp for bed leveling
M140 S60 ; set bed temp
M109 R170 ; wait for bed leveling temp
M190 S60 ; wait for bed temp
M204 T1250 ; set travel acceleration
G28 ; home all without mesh bed level
G29 ; mesh bed leveling 
M204 T2500 ; restore travel acceleration
M104 S215 ; set extruder temp
G92 E0
G1 Y-2 X179 F2400
G1 Z3 F720
M109 S215 ; wait for extruder temp

; intro line
G1 X170 F1000
G1 Z0.2 F720
G1 X110 E8 F900
G1 X40 E10 F700
G92 E0

M221 S95 ; set flow
G21 ; set units to millimeters
G90 ; use absolute coordinates
M83 ; use relative distances for extrusion
M900 K0.2 ; Filament gcode LA 1.5
; ; Filament gcode LA 1.0
M107
;LAYER_CHANGE
;Z:0.2
;HEIGHT:0.2
;BEFORE_LAYER_CHANGE
G92 E0.0
;0.2


G1 E-3.2 F4200
G1 Z.2 F720
;AFTER_LAYER_CHANGE
;0.2
G1 Z.4
G1 X5.238 Y25.978 F9000
G1 Z.2 F720
G1 E3.2 F2400
M204 P800
;TYPE:Skirt/Brim
;WIDTH:0.42
G1 F1200
G1 X83.382 Y13.793 E2.47976
G1 X88.919 Y13.766 E.17361
M73 P0 R64
G1 X135.449 Y13.781 E1.45892
G1 X136.756 Y14.173 E.04278
G1 X137.591 Y15.129 E.0398
G1 X158.728 Y59.135 E1.53069
G1 X158.898 Y59.614 E.01592
G1 X177.679 Y138.48 E2.54194
G1 X177.743 Y139.053 E.0181
G1 X177.511 Y163.052 E.7525
G1 X177.107 Y164.355 E.04278
G1 X175.533 Y165.373 E.05877
G1 X98.914 Y178.405 E2.43682
G1 X46.816 Y178.438 E1.63352
G1 X45.509 Y178.047 E.04278
G1 X44.673 Y177.091 E.0398
G1 X23.361 Y132.641 E1.54562
G1 X3.299 Y52.907 E2.57794
M73 P1 R64
G1 X3.227 Y52.327 E.01832
G1 X3.227 Y28.327 E.7525
G1 X3.619 Y27.02 E.04278
G1 X5.188 Y26.01 E.05849
M204 P1000
; printing object estate_duchy_province_colony_dividers.stl_2 id:1 copy 0
G1 E-2.24 F4200
;WIPE_START
G1 F7200
G1 X6.814 Y25.756 E-.912
;WIPE_END
G1 E-.048 F4200
G1 Z.4 F720
G1 X56.28 Y51.561 F9000
G1 Z.2 F720
G1 E3.2 F2400
M204 P800
;TYPE:Perimeter
;WIDTH:0.419999
G1 F1200
G1 X56.069 Y51.635 E.00701
G1 X55.877 Y51.852 E.0091
G1 X55.817 Y52.105 E.00815
G1 X55.817 Y88.548 E1.14264
G1 X55.827 Y88.652 E.00328
G1 X55.931 Y88.888 E.00805
G1 X56.166 Y89.07 E.00933
G1 X56.383 Y89.114 E.00696
G1 X77.667 Y89.114 E.66736
G1 X77.667 Y95.54 E.20148
G1 X27.542 Y95.54 E1.57166
G1 X27.542 Y89.114 E.20148
G1 X48.826 Y89.114 E.66736
G1 X48.924 Y89.105 E.00308
G1 X49.137 Y89.02 E.00721
G1 X49.319 Y88.825 E.00835
G1 X49.392 Y88.548 E.00899
G1 X49.392 Y52.105 E1.14264
G1 X49.384 Y52.012 E.00293
G1 X49.297 Y51.791 E.00744
G1 X49.079 Y51.599 E.0091
G1 X48.826 Y51.54 E.00815
G1 X6.392 Y51.54 E1.3305
G1 X6.392 Y45.114 E.20148
G1 X48.919 Y45.106 E1.33341
G1 X49.14 Y45.019 E.00744
G1 X49.332 Y44.801 E.0091
G1 X49.392 Y44.548 E.00815
G1 X49.382 Y36.001 E.26799
G1 X49.278 Y35.766 E.00805
G1 X49.044 Y35.583 E.00933
G1 X48.826 Y35.54 E.00696
G1 X6.392 Y35.54 E1.3305
G1 X6.392 Y29.114 E.20148
G1 X98.817 Y29.114 E2.89794
G1 X98.817 Y35.54 E.20148
G1 X56.383 Y35.54 E1.3305
G1 X56.285 Y35.548 E.00308
G1 X56.072 Y35.633 E.00721
G1 X55.89 Y35.828 E.00835
G1 X55.817 Y36.105 E.00899
G1 X55.817 Y44.548 E.26472
G1 X55.912 Y44.862 E.01028
G1 X56.13 Y45.054 E.0091
G1 X56.383 Y45.114 E.00815
G1 X98.817 Y45.114 E1.3305
G1 X98.817 Y51.54 E.20148
G1 X56.337 Y51.542 E1.33195
M204 P1000
G1 X56.383 Y51.917 F9000
M204 P800
;TYPE:External perimeter
G1 F1200
G1 X56.262 Y51.96 E.00402
G1 X56.195 Y52.105 E.00501
G1 X56.195 Y88.548 E1.14264
G1 X56.253 Y88.685 E.00466
M73 P1 R63
G1 X56.383 Y88.737 E.00439
G1 X78.045 Y88.737 E.67918
G1 X78.045 Y95.917 E.22512
G1 X27.165 Y95.917 E1.5953
G1 X27.165 Y88.737 E.22512
M73 P2 R63
G1 X48.826 Y88.737 E.67918
G1 X48.956 Y88.685 E.00439
G1 X49.015 Y88.548 E.00466
G1 X49.015 Y52.105 E1.14264
G1 X48.971 Y51.985 E.00402
G1 X48.826 Y51.917 E.00501
G1 X6.015 Y51.917 E1.34232
G1 X6.015 Y44.737 E.22512
G1 X48.826 Y44.737 E1.34232
G1 X48.947 Y44.693 E.00402
G1 X49.015 Y44.548 E.00501
G1 X49.015 Y36.105 E.26472
G1 X48.956 Y35.969 E.00466
G1 X48.826 Y35.917 E.00439
G1 X6.015 Y35.917 E1.34232
G1 X6.015 Y28.737 E.22512
G1 X99.195 Y28.737 E2.92159
G1 X99.195 Y35.917 E.22512
G1 X56.383 Y35.917 E1.34232
G1 X56.253 Y35.969 E.00439
G1 X56.195 Y36.105 E.00466
G1 X56.195 Y44.548 E.26472
G1 X56.238 Y44.669 E.00402
G1 X56.383 Y44.737 E.00501
G1 X99.195 Y44.737 E1.34232
G1 X99.195 Y51.917 E.22512
G1 X56.443 Y51.917 E1.34044
M204 P1000
G1 X56.29 Y51.828 F9000
G1 E-2.24 F4200
;WIPE_START
G1 F7200
G1 X56.262 Y51.96 E-.10302
G1 X56.195 Y52.105 E-.08863
G1 X56.195 Y53.405 E-.72034
;WIPE_END
G1 E-.048 F4200
G1 Z.4 F720
G1 X98.704 Y46.021 F9000
G1 Z.2 F720
G1 E3.2 F2400
M204 P800
;TYPE:Solid infill
;WIDTH:0.420753
G1 F1200
G1 X98.08 Y45.396 E.02774
G1 X97.545 Y45.396 E.01679
G1 X98.535 Y46.385 E.04395
G1 X98.535 Y46.92 E.01679
G1 X97.011 Y45.396 E.0677
G1 X96.477 Y45.396 E.01679
G1 X98.535 Y47.454 E.09144
G1 X98.535 Y47.989 E.01679
G1 X95.942 Y45.396 E.11519
G1 X95.408 Y45.396 E.01679
G1 X98.535 Y48.523 E.13894
G1 X98.535 Y49.057 E.01679
G1 X94.873 Y45.396 E.16268
G1 X94.339 Y45.396 E.01679
G1 X98.535 Y49.592 E.18643
G1 X98.535 Y50.126 E.01679
G1 X93.804 Y45.395 E.21018
G1 X93.27 Y45.395 E.01679
G1 X98.535 Y50.66 E.23392
G1 X98.535 Y51.195 E.01679
G1 X92.735 Y45.395 E.25767
G1 X92.201 Y45.395 E.01679
G1 X98.063 Y51.257 E.26044
G1 X97.528 Y51.257 E.01679
G1 X91.666 Y45.395 E.26045
G1 X91.132 Y45.395 E.01679
G1 X96.994 Y51.257 E.26045
G1 X96.46 Y51.257 E.01679
G1 X90.597 Y45.395 E.26046
G1 X90.063 Y45.394 E.01679
G1 X95.925 Y51.257 E.26046
G1 X95.391 Y51.257 E.01679
G1 X89.528 Y45.394 E.26047
G1 X88.994 Y45.394 E.01679
G1 X94.857 Y51.257 E.26048
G1 X94.322 Y51.257 E.01679
G1 X88.46 Y45.394 E.26048
G1 X87.925 Y45.394 E.01679
G1 X93.788 Y51.257 E.26049
G1 X93.254 Y51.257 E.01679
G1 X87.391 Y45.394 E.26049
G1 X86.856 Y45.394 E.01679
G1 X92.719 Y51.257 E.2605
G1 X92.185 Y51.257 E.01679
G1 X86.322 Y45.394 E.2605
G1 X85.787 Y45.393 E.01679
G1 X91.651 Y51.257 E.26051
G1 X91.116 Y51.257 E.01679
G1 X85.253 Y45.393 E.26052
G1 X84.718 Y45.393 E.01679
G1 X90.582 Y51.257 E.26052
G1 X90.048 Y51.257 E.01679
G1 X84.184 Y45.393 E.26053
G1 X83.649 Y45.393 E.01679
G1 X89.513 Y51.257 E.26053
G1 X88.979 Y51.257 E.01679
G1 X83.115 Y45.393 E.26054
G1 X82.58 Y45.393 E.01679
G1 X88.445 Y51.257 E.26054
G1 X87.91 Y51.257 E.01679
G1 X82.046 Y45.393 E.26055
G1 X81.511 Y45.392 E.01679
G1 X87.376 Y51.257 E.26056
G1 X86.842 Y51.257 E.01679
G1 X80.977 Y45.392 E.26056
G1 X80.443 Y45.392 E.01679
M73 P3 R63
G1 X86.307 Y51.257 E.26057
G1 X85.773 Y51.257 E.01679
G1 X79.908 Y45.392 E.26057
G1 X79.374 Y45.392 E.01679
G1 X85.239 Y51.257 E.26058
G1 X84.704 Y51.257 E.01679
G1 X78.839 Y45.392 E.26059
G1 X78.305 Y45.392 E.01679
G1 X84.17 Y51.257 E.26059
G1 X83.636 Y51.257 E.01679
G1 X77.77 Y45.392 E.2606
G1 X77.236 Y45.391 E.01679
G1 X83.101 Y51.257 E.2606
G1 X82.567 Y51.257 E.01679
G1 X76.701 Y45.391 E.26061
G1 X76.167 Y45.391 E.01679
G1 X82.033 Y51.257 E.26061
G1 X81.498 Y51.257 E.01679
G1 X75.632 Y45.391 E.26062
G1 X75.098 Y45.391 E.01679
G1 X80.964 Y51.257 E.26063
G1 X80.429 Y51.257 E.01679
G1 X74.563 Y45.391 E.26063
G1 X74.029 Y45.391 E.01679
G1 X79.895 Y51.257 E.26064
G1 X79.361 Y51.257 E.01679
G1 X73.494 Y45.39 E.26064
G1 X72.96 Y45.39 E.01679
G1 X78.826 Y51.257 E.26065
G1 X78.292 Y51.257 E.01679
G1 X72.426 Y45.39 E.26065
G1 X71.891 Y45.39 E.01679
G1 X77.758 Y51.257 E.26066
G1 X77.223 Y51.257 E.01679
G1 X71.357 Y45.39 E.26067
G1 X70.822 Y45.39 E.01679
G1 X76.689 Y51.257 E.26067
G1 X76.155 Y51.257 E.01679
G1 X70.288 Y45.39 E.26068
G1 X69.753 Y45.39 E.01679
G1 X75.62 Y51.257 E.26068
G1 X75.086 Y51.257 E.01679
G1 X69.219 Y45.389 E.26069
G1 X68.684 Y45.389 E.01679
G1 X74.552 Y51.257 E.26069
G1 X74.017 Y51.257 E.01679
G1 X68.15 Y45.389 E.2607
G1 X67.615 Y45.389 E.01679
G1 X73.483 Y51.257 E.26071
G1 X72.949 Y51.257 E.01679
G1 X67.081 Y45.389 E.26071
G1 X66.546 Y45.389 E.01679
G1 X72.414 Y51.257 E.26072
G1 X71.88 Y51.257 E.01679
G1 X66.012 Y45.389 E.26072
G1 X65.477 Y45.389 E.01679
G1 X71.346 Y51.257 E.26073
G1 X70.811 Y51.257 E.01679
G1 X64.943 Y45.388 E.26073
G1 X64.409 Y45.388 E.01679
G1 X70.277 Y51.257 E.26074
G1 X69.743 Y51.257 E.01679
G1 X63.874 Y45.388 E.26075
G1 X63.34 Y45.388 E.01679
G1 X69.208 Y51.257 E.26075
G1 X68.674 Y51.257 E.01679
G1 X62.805 Y45.388 E.26076
G1 X62.271 Y45.388 E.01679
G1 X68.14 Y51.257 E.26076
G1 X67.605 Y51.257 E.01679
G1 X61.736 Y45.388 E.26077
G1 X61.202 Y45.388 E.01679
G1 X67.071 Y51.257 E.26077
G1 X66.537 Y51.257 E.01679
G1 X60.667 Y45.387 E.26078
G1 X60.133 Y45.387 E.01679
G1 X66.002 Y51.257 E.26079
G1 X65.468 Y51.257 E.01679
G1 X59.598 Y45.387 E.26079
G1 X59.064 Y45.387 E.01679
G1 X64.934 Y51.257 E.2608
G1 X64.399 Y51.257 E.01679
G1 X58.529 Y45.387 E.2608
G1 X57.995 Y45.387 E.01679
M73 P3 R62
G1 X63.865 Y51.257 E.26081
G1 X63.331 Y51.257 E.01679
G1 X57.461 Y45.387 E.26082
G1 X56.926 Y45.386 E.01679
G1 X62.966 Y51.427 E.26836
M204 P1000
G1 E-2.24 F4200
;WIPE_START
G1 F7200
G1 X61.802 Y50.263 E-.912
;WIPE_END
G1 E-.048 F4200
G1 Z.4 F720
G1 X97.94 Y29.227 F9000
G1 Z.2 F720
G1 E3.2 F2400
M204 P800
G1 F1200
G1 X98.535 Y29.821 E.0264
G1 X98.535 Y30.355 E.01679
G1 X97.576 Y29.397 E.0426
G1 X97.041 Y29.397 E.01679
G1 X98.535 Y30.89 E.06634
G1 X98.535 Y31.424 E.01679
G1 X96.507 Y29.397 E.09008
G1 X95.973 Y29.397 E.01679
G1 X98.535 Y31.958 E.11382
G1 X98.535 Y32.493 E.01679
G1 X95.438 Y29.397 E.13756
G1 X94.904 Y29.397 E.01679
G1 X98.535 Y33.027 E.1613
G1 X98.535 Y33.561 E.01679
G1 X94.37 Y29.397 E.18505
G1 X93.835 Y29.397 E.01679
G1 X98.535 Y34.096 E.20879
G1 X98.535 Y34.63 E.01679
G1 X93.301 Y29.397 E.23253
G1 X92.767 Y29.397 E.01679
G1 X98.535 Y35.164 E.25627
G1 X98.535 Y35.257 E.0029
G1 X98.093 Y35.257 E.01388
G1 X92.232 Y29.397 E.26037
G1 X91.698 Y29.397 E.01679
G1 X97.558 Y35.257 E.26037
G1 X97.024 Y35.257 E.01679
G1 X91.164 Y29.397 E.26037
G1 X90.629 Y29.397 E.01679
G1 X96.49 Y35.257 E.26037
G1 X95.955 Y35.257 E.01679
G1 X90.095 Y29.397 E.26037
G1 X89.561 Y29.397 E.01679
G1 X95.421 Y35.257 E.26037
G1 X94.887 Y35.257 E.01679
G1 X89.026 Y29.397 E.26037
G1 X88.492 Y29.397 E.01679
G1 X94.352 Y35.257 E.26037
G1 X93.818 Y35.257 E.01679
G1 X87.958 Y29.397 E.26037
G1 X87.423 Y29.397 E.01679
G1 X93.284 Y35.257 E.26037
G1 X92.749 Y35.257 E.01679
G1 X86.889 Y29.397 E.26037
G1 X86.355 Y29.397 E.01679
G1 X92.215 Y35.257 E.26037
G1 X91.681 Y35.257 E.01679
G1 X85.82 Y29.397 E.26037
G1 X85.286 Y29.397 E.01679
G1 X91.146 Y35.257 E.26037
G1 X90.612 Y35.257 E.01679
G1 X84.752 Y29.397 E.26037
G1 X84.217 Y29.397 E.01679
G1 X90.078 Y35.257 E.26037
G1 X89.543 Y35.257 E.01679
G1 X83.683 Y29.397 E.26037
G1 X83.149 Y29.397 E.01679
G1 X89.009 Y35.257 E.26037
G1 X88.475 Y35.257 E.01679
G1 X82.614 Y29.397 E.26037
G1 X82.08 Y29.397 E.01679
G1 X87.94 Y35.257 E.26037
G1 X87.406 Y35.257 E.01679
G1 X81.546 Y29.397 E.26037
G1 X81.011 Y29.397 E.01679
G1 X86.872 Y35.257 E.26037
G1 X86.337 Y35.257 E.01679
G1 X80.477 Y29.397 E.26037
G1 X79.943 Y29.397 E.01679
G1 X85.803 Y35.257 E.26037
G1 X85.269 Y35.257 E.01679
G1 X79.408 Y29.397 E.26037
G1 X78.874 Y29.397 E.01679
G1 X84.734 Y35.257 E.26037
G1 X84.2 Y35.257 E.01679
G1 X78.34 Y29.397 E.26037
G1 X77.805 Y29.397 E.01679
G1 X83.666 Y35.257 E.26037
G1 X83.131 Y35.257 E.01679
G1 X77.271 Y29.397 E.26037
G1 X76.737 Y29.397 E.01679
G1 X82.597 Y35.257 E.26037
G1 X82.063 Y35.257 E.01679
G1 X76.202 Y29.397 E.26037
G1 X75.668 Y29.397 E.01679
G1 X81.528 Y35.257 E.26037
G1 X80.994 Y35.257 E.01679
G1 X75.134 Y29.397 E.26037
G1 X74.599 Y29.397 E.01679
G1 X80.46 Y35.257 E.26037
G1 X79.925 Y35.257 E.01679
M73 P4 R62
G1 X74.065 Y29.397 E.26037
G1 X73.531 Y29.397 E.01679
G1 X79.391 Y35.257 E.26037
G1 X78.857 Y35.257 E.01679
G1 X72.996 Y29.397 E.26037
G1 X72.462 Y29.397 E.01679
G1 X78.322 Y35.257 E.26037
G1 X77.788 Y35.257 E.01679
G1 X71.928 Y29.397 E.26037
G1 X71.393 Y29.397 E.01679
G1 X77.254 Y35.257 E.26037
G1 X76.719 Y35.257 E.01679
G1 X70.859 Y29.397 E.26037
G1 X70.325 Y29.397 E.01679
G1 X76.185 Y35.257 E.26037
G1 X75.651 Y35.257 E.01679
G1 X69.79 Y29.397 E.26037
G1 X69.256 Y29.397 E.01679
G1 X75.116 Y35.257 E.26037
G1 X74.582 Y35.257 E.01679
G1 X68.722 Y29.397 E.26037
G1 X68.187 Y29.397 E.01679
G1 X74.048 Y35.257 E.26037
G1 X73.513 Y35.257 E.01679
G1 X67.653 Y29.397 E.26037
G1 X67.119 Y29.397 E.01679
G1 X72.979 Y35.257 E.26037
G1 X72.445 Y35.257 E.01679
G1 X66.584 Y29.397 E.26037
G1 X66.05 Y29.397 E.01679
G1 X71.91 Y35.257 E.26037
G1 X71.376 Y35.257 E.01679
G1 X65.516 Y29.397 E.26037
G1 X64.981 Y29.397 E.01679
G1 X70.842 Y35.257 E.26037
G1 X70.307 Y35.257 E.01679
G1 X64.447 Y29.397 E.26037
G1 X63.913 Y29.397 E.01679
G1 X69.773 Y35.257 E.26037
G1 X69.239 Y35.257 E.01679
G1 X63.378 Y29.397 E.26037
G1 X62.844 Y29.397 E.01679
G1 X68.704 Y35.257 E.26037
G1 X68.17 Y35.257 E.01679
G1 X62.31 Y29.397 E.26037
G1 X61.775 Y29.397 E.01679
G1 X67.636 Y35.257 E.26037
G1 X67.101 Y35.257 E.01679
G1 X61.241 Y29.397 E.26037
G1 X60.707 Y29.397 E.01679
G1 X66.567 Y35.257 E.26037
G1 X66.033 Y35.257 E.01679
G1 X60.172 Y29.397 E.26037
G1 X59.638 Y29.397 E.01679
G1 X65.498 Y35.257 E.26037
G1 X64.964 Y35.257 E.01679
G1 X59.104 Y29.397 E.26037
G1 X58.569 Y29.397 E.01679
G1 X64.429 Y35.257 E.26037
G1 X63.895 Y35.257 E.01679
G1 X58.035 Y29.397 E.26037
G1 X57.501 Y29.397 E.01679
G1 X63.361 Y35.257 E.26037
G1 X62.826 Y35.257 E.01679
G1 X56.966 Y29.397 E.26037
G1 X56.432 Y29.397 E.01679
G1 X62.292 Y35.257 E.26037
G1 X61.758 Y35.257 E.01679
G1 X55.898 Y29.397 E.26037
G1 X55.363 Y29.397 E.01679
G1 X61.223 Y35.257 E.26037
G1 X60.689 Y35.257 E.01679
G1 X54.829 Y29.397 E.26037
G1 X54.295 Y29.397 E.01679
G1 X60.155 Y35.257 E.26037
G1 X59.62 Y35.257 E.01679
G1 X53.76 Y29.397 E.26037
G1 X53.226 Y29.397 E.01679
G1 X59.086 Y35.257 E.26037
G1 X58.552 Y35.257 E.01679
G1 X52.692 Y29.397 E.26037
G1 X52.157 Y29.397 E.01679
G1 X58.017 Y35.257 E.26037
G1 X57.483 Y35.257 E.01679
G1 X51.623 Y29.397 E.26037
G1 X51.089 Y29.397 E.01679
G1 X56.949 Y35.257 E.26037
G1 X56.414 Y35.257 E.01679
G1 X50.554 Y29.397 E.26037
G1 X50.02 Y29.397 E.01679
G1 X55.984 Y35.36 E.26498
G1 X55.913 Y35.398 E.00253
G1 X55.697 Y35.608 E.00945
G1 X49.486 Y29.397 E.27597
G1 X48.951 Y29.397 E.01679
G1 X55.553 Y35.998 E.2933
G1 X55.535 Y36.097 E.00316
G1 X55.535 Y36.515 E.01312
G1 X48.417 Y29.397 E.31625
G1 X47.883 Y29.397 E.01679
G1 X55.535 Y37.049 E.34
G1 X55.535 Y37.584 E.01679
G1 X47.348 Y29.397 E.36375
G1 X46.814 Y29.397 E.01679
G1 X55.535 Y38.118 E.3875
G1 X55.536 Y38.653 E.01679
G1 X46.28 Y29.397 E.41125
G1 X45.745 Y29.397 E.01679
G1 X55.536 Y39.187 E.435
G1 X55.536 Y39.722 E.01679
G1 X45.211 Y29.397 E.45874
G1 X44.676 Y29.397 E.01679
G1 X55.536 Y40.256 E.48249
G1 X55.536 Y40.791 E.01679
G1 X44.142 Y29.397 E.50624
G1 X43.608 Y29.397 E.01679
G1 X55.536 Y41.325 E.52999
G1 X55.537 Y41.86 E.01679
G1 X43.073 Y29.397 E.55374
G1 X42.539 Y29.397 E.01679
