; generated by PrusaSlicer 2.5.0+win64 on 2023-02-17 at 22:26:06 UTC


;
;

;
;
; 

; external perimeters extrusion width = 0.45mm
; perimeters extrusion width = 0.45mm
; infill extrusion width = 0.45mm
; solid infill extrusion width = 0.45mm
; top infill extrusion width = 0.40mm
; first layer extrusion width = 0.42mm

; external perimeters extrusion width = 0.45mm
; perimeters extrusion width = 0.45mm
; infill extrusion width = 0.45mm
; solid infill extrusion width = 0.45mm
; top infill extrusion width = 0.40mm
; first layer extrusion width = 0.42mm

M73 P0 R32
M201 X2500 Y2500 Z400 E5000 ; sets maximum accelerations, mm/sec^2
M203 X180 Y180 Z12 E80 ; sets maximum feedrates, mm / sec
M204 P1250 R1250 T2500 ; sets acceleration (P, T) and retract acceleration (R), mm/sec^2
M205 X8.00 Y8.00 Z2.00 E10.00 ; sets the jerk limits, mm/sec
M205 S0 T0 ; sets the minimum extruding and travel feed rate, mm/sec
M107
;TYPE:Custom
M862.3 P "MINI" ; printer model check
G90 ; use absolute coordinates
M83 ; extruder relative mode
M104 S170 ; set extruder temp for bed leveling
M140 S60 ; set bed temp
M109 R170 ; wait for bed leveling temp
M190 S60 ; wait for bed temp
M204 T1250 ; set travel acceleration
G28 ; home all without mesh bed level
G29 ; mesh bed leveling 
M204 T2500 ; restore travel acceleration
M104 S215 ; set extruder temp
G92 E0
G1 Y-2 X179 F2400
G1 Z3 F720
M109 S215 ; wait for extruder temp

; intro line
G1 X170 F1000
G1 Z0.2 F720
G1 X110 E8 F900
G1 X40 E10 F700
G92 E0

M221 S95 ; set flow
G21 ; set units to millimeters
G90 ; use absolute coordinates
M83 ; use relative distances for extrusion
M900 K0.2 ; Filament gcode LA 1.5
; ; Filament gcode LA 1.0
M107
;LAYER_CHANGE
;Z:0.2
;HEIGHT:0.2
;BEFORE_LAYER_CHANGE
G92 E0.0
;0.2


G1 E-3.2 F4200
G1 Z.2 F720
;AFTER_LAYER_CHANGE
;0.2
G1 Z.4
G1 X17.278 Y102.884 F9000
G1 Z.2 F720
G1 E3.2 F2400
M204 P800
;TYPE:Skirt/Brim
;WIDTH:0.42
G1 F1200
G1 X88.276 Y90.961 E2.25727
G1 X140.369 Y90.928 E1.63336
M73 P1 R32
G1 X141.676 Y91.319 E.04278
G1 X142.512 Y92.275 E.0398
G1 X163.662 Y136.275 E1.53069
G1 X163.896 Y137.305 E.03312
G1 X163.896 Y161.305 E.7525
G1 X163.505 Y162.612 E.04278
G1 X161.913 Y163.649 E.05957
G1 X84.774 Y176.603 E2.45251
G1 X32.68 Y176.636 E1.63336
G1 X31.373 Y176.245 E.04278
G1 X30.538 Y175.289 E.0398
G1 X9.388 Y131.289 E1.53069
G1 X9.153 Y130.259 E.03312
M73 P1 R31
G1 X9.153 Y106.259 E.7525
G1 X9.545 Y104.952 E.04278
G1 X11.137 Y103.915 E.05957
G1 X17.218 Y102.894 E.19336
M204 P1000
; printing object silver_and_gold_dividers.stl_1 id:0 copy 0
G1 E-2.24 F4200
;WIPE_START
G1 F7200
G1 X18.841 Y102.621 E-.912
;WIPE_END
G1 E-.048 F4200
G1 Z.4 F720
G1 X61.748 Y166.532 F9000
G1 Z.2 F720
G1 E3.2 F2400
M204 P800
;TYPE:Perimeter
;WIDTH:0.419999
G1 F1200
G1 X61.753 Y166.585 E.00167
G1 X61.856 Y166.82 E.00805
G1 X62.091 Y167.003 E.00933
G1 X62.309 Y167.046 E.00696
G1 X83.593 Y167.046 E.66736
G1 X83.593 Y173.472 E.20148
M73 P2 R31
G1 X33.467 Y173.472 E1.57166
G1 X33.467 Y167.046 E.20148
G1 X54.752 Y167.046 E.66736
G1 X54.85 Y167.038 E.00308
G1 X55.063 Y166.953 E.00721
G1 X55.245 Y166.758 E.00835
G1 X55.317 Y166.481 E.00899
G1 X55.317 Y130.038 E1.14264
G1 X55.31 Y129.945 E.00293
G1 X55.222 Y129.724 E.00744
G1 X55.005 Y129.532 E.0091
G1 X54.752 Y129.472 E.00815
G1 X12.317 Y129.472 E1.3305
G1 X12.317 Y123.046 E.20148
G1 X54.845 Y123.038 E1.33341
G1 X55.066 Y122.951 E.00744
G1 X55.258 Y122.734 E.0091
G1 X55.317 Y122.481 E.00815
G1 X55.317 Y114.038 E.26472
G1 X55.308 Y113.933 E.00328
G1 X55.204 Y113.698 E.00805
G1 X54.969 Y113.516 E.00933
G1 X54.752 Y113.472 E.00696
G1 X12.317 Y113.472 E1.3305
G1 X12.317 Y107.046 E.20148
G1 X104.743 Y107.046 E2.89794
G1 X104.743 Y113.472 E.20148
G1 X62.309 Y113.472 E1.3305
G1 X62.211 Y113.481 E.00308
M73 P3 R31
G1 X61.998 Y113.565 E.00721
G1 X61.816 Y113.76 E.00835
G1 X61.743 Y114.038 E.00899
G1 X61.743 Y122.481 E.26472
G1 X61.838 Y122.794 E.01028
G1 X62.056 Y122.986 E.0091
G1 X62.309 Y123.046 E.00815
G1 X104.743 Y123.046 E1.3305
G1 X104.743 Y129.472 E.20148
G1 X62.309 Y129.472 E1.3305
G1 X61.995 Y129.567 E.01028
G1 X61.803 Y129.785 E.0091
G1 X61.743 Y130.038 E.00815
G1 X61.743 Y166.472 E1.14237
M204 P1000
G1 X62.12 Y166.481 F9000
M204 P800
;TYPE:External perimeter
G1 F1200
G1 X62.179 Y166.617 E.00466
G1 X62.309 Y166.669 E.00439
G1 X83.97 Y166.669 E.67918
G1 X83.97 Y173.849 E.22512
G1 X33.09 Y173.849 E1.5953
G1 X33.09 Y166.669 E.22512
G1 X54.752 Y166.669 E.67918
G1 X54.882 Y166.617 E.00439
G1 X54.94 Y166.481 E.00466
G1 X54.94 Y130.038 E1.14264
G1 X54.897 Y129.917 E.00402
G1 X54.752 Y129.849 E.00501
G1 X11.94 Y129.849 E1.34232
G1 X11.94 Y122.669 E.22512
G1 X54.752 Y122.669 E1.34232
G1 X54.873 Y122.625 E.00402
M73 P4 R31
G1 X54.94 Y122.481 E.00501
G1 X54.94 Y114.038 E.26472
G1 X54.882 Y113.901 E.00466
G1 X54.752 Y113.849 E.00439
G1 X11.94 Y113.849 E1.34232
G1 X11.94 Y106.669 E.22512
G1 X105.12 Y106.669 E2.92159
G1 X105.12 Y113.849 E.22512
G1 X62.309 Y113.849 E1.34232
G1 X62.179 Y113.901 E.00439
G1 X62.12 Y114.038 E.00466
G1 X62.12 Y122.481 E.26472
G1 X62.164 Y122.601 E.00402
G1 X62.309 Y122.669 E.00501
G1 X105.12 Y122.669 E1.34232
G1 X105.12 Y129.849 E.22512
G1 X62.309 Y129.849 E1.34232
G1 X62.188 Y129.893 E.00402
M73 P4 R30
G1 X62.12 Y130.038 E.00501
G1 X62.12 Y166.421 E1.14076
M204 P1000
G1 X62.016 Y166.586 F9000
G1 E-2.24 F4200
;WIPE_START
G1 F7200
G1 X62.179 Y166.617 E-.11363
G1 X62.309 Y166.669 E-.07761
G1 X63.61 Y166.669 E-.72076
;WIPE_END
G1 E-.048 F4200
G1 Z.4 F720
G1 X104.63 Y123.953 F9000
G1 Z.2 F720
G1 E3.2 F2400
M204 P800
;TYPE:Solid infill
;WIDTH:0.420753
G1 F1200
G1 X104.006 Y123.329 E.02774
G1 X103.471 Y123.329 E.01679
G1 X104.461 Y124.318 E.04395
G1 X104.461 Y124.852 E.01679
G1 X102.937 Y123.329 E.0677
G1 X102.402 Y123.328 E.01679
G1 X104.461 Y125.387 E.09144
G1 X104.461 Y125.921 E.01679
G1 X101.868 Y123.328 E.11519
M73 P5 R30
G1 X101.333 Y123.328 E.01679
G1 X104.461 Y126.455 E.13894
G1 X104.461 Y126.99 E.01679
G1 X100.799 Y123.328 E.16268
G1 X100.265 Y123.328 E.01679
G1 X104.461 Y127.524 E.18643
G1 X104.461 Y128.058 E.01679
G1 X99.73 Y123.328 E.21018
G1 X99.196 Y123.328 E.01679
G1 X104.461 Y128.593 E.23392
G1 X104.461 Y129.127 E.01679
G1 X98.661 Y123.328 E.25767
G1 X98.127 Y123.327 E.01679
G1 X103.988 Y129.189 E.26044
G1 X103.454 Y129.189 E.01679
G1 X97.592 Y123.327 E.26045
G1 X97.058 Y123.327 E.01679
G1 X102.92 Y129.189 E.26045
G1 X102.385 Y129.189 E.01679
G1 X96.523 Y123.327 E.26046
G1 X95.989 Y123.327 E.01679
G1 X101.851 Y129.189 E.26046
G1 X101.317 Y129.189 E.01679
G1 X95.454 Y123.327 E.26047
G1 X94.92 Y123.327 E.01679
G1 X100.782 Y129.189 E.26048
G1 X100.248 Y129.189 E.01679
G1 X94.385 Y123.327 E.26048
G1 X93.851 Y123.326 E.01679
G1 X99.714 Y129.189 E.26049
G1 X99.179 Y129.189 E.01679
G1 X93.316 Y123.326 E.26049
G1 X92.782 Y123.326 E.01679
G1 X98.645 Y129.189 E.2605
G1 X98.111 Y129.189 E.01679
G1 X92.248 Y123.326 E.2605
G1 X91.713 Y123.326 E.01679
G1 X97.576 Y129.189 E.26051
G1 X97.042 Y129.189 E.01679
G1 X91.179 Y123.326 E.26052
G1 X90.644 Y123.326 E.01679
G1 X96.508 Y129.189 E.26052
G1 X95.973 Y129.189 E.01679
G1 X90.11 Y123.325 E.26053
G1 X89.575 Y123.325 E.01679
G1 X95.439 Y129.189 E.26053
G1 X94.905 Y129.189 E.01679
G1 X89.041 Y123.325 E.26054
G1 X88.506 Y123.325 E.01679
G1 X94.37 Y129.189 E.26054
G1 X93.836 Y129.189 E.01679
G1 X87.972 Y123.325 E.26055
G1 X87.437 Y123.325 E.01679
G1 X93.302 Y129.189 E.26056
G1 X92.767 Y129.189 E.01679
G1 X86.903 Y123.325 E.26056
G1 X86.368 Y123.325 E.01679
G1 X92.233 Y129.189 E.26057
G1 X91.699 Y129.189 E.01679
G1 X85.834 Y123.324 E.26057
G1 X85.299 Y123.324 E.01679
G1 X91.164 Y129.189 E.26058
G1 X90.63 Y129.189 E.01679
G1 X84.765 Y123.324 E.26059
G1 X84.231 Y123.324 E.01679
G1 X90.096 Y129.189 E.26059
G1 X89.561 Y129.189 E.01679
G1 X83.696 Y123.324 E.2606
G1 X83.162 Y123.324 E.01679
G1 X89.027 Y129.189 E.2606
G1 X88.493 Y129.189 E.01679
G1 X82.627 Y123.324 E.26061
G1 X82.093 Y123.324 E.01679
G1 X87.958 Y129.189 E.26061
G1 X87.424 Y129.189 E.01679
G1 X81.558 Y123.323 E.26062
G1 X81.024 Y123.323 E.01679
G1 X86.89 Y129.189 E.26063
G1 X86.355 Y129.189 E.01679
G1 X80.489 Y123.323 E.26063
G1 X79.955 Y123.323 E.01679
G1 X85.821 Y129.189 E.26064
G1 X85.287 Y129.189 E.01679
G1 X79.42 Y123.323 E.26064
G1 X78.886 Y123.323 E.01679
G1 X84.752 Y129.189 E.26065
G1 X84.218 Y129.189 E.01679
G1 X78.351 Y123.323 E.26065
G1 X77.817 Y123.323 E.01679
M73 P6 R30
G1 X83.684 Y129.189 E.26066
G1 X83.149 Y129.189 E.01679
G1 X77.282 Y123.322 E.26067
G1 X76.748 Y123.322 E.01679
G1 X82.615 Y129.189 E.26067
G1 X82.081 Y129.189 E.01679
G1 X76.214 Y123.322 E.26068
G1 X75.679 Y123.322 E.01679
G1 X81.546 Y129.189 E.26068
G1 X81.012 Y129.189 E.01679
G1 X75.145 Y123.322 E.26069
G1 X74.61 Y123.322 E.01679
G1 X80.478 Y129.189 E.26069
G1 X79.943 Y129.189 E.01679
G1 X74.076 Y123.322 E.2607
G1 X73.541 Y123.321 E.01679
G1 X79.409 Y129.189 E.26071
G1 X78.875 Y129.189 E.01679
G1 X73.007 Y123.321 E.26071
G1 X72.472 Y123.321 E.01679
G1 X78.34 Y129.189 E.26072
G1 X77.806 Y129.189 E.01679
G1 X71.938 Y123.321 E.26072
G1 X71.403 Y123.321 E.01679
G1 X77.272 Y129.189 E.26073
G1 X76.737 Y129.189 E.01679
G1 X70.869 Y123.321 E.26073
G1 X70.334 Y123.321 E.01679
G1 X76.203 Y129.189 E.26074
G1 X75.669 Y129.189 E.01679
G1 X69.8 Y123.321 E.26075
G1 X69.265 Y123.32 E.01679
G1 X75.134 Y129.189 E.26075
G1 X74.6 Y129.189 E.01679
G1 X68.731 Y123.32 E.26076
G1 X68.197 Y123.32 E.01679
G1 X74.066 Y129.189 E.26076
G1 X73.531 Y129.189 E.01679
G1 X67.662 Y123.32 E.26077
G1 X67.128 Y123.32 E.01679
G1 X72.997 Y129.189 E.26077
G1 X72.463 Y129.189 E.01679
G1 X66.593 Y123.32 E.26078
G1 X66.059 Y123.32 E.01679
G1 X71.928 Y129.189 E.26079
G1 X71.394 Y129.189 E.01679
G1 X65.524 Y123.32 E.26079
G1 X64.99 Y123.319 E.01679
G1 X70.86 Y129.189 E.2608
G1 X70.325 Y129.189 E.01679
G1 X64.455 Y123.319 E.2608
G1 X63.921 Y123.319 E.01679
G1 X69.791 Y129.189 E.26081
G1 X69.257 Y129.189 E.01679
G1 X63.386 Y123.319 E.26082
G1 X62.852 Y123.319 E.01679
G1 X68.892 Y129.359 E.26836
M204 P1000
G1 E-2.24 F4200
;WIPE_START
G1 F7200
G1 X67.728 Y128.195 E-.912
;WIPE_END
G1 E-.048 F4200
G1 Z.4 F720
G1 X103.866 Y107.159 F9000
G1 Z.2 F720
G1 E3.2 F2400
M204 P800
G1 F1200
G1 X104.461 Y107.753 E.0264
G1 X104.461 Y108.288 E.01679
G1 X103.502 Y107.329 E.0426
G1 X102.967 Y107.329 E.01679
G1 X104.461 Y108.822 E.06634
G1 X104.461 Y109.356 E.01679
G1 X102.433 Y107.329 E.09008
G1 X101.899 Y107.329 E.01679
G1 X104.461 Y109.891 E.11382
G1 X104.461 Y110.425 E.01679
G1 X101.364 Y107.329 E.13756
G1 X100.83 Y107.329 E.01679
G1 X104.461 Y110.96 E.1613
G1 X104.461 Y111.494 E.01679
G1 X100.296 Y107.329 E.18505
G1 X99.761 Y107.329 E.01679
G1 X104.461 Y112.028 E.20879
G1 X104.461 Y112.563 E.01679
G1 X99.227 Y107.329 E.23253
G1 X98.693 Y107.329 E.01679
G1 X104.461 Y113.097 E.25627
G1 X104.461 Y113.189 E.0029
G1 X104.019 Y113.189 E.01388
G1 X98.158 Y107.329 E.26037
G1 X97.624 Y107.329 E.01679
G1 X103.484 Y113.189 E.26037
G1 X102.95 Y113.189 E.01679
G1 X97.09 Y107.329 E.26037
G1 X96.555 Y107.329 E.01679
G1 X102.416 Y113.189 E.26037
G1 X101.881 Y113.189 E.01679
G1 X96.021 Y107.329 E.26037
G1 X95.487 Y107.329 E.01679
G1 X101.347 Y113.189 E.26037
G1 X100.813 Y113.189 E.01679
G1 X94.952 Y107.329 E.26037
M73 P7 R30
G1 X94.418 Y107.329 E.01679
G1 X100.278 Y113.189 E.26037
G1 X99.744 Y113.189 E.01679
G1 X93.884 Y107.329 E.26037
G1 X93.349 Y107.329 E.01679
G1 X99.21 Y113.189 E.26037
G1 X98.675 Y113.189 E.01679
G1 X92.815 Y107.329 E.26037
G1 X92.281 Y107.329 E.01679
G1 X98.141 Y113.189 E.26037
G1 X97.607 Y113.189 E.01679
G1 X91.746 Y107.329 E.26037
G1 X91.212 Y107.329 E.01679
G1 X97.072 Y113.189 E.26037
G1 X96.538 Y113.189 E.01679
G1 X90.678 Y107.329 E.26037
G1 X90.143 Y107.329 E.01679
G1 X96.004 Y113.189 E.26037
G1 X95.469 Y113.189 E.01679
G1 X89.609 Y107.329 E.26037
G1 X89.075 Y107.329 E.01679
G1 X94.935 Y113.189 E.26037
G1 X94.4 Y113.189 E.01679
G1 X88.54 Y107.329 E.26037
G1 X88.006 Y107.329 E.01679
G1 X93.866 Y113.189 E.26037
G1 X93.332 Y113.189 E.01679
G1 X87.472 Y107.329 E.26037
G1 X86.937 Y107.329 E.01679
G1 X92.797 Y113.189 E.26037
G1 X92.263 Y113.189 E.01679
G1 X86.403 Y107.329 E.26037
G1 X85.869 Y107.329 E.01679
G1 X91.729 Y113.189 E.26037
G1 X91.194 Y113.189 E.01679
G1 X85.334 Y107.329 E.26037
G1 X84.8 Y107.329 E.01679
G1 X90.66 Y113.189 E.26037
G1 X90.126 Y113.189 E.01679
G1 X84.266 Y107.329 E.26037
G1 X83.731 Y107.329 E.01679
G1 X89.591 Y113.189 E.26037
G1 X89.057 Y113.189 E.01679
G1 X83.197 Y107.329 E.26037
G1 X82.663 Y107.329 E.01679
G1 X88.523 Y113.189 E.26037
G1 X87.988 Y113.189 E.01679
G1 X82.128 Y107.329 E.26037
G1 X81.594 Y107.329 E.01679
G1 X87.454 Y113.189 E.26037
G1 X86.92 Y113.189 E.01679
G1 X81.06 Y107.329 E.26037
G1 X80.525 Y107.329 E.01679
G1 X86.385 Y113.189 E.26037
G1 X85.851 Y113.189 E.01679
G1 X79.991 Y107.329 E.26037
G1 X79.457 Y107.329 E.01679
G1 X85.317 Y113.189 E.26037
G1 X84.782 Y113.189 E.01679
G1 X78.922 Y107.329 E.26037
G1 X78.388 Y107.329 E.01679
G1 X84.248 Y113.189 E.26037
G1 X83.714 Y113.189 E.01679
G1 X77.854 Y107.329 E.26037
G1 X77.319 Y107.329 E.01679
G1 X83.179 Y113.189 E.26037
G1 X82.645 Y113.189 E.01679
G1 X76.785 Y107.329 E.26037
G1 X76.251 Y107.329 E.01679
G1 X82.111 Y113.189 E.26037
G1 X81.576 Y113.189 E.01679
G1 X75.716 Y107.329 E.26037
G1 X75.182 Y107.329 E.01679
G1 X81.042 Y113.189 E.26037
G1 X80.508 Y113.189 E.01679
G1 X74.647 Y107.329 E.26037
G1 X74.113 Y107.329 E.01679
G1 X79.973 Y113.189 E.26037
G1 X79.439 Y113.189 E.01679
M73 P7 R29
G1 X73.579 Y107.329 E.26037
G1 X73.044 Y107.329 E.01679
G1 X78.905 Y113.189 E.26037
G1 X78.37 Y113.189 E.01679
G1 X72.51 Y107.329 E.26037
G1 X71.976 Y107.329 E.01679
G1 X77.836 Y113.189 E.26037
M73 P8 R29
G1 X77.302 Y113.189 E.01679
G1 X71.441 Y107.329 E.26037
G1 X70.907 Y107.329 E.01679
G1 X76.767 Y113.189 E.26037
G1 X76.233 Y113.189 E.01679
G1 X70.373 Y107.329 E.26037
G1 X69.838 Y107.329 E.01679
G1 X75.699 Y113.189 E.26037
G1 X75.164 Y113.189 E.01679
G1 X69.304 Y107.329 E.26037
G1 X68.77 Y107.329 E.01679
G1 X74.63 Y113.189 E.26037
G1 X74.096 Y113.189 E.01679
G1 X68.235 Y107.329 E.26037
G1 X67.701 Y107.329 E.01679
G1 X73.561 Y113.189 E.26037
G1 X73.027 Y113.189 E.01679
G1 X67.167 Y107.329 E.26037
G1 X66.632 Y107.329 E.01679
G1 X72.493 Y113.189 E.26037
G1 X71.958 Y113.189 E.01679
G1 X66.098 Y107.329 E.26037
G1 X65.564 Y107.329 E.01679
G1 X71.424 Y113.189 E.26037
G1 X70.89 Y113.189 E.01679
G1 X65.029 Y107.329 E.26037
G1 X64.495 Y107.329 E.01679
G1 X70.355 Y113.189 E.26037
G1 X69.821 Y113.189 E.01679
G1 X63.961 Y107.329 E.26037
G1 X63.426 Y107.329 E.01679
G1 X69.287 Y113.189 E.26037
G1 X68.752 Y113.189 E.01679
G1 X62.892 Y107.329 E.26037
G1 X62.358 Y107.329 E.01679
G1 X68.218 Y113.189 E.26037
G1 X67.684 Y113.189 E.01679
G1 X61.823 Y107.329 E.26037
G1 X61.289 Y107.329 E.01679
G1 X67.149 Y113.189 E.26037
G1 X66.615 Y113.189 E.01679
G1 X60.755 Y107.329 E.26037
G1 X60.22 Y107.329 E.01679
G1 X66.081 Y113.189 E.26037
G1 X65.546 Y113.189 E.01679
G1 X59.686 Y107.329 E.26037
G1 X59.152 Y107.329 E.01679
G1 X65.012 Y113.189 E.26037
G1 X64.478 Y113.189 E.01679
G1 X58.617 Y107.329 E.26037
G1 X58.083 Y107.329 E.01679
G1 X63.943 Y113.189 E.26037
G1 X63.409 Y113.189 E.01679
G1 X57.549 Y107.329 E.26037
G1 X57.014 Y107.329 E.01679
G1 X62.875 Y113.189 E.26037
G1 X62.34 Y113.189 E.01679
G1 X56.48 Y107.329 E.26037
G1 X55.946 Y107.329 E.01679
G1 X61.91 Y113.293 E.26498
G1 X61.838 Y113.331 E.00253
G1 X61.623 Y113.54 E.00945
G1 X55.411 Y107.329 E.27597
G1 X54.877 Y107.329 E.01679
G1 X61.478 Y113.93 E.2933
G1 X61.46 Y114.029 E.00316
G1 X61.461 Y114.447 E.01312
G1 X54.343 Y107.329 E.31625
G1 X53.808 Y107.329 E.01679
G1 X61.461 Y114.981 E.34
G1 X61.461 Y115.516 E.01679
G1 X53.274 Y107.329 E.36375
G1 X52.74 Y107.329 E.01679
G1 X61.461 Y116.05 E.3875
G1 X61.461 Y116.585 E.01679
G1 X52.205 Y107.329 E.41125
G1 X51.671 Y107.329 E.01679
G1 X61.462 Y117.12 E.435
G1 X61.462 Y117.654 E.01679
G1 X51.137 Y107.329 E.45874
G1 X50.602 Y107.329 E.01679
M73 P9 R29
G1 X61.462 Y118.189 E.48249
G1 X61.462 Y118.723 E.01679
G1 X50.068 Y107.329 E.50624
G1 X49.534 Y107.329 E.01679
G1 X61.462 Y119.258 E.52999
G1 X61.462 Y119.792 E.01679
G1 X48.999 Y107.329 E.55374
