; generated by PrusaSlicer 2.5.0+win64 on 2023-05-05 at 19:51:03 UTC


;
;

;
;
; 

; external perimeters extrusion width = 0.45mm
; perimeters extrusion width = 0.45mm
; infill extrusion width = 0.45mm
; solid infill extrusion width = 0.45mm
; top infill extrusion width = 0.40mm
; first layer extrusion width = 0.42mm

; external perimeters extrusion width = 0.45mm
; perimeters extrusion width = 0.45mm
; infill extrusion width = 0.45mm
; solid infill extrusion width = 0.45mm
; top infill extrusion width = 0.40mm
; first layer extrusion width = 0.42mm

; external perimeters extrusion width = 0.45mm
; perimeters extrusion width = 0.45mm
; infill extrusion width = 0.45mm
; solid infill extrusion width = 0.45mm
; top infill extrusion width = 0.40mm
; first layer extrusion width = 0.42mm

; external perimeters extrusion width = 0.45mm
; perimeters extrusion width = 0.45mm
; infill extrusion width = 0.45mm
; solid infill extrusion width = 0.45mm
; top infill extrusion width = 0.40mm
; first layer extrusion width = 0.42mm

M73 P0 R58
M201 X2500 Y2500 Z400 E5000 ; sets maximum accelerations, mm/sec^2
M203 X180 Y180 Z12 E80 ; sets maximum feedrates, mm / sec
M204 P1250 R1250 T2500 ; sets acceleration (P, T) and retract acceleration (R), mm/sec^2
M205 X8.00 Y8.00 Z2.00 E10.00 ; sets the jerk limits, mm/sec
M205 S0 T0 ; sets the minimum extruding and travel feed rate, mm/sec
M107
;TYPE:Custom
M862.3 P "MINI" ; printer model check
G90 ; use absolute coordinates
M83 ; extruder relative mode
M104 S170 ; set extruder temp for bed leveling
M140 S60 ; set bed temp
M109 R170 ; wait for bed leveling temp
M190 S60 ; wait for bed temp
M204 T1250 ; set travel acceleration
G28 ; home all without mesh bed level
G29 ; mesh bed leveling 
M204 T2500 ; restore travel acceleration
M104 S215 ; set extruder temp
G92 E0
G1 Y-2 X179 F2400
G1 Z3 F720
M109 S215 ; wait for extruder temp

; intro line
G1 X170 F1000
G1 Z0.2 F720
G1 X110 E8 F900
G1 X40 E10 F700
G92 E0

M221 S95 ; set flow
G21 ; set units to millimeters
G90 ; use absolute coordinates
M83 ; use relative distances for extrusion
M900 K0.2 ; Filament gcode LA 1.5
; ; Filament gcode LA 1.0
M107
;LAYER_CHANGE
;Z:0.2
;HEIGHT:0.2
;BEFORE_LAYER_CHANGE
G92 E0.0
;0.2


G1 E-3.2 F4200
G1 Z.2 F720
;AFTER_LAYER_CHANGE
;0.2
G1 Z.4
G1 X7.133 Y13.091 F9000
G1 Z.2 F720
G1 E3.2 F2400
M204 P800
;TYPE:Skirt/Brim
;WIDTH:0.42
G1 F1200
G1 X79.603 Y2.453 E2.29658
G1 X145.748 Y2.428 E2.07394
G1 X147.055 Y2.819 E.04278
M73 P0 R57
G1 X148.012 Y4.079 E.04961
G1 X162.112 Y48.079 E1.44869
G1 X162.225 Y48.776 E.02213
G1 X163.297 Y137.324 E2.77655
G1 X163.297 Y161.324 E.7525
G1 X162.905 Y162.631 E.04278
G1 X161.367 Y163.658 E.05801
G1 X92.641 Y176.82 E2.19402
G1 X26.394 Y176.862 E2.07713
G1 X25.087 Y176.471 E.04278
M73 P1 R57
G1 X24.13 Y175.211 E.04961
G1 X10.03 Y131.211 E1.44869
G1 X9.92 Y130.611 E.01912
G1 X5.105 Y39.568 E2.85855
G1 X5.102 Y15.443 E.75644
G1 X5.493 Y14.136 E.04278
G1 X7.083 Y13.123 E.0591
M204 P1000
; printing object prosperity_1st_div_20_23.stl_2 id:1 copy 0
G1 E-2.24 F4200
;WIPE_START
G1 F7200
G1 X8.711 Y12.884 E-.912
;WIPE_END
G1 E-.048 F4200
G1 Z.4 F720
G1 X57.713 Y31.767 F9000
G1 Z.2 F720
G1 E3.2 F2400
M204 P800
;TYPE:Perimeter
;WIDTH:0.419999
G1 F1200
G1 X57.787 Y31.978 E.00701
G1 X58.004 Y32.17 E.0091
G1 X58.257 Y32.23 E.00815
G1 X100.692 Y32.23 E1.3305
G1 X100.692 Y38.656 E.20148
G1 X58.257 Y38.656 E1.3305
G1 X57.943 Y38.751 E.01028
G1 X57.751 Y38.969 E.0091
G1 X57.692 Y39.221 E.00815
G1 X57.692 Y75.664 E1.14264
G1 X57.701 Y75.769 E.00328
G1 X57.805 Y76.004 E.00805
G1 X58.04 Y76.186 E.00933
G1 X58.257 Y76.23 E.00696
G1 X86.592 Y76.23 E.8884
G1 X86.592 Y82.656 E.20148
G1 X22.366 Y82.656 E2.01375
G1 X22.366 Y76.23 E.20148
G1 X50.7 Y76.23 E.8884
G1 X50.798 Y76.221 E.00308
G1 X51.012 Y76.137 E.00721
G1 X51.193 Y75.942 E.00835
G1 X51.266 Y75.664 E.00899
G1 X51.258 Y39.128 E1.14556
G1 X51.171 Y38.908 E.00744
G1 X50.953 Y38.716 E.0091
G1 X50.7 Y38.656 E.00815
G1 X8.266 Y38.656 E1.3305
G1 X8.266 Y32.23 E.20148
G1 X50.793 Y32.222 E1.33341
G1 X51.014 Y32.135 E.00744
G1 X51.206 Y31.917 E.0091
G1 X51.266 Y31.664 E.00815
G1 X51.256 Y23.117 E.26799
G1 X51.153 Y22.882 E.00805
G1 X50.918 Y22.699 E.00933
G1 X50.7 Y22.656 E.00696
G1 X8.266 Y22.656 E1.3305
G1 X8.266 Y16.23 E.20148
G1 X100.692 Y16.23 E2.89794
G1 X100.692 Y22.656 E.20148
M73 P2 R57
G1 X58.16 Y22.664 E1.33356
G1 X57.946 Y22.749 E.00721
G1 X57.764 Y22.944 E.00835
G1 X57.692 Y23.221 E.00899
G1 X57.694 Y31.711 E.26617
M204 P1000
G1 X58.069 Y31.664 F9000
M204 P800
;TYPE:External perimeter
G1 F1200
G1 X58.112 Y31.785 E.00402
G1 X58.257 Y31.853 E.00501
G1 X101.069 Y31.853 E1.34232
G1 X101.069 Y39.033 E.22512
G1 X58.257 Y39.033 E1.34232
G1 X58.137 Y39.077 E.00402
G1 X58.069 Y39.221 E.00501
G1 X58.069 Y75.664 E1.14264
G1 X58.127 Y75.801 E.00466
M73 P2 R56
G1 X58.257 Y75.853 E.00439
G1 X86.969 Y75.853 E.90023
G1 X86.969 Y83.033 E.22512
G1 X21.989 Y83.033 E2.0374
G1 X21.989 Y75.853 E.22512
G1 X50.7 Y75.853 E.90023
G1 X50.83 Y75.801 E.00439
G1 X50.889 Y75.664 E.00466
G1 X50.889 Y39.221 E1.14264
G1 X50.845 Y39.101 E.00402
G1 X50.7 Y39.033 E.00501
G1 X7.889 Y39.033 E1.34232
G1 X7.889 Y31.853 E.22512
G1 X50.7 Y31.853 E1.34232
G1 X50.821 Y31.809 E.00402
G1 X50.889 Y31.664 E.00501
G1 X50.889 Y23.221 E.26472
G1 X50.83 Y23.085 E.00466
G1 X50.7 Y23.033 E.00439
G1 X7.889 Y23.033 E1.34232
G1 X7.889 Y15.853 E.22512
G1 X101.069 Y15.853 E2.92159
G1 X101.069 Y23.033 E.22512
M73 P3 R56
G1 X58.257 Y23.033 E1.34232
G1 X58.127 Y23.085 E.00439
G1 X58.069 Y23.221 E.00466
G1 X58.069 Y31.604 E.26284
M204 P1000
G1 X57.975 Y31.752 F9000
G1 E-2.24 F4200
;WIPE_START
G1 F7200
G1 X58.112 Y31.785 E-.10302
G1 X58.257 Y31.853 E-.08863
G1 X59.557 Y31.853 E-.72034
;WIPE_END
G1 E-.048 F4200
G1 Z.4 F720
G1 X100.579 Y33.149 F9000
G1 Z.2 F720
G1 E3.2 F2400
M204 P800
;TYPE:Solid infill
;WIDTH:0.421024
G1 F1200
G1 X99.942 Y32.513 E.0283
G1 X99.407 Y32.513 E.01682
G1 X100.409 Y33.514 E.04454
G1 X100.409 Y34.049 E.01681
G1 X98.872 Y32.512 E.06832
G1 X98.337 Y32.512 E.01682
G1 X100.409 Y34.584 E.0921
G1 X100.409 Y35.118 E.01681
G1 X97.803 Y32.512 E.11588
G1 X97.268 Y32.512 E.01682
G1 X100.409 Y35.653 E.13966
G1 X100.409 Y36.188 E.01681
G1 X96.733 Y32.512 E.16344
G1 X96.198 Y32.512 E.01682
G1 X100.409 Y36.722 E.18722
G1 X100.409 Y37.257 E.01681
G1 X95.663 Y32.512 E.211
G1 X95.128 Y32.511 E.01682
G1 X100.409 Y37.792 E.23478
G1 X100.409 Y38.327 E.01681
G1 X94.594 Y32.511 E.25856
G1 X94.059 Y32.511 E.01682
G1 X99.92 Y38.373 E.26063
G1 X99.386 Y38.373 E.01681
G1 X93.524 Y32.511 E.26063
G1 X92.989 Y32.511 E.01682
G1 X98.851 Y38.373 E.26064
G1 X98.316 Y38.373 E.01681
G1 X92.454 Y32.511 E.26065
G1 X91.919 Y32.511 E.01682
G1 X97.782 Y38.373 E.26065
G1 X97.247 Y38.373 E.01681
G1 X91.384 Y32.511 E.26066
G1 X90.85 Y32.51 E.01682
G1 X96.712 Y38.373 E.26066
G1 X96.177 Y38.373 E.01681
G1 X90.315 Y32.51 E.26067
G1 X89.78 Y32.51 E.01682
G1 X95.643 Y38.373 E.26067
G1 X95.108 Y38.373 E.01681
G1 X89.245 Y32.51 E.26068
G1 X88.71 Y32.51 E.01682
G1 X94.573 Y38.373 E.26069
G1 X94.039 Y38.373 E.01681
G1 X88.175 Y32.51 E.26069
G1 X87.64 Y32.51 E.01682
G1 X93.504 Y38.373 E.2607
G1 X92.969 Y38.373 E.01681
G1 X87.106 Y32.51 E.2607
G1 X86.571 Y32.509 E.01682
G1 X92.434 Y38.373 E.26071
G1 X91.9 Y38.373 E.01681
G1 X86.036 Y32.509 E.26071
G1 X85.501 Y32.509 E.01682
G1 X91.365 Y38.373 E.26072
G1 X90.83 Y38.373 E.01681
G1 X84.966 Y32.509 E.26073
G1 X84.431 Y32.509 E.01682
G1 X90.296 Y38.373 E.26073
G1 X89.761 Y38.373 E.01681
G1 X83.897 Y32.509 E.26074
G1 X83.362 Y32.509 E.01682
G1 X89.226 Y38.373 E.26074
G1 X88.691 Y38.373 E.01681
G1 X82.827 Y32.509 E.26075
G1 X82.292 Y32.508 E.01682
G1 X88.157 Y38.373 E.26076
G1 X87.622 Y38.373 E.01681
G1 X81.757 Y32.508 E.26076
G1 X81.222 Y32.508 E.01682
G1 X87.087 Y38.373 E.26077
G1 X86.552 Y38.373 E.01681
G1 X80.687 Y32.508 E.26077
G1 X80.153 Y32.508 E.01682
G1 X86.018 Y38.373 E.26078
G1 X85.483 Y38.373 E.01681
G1 X79.618 Y32.508 E.26078
G1 X79.083 Y32.508 E.01682
G1 X84.948 Y38.373 E.26079
G1 X84.414 Y38.373 E.01681
G1 X78.548 Y32.507 E.2608
G1 X78.013 Y32.507 E.01682
G1 X83.879 Y38.373 E.2608
G1 X83.344 Y38.373 E.01681
G1 X77.478 Y32.507 E.26081
G1 X76.944 Y32.507 E.01682
G1 X82.809 Y38.373 E.26081
G1 X82.275 Y38.373 E.01681
G1 X76.409 Y32.507 E.26082
G1 X75.874 Y32.507 E.01682
G1 X81.74 Y38.373 E.26082
G1 X81.205 Y38.373 E.01681
G1 X75.339 Y32.507 E.26083
G1 X74.804 Y32.507 E.01682
G1 X80.671 Y38.373 E.26084
G1 X80.136 Y38.373 E.01681
G1 X74.269 Y32.506 E.26084
G1 X73.734 Y32.506 E.01682
G1 X79.601 Y38.373 E.26085
G1 X79.066 Y38.373 E.01681
G1 X73.2 Y32.506 E.26085
G1 X72.665 Y32.506 E.01682
G1 X78.532 Y38.373 E.26086
G1 X77.997 Y38.373 E.01681
G1 X72.13 Y32.506 E.26086
G1 X71.595 Y32.506 E.01682
G1 X77.462 Y38.373 E.26087
G1 X76.928 Y38.373 E.01681
G1 X71.06 Y32.506 E.26088
G1 X70.525 Y32.506 E.01682
G1 X76.393 Y38.373 E.26088
G1 X75.858 Y38.373 E.01681
G1 X69.99 Y32.505 E.26089
G1 X69.456 Y32.505 E.01682
G1 X75.323 Y38.373 E.26089
G1 X74.789 Y38.373 E.01681
G1 X68.921 Y32.505 E.2609
G1 X68.386 Y32.505 E.01682
G1 X74.254 Y38.373 E.2609
G1 X73.719 Y38.373 E.01681
G1 X67.851 Y32.505 E.26091
G1 X67.316 Y32.505 E.01682
G1 X73.184 Y38.373 E.26092
G1 X72.65 Y38.373 E.01681
G1 X66.781 Y32.505 E.26092
G1 X66.247 Y32.504 E.01682
G1 X72.115 Y38.373 E.26093
G1 X71.58 Y38.373 E.01681
G1 X65.712 Y32.504 E.26093
G1 X65.177 Y32.504 E.01682
G1 X71.046 Y38.373 E.26094
G1 X70.511 Y38.373 E.01681
G1 X64.642 Y32.504 E.26095
G1 X64.107 Y32.504 E.01682
G1 X69.976 Y38.373 E.26095
G1 X69.441 Y38.373 E.01681
G1 X63.572 Y32.504 E.26096
G1 X63.037 Y32.504 E.01682
G1 X68.907 Y38.373 E.26096
G1 X68.372 Y38.373 E.01681
G1 X62.503 Y32.504 E.26097
G1 X61.968 Y32.503 E.01682
G1 X67.837 Y38.373 E.26097
G1 X67.303 Y38.373 E.01681
G1 X61.433 Y32.503 E.26098
G1 X60.898 Y32.503 E.01682
G1 X66.768 Y38.373 E.26099
G1 X66.233 Y38.373 E.01681
M73 P4 R56
G1 X60.363 Y32.503 E.26099
G1 X59.828 Y32.503 E.01682
G1 X65.698 Y38.373 E.261
G1 X65.164 Y38.373 E.01681
G1 X59.293 Y32.503 E.261
G1 X58.759 Y32.503 E.01682
G1 X64.799 Y38.543 E.26855
M204 P1000
G1 E-2.24 F4200
;WIPE_START
G1 F7200
G1 X63.635 Y37.379 E-.912
;WIPE_END
G1 E-.048 F4200
G1 Z.4 F720
G1 X99.814 Y16.343 F9000
G1 Z.2 F720
M73 P4 R55
G1 E3.2 F2400
M204 P800
G1 F1200
G1 X100.409 Y16.938 E.02644
G1 X100.409 Y17.473 E.01681
G1 X99.449 Y16.513 E.04267
G1 X98.914 Y16.513 E.01681
G1 X100.409 Y18.007 E.06645
G1 X100.409 Y18.542 E.01681
G1 X98.38 Y16.513 E.09022
G1 X97.845 Y16.513 E.01681
G1 X100.409 Y19.077 E.114
G1 X100.409 Y19.611 E.01681
G1 X97.31 Y16.513 E.13777
G1 X96.775 Y16.513 E.01681
G1 X100.409 Y20.146 E.16155
G1 X100.409 Y20.681 E.01681
G1 X96.241 Y16.513 E.18532
G1 X95.706 Y16.513 E.01681
G1 X100.409 Y21.216 E.2091
G1 X100.409 Y21.75 E.01681
G1 X95.171 Y16.513 E.23287
G1 X94.637 Y16.513 E.01681
G1 X100.409 Y22.285 E.25665
G1 X100.409 Y22.373 E.00277
G1 X99.962 Y22.373 E.01405
G1 X94.102 Y16.513 E.26056
G1 X93.567 Y16.513 E.01681
G1 X99.427 Y22.373 E.26056
G1 X98.893 Y22.373 E.01681
G1 X93.032 Y16.513 E.26056
G1 X92.498 Y16.513 E.01681
G1 X98.358 Y22.373 E.26056
G1 X97.823 Y22.373 E.01681
G1 X91.963 Y16.513 E.26056
G1 X91.428 Y16.513 E.01681
G1 X97.288 Y22.373 E.26056
G1 X96.754 Y22.373 E.01681
G1 X90.894 Y16.513 E.26056
G1 X90.359 Y16.513 E.01681
G1 X96.219 Y22.373 E.26056
G1 X95.684 Y22.373 E.01681
G1 X89.824 Y16.513 E.26056
G1 X89.289 Y16.513 E.01681
G1 X95.15 Y22.373 E.26056
G1 X94.615 Y22.373 E.01681
G1 X88.755 Y16.513 E.26056
G1 X88.22 Y16.513 E.01681
G1 X94.08 Y22.373 E.26056
G1 X93.545 Y22.373 E.01681
G1 X87.685 Y16.513 E.26056
G1 X87.15 Y16.513 E.01681
G1 X93.011 Y22.373 E.26056
G1 X92.476 Y22.373 E.01681
G1 X86.616 Y16.513 E.26056
G1 X86.081 Y16.513 E.01681
G1 X91.941 Y22.373 E.26056
G1 X91.407 Y22.373 E.01681
G1 X85.546 Y16.513 E.26056
G1 X85.012 Y16.513 E.01681
G1 X90.872 Y22.373 E.26056
G1 X90.337 Y22.373 E.01681
G1 X84.477 Y16.513 E.26056
G1 X83.942 Y16.513 E.01681
G1 X89.802 Y22.373 E.26056
G1 X89.268 Y22.373 E.01681
G1 X83.407 Y16.513 E.26056
G1 X82.873 Y16.513 E.01681
G1 X88.733 Y22.373 E.26056
G1 X88.198 Y22.373 E.01681
G1 X82.338 Y16.513 E.26056
G1 X81.803 Y16.513 E.01681
G1 X87.664 Y22.373 E.26056
G1 X87.129 Y22.373 E.01681
G1 X81.269 Y16.513 E.26056
G1 X80.734 Y16.513 E.01681
G1 X86.594 Y22.373 E.26056
G1 X86.059 Y22.373 E.01681
G1 X80.199 Y16.513 E.26056
G1 X79.664 Y16.513 E.01681
G1 X85.525 Y22.373 E.26056
G1 X84.99 Y22.373 E.01681
G1 X79.13 Y16.513 E.26056
G1 X78.595 Y16.513 E.01681
G1 X84.455 Y22.373 E.26056
G1 X83.92 Y22.373 E.01681
G1 X78.06 Y16.513 E.26056
G1 X77.526 Y16.513 E.01681
G1 X83.386 Y22.373 E.26056
G1 X82.851 Y22.373 E.01681
G1 X76.991 Y16.513 E.26056
G1 X76.456 Y16.513 E.01681
G1 X82.316 Y22.373 E.26056
G1 X81.782 Y22.373 E.01681
G1 X75.921 Y16.513 E.26056
G1 X75.387 Y16.513 E.01681
G1 X81.247 Y22.373 E.26056
G1 X80.712 Y22.373 E.01681
G1 X74.852 Y16.513 E.26056
G1 X74.317 Y16.513 E.01681
G1 X80.177 Y22.373 E.26056
G1 X79.643 Y22.373 E.01681
G1 X73.782 Y16.513 E.26056
G1 X73.248 Y16.513 E.01681
G1 X79.108 Y22.373 E.26056
G1 X78.573 Y22.373 E.01681
G1 X72.713 Y16.513 E.26056
G1 X72.178 Y16.513 E.01681
G1 X78.039 Y22.373 E.26056
G1 X77.504 Y22.373 E.01681
G1 X71.644 Y16.513 E.26056
G1 X71.109 Y16.513 E.01681
G1 X76.969 Y22.373 E.26056
G1 X76.434 Y22.373 E.01681
G1 X70.574 Y16.513 E.26056
G1 X70.039 Y16.513 E.01681
G1 X75.9 Y22.373 E.26056
G1 X75.365 Y22.373 E.01681
G1 X69.505 Y16.513 E.26056
G1 X68.97 Y16.513 E.01681
G1 X74.83 Y22.373 E.26056
G1 X74.296 Y22.373 E.01681
G1 X68.435 Y16.513 E.26056
G1 X67.901 Y16.513 E.01681
G1 X73.761 Y22.373 E.26056
G1 X73.226 Y22.373 E.01681
G1 X67.366 Y16.513 E.26056
G1 X66.831 Y16.513 E.01681
G1 X72.691 Y22.373 E.26056
G1 X72.157 Y22.373 E.01681
G1 X66.296 Y16.513 E.26056
G1 X65.762 Y16.513 E.01681
G1 X71.622 Y22.373 E.26056
G1 X71.087 Y22.373 E.01681
G1 X65.227 Y16.513 E.26056
G1 X64.692 Y16.513 E.01681
G1 X70.552 Y22.373 E.26056
G1 X70.018 Y22.373 E.01681
G1 X64.158 Y16.513 E.26056
G1 X63.623 Y16.513 E.01681
G1 X69.483 Y22.373 E.26056
G1 X68.948 Y22.373 E.01681
G1 X63.088 Y16.513 E.26056
G1 X62.553 Y16.513 E.01681
G1 X68.414 Y22.373 E.26056
G1 X67.879 Y22.373 E.01681
G1 X62.019 Y16.513 E.26056
G1 X61.484 Y16.513 E.01681
G1 X67.344 Y22.373 E.26056
G1 X66.809 Y22.373 E.01681
G1 X60.949 Y16.513 E.26056
G1 X60.414 Y16.513 E.01681
G1 X66.275 Y22.373 E.26056
G1 X65.74 Y22.373 E.01681
G1 X59.88 Y16.513 E.26056
G1 X59.345 Y16.513 E.01681
M73 P5 R55
G1 X65.205 Y22.373 E.26056
G1 X64.671 Y22.373 E.01681
G1 X58.81 Y16.513 E.26056
G1 X58.276 Y16.513 E.01681
G1 X64.136 Y22.373 E.26056
G1 X63.601 Y22.373 E.01681
G1 X57.741 Y16.513 E.26056
G1 X57.206 Y16.513 E.01681
G1 X63.066 Y22.373 E.26056
G1 X62.532 Y22.373 E.01681
G1 X56.671 Y16.513 E.26056
G1 X56.137 Y16.513 E.01681
G1 X61.997 Y22.373 E.26056
G1 X61.462 Y22.373 E.01681
G1 X55.602 Y16.513 E.26056
G1 X55.067 Y16.513 E.01681
G1 X60.928 Y22.373 E.26056
G1 X60.393 Y22.373 E.01681
G1 X54.533 Y16.513 E.26056
G1 X53.998 Y16.513 E.01681
G1 X59.858 Y22.373 E.26056
G1 X59.323 Y22.373 E.01681
G1 X53.463 Y16.513 E.26056
G1 X52.928 Y16.513 E.01681
G1 X58.789 Y22.373 E.26056
G1 X58.254 Y22.373 E.01681
G1 X52.394 Y16.513 E.26056
G1 X51.859 Y16.513 E.01681
G1 X57.835 Y22.489 E.26571
G1 X57.67 Y22.609 E.00642
G1 X57.56 Y22.749 E.00559
G1 X51.324 Y16.513 E.27727
G1 X50.79 Y16.513 E.01681
G1 X57.416 Y23.139 E.29463
G1 X57.409 Y23.667 E.01659
G1 X50.255 Y16.513 E.31809
G1 X49.72 Y16.513 E.01681
G1 X57.409 Y24.202 E.34187
G1 X57.409 Y24.737 E.01682
G1 X49.185 Y16.513 E.36565
G1 X48.651 Y16.513 E.01681
G1 X57.41 Y25.272 E.38944
G1 X57.41 Y25.807 E.01682
G1 X48.116 Y16.513 E.41322
G1 X47.581 Y16.513 E.01681
G1 X57.41 Y26.341 E.437
G1 X57.41 Y26.876 E.01682
G1 X47.046 Y16.513 E.46079
G1 X46.512 Y16.513 E.01681
G1 X57.41 Y27.411 E.48457
G1 X57.41 Y27.946 E.01682
G1 X45.977 Y16.513 E.50835
G1 X45.442 Y16.513 E.01681
G1 X57.411 Y28.481 E.53213
G1 X57.411 Y29.016 E.01682
G1 X51.542 Y23.147 E.26093
G1 X51.534 Y23.062 E.0027
G1 X51.441 Y22.806 E.00857
G1 X51.288 Y22.609 E.00785
G1 X51.167 Y22.513 E.00484
G1 X51.026 Y22.438 E.00501
G1 X50.775 Y22.38 E.00812
