; generated by PrusaSlicer 2.5.0+win64 on 2023-05-04 at 15:51:24 UTC


;
;

;
;
; 

; external perimeters extrusion width = 0.45mm
; perimeters extrusion width = 0.45mm
; infill extrusion width = 0.45mm
; solid infill extrusion width = 0.45mm
; top infill extrusion width = 0.40mm
; first layer extrusion width = 0.42mm

; external perimeters extrusion width = 0.45mm
; perimeters extrusion width = 0.45mm
; infill extrusion width = 0.45mm
; solid infill extrusion width = 0.45mm
; top infill extrusion width = 0.40mm
; first layer extrusion width = 0.42mm

; external perimeters extrusion width = 0.45mm
; perimeters extrusion width = 0.45mm
; infill extrusion width = 0.45mm
; solid infill extrusion width = 0.45mm
; top infill extrusion width = 0.40mm
; first layer extrusion width = 0.42mm

; external perimeters extrusion width = 0.45mm
; perimeters extrusion width = 0.45mm
; infill extrusion width = 0.45mm
; solid infill extrusion width = 0.45mm
; top infill extrusion width = 0.40mm
; first layer extrusion width = 0.42mm

M73 P0 R55
M201 X2500 Y2500 Z400 E5000 ; sets maximum accelerations, mm/sec^2
M203 X180 Y180 Z12 E80 ; sets maximum feedrates, mm / sec
M204 P1250 R1250 T2500 ; sets acceleration (P, T) and retract acceleration (R), mm/sec^2
M205 X8.00 Y8.00 Z2.00 E10.00 ; sets the jerk limits, mm/sec
M205 S0 T0 ; sets the minimum extruding and travel feed rate, mm/sec
M107
;TYPE:Custom
M862.3 P "MINI" ; printer model check
G90 ; use absolute coordinates
M83 ; extruder relative mode
M104 S170 ; set extruder temp for bed leveling
M140 S60 ; set bed temp
M109 R170 ; wait for bed leveling temp
M190 S60 ; wait for bed temp
M204 T1250 ; set travel acceleration
G28 ; home all without mesh bed level
G29 ; mesh bed leveling 
M204 T2500 ; restore travel acceleration
M104 S215 ; set extruder temp
G92 E0
G1 Y-2 X179 F2400
G1 Z3 F720
M109 S215 ; wait for extruder temp

; intro line
G1 X170 F1000
G1 Z0.2 F720
G1 X110 E8 F900
G1 X40 E10 F700
G92 E0

M221 S95 ; set flow
G21 ; set units to millimeters
G90 ; use absolute coordinates
M83 ; use relative distances for extrusion
M900 K0.2 ; Filament gcode LA 1.5
; ; Filament gcode LA 1.0
M107
;LAYER_CHANGE
;Z:0.2
;HEIGHT:0.2
;BEFORE_LAYER_CHANGE
G92 E0.0
;0.2


G1 E-3.2 F4200
G1 Z.2 F720
;AFTER_LAYER_CHANGE
;0.2
G1 Z.4
G1 X4.537 Y16.418 F9000
G1 Z.2 F720
G1 E3.2 F2400
M204 P800
;TYPE:Skirt/Brim
;WIDTH:0.42
G1 F1200
G1 X73.36 Y3.386 E2.19624
G1 X139.602 Y3.345 E2.07698
G1 X140.91 Y3.736 E.04278
G1 X141.866 Y4.996 E.04961
G1 X155.966 Y48.996 E1.44869
G1 X156.073 Y49.542 E.01743
G1 X162.588 Y135.383 E2.69925
G1 X162.595 Y159.563 E.75814
G1 X162.204 Y160.87 E.04278
G1 X160.629 Y161.905 E.05907
G1 X84.881 Y175.199 E2.41134
G1 X18.67 Y175.235 E2.076
M73 P1 R55
G1 X17.363 Y174.843 E.04278
G1 X16.406 Y173.583 E.04961
G1 X2.306 Y129.583 E1.44869
G1 X2.193 Y128.858 E.02302
G1 X2.193 Y104.846 E.75286
G1 X2.602 Y18.742 E2.69977
G1 X3 Y17.437 E.04278
G1 X4.487 Y16.451 E.05594
M204 P1000
; printing object prosperity_1st_div_8_11.stl_3 id:2 copy 0
G1 E-2.24 F4200
;WIPE_START
G1 F7200
G1 X6.104 Y16.144 E-.912
;WIPE_END
G1 E-.048 F4200
G1 Z.4 F720
G1 X55.277 Y165.631 F9000
G1 Z.2 F720
G1 E3.2 F2400
M204 P800
;TYPE:Perimeter
;WIDTH:0.419999
G1 F1200
G1 X55.348 Y165.645 E.00229
G1 X83.683 Y165.645 E.8884
G1 X83.683 Y172.071 E.20148
G1 X19.457 Y172.071 E2.01375
G1 X19.457 Y165.645 E.20148
M73 P1 R54
G1 X47.791 Y165.645 E.8884
G1 X47.889 Y165.636 E.00308
G1 X48.103 Y165.551 E.00721
G1 X48.284 Y165.357 E.00835
G1 X48.357 Y165.079 E.00899
G1 X48.349 Y128.543 E1.14556
G1 X48.262 Y128.323 E.00744
G1 X48.044 Y128.13 E.0091
G1 X47.791 Y128.071 E.00815
G1 X5.357 Y128.071 E1.3305
G1 X5.357 Y121.645 E.20148
G1 X47.884 Y121.637 E1.33341
G1 X48.105 Y121.55 E.00744
G1 X48.297 Y121.332 E.0091
G1 X48.357 Y121.079 E.00815
G1 X48.347 Y112.532 E.26799
G1 X48.244 Y112.297 E.00805
G1 X48.009 Y112.114 E.00933
G1 X47.791 Y112.071 E.00696
G1 X5.357 Y112.071 E1.3305
G1 X5.357 Y105.645 E.20148
G1 X97.783 Y105.645 E2.89794
G1 X97.783 Y112.071 E.20148
M73 P2 R54
G1 X55.348 Y112.071 E1.3305
G1 X55.251 Y112.079 E.00308
G1 X55.037 Y112.164 E.00721
G1 X54.855 Y112.359 E.00835
G1 X54.783 Y112.636 E.00899
G1 X54.785 Y121.129 E.26627
G1 X54.878 Y121.393 E.00879
G1 X55.095 Y121.585 E.0091
G1 X55.348 Y121.645 E.00815
G1 X97.783 Y121.645 E1.3305
G1 X97.783 Y128.071 E.20148
G1 X55.348 Y128.071 E1.3305
G1 X55.035 Y128.166 E.01028
G1 X54.842 Y128.383 E.0091
G1 X54.783 Y128.636 E.00815
G1 X54.783 Y165.079 E1.14264
G1 X54.792 Y165.183 E.00328
G1 X54.896 Y165.419 E.00805
G1 X55.131 Y165.601 E.00933
G1 X55.218 Y165.619 E.00279
M204 P1000
G1 X55.348 Y165.268 F9000
M204 P800
;TYPE:External perimeter
G1 F1200
G1 X84.06 Y165.268 E.90023
G1 X84.06 Y172.448 E.22512
G1 X19.08 Y172.448 E2.0374
G1 X19.08 Y165.268 E.22512
G1 X47.791 Y165.268 E.90023
G1 X47.921 Y165.216 E.00439
G1 X47.98 Y165.079 E.00466
G1 X47.98 Y128.636 E1.14264
G1 X47.936 Y128.516 E.00402
G1 X47.791 Y128.448 E.00501
G1 X4.98 Y128.448 E1.34232
G1 X4.98 Y121.268 E.22512
G1 X47.791 Y121.268 E1.34232
G1 X47.912 Y121.224 E.00402
G1 X47.98 Y121.079 E.00501
G1 X47.98 Y112.636 E.26472
G1 X47.921 Y112.5 E.00466
G1 X47.791 Y112.448 E.00439
G1 X4.98 Y112.448 E1.34232
G1 X4.98 Y105.268 E.22512
G1 X98.16 Y105.268 E2.92159
G1 X98.16 Y112.448 E.22512
G1 X55.348 Y112.448 E1.34232
G1 X55.218 Y112.5 E.00439
M73 P3 R54
G1 X55.16 Y112.636 E.00466
G1 X55.16 Y121.079 E.26472
G1 X55.204 Y121.2 E.00402
G1 X55.348 Y121.268 E.00501
G1 X98.16 Y121.268 E1.34232
G1 X98.16 Y128.448 E.22512
G1 X55.348 Y128.448 E1.34232
G1 X55.228 Y128.492 E.00402
G1 X55.16 Y128.636 E.00501
G1 X55.16 Y165.079 E1.14264
G1 X55.218 Y165.216 E.00466
G1 X55.293 Y165.246 E.00251
M204 P1000
G1 X55.452 Y165.654 F9000
G1 E-2.24 F4200
;WIPE_START
G1 F7200
G1 X56.938 Y165.247 E-.912
;WIPE_END
G1 E-.048 F4200
G1 Z.4 F720
G1 X97.67 Y122.564 F9000
G1 Z.2 F720
G1 E3.2 F2400
M204 P800
;TYPE:Solid infill
;WIDTH:0.421024
G1 F1200
G1 X97.033 Y121.928 E.0283
G1 X96.498 Y121.927 E.01682
G1 X97.5 Y122.929 E.04454
G1 X97.5 Y123.464 E.01681
G1 X95.963 Y121.927 E.06832
G1 X95.429 Y121.927 E.01682
G1 X97.5 Y123.999 E.0921
G1 X97.5 Y124.533 E.01681
G1 X94.894 Y121.927 E.11588
G1 X94.359 Y121.927 E.01682
G1 X97.5 Y125.068 E.13966
G1 X97.5 Y125.603 E.01681
G1 X93.824 Y121.927 E.16344
G1 X93.289 Y121.927 E.01682
G1 X97.5 Y126.137 E.18722
G1 X97.5 Y126.672 E.01681
G1 X92.754 Y121.927 E.211
G1 X92.219 Y121.926 E.01682
G1 X97.5 Y127.207 E.23478
G1 X97.5 Y127.742 E.01681
G1 X91.685 Y121.926 E.25856
M73 P3 R53
G1 X91.15 Y121.926 E.01682
G1 X97.012 Y127.788 E.26063
G1 X96.477 Y127.788 E.01681
G1 X90.615 Y121.926 E.26063
G1 X90.08 Y121.926 E.01682
G1 X95.942 Y127.788 E.26064
G1 X95.407 Y127.788 E.01681
G1 X89.545 Y121.926 E.26065
G1 X89.01 Y121.926 E.01682
G1 X94.873 Y127.788 E.26065
G1 X94.338 Y127.788 E.01681
G1 X88.476 Y121.925 E.26066
G1 X87.941 Y121.925 E.01682
G1 X93.803 Y127.788 E.26066
G1 X93.269 Y127.788 E.01681
G1 X87.406 Y121.925 E.26067
G1 X86.871 Y121.925 E.01682
G1 X92.734 Y127.788 E.26067
G1 X92.199 Y127.788 E.01681
G1 X86.336 Y121.925 E.26068
G1 X85.801 Y121.925 E.01682
G1 X91.664 Y127.788 E.26069
G1 X91.13 Y127.788 E.01681
G1 X85.266 Y121.925 E.26069
G1 X84.732 Y121.925 E.01682
G1 X90.595 Y127.788 E.2607
G1 X90.06 Y127.788 E.01681
G1 X84.197 Y121.924 E.2607
G1 X83.662 Y121.924 E.01682
G1 X89.526 Y127.788 E.26071
G1 X88.991 Y127.788 E.01681
G1 X83.127 Y121.924 E.26071
G1 X82.592 Y121.924 E.01682
G1 X88.456 Y127.788 E.26072
G1 X87.921 Y127.788 E.01681
G1 X82.057 Y121.924 E.26073
G1 X81.522 Y121.924 E.01682
G1 X87.387 Y127.788 E.26073
G1 X86.852 Y127.788 E.01681
G1 X80.988 Y121.924 E.26074
G1 X80.453 Y121.924 E.01682
G1 X86.317 Y127.788 E.26074
G1 X85.782 Y127.788 E.01681
G1 X79.918 Y121.923 E.26075
G1 X79.383 Y121.923 E.01682
G1 X85.248 Y127.788 E.26076
G1 X84.713 Y127.788 E.01681
G1 X78.848 Y121.923 E.26076
G1 X78.313 Y121.923 E.01682
G1 X84.178 Y127.788 E.26077
G1 X83.644 Y127.788 E.01681
G1 X77.779 Y121.923 E.26077
G1 X77.244 Y121.923 E.01682
G1 X83.109 Y127.788 E.26078
G1 X82.574 Y127.788 E.01681
G1 X76.709 Y121.923 E.26078
G1 X76.174 Y121.922 E.01682
G1 X82.039 Y127.788 E.26079
G1 X81.505 Y127.788 E.01681
G1 X75.639 Y121.922 E.2608
G1 X75.104 Y121.922 E.01682
G1 X80.97 Y127.788 E.2608
G1 X80.435 Y127.788 E.01681
G1 X74.569 Y121.922 E.26081
G1 X74.035 Y121.922 E.01682
G1 X79.901 Y127.788 E.26081
G1 X79.366 Y127.788 E.01681
G1 X73.5 Y121.922 E.26082
G1 X72.965 Y121.922 E.01682
G1 X78.831 Y127.788 E.26082
G1 X78.296 Y127.788 E.01681
G1 X72.43 Y121.922 E.26083
G1 X71.895 Y121.921 E.01682
G1 X77.762 Y127.788 E.26084
G1 X77.227 Y127.788 E.01681
G1 X71.36 Y121.921 E.26084
G1 X70.826 Y121.921 E.01682
G1 X76.692 Y127.788 E.26085
G1 X76.158 Y127.788 E.01681
G1 X70.291 Y121.921 E.26085
G1 X69.756 Y121.921 E.01682
G1 X75.623 Y127.788 E.26086
G1 X75.088 Y127.788 E.01681
G1 X69.221 Y121.921 E.26086
G1 X68.686 Y121.921 E.01682
G1 X74.553 Y127.788 E.26087
G1 X74.019 Y127.788 E.01681
G1 X68.151 Y121.921 E.26088
G1 X67.616 Y121.92 E.01682
G1 X73.484 Y127.788 E.26088
G1 X72.949 Y127.788 E.01681
G1 X67.082 Y121.92 E.26089
G1 X66.547 Y121.92 E.01682
G1 X72.414 Y127.788 E.26089
G1 X71.88 Y127.788 E.01681
G1 X66.012 Y121.92 E.2609
G1 X65.477 Y121.92 E.01682
M73 P4 R53
G1 X71.345 Y127.788 E.2609
G1 X70.81 Y127.788 E.01681
G1 X64.942 Y121.92 E.26091
G1 X64.407 Y121.92 E.01682
G1 X70.276 Y127.788 E.26092
G1 X69.741 Y127.788 E.01681
G1 X63.872 Y121.92 E.26092
G1 X63.338 Y121.919 E.01682
G1 X69.206 Y127.788 E.26093
G1 X68.671 Y127.788 E.01681
G1 X62.803 Y121.919 E.26093
G1 X62.268 Y121.919 E.01682
G1 X68.137 Y127.788 E.26094
G1 X67.602 Y127.788 E.01681
G1 X61.733 Y121.919 E.26095
G1 X61.198 Y121.919 E.01682
G1 X67.067 Y127.788 E.26095
G1 X66.533 Y127.788 E.01681
G1 X60.663 Y121.919 E.26096
G1 X60.129 Y121.919 E.01682
G1 X65.998 Y127.788 E.26096
G1 X65.463 Y127.788 E.01681
G1 X59.594 Y121.918 E.26097
G1 X59.059 Y121.918 E.01682
G1 X64.928 Y127.788 E.26097
G1 X64.394 Y127.788 E.01681
G1 X58.524 Y121.918 E.26098
G1 X57.989 Y121.918 E.01682
G1 X63.859 Y127.788 E.26099
G1 X63.324 Y127.788 E.01681
G1 X57.454 Y121.918 E.26099
G1 X56.919 Y121.918 E.01682
G1 X62.79 Y127.788 E.261
G1 X62.255 Y127.788 E.01681
G1 X56.385 Y121.918 E.261
G1 X55.85 Y121.918 E.01682
G1 X61.89 Y127.958 E.26855
M204 P1000
G1 E-2.24 F4200
;WIPE_START
G1 F7200
G1 X60.726 Y126.794 E-.912
;WIPE_END
G1 E-.048 F4200
G1 Z.4 F720
G1 X96.905 Y105.758 F9000
G1 Z.2 F720
G1 E3.2 F2400
M204 P800
G1 F1200
G1 X97.5 Y106.353 E.02644
G1 X97.5 Y106.887 E.01681
G1 X96.54 Y105.928 E.04267
G1 X96.005 Y105.928 E.01681
G1 X97.5 Y107.422 E.06645
G1 X97.5 Y107.957 E.01681
G1 X95.471 Y105.928 E.09022
G1 X94.936 Y105.928 E.01681
G1 X97.5 Y108.492 E.114
G1 X97.5 Y109.026 E.01681
G1 X94.401 Y105.928 E.13777
G1 X93.867 Y105.928 E.01681
G1 X97.5 Y109.561 E.16155
G1 X97.5 Y110.096 E.01681
G1 X93.332 Y105.928 E.18532
G1 X92.797 Y105.928 E.01681
G1 X97.5 Y110.631 E.2091
G1 X97.5 Y111.165 E.01681
G1 X92.262 Y105.928 E.23287
G1 X91.728 Y105.928 E.01681
G1 X97.5 Y111.7 E.25665
G1 X97.5 Y111.788 E.00277
G1 X97.053 Y111.788 E.01405
G1 X91.193 Y105.928 E.26056
G1 X90.658 Y105.928 E.01681
G1 X96.518 Y111.788 E.26056
G1 X95.984 Y111.788 E.01681
G1 X90.123 Y105.928 E.26056
G1 X89.589 Y105.928 E.01681
G1 X95.449 Y111.788 E.26056
G1 X94.914 Y111.788 E.01681
G1 X89.054 Y105.928 E.26056
G1 X88.519 Y105.928 E.01681
G1 X94.38 Y111.788 E.26056
G1 X93.845 Y111.788 E.01681
G1 X87.985 Y105.928 E.26056
G1 X87.45 Y105.928 E.01681
G1 X93.31 Y111.788 E.26056
G1 X92.775 Y111.788 E.01681
G1 X86.915 Y105.928 E.26056
G1 X86.38 Y105.928 E.01681
G1 X92.241 Y111.788 E.26056
G1 X91.706 Y111.788 E.01681
G1 X85.846 Y105.928 E.26056
G1 X85.311 Y105.928 E.01681
G1 X91.171 Y111.788 E.26056
G1 X90.637 Y111.788 E.01681
G1 X84.776 Y105.928 E.26056
G1 X84.242 Y105.928 E.01681
G1 X90.102 Y111.788 E.26056
G1 X89.567 Y111.788 E.01681
G1 X83.707 Y105.928 E.26056
G1 X83.172 Y105.928 E.01681
G1 X89.032 Y111.788 E.26056
G1 X88.498 Y111.788 E.01681
G1 X82.637 Y105.928 E.26056
G1 X82.103 Y105.928 E.01681
G1 X87.963 Y111.788 E.26056
G1 X87.428 Y111.788 E.01681
G1 X81.568 Y105.928 E.26056
G1 X81.033 Y105.928 E.01681
G1 X86.894 Y111.788 E.26056
G1 X86.359 Y111.788 E.01681
G1 X80.499 Y105.928 E.26056
G1 X79.964 Y105.928 E.01681
G1 X85.824 Y111.788 E.26056
G1 X85.289 Y111.788 E.01681
G1 X79.429 Y105.928 E.26056
G1 X78.894 Y105.928 E.01681
G1 X84.755 Y111.788 E.26056
G1 X84.22 Y111.788 E.01681
G1 X78.36 Y105.928 E.26056
G1 X77.825 Y105.928 E.01681
G1 X83.685 Y111.788 E.26056
G1 X83.15 Y111.788 E.01681
G1 X77.29 Y105.928 E.26056
G1 X76.756 Y105.928 E.01681
G1 X82.616 Y111.788 E.26056
G1 X82.081 Y111.788 E.01681
G1 X76.221 Y105.928 E.26056
G1 X75.686 Y105.928 E.01681
G1 X81.546 Y111.788 E.26056
G1 X81.012 Y111.788 E.01681
G1 X75.151 Y105.928 E.26056
G1 X74.617 Y105.928 E.01681
G1 X80.477 Y111.788 E.26056
G1 X79.942 Y111.788 E.01681
G1 X74.082 Y105.928 E.26056
G1 X73.547 Y105.928 E.01681
G1 X79.407 Y111.788 E.26056
G1 X78.873 Y111.788 E.01681
G1 X73.012 Y105.928 E.26056
G1 X72.478 Y105.928 E.01681
G1 X78.338 Y111.788 E.26056
G1 X77.803 Y111.788 E.01681
G1 X71.943 Y105.928 E.26056
G1 X71.408 Y105.928 E.01681
G1 X77.269 Y111.788 E.26056
G1 X76.734 Y111.788 E.01681
G1 X70.874 Y105.928 E.26056
G1 X70.339 Y105.928 E.01681
G1 X76.199 Y111.788 E.26056
G1 X75.664 Y111.788 E.01681
G1 X69.804 Y105.928 E.26056
G1 X69.269 Y105.928 E.01681
G1 X75.13 Y111.788 E.26056
G1 X74.595 Y111.788 E.01681
G1 X68.735 Y105.928 E.26056
G1 X68.2 Y105.928 E.01681
G1 X74.06 Y111.788 E.26056
G1 X73.526 Y111.788 E.01681
G1 X67.665 Y105.928 E.26056
G1 X67.131 Y105.928 E.01681
G1 X72.991 Y111.788 E.26056
G1 X72.456 Y111.788 E.01681
G1 X66.596 Y105.928 E.26056
G1 X66.061 Y105.928 E.01681
M73 P5 R53
G1 X71.921 Y111.788 E.26056
G1 X71.387 Y111.788 E.01681
G1 X65.526 Y105.928 E.26056
G1 X64.992 Y105.928 E.01681
G1 X70.852 Y111.788 E.26056
G1 X70.317 Y111.788 E.01681
G1 X64.457 Y105.928 E.26056
G1 X63.922 Y105.928 E.01681
G1 X69.782 Y111.788 E.26056
G1 X69.248 Y111.788 E.01681
G1 X63.388 Y105.928 E.26056
G1 X62.853 Y105.928 E.01681
G1 X68.713 Y111.788 E.26056
G1 X68.178 Y111.788 E.01681
G1 X62.318 Y105.928 E.26056
G1 X61.783 Y105.928 E.01681
G1 X67.644 Y111.788 E.26056
G1 X67.109 Y111.788 E.01681
G1 X61.249 Y105.928 E.26056
G1 X60.714 Y105.928 E.01681
M73 P5 R52
G1 X66.574 Y111.788 E.26056
G1 X66.039 Y111.788 E.01681
G1 X60.179 Y105.928 E.26056
G1 X59.644 Y105.928 E.01681
G1 X65.505 Y111.788 E.26056
G1 X64.97 Y111.788 E.01681
G1 X59.11 Y105.928 E.26056
G1 X58.575 Y105.928 E.01681
G1 X64.435 Y111.788 E.26056
G1 X63.901 Y111.788 E.01681
G1 X58.04 Y105.928 E.26056
G1 X57.506 Y105.928 E.01681
G1 X63.366 Y111.788 E.26056
G1 X62.831 Y111.788 E.01681
G1 X56.971 Y105.928 E.26056
G1 X56.436 Y105.928 E.01681
G1 X62.296 Y111.788 E.26056
G1 X61.762 Y111.788 E.01681
G1 X55.901 Y105.928 E.26056
G1 X55.367 Y105.928 E.01681
G1 X61.227 Y111.788 E.26056
G1 X60.692 Y111.788 E.01681
G1 X54.832 Y105.928 E.26056
G1 X54.297 Y105.928 E.01681
G1 X60.158 Y111.788 E.26056
G1 X59.623 Y111.788 E.01681
G1 X53.763 Y105.928 E.26056
G1 X53.228 Y105.928 E.01681
G1 X59.088 Y111.788 E.26056
G1 X58.553 Y111.788 E.01681
G1 X52.693 Y105.928 E.26056
G1 X52.158 Y105.928 E.01681
G1 X58.019 Y111.788 E.26056
G1 X57.484 Y111.788 E.01681
G1 X51.624 Y105.928 E.26056
G1 X51.089 Y105.928 E.01681
G1 X56.949 Y111.788 E.26056
G1 X56.414 Y111.788 E.01681
G1 X50.554 Y105.928 E.26056
G1 X50.02 Y105.928 E.01681
G1 X55.88 Y111.788 E.26056
G1 X55.345 Y111.788 E.01681
G1 X49.485 Y105.928 E.26056
G1 X48.95 Y105.928 E.01681
G1 X54.926 Y111.904 E.26571
G1 X54.761 Y112.023 E.00642
G1 X54.652 Y112.164 E.00559
G1 X48.415 Y105.928 E.27727
G1 X47.881 Y105.928 E.01681
G1 X54.507 Y112.554 E.29463
G1 X54.5 Y113.082 E.01659
G1 X47.346 Y105.928 E.31809
G1 X46.811 Y105.928 E.01681
G1 X54.5 Y113.617 E.34187
G1 X54.5 Y114.152 E.01682
G1 X46.276 Y105.928 E.36565
G1 X45.742 Y105.928 E.01681
G1 X54.501 Y114.687 E.38944
G1 X54.501 Y115.221 E.01682
G1 X45.207 Y105.928 E.41322
G1 X44.672 Y105.928 E.01681
G1 X54.501 Y115.756 E.437
G1 X54.501 Y116.291 E.01682
G1 X44.138 Y105.928 E.46079
