; generated by PrusaSlicer 2.5.0+win64 on 2023-05-18 at 18:14:11 UTC


;
;

;
;
; 

; external perimeters extrusion width = 0.45mm
; perimeters extrusion width = 0.45mm
; infill extrusion width = 0.45mm
; solid infill extrusion width = 0.45mm
; top infill extrusion width = 0.40mm
; support material extrusion width = 0.35mm
; first layer extrusion width = 0.42mm

M73 P0 R257
M201 X2500 Y2500 Z400 E5000 ; sets maximum accelerations, mm/sec^2
M203 X180 Y180 Z12 E80 ; sets maximum feedrates, mm / sec
M204 P1250 R1250 T2500 ; sets acceleration (P, T) and retract acceleration (R), mm/sec^2
M205 X8.00 Y8.00 Z2.00 E10.00 ; sets the jerk limits, mm/sec
M205 S0 T0 ; sets the minimum extruding and travel feed rate, mm/sec
M107
;TYPE:Custom
M862.3 P "MINI" ; printer model check
G90 ; use absolute coordinates
M83 ; extruder relative mode
M104 S170 ; set extruder temp for bed leveling
M140 S60 ; set bed temp
M109 R170 ; wait for bed leveling temp
M190 S60 ; wait for bed temp
M204 T1250 ; set travel acceleration
G28 ; home all without mesh bed level
G29 ; mesh bed leveling 
M204 T2500 ; restore travel acceleration
M104 S215 ; set extruder temp
G92 E0
G1 Y-2 X179 F2400
G1 Z3 F720
M109 S215 ; wait for extruder temp

; intro line
G1 X170 F1000
G1 Z0.2 F720
G1 X110 E8 F900
G1 X40 E10 F700
G92 E0

M221 S95 ; set flow
G21 ; set units to millimeters
G90 ; use absolute coordinates
M83 ; use relative distances for extrusion
M900 K0.2 ; Filament gcode LA 1.5
; ; Filament gcode LA 1.0
M107
;LAYER_CHANGE
;Z:0.2
;HEIGHT:0.2
;BEFORE_LAYER_CHANGE
G92 E0.0
;0.2


G1 E-3.2 F4200
G1 Z.2 F720
;AFTER_LAYER_CHANGE
;0.2
G1 Z.4
G1 X26.288 Y8.66 F9000
G1 Z.2 F720
G1 E3.2 F2400
M204 P800
;TYPE:Skirt/Brim
;WIDTH:0.42
G1 F1200
G1 X27.334 Y7.784 E.04278
G1 X28.274 Y7.59 E.03008
G1 X139.782 Y7.59 E3.49626
G1 X141.089 Y7.982 E.04278
M73 P0 R256
G1 X141.966 Y9.027 E.04278
G1 X142.159 Y9.967 E.03008
G1 X142.159 Y162.81 E4.79227
G1 X141.768 Y164.117 E.04278
G1 X140.722 Y164.993 E.04278
G1 X139.782 Y165.187 E.03008
G1 X28.274 Y165.187 E3.49626
G1 X26.967 Y164.795 E.04278
G1 X26.09 Y163.749 E.04278
G1 X25.897 Y162.81 E.03008
G1 X25.897 Y9.967 E4.79227
G1 X26.271 Y8.718 E.0409
M204 P1000
; printing object prosperity_1st_box_lid.stl id:0 copy 0
G1 E-2.24 F4200
;WIPE_START
G1 F7200
G1 X27.334 Y7.784 E-.78411
G1 X27.56 Y7.737 E-.12789
;WIPE_END
G1 E-.048 F4200
G1 Z.4 F720
G1 X35.386 Y70.826 F9000
G1 Z.2 F720
G1 E3.2 F2400
M204 P800
;TYPE:Support material interface
;WIDTH:0.35
G1 F1200
G1 X35.386 Y70.709 E.00297
G1 X35.882 Y70.709 E.01267
G1 X35.882 Y70.826 E.00297
G1 X36.379 Y70.825 E.01267
G1 X36.379 Y70.709 E.00295
G1 X36.875 Y70.709 E.01267
G1 X36.875 Y70.803 E.00239
G1 X37.012 Y70.789 E.00351
G1 X37.207 Y70.966 E.00672
G1 X37.371 Y70.907 E.00446
G1 X37.371 Y70.709 E.00504
G1 X37.868 Y70.709 E.01267
G1 X37.868 Y70.826 E.00299
G1 X38.122 Y70.812 E.00651
G1 X38.364 Y70.827 E.00618
G1 X38.364 Y70.709 E.003
G1 X38.86 Y70.709 E.01267
G1 X38.86 Y70.908 E.00507
G1 X39.027 Y70.969 E.00455
G1 X39.181 Y70.814 E.00557
G1 X39.357 Y70.812 E.00449
G1 X39.357 Y70.707 E.00268
G1 X39.536 Y70.703 E.00458
G1 X39.536 Y70.809 E.00269
G1 X39.505 Y70.81 E.00079
M204 P1000
G1 E-2.24 F4200
;WIPE_START
G1 F7200
G1 X39.536 Y70.809 E-.01725
G1 X39.536 Y70.703 E-.05839
G1 X39.357 Y70.707 E-.09936
G1 X39.357 Y70.812 E-.05826
G1 X39.181 Y70.814 E-.09744
G1 X39.027 Y70.969 E-.12083
G1 X38.86 Y70.908 E-.09869
G1 X38.86 Y70.709 E-.11003
G1 X38.406 Y70.709 E-.25175
;WIPE_END
G1 E-.048 F4200
G1 Z.4 F720
G1 X39.463 Y72.901 F9000
G1 Z.2 F720
G1 E3.2 F2400
M204 P800
G1 F1200
G1 X39.574 Y72.678 E.00636
G1 X39.516 Y72.751 E.00239
G1 X39.357 Y72.849 E.00476
G1 X39.357 Y73.004 E.00396
G1 X39.291 Y73.068 E.00235
G1 X39.014 Y73.213 E.00798
G1 X38.86 Y73.251 E.00404
G1 X38.86 Y73.102 E.00381
G1 X38.364 Y73.163 E.01277
G1 X38.364 Y73.328 E.00421
G1 X38.137 Y73.344 E.0058
G1 X37.868 Y73.324 E.0069
G1 X37.868 Y73.158 E.00424
G1 X37.371 Y73.099 E.01277
G1 X37.371 Y73.238 E.00357
G1 X37.251 Y73.207 E.00316
G1 X36.97 Y73.056 E.00815
G1 X36.875 Y72.96 E.00345
G1 X36.875 Y72.838 E.00314
G1 X36.725 Y72.744 E.00451
G1 X36.776 Y72.851 E.00303
M204 P1000
G1 E-2.24 F4200
;WIPE_START
G1 F7200
G1 X36.725 Y72.744 E-.06579
G1 X36.875 Y72.838 E-.09792
G1 X36.875 Y72.96 E-.06807
G1 X36.97 Y73.056 E-.07496
G1 X37.251 Y73.207 E-.17686
G1 X37.371 Y73.238 E-.06861
G1 X37.371 Y73.099 E-.07747
G1 X37.868 Y73.158 E-.27704
G1 X37.868 Y73.168 E-.00527
;WIPE_END
G1 E-.048 F4200
G1 Z.4 F720
G1 X36.727 Y74.968 F9000
G1 Z.2 F720
G1 E3.2 F2400
M204 P800
G1 F1200
G1 X36.704 Y74.968 E.00059
G1 X36.704 Y74.852 E.00297
G1 X36.875 Y74.852 E.00437
G1 X36.875 Y74.968 E.00297
G1 X37.371 Y74.968 E.01267
G1 X37.371 Y74.852 E.00297
G1 X37.868 Y74.852 E.01267
G1 X37.868 Y74.968 E.00297
G1 X38.364 Y74.985 E.01268
G1 X38.364 Y74.852 E.0034
G1 X38.86 Y74.852 E.01267
G1 X38.86 Y75.079 E.00579
G1 X38.991 Y74.945 E.00479
G1 X39.357 Y74.935 E.00933
G1 X39.357 Y74.85 E.00218
G1 X39.536 Y74.845 E.00458
G1 X39.536 Y74.926 E.00206
G1 X39.505 Y74.928 E.0008
M204 P1000
G1 E-2.24 F4200
;WIPE_START
G1 F7200
G1 X39.536 Y74.926 E-.01735
G1 X39.536 Y74.845 E-.04464
G1 X39.357 Y74.85 E-.09937
G1 X39.357 Y74.935 E-.04727
G1 X38.991 Y74.945 E-.20243
G1 X38.86 Y75.079 E-.1039
G1 X38.86 Y74.852 E-.12575
G1 X38.371 Y74.852 E-.27129
;WIPE_END
G1 E-.048 F4200
G1 Z.4 F720
G1 X39.002 Y77.58 F9000
G1 Z.2 F720
G1 E3.2 F2400
M204 P800
G1 F1200
G1 X39.349 Y77.819 E.01074
G1 X39.221 Y77.651 E.00538
G1 X38.94 Y77.451 E.00879
G1 X38.86 Y77.423 E.00217
G1 X38.86 Y77.54 E.00299
G1 X38.364 Y77.471 E.0128
G1 X38.364 Y77.303 E.00428
G1 X38.123 Y77.279 E.00618
G1 X37.868 Y77.305 E.00655
G1 X37.868 Y77.456 E.00388
G1 X37.67 Y77.471 E.00505
G1 X37.371 Y77.539 E.00783
G1 X37.371 Y77.427 E.00287
G1 X37.301 Y77.451 E.00189
G1 X37.019 Y77.652 E.00884
G1 X36.972 Y77.713 E.00197
G1 X37.232 Y77.587 E.00736
M204 P1000
G1 E-2.24 F4200
;WIPE_START
G1 F7200
G1 X36.972 Y77.713 E-.15976
G1 X37.019 Y77.652 E-.04273
G1 X37.301 Y77.451 E-.19188
G1 X37.371 Y77.427 E-.04093
G1 X37.371 Y77.539 E-.06227
G1 X37.67 Y77.471 E-.17003
G1 X37.868 Y77.456 E-.10956
G1 X37.868 Y77.305 E-.08415
G1 X37.959 Y77.296 E-.05069
;WIPE_END
G1 E-.048 F4200
G1 Z.4 F720
G1 X37.241 Y79.921 F9000
G1 Z.2 F720
G1 E3.2 F2400
M204 P800
G1 F1200
G1 X37.02 Y79.761 E.00697
G1 X36.906 Y79.61 E.00482
G1 X37.227 Y79.835 E.00999
G1 X37.371 Y79.878 E.00385
G1 X37.371 Y79.989 E.00282
G1 X37.663 Y80.092 E.00791
G1 X37.868 Y80.113 E.00524
G1 X37.868 Y79.948 E.0042
G1 X38.127 Y79.98 E.00668
G1 X38.364 Y79.966 E.00605
G1 X38.364 Y80.116 E.00383
G1 X38.601 Y80.094 E.00608
G1 X38.86 Y80.007 E.00698
G1 X38.86 Y79.89 E.00299
G1 X39.001 Y79.852 E.00371
G1 X39.297 Y79.701 E.00849
G1 X39.237 Y79.781 E.00255
G1 X38.996 Y79.951 E.00752
M204 P1000
G1 E-2.24 F4200
;WIPE_START
G1 F7200
G1 X39.237 Y79.781 E-.16331
G1 X39.297 Y79.701 E-.05534
G1 X39.001 Y79.852 E-.18433
G1 X38.86 Y79.89 E-.08056
G1 X38.86 Y80.007 E-.06491
G1 X38.601 Y80.094 E-.15159
G1 X38.364 Y80.116 E-.13192
G1 X38.364 Y79.971 E-.08004
;WIPE_END
G1 E-.048 F4200
G1 Z.4 F720
G1 X39.007 Y81.577 F9000
G1 Z.2 F720
G1 E3.2 F2400
M204 P800
G1 F1200
G1 X39.163 Y81.595 E.004
G1 X39.113 Y81.57 E.00141
G1 X38.86 Y81.544 E.00649
G1 X38.86 Y81.595 E.0013
G1 X38.755 Y81.622 E.00278
G1 X38.554 Y81.739 E.00593
G1 X38.441 Y81.856 E.00415
G1 X38.364 Y81.982 E.00378
G1 X38.398 Y81.878 E.00281
G1 X38.519 Y81.698 E.00554
M204 P1000
G1 E-2.24 F4200
;WIPE_START
G1 F7200
G1 X38.398 Y81.878 E-.12013
G1 X38.364 Y81.982 E-.061
G1 X38.441 Y81.856 E-.08204
G1 X38.554 Y81.739 E-.09003
G1 X38.755 Y81.622 E-.12881
G1 X38.86 Y81.595 E-.06035
G1 X38.86 Y81.544 E-.02825
G1 X39.113 Y81.57 E-.14082
G1 X39.163 Y81.595 E-.03065
G1 X39.007 Y81.577 E-.08673
;WIPE_END
G1 E-.13119 F4200
G1 Z.4 F720
G1 X37.933 Y83.477 F9000
G1 Z.2 F720
G1 E3.2 F2400
M204 P800
G1 F1200
G1 X37.971 Y83.384 E.00258
G1 X37.868 Y83.556 E.00513
G1 X37.852 Y83.638 E.00212
G1 X37.795 Y83.714 E.00242
G1 X37.665 Y83.823 E.00434
G1 X37.493 Y83.879 E.00463
G1 X37.373 Y83.887 E.00305
G1 X37.371 Y83.84 E.0012
G1 X37.236 Y83.851 E.00346
G1 X37.112 Y83.832 E.0032
G1 X37.225 Y83.865 E.003
M204 P1000
G1 E-2.24 F4200
;WIPE_START
G1 F7200
G1 X37.112 Y83.832 E-.06506
G1 X37.236 Y83.851 E-.06953
G1 X37.371 Y83.84 E-.07507
G1 X37.373 Y83.887 E-.0261
G1 X37.493 Y83.879 E-.0662
G1 X37.665 Y83.823 E-.10054
G1 X37.795 Y83.714 E-.09422
G1 X37.852 Y83.638 E-.0525
G1 X37.868 Y83.556 E-.04603
G1 X37.971 Y83.384 E-.11145
G1 X37.933 Y83.477 E-.05589
;WIPE_END
G1 E-.19741 F4200
G1 Z.4 F720
G1 X35.386 Y85.522 F9000
G1 Z.2 F720
G1 E3.2 F2400
M204 P800
G1 F1200
G1 X35.386 Y85.405 E.00297
G1 X35.882 Y85.405 E.01267
G1 X35.882 Y85.522 E.00297
G1 X36.379 Y85.521 E.01267
G1 X36.379 Y85.405 E.00295
G1 X36.875 Y85.405 E.01267
G1 X36.875 Y85.499 E.00239
G1 X37.012 Y85.485 E.00351
G1 X37.207 Y85.662 E.00672
G1 X37.371 Y85.602 E.00446
G1 X37.371 Y85.405 E.00504
G1 X37.868 Y85.405 E.01267
G1 X37.868 Y85.522 E.00299
G1 X38.122 Y85.508 E.00651
G1 X38.364 Y85.523 E.00618
G1 X38.364 Y85.405 E.003
G1 X38.86 Y85.405 E.01267
G1 X38.86 Y85.604 E.00507
G1 X39.027 Y85.665 E.00455
G1 X39.181 Y85.51 E.00557
G1 X39.357 Y85.508 E.00449
G1 X39.357 Y85.403 E.00268
G1 X39.536 Y85.399 E.00458
G1 X39.536 Y85.504 E.00269
G1 X39.505 Y85.505 E.00079
M204 P1000
G1 E-2.24 F4200
;WIPE_START
G1 F7200
G1 X39.536 Y85.504 E-.01725
G1 X39.536 Y85.399 E-.05839
G1 X39.357 Y85.403 E-.09936
G1 X39.357 Y85.508 E-.05826
G1 X39.181 Y85.51 E-.09744
G1 X39.027 Y85.665 E-.12084
G1 X38.86 Y85.604 E-.09869
G1 X38.86 Y85.405 E-.11004
G1 X38.406 Y85.405 E-.25174
;WIPE_END
G1 E-.048 F4200
G1 Z.4 F720
G1 X39.463 Y87.596 F9000
G1 Z.2 F720
G1 E3.2 F2400
M204 P800
G1 F1200
G1 X39.574 Y87.374 E.00636
G1 X39.516 Y87.447 E.00239
G1 X39.357 Y87.545 E.00476
G1 X39.357 Y87.7 E.00397
G1 X39.291 Y87.764 E.00235
G1 X39.014 Y87.909 E.00798
G1 X38.86 Y87.947 E.00404
G1 X38.86 Y87.798 E.00381
G1 X38.364 Y87.859 E.01277
G1 X38.364 Y88.024 E.00421
G1 X38.137 Y88.04 E.0058
G1 X37.868 Y88.02 E.0069
G1 X37.868 Y87.854 E.00424
G1 X37.371 Y87.795 E.01277
G1 X37.371 Y87.934 E.00357
G1 X37.251 Y87.903 E.00316
G1 X36.97 Y87.752 E.00815
G1 X36.875 Y87.656 E.00345
G1 X36.875 Y87.533 E.00314
G1 X36.725 Y87.44 E.00451
G1 X36.776 Y87.547 E.00303
M204 P1000
G1 E-2.24 F4200
;WIPE_START
G1 F7200
G1 X36.725 Y87.44 E-.0658
G1 X36.875 Y87.533 E-.09793
G1 X36.875 Y87.656 E-.06807
G1 X36.97 Y87.752 E-.07496
G1 X37.251 Y87.903 E-.17686
G1 X37.371 Y87.934 E-.06861
G1 X37.371 Y87.795 E-.07747
G1 X37.868 Y87.854 E-.27704
G1 X37.868 Y87.864 E-.00527
;WIPE_END
G1 E-.048 F4200
G1 Z.4 F720
G1 X37.227 Y89.601 F9000
G1 Z.2 F720
G1 E3.2 F2400
M204 P800
G1 F1200
G1 X36.936 Y89.743 E.00826
G1 X36.992 Y89.673 E.00227
G1 X37.264 Y89.495 E.00831
G1 X37.371 Y89.462 E.00286
G1 X37.371 Y89.566 E.00265
G1 X37.563 Y89.522 E.00501
G1 X37.868 Y89.502 E.00781
G1 X37.868 Y89.359 E.00365
G1 X38.136 Y89.336 E.00688
G1 X38.364 Y89.356 E.00585
G1 X38.364 Y89.512 E.00399
G1 X38.39 Y89.488 E.00091
G1 X38.86 Y89.536 E.01206
G1 X38.86 Y89.458 E.00197
G1 X38.977 Y89.496 E.00313
G1 X39.168 Y89.625 E.00589
G1 X39.003 Y89.574 E.00441
M204 P1000
G1 E-2.24 F4200
;WIPE_START
G1 F7200
G1 X39.168 Y89.625 E-.09567
G1 X38.977 Y89.496 E-.12791
G1 X38.86 Y89.458 E-.06786
G1 X38.86 Y89.536 E-.04283
G1 X38.39 Y89.488 E-.26181
G1 X38.364 Y89.512 E-.01966
G1 X38.364 Y89.356 E-.08653
G1 X38.136 Y89.336 E-.12689
G1 X37.987 Y89.348 E-.08283
;WIPE_END
G1 E-.048 F4200
G1 Z.4 F720
G1 X38.499 Y91.773 F9000
G1 Z.2 F720
G1 E3.2 F2400
M204 P800
G1 F1200
G1 X38.779 Y91.736 E.0072
G1 X38.512 Y91.809 E.00706
G1 X38.364 Y91.82 E.0038
G1 X38.364 Y91.754 E.00167
M204 P1000
G1 E-2.24 F4200
;WIPE_START
G1 F7200
G1 X38.364 Y91.82 E-.03627
G1 X38.512 Y91.809 E-.0824
G1 X38.779 Y91.736 E-.15314
G1 X38.499 Y91.773 E-.1563
;WIPE_END
G1 E-.53189 F4200
G1 Z.4 F720
G1 X39.505 Y93.395 F9000
G1 Z.2 F720
G1 E3.2 F2400
M204 P800
G1 F1200
G1 X39.536 Y93.393 E.0008
G1 X39.536 Y93.313 E.00206
G1 X39.357 Y93.317 E.00458
G1 X39.357 Y93.402 E.00218
G1 X38.991 Y93.412 E.00933
G1 X38.86 Y93.546 E.00479
G1 X38.86 Y93.319 E.00579
G1 X38.364 Y93.319 E.01267
G1 X38.364 Y93.453 E.0034
G1 X37.868 Y93.436 E.01268
G1 X37.868 Y93.319 E.00297
G1 X37.371 Y93.319 E.01267
G1 X37.371 Y93.436 E.00297
G1 X36.875 Y93.436 E.01267
G1 X36.875 Y93.319 E.00297
G1 X36.704 Y93.319 E.00437
G1 X36.704 Y93.436 E.00297
G1 X36.727 Y93.436 E.00059
M204 P1000
G1 E-2.24 F4200
;WIPE_START
G1 F7200
G1 X36.704 Y93.436 E-.01281
G1 X36.704 Y93.319 E-.06455
G1 X36.875 Y93.319 E-.09493
G1 X36.875 Y93.436 E-.06455
G1 X37.371 Y93.436 E-.27506
G1 X37.371 Y93.319 E-.06455
G1 X37.868 Y93.319 E-.27506
G1 X37.868 Y93.428 E-.0605
;WIPE_END
G1 E-.048 F4200
G1 Z.4 F720
G1 X36.727 Y96.075 F9000
G1 Z.2 F720
G1 E3.2 F2400
M204 P800
G1 F1200
G1 X36.704 Y96.075 E.00059
G1 X36.704 Y95.958 E.00297
G1 X36.875 Y95.958 E.00437
G1 X36.875 Y96.075 E.00297
G1 X37.371 Y96.075 E.01267
G1 X37.371 Y95.958 E.00297
G1 X37.868 Y95.958 E.01267
G1 X37.868 Y96.075 E.00297
G1 X38.364 Y96.075 E.01267
G1 X38.364 Y95.958 E.00297
G1 X38.86 Y95.958 E.01267
G1 X38.86 Y96.075 E.00297
G1 X39.357 Y96.075 E.01267
G1 X39.357 Y95.958 E.00297
G1 X39.536 Y95.958 E.00458
G1 X39.536 Y96.075 E.00297
G1 X39.505 Y96.075 E.00079
M204 P1000
G1 E-2.24 F4200
;WIPE_START
G1 F7200
G1 X39.536 Y96.075 E-.01723
G1 X39.536 Y95.958 E-.06455
G1 X39.357 Y95.958 E-.09934
G1 X39.357 Y96.075 E-.06455
G1 X38.86 Y96.075 E-.27506
G1 X38.86 Y95.958 E-.06455
G1 X38.364 Y95.958 E-.27506
G1 X38.364 Y96.052 E-.05167
;WIPE_END
G1 E-.048 F4200
G1 Z.4 F720
G1 X40.001 Y98.013 F9000
G1 Z.2 F720
G1 E3.2 F2400
M204 P800
G1 F1200
G1 X40.053 Y98.013 E.00134
G1 X39.853 Y97.944 E.00542
G1 X39.853 Y98.013 E.00177
G1 X39.781 Y98.013 E.00184
G1 X39.632 Y98.162 E.00538
G1 X39.483 Y98.013 E.00538
G1 X39.357 Y98.013 E.00323
G1 X39.357 Y97.907 E.00271
G1 X38.86 Y97.907 E.01267
G1 X38.86 Y98.013 E.00271
G1 X38.364 Y98.013 E.01267
G1 X38.364 Y97.907 E.00271
G1 X37.868 Y97.907 E.01267
G1 X37.868 Y98.013 E.00271
G1 X37.371 Y98.015 E.01267
G1 X37.371 Y97.907 E.00275
G1 X37.165 Y97.907 E.00526
G1 X36.948 Y97.926 E.00557
G1 X36.875 Y97.95 E.00196
G1 X36.875 Y98.129 E.00456
G1 X36.774 Y98.186 E.00297
G1 X36.65 Y98.309 E.00444
G1 X36.661 Y98.196 E.00288
G1 X36.7 Y98.087 E.00297
G1 X36.747 Y98.022 E.00205
M204 P1000
G1 E-2.24 F4200
;WIPE_START
G1 F7200
G1 X36.7 Y98.087 E-.04458
G1 X36.661 Y98.196 E-.06438
G1 X36.65 Y98.309 E-.06251
G1 X36.774 Y98.186 E-.09642
G1 X36.875 Y98.129 E-.06445
G1 X36.875 Y97.95 E-.09903
G1 X36.948 Y97.926 E-.04256
G1 X37.165 Y97.907 E-.12091
G1 X37.371 Y97.907 E-.11418
G1 X37.371 Y98.015 E-.05961
G1 X37.63 Y98.014 E-.14337
;WIPE_END
G1 E-.048 F4200
G1 Z.4 F720
G1 X38.226 Y100.393 F9000
G1 Z.2 F720
G1 E3.2 F2400
M204 P800
G1 F1200
G1 X38.156 Y100.421 E.00192
G1 X38.86 Y100.14 E.01935
G1 X38.86 Y100.185 E.00116
G1 X39.357 Y100.018 E.01337
G1 X39.357 Y99.941 E.00197
G1 X39.536 Y99.87 E.00493
G1 X39.536 Y99.958 E.00227
G1 X39.497 Y99.971 E.00104
M204 P1000
G1 E-2.24 F4200
;WIPE_START
G1 F7200
G1 X39.536 Y99.958 E-.02266
G1 X39.536 Y99.87 E-.04918
G1 X39.357 Y99.941 E-.10698
G1 X39.357 Y100.018 E-.04278
G1 X38.86 Y100.185 E-.29011
G1 X38.86 Y100.14 E-.02509
G1 X38.232 Y100.391 E-.3752
;WIPE_END
G1 E-.048 F4200
G1 Z.4 F720
G1 X38.223 Y101.922 F9000
G1 Z.2 F720
G1 E3.2 F2400
M204 P800
G1 F1200
G1 X38.167 Y101.904 E.00148
G1 X38.86 Y102.121 E.01854
G1 X38.86 Y102.165 E.00111
G1 X39.357 Y102.351 E.01354
G1 X39.357 Y102.277 E.0019
G1 X39.536 Y102.333 E.0048
G1 X39.536 Y102.419 E.00219
G1 X39.495 Y102.403 E.00111
M204 P1000
G1 E-2.24 F4200
;WIPE_START
G1 F7200
G1 X39.536 Y102.419 E-.02401
G1 X39.536 Y102.333 E-.04752
G1 X39.357 Y102.277 E-.1041
G1 X39.357 Y102.351 E-.04129
G1 X38.86 Y102.165 E-.29384
G1 X38.86 Y102.121 E-.02406
G1 X38.211 Y101.918 E-.37719
;WIPE_END
G1 E-.048 F4200
G1 Z.4 F720
G1 X36.517 Y101.284 F9000
G1 Z.2 F720
G1 E3.2 F2400
M204 P800
G1 F1200
G1 X36.686 Y101.348 E.00459
G1 X36.683 Y101.01 E.00863
G1 X36.379 Y101.121 E.00828
G1 X36.379 Y101.232 E.00283
G1 X35.882 Y101.012 E.01387
G1 X35.882 Y100.974 E.00098
G1 X35.588 Y100.814 E.00854
