; generated by PrusaSlicer 2.5.0+win64 on 2023-05-04 at 15:54:44 UTC


;
;

;
;
; 

; external perimeters extrusion width = 0.45mm
; perimeters extrusion width = 0.45mm
; infill extrusion width = 0.45mm
; solid infill extrusion width = 0.45mm
; top infill extrusion width = 0.40mm
; first layer extrusion width = 0.42mm

; external perimeters extrusion width = 0.45mm
; perimeters extrusion width = 0.45mm
; infill extrusion width = 0.45mm
; solid infill extrusion width = 0.45mm
; top infill extrusion width = 0.40mm
; first layer extrusion width = 0.42mm

; external perimeters extrusion width = 0.45mm
; perimeters extrusion width = 0.45mm
; infill extrusion width = 0.45mm
; solid infill extrusion width = 0.45mm
; top infill extrusion width = 0.40mm
; first layer extrusion width = 0.42mm

; external perimeters extrusion width = 0.45mm
; perimeters extrusion width = 0.45mm
; infill extrusion width = 0.45mm
; solid infill extrusion width = 0.45mm
; top infill extrusion width = 0.40mm
; first layer extrusion width = 0.42mm

M73 P0 R56
M201 X2500 Y2500 Z400 E5000 ; sets maximum accelerations, mm/sec^2
M203 X180 Y180 Z12 E80 ; sets maximum feedrates, mm / sec
M204 P1250 R1250 T2500 ; sets acceleration (P, T) and retract acceleration (R), mm/sec^2
M205 X8.00 Y8.00 Z2.00 E10.00 ; sets the jerk limits, mm/sec
M205 S0 T0 ; sets the minimum extruding and travel feed rate, mm/sec
M107
;TYPE:Custom
M862.3 P "MINI" ; printer model check
G90 ; use absolute coordinates
M83 ; extruder relative mode
M104 S170 ; set extruder temp for bed leveling
M140 S60 ; set bed temp
M109 R170 ; wait for bed leveling temp
M190 S60 ; wait for bed temp
M204 T1250 ; set travel acceleration
G28 ; home all without mesh bed level
G29 ; mesh bed leveling 
M204 T2500 ; restore travel acceleration
M104 S215 ; set extruder temp
G92 E0
G1 Y-2 X179 F2400
G1 Z3 F720
M109 S215 ; wait for extruder temp

; intro line
G1 X170 F1000
G1 Z0.2 F720
G1 X110 E8 F900
G1 X40 E10 F700
G92 E0

M221 S95 ; set flow
G21 ; set units to millimeters
G90 ; use absolute coordinates
M83 ; use relative distances for extrusion
M900 K0.2 ; Filament gcode LA 1.5
; ; Filament gcode LA 1.0
M107
;LAYER_CHANGE
;Z:0.2
;HEIGHT:0.2
;BEFORE_LAYER_CHANGE
G92 E0.0
;0.2


G1 E-3.2 F4200
G1 Z.2 F720
;AFTER_LAYER_CHANGE
;0.2
G1 Z.4
G1 X5.013 Y17.681 F9000
G1 Z.2 F720
G1 E3.2 F2400
M204 P800
;TYPE:Skirt/Brim
;WIDTH:0.42
G1 F1200
G1 X83.669 Y4.444 E2.50087
G1 X149.863 Y4.411 E2.07548
G1 X151.17 Y4.802 E.04278
G1 X152.127 Y6.062 E.04961
G1 X166.227 Y50.062 E1.44869
G1 X166.338 Y50.672 E.01944
G1 X170.395 Y134.265 E2.62406
G1 X170.398 Y158.38 E.75612
M73 P0 R55
G1 X170.006 Y159.687 E.04278
G1 X168.382 Y160.729 E.06051
G1 X86.17 Y173.377 E2.60802
G1 X20.009 Y173.405 E2.07445
M73 P1 R55
G1 X18.702 Y173.013 E.04278
G1 X17.745 Y171.753 E.04961
G1 X3.645 Y127.753 E1.44869
G1 X3.532 Y127.042 E.02258
G1 X3.031 Y44.026 E2.60297
G1 X3.031 Y20.026 E.7525
G1 X3.422 Y18.718 E.04278
G1 X4.963 Y17.714 E.05767
M204 P1000
; printing object prosperity_1st_div_12_15.stl_4 id:3 copy 0
G1 E-2.24 F4200
;WIPE_START
G1 F7200
G1 X6.586 Y17.441 E-.912
;WIPE_END
G1 E-.048 F4200
G1 Z.4 F720
G1 X117.285 Y135.163 F9000
G1 Z.2 F720
G1 E3.2 F2400
M204 P800
;TYPE:Perimeter
;WIDTH:0.419999
G1 F1200
G1 X117.556 Y135.072 E.00897
G1 X117.748 Y134.854 E.0091
G1 X117.808 Y134.601 E.00815
G1 X117.808 Y98.158 E1.14264
G1 X117.798 Y98.054 E.00328
G1 X117.694 Y97.819 E.00805
G1 X117.46 Y97.636 E.00933
G1 X117.242 Y97.593 E.00696
G1 X88.908 Y97.593 E.8884
G1 X88.908 Y91.167 E.20148
G1 X153.133 Y91.167 E2.01375
G1 X153.133 Y97.593 E.20148
G1 X124.799 Y97.593 E.8884
G1 X124.701 Y97.601 E.00308
G1 X124.488 Y97.686 E.00721
G1 X124.306 Y97.881 E.00835
G1 X124.233 Y98.158 E.00899
G1 X124.236 Y134.651 E1.14419
G1 X124.328 Y134.915 E.00879
G1 X124.546 Y135.107 E.0091
G1 X124.799 Y135.167 E.00815
G1 X167.233 Y135.167 E1.3305
G1 X167.233 Y141.593 E.20148
G1 X124.75 Y141.595 E1.33204
G1 X124.485 Y141.688 E.00879
G1 X124.293 Y141.905 E.0091
G1 X124.233 Y142.158 E.00815
G1 X124.243 Y150.706 E.26799
G1 X124.347 Y150.941 E.00805
G1 X124.582 Y151.123 E.00933
G1 X124.799 Y151.167 E.00696
G1 X167.233 Y151.167 E1.3305
G1 X167.233 Y157.593 E.20148
G1 X74.808 Y157.593 E2.89794
G1 X74.808 Y151.167 E.20148
M73 P2 R55
G1 X117.242 Y151.167 E1.3305
G1 X117.34 Y151.158 E.00308
G1 X117.553 Y151.074 E.00721
G1 X117.735 Y150.879 E.00835
G1 X117.808 Y150.601 E.00899
G1 X117.808 Y142.158 E.26472
G1 X117.8 Y142.065 E.00293
G1 X117.713 Y141.845 E.00744
G1 X117.495 Y141.653 E.0091
G1 X117.242 Y141.593 E.00815
G1 X74.808 Y141.593 E1.3305
G1 X74.808 Y135.167 E.20148
G1 X117.225 Y135.167 E1.32996
M204 P1000
G1 X117.242 Y134.79 F9000
M204 P800
;TYPE:External perimeter
G1 F1200
G1 X117.363 Y134.746 E.00402
G1 X117.431 Y134.601 E.00501
G1 X117.431 Y98.158 E1.14264
G1 X117.372 Y98.022 E.00466
G1 X117.242 Y97.97 E.00439
G1 X88.531 Y97.97 E.90023
G1 X88.531 Y90.79 E.22512
G1 X153.511 Y90.79 E2.0374
G1 X153.511 Y97.97 E.22512
G1 X124.799 Y97.97 E.90023
G1 X124.669 Y98.022 E.00439
M73 P2 R54
G1 X124.611 Y98.158 E.00466
G1 X124.611 Y134.601 E1.14264
G1 X124.654 Y134.722 E.00402
G1 X124.799 Y134.79 E.00501
G1 X167.611 Y134.79 E1.34232
G1 X167.611 Y141.97 E.22512
G1 X124.799 Y141.97 E1.34232
G1 X124.678 Y142.014 E.00402
G1 X124.611 Y142.158 E.00501
G1 X124.611 Y150.601 E.26472
G1 X124.669 Y150.738 E.00466
G1 X124.799 Y150.79 E.00439
G1 X167.611 Y150.79 E1.34232
G1 X167.611 Y157.97 E.22512
G1 X74.431 Y157.97 E2.92159
G1 X74.431 Y150.79 E.22512
G1 X117.242 Y150.79 E1.34232
M73 P3 R54
G1 X117.372 Y150.738 E.00439
G1 X117.431 Y150.601 E.00466
G1 X117.431 Y142.158 E.26472
G1 X117.387 Y142.038 E.00402
G1 X117.242 Y141.97 E.00501
G1 X74.431 Y141.97 E1.34232
G1 X74.431 Y134.79 E.22512
G1 X117.182 Y134.79 E1.34044
M204 P1000
G1 X117.335 Y134.878 F9000
G1 E-2.24 F4200
;WIPE_START
G1 F7200
G1 X117.363 Y134.746 E-.10302
G1 X117.431 Y134.601 E-.08863
G1 X117.431 Y133.301 E-.72034
;WIPE_END
G1 E-.048 F4200
G1 Z.4 F720
G1 X167.12 Y136.089 F9000
G1 Z.2 F720
G1 E3.2 F2400
M204 P800
;TYPE:Solid infill
;WIDTH:0.421024
G1 F1200
G1 X166.481 Y135.45 E.02841
G1 X165.947 Y135.45 E.01681
G1 X166.951 Y136.454 E.04464
G1 X166.951 Y136.989 E.01681
G1 X165.412 Y135.45 E.06842
G1 X164.877 Y135.45 E.01681
G1 X166.951 Y137.523 E.09219
G1 X166.951 Y138.058 E.01681
G1 X164.342 Y135.45 E.11597
G1 X163.808 Y135.45 E.01681
G1 X166.951 Y138.593 E.13974
G1 X166.951 Y139.127 E.01681
G1 X163.273 Y135.45 E.16352
G1 X162.738 Y135.45 E.01681
G1 X166.951 Y139.662 E.18729
G1 X166.951 Y140.197 E.01681
G1 X162.203 Y135.45 E.21107
G1 X161.669 Y135.45 E.01681
G1 X166.951 Y140.732 E.23484
G1 X166.951 Y141.266 E.01681
G1 X161.134 Y135.45 E.25862
G1 X160.599 Y135.45 E.01681
G1 X166.46 Y141.31 E.26057
G1 X165.925 Y141.31 E.01681
G1 X160.065 Y135.45 E.26057
G1 X159.53 Y135.45 E.01681
G1 X165.391 Y141.31 E.26058
G1 X164.856 Y141.311 E.01681
G1 X158.995 Y135.45 E.26058
G1 X158.46 Y135.45 E.01681
G1 X164.321 Y141.311 E.26059
G1 X163.787 Y141.311 E.01681
G1 X157.926 Y135.45 E.26059
G1 X157.391 Y135.45 E.01681
G1 X163.252 Y141.311 E.2606
G1 X162.718 Y141.311 E.01681
G1 X156.856 Y135.45 E.26061
G1 X156.322 Y135.45 E.01681
G1 X162.183 Y141.311 E.26061
G1 X161.648 Y141.311 E.01681
G1 X155.787 Y135.45 E.26062
G1 X155.252 Y135.45 E.01681
G1 X161.114 Y141.311 E.26062
G1 X160.579 Y141.312 E.01681
G1 X154.717 Y135.45 E.26063
G1 X154.183 Y135.45 E.01681
G1 X160.045 Y141.312 E.26063
G1 X159.51 Y141.312 E.01681
G1 X153.648 Y135.45 E.26064
G1 X153.113 Y135.45 E.01681
G1 X158.975 Y141.312 E.26065
G1 X158.441 Y141.312 E.01681
G1 X152.579 Y135.45 E.26065
G1 X152.044 Y135.45 E.01681
G1 X157.906 Y141.312 E.26066
G1 X157.372 Y141.312 E.01681
G1 X151.509 Y135.45 E.26066
G1 X150.974 Y135.45 E.01681
G1 X156.837 Y141.312 E.26067
G1 X156.303 Y141.313 E.01681
G1 X150.44 Y135.45 E.26067
G1 X149.905 Y135.45 E.01681
G1 X155.768 Y141.313 E.26068
G1 X155.233 Y141.313 E.01681
G1 X149.37 Y135.45 E.26069
G1 X148.835 Y135.45 E.01681
G1 X154.699 Y141.313 E.26069
G1 X154.164 Y141.313 E.01681
G1 X148.301 Y135.45 E.2607
G1 X147.766 Y135.45 E.01681
G1 X153.63 Y141.313 E.2607
G1 X153.095 Y141.313 E.01681
G1 X147.231 Y135.45 E.26071
G1 X146.697 Y135.45 E.01681
G1 X152.56 Y141.314 E.26071
G1 X152.026 Y141.314 E.01681
G1 X146.162 Y135.45 E.26072
G1 X145.627 Y135.45 E.01681
G1 X151.491 Y141.314 E.26073
G1 X150.957 Y141.314 E.01681
G1 X145.092 Y135.45 E.26073
G1 X144.558 Y135.45 E.01681
G1 X150.422 Y141.314 E.26074
G1 X149.887 Y141.314 E.01681
G1 X144.023 Y135.45 E.26074
G1 X143.488 Y135.45 E.01681
G1 X149.353 Y141.314 E.26075
G1 X148.818 Y141.314 E.01681
G1 X142.954 Y135.45 E.26076
G1 X142.419 Y135.45 E.01681
G1 X148.284 Y141.315 E.26076
G1 X147.749 Y141.315 E.01681
G1 X141.884 Y135.45 E.26077
G1 X141.349 Y135.45 E.01681
G1 X147.214 Y141.315 E.26077
G1 X146.68 Y141.315 E.01681
G1 X140.815 Y135.45 E.26078
G1 X140.28 Y135.45 E.01681
G1 X146.145 Y141.315 E.26078
G1 X145.611 Y141.315 E.01681
G1 X139.745 Y135.45 E.26079
G1 X139.211 Y135.45 E.01681
G1 X145.076 Y141.315 E.2608
G1 X144.542 Y141.315 E.01681
G1 X138.676 Y135.45 E.2608
G1 X138.141 Y135.45 E.01681
G1 X144.007 Y141.316 E.26081
G1 X143.472 Y141.316 E.01681
G1 X137.606 Y135.45 E.26081
G1 X137.072 Y135.45 E.01681
G1 X142.938 Y141.316 E.26082
G1 X142.403 Y141.316 E.01681
G1 X136.537 Y135.45 E.26082
G1 X136.002 Y135.45 E.01681
G1 X141.869 Y141.316 E.26083
G1 X141.334 Y141.316 E.01681
G1 X135.468 Y135.45 E.26084
G1 X134.933 Y135.45 E.01681
G1 X140.799 Y141.316 E.26084
G1 X140.265 Y141.316 E.01681
G1 X134.398 Y135.45 E.26085
G1 X133.863 Y135.45 E.01681
M73 P4 R54
G1 X139.73 Y141.317 E.26085
G1 X139.196 Y141.317 E.01681
G1 X133.329 Y135.45 E.26086
G1 X132.794 Y135.45 E.01681
G1 X138.661 Y141.317 E.26086
G1 X138.126 Y141.317 E.01681
G1 X132.259 Y135.45 E.26087
G1 X131.724 Y135.45 E.01681
G1 X137.592 Y141.317 E.26088
G1 X137.057 Y141.317 E.01681
G1 X131.19 Y135.45 E.26088
G1 X130.655 Y135.45 E.01681
G1 X136.523 Y141.317 E.26089
G1 X135.988 Y141.318 E.01681
G1 X130.12 Y135.45 E.26089
G1 X129.586 Y135.45 E.01681
G1 X135.453 Y141.318 E.2609
G1 X134.919 Y141.318 E.01681
G1 X129.051 Y135.45 E.2609
G1 X128.516 Y135.45 E.01681
G1 X134.384 Y141.318 E.26091
G1 X133.85 Y141.318 E.01681
G1 X127.981 Y135.45 E.26092
G1 X127.447 Y135.45 E.01681
G1 X133.315 Y141.318 E.26092
G1 X132.781 Y141.318 E.01681
G1 X126.912 Y135.45 E.26093
G1 X126.377 Y135.45 E.01681
G1 X132.246 Y141.318 E.26093
G1 X131.711 Y141.319 E.01681
G1 X125.843 Y135.45 E.26094
G1 X125.308 Y135.45 E.01681
G1 X131.346 Y141.488 E.26849
M204 P1000
G1 E-2.24 F4200
;WIPE_START
G1 F7200
G1 X130.183 Y140.325 E-.912
;WIPE_END
G1 E-.048 F4200
G1 Z.4 F720
G1 X166.27 Y151.28 F9000
G1 Z.2 F720
G1 E3.2 F2400
M204 P800
G1 F1200
G1 X166.951 Y151.961 E.03026
G1 X166.951 Y152.495 E.01681
G1 X165.905 Y151.45 E.04649
G1 X165.37 Y151.45 E.01681
G1 X166.951 Y153.03 E.07027
G1 X166.951 Y153.565 E.01681
G1 X164.835 Y151.45 E.09404
G1 X164.301 Y151.45 E.01681
G1 X166.951 Y154.1 E.11782
G1 X166.951 Y154.634 E.01681
G1 X163.766 Y151.45 E.14159
G1 X163.231 Y151.45 E.01681
G1 X166.951 Y155.169 E.16537
G1 X166.951 Y155.704 E.01681
G1 X162.697 Y151.45 E.18914
G1 X162.162 Y151.45 E.01681
G1 X166.951 Y156.238 E.21292
G1 X166.951 Y156.773 E.01681
G1 X161.627 Y151.45 E.23669
G1 X161.092 Y151.45 E.01681
M73 P4 R53
G1 X166.951 Y157.31 E.26051
G1 X166.418 Y157.31 E.01675
G1 X160.558 Y151.45 E.26056
G1 X160.023 Y151.45 E.01681
G1 X165.883 Y157.31 E.26056
G1 X165.349 Y157.31 E.01681
G1 X159.488 Y151.45 E.26056
G1 X158.954 Y151.45 E.01681
G1 X164.814 Y157.31 E.26056
G1 X164.279 Y157.31 E.01681
G1 X158.419 Y151.45 E.26056
G1 X157.884 Y151.45 E.01681
G1 X163.744 Y157.31 E.26056
G1 X163.21 Y157.31 E.01681
G1 X157.349 Y151.45 E.26056
G1 X156.815 Y151.45 E.01681
G1 X162.675 Y157.31 E.26056
G1 X162.14 Y157.31 E.01681
G1 X156.28 Y151.45 E.26056
G1 X155.745 Y151.45 E.01681
G1 X161.606 Y157.31 E.26056
G1 X161.071 Y157.31 E.01681
G1 X155.211 Y151.45 E.26056
G1 X154.676 Y151.45 E.01681
G1 X160.536 Y157.31 E.26056
G1 X160.001 Y157.31 E.01681
G1 X154.141 Y151.45 E.26056
G1 X153.606 Y151.45 E.01681
G1 X159.467 Y157.31 E.26056
G1 X158.932 Y157.31 E.01681
G1 X153.072 Y151.45 E.26056
G1 X152.537 Y151.45 E.01681
G1 X158.397 Y157.31 E.26056
G1 X157.862 Y157.31 E.01681
G1 X152.002 Y151.45 E.26056
G1 X151.468 Y151.45 E.01681
G1 X157.328 Y157.31 E.26056
G1 X156.793 Y157.31 E.01681
G1 X150.933 Y151.45 E.26056
G1 X150.398 Y151.45 E.01681
G1 X156.258 Y157.31 E.26056
G1 X155.724 Y157.31 E.01681
G1 X149.863 Y151.45 E.26056
G1 X149.329 Y151.45 E.01681
G1 X155.189 Y157.31 E.26056
G1 X154.654 Y157.31 E.01681
G1 X148.794 Y151.45 E.26056
G1 X148.259 Y151.45 E.01681
G1 X154.119 Y157.31 E.26056
G1 X153.585 Y157.31 E.01681
G1 X147.724 Y151.45 E.26056
G1 X147.19 Y151.45 E.01681
G1 X153.05 Y157.31 E.26056
G1 X152.515 Y157.31 E.01681
G1 X146.655 Y151.45 E.26056
G1 X146.12 Y151.45 E.01681
G1 X151.981 Y157.31 E.26056
G1 X151.446 Y157.31 E.01681
G1 X145.586 Y151.45 E.26056
G1 X145.051 Y151.45 E.01681
G1 X150.911 Y157.31 E.26056
G1 X150.376 Y157.31 E.01681
G1 X144.516 Y151.45 E.26056
G1 X143.981 Y151.45 E.01681
G1 X149.842 Y157.31 E.26056
G1 X149.307 Y157.31 E.01681
G1 X143.447 Y151.45 E.26056
G1 X142.912 Y151.45 E.01681
G1 X148.772 Y157.31 E.26056
G1 X148.238 Y157.31 E.01681
G1 X142.377 Y151.45 E.26056
G1 X141.843 Y151.45 E.01681
G1 X147.703 Y157.31 E.26056
G1 X147.168 Y157.31 E.01681
G1 X141.308 Y151.45 E.26056
G1 X140.773 Y151.45 E.01681
G1 X146.633 Y157.31 E.26056
G1 X146.099 Y157.31 E.01681
G1 X140.238 Y151.45 E.26056
G1 X139.704 Y151.45 E.01681
G1 X145.564 Y157.31 E.26056
G1 X145.029 Y157.31 E.01681
G1 X139.169 Y151.45 E.26056
G1 X138.634 Y151.45 E.01681
G1 X144.494 Y157.31 E.26056
G1 X143.96 Y157.31 E.01681
G1 X138.1 Y151.45 E.26056
G1 X137.565 Y151.45 E.01681
G1 X143.425 Y157.31 E.26056
G1 X142.89 Y157.31 E.01681
G1 X137.03 Y151.45 E.26056
G1 X136.495 Y151.45 E.01681
G1 X142.356 Y157.31 E.26056
G1 X141.821 Y157.31 E.01681
G1 X135.961 Y151.45 E.26056
G1 X135.426 Y151.45 E.01681
G1 X141.286 Y157.31 E.26056
G1 X140.751 Y157.31 E.01681
G1 X134.891 Y151.45 E.26056
G1 X134.356 Y151.45 E.01681
G1 X140.217 Y157.31 E.26056
G1 X139.682 Y157.31 E.01681
M73 P5 R53
G1 X133.822 Y151.45 E.26056
G1 X133.287 Y151.45 E.01681
G1 X139.147 Y157.31 E.26056
G1 X138.613 Y157.31 E.01681
G1 X132.752 Y151.45 E.26056
G1 X132.218 Y151.45 E.01681
G1 X138.078 Y157.31 E.26056
G1 X137.543 Y157.31 E.01681
G1 X131.683 Y151.45 E.26056
G1 X131.148 Y151.45 E.01681
G1 X137.008 Y157.31 E.26056
G1 X136.474 Y157.31 E.01681
G1 X130.613 Y151.45 E.26056
G1 X130.079 Y151.45 E.01681
G1 X135.939 Y157.31 E.26056
G1 X135.404 Y157.31 E.01681
G1 X129.544 Y151.45 E.26056
G1 X129.009 Y151.45 E.01681
G1 X134.87 Y157.31 E.26056
G1 X134.335 Y157.31 E.01681
G1 X128.475 Y151.45 E.26056
G1 X127.94 Y151.45 E.01681
G1 X133.8 Y157.31 E.26056
G1 X133.265 Y157.31 E.01681
G1 X127.405 Y151.45 E.26056
G1 X126.87 Y151.45 E.01681
G1 X132.731 Y157.31 E.26056
G1 X132.196 Y157.31 E.01681
G1 X126.336 Y151.45 E.26056
G1 X125.801 Y151.45 E.01681
G1 X131.661 Y157.31 E.26056
G1 X131.126 Y157.31 E.01681
G1 X125.097 Y151.28 E.2681
M204 P1000
G1 E-2.24 F4200
;WIPE_START
G1 F7200
G1 X126.26 Y152.444 E-.912
;WIPE_END
G1 E-.048 F4200
G1 Z.4 F720
G1 X152.256 Y91.28 F9000
G1 Z.2 F720
G1 E3.2 F2400
M204 P800
G1 F1200
G1 X152.851 Y91.875 E.02644
G1 X152.851 Y92.41 E.01681
G1 X151.891 Y91.45 E.04267
G1 X151.356 Y91.45 E.01681
G1 X152.851 Y92.944 E.06645
G1 X152.851 Y93.479 E.01681
G1 X150.821 Y91.45 E.09022
G1 X150.287 Y91.45 E.01681
G1 X152.851 Y94.014 E.114
G1 X152.851 Y94.548 E.01681
G1 X149.752 Y91.45 E.13777
G1 X149.217 Y91.45 E.01681
G1 X152.851 Y95.083 E.16155
G1 X152.851 Y95.618 E.01681
G1 X148.683 Y91.45 E.18532
G1 X148.148 Y91.45 E.01681
G1 X152.851 Y96.153 E.2091
G1 X152.851 Y96.687 E.01681
G1 X147.613 Y91.45 E.23287
G1 X147.078 Y91.45 E.01681
G1 X152.851 Y97.222 E.25665
G1 X152.851 Y97.31 E.00277
G1 X152.404 Y97.31 E.01405
G1 X146.544 Y91.45 E.26056
G1 X146.009 Y91.45 E.01681
G1 X151.869 Y97.31 E.26056
G1 X151.334 Y97.31 E.01681
G1 X145.474 Y91.45 E.26056
G1 X144.939 Y91.45 E.01681
G1 X150.8 Y97.31 E.26056
