; generated by PrusaSlicer 2.5.0+win64 on 2023-05-04 at 15:49:47 UTC


;
;

;
;
; 

; external perimeters extrusion width = 0.45mm
; perimeters extrusion width = 0.45mm
; infill extrusion width = 0.45mm
; solid infill extrusion width = 0.45mm
; top infill extrusion width = 0.40mm
; first layer extrusion width = 0.42mm

; external perimeters extrusion width = 0.45mm
; perimeters extrusion width = 0.45mm
; infill extrusion width = 0.45mm
; solid infill extrusion width = 0.45mm
; top infill extrusion width = 0.40mm
; first layer extrusion width = 0.42mm

; external perimeters extrusion width = 0.45mm
; perimeters extrusion width = 0.45mm
; infill extrusion width = 0.45mm
; solid infill extrusion width = 0.45mm
; top infill extrusion width = 0.40mm
; first layer extrusion width = 0.42mm

; external perimeters extrusion width = 0.45mm
; perimeters extrusion width = 0.45mm
; infill extrusion width = 0.45mm
; solid infill extrusion width = 0.45mm
; top infill extrusion width = 0.40mm
; first layer extrusion width = 0.42mm

M73 P0 R57
M201 X2500 Y2500 Z400 E5000 ; sets maximum accelerations, mm/sec^2
M203 X180 Y180 Z12 E80 ; sets maximum feedrates, mm / sec
M204 P1250 R1250 T2500 ; sets acceleration (P, T) and retract acceleration (R), mm/sec^2
M205 X8.00 Y8.00 Z2.00 E10.00 ; sets the jerk limits, mm/sec
M205 S0 T0 ; sets the minimum extruding and travel feed rate, mm/sec
M107
;TYPE:Custom
M862.3 P "MINI" ; printer model check
G90 ; use absolute coordinates
M83 ; extruder relative mode
M104 S170 ; set extruder temp for bed leveling
M140 S60 ; set bed temp
M109 R170 ; wait for bed leveling temp
M190 S60 ; wait for bed temp
M204 T1250 ; set travel acceleration
G28 ; home all without mesh bed level
G29 ; mesh bed leveling 
M204 T2500 ; restore travel acceleration
M104 S215 ; set extruder temp
G92 E0
G1 Y-2 X179 F2400
G1 Z3 F720
M109 S215 ; wait for extruder temp

; intro line
G1 X170 F1000
G1 Z0.2 F720
G1 X110 E8 F900
G1 X40 E10 F700
G92 E0

M221 S95 ; set flow
G21 ; set units to millimeters
G90 ; use absolute coordinates
M83 ; use relative distances for extrusion
M900 K0.2 ; Filament gcode LA 1.5
; ; Filament gcode LA 1.0
M107
;LAYER_CHANGE
;Z:0.2
;HEIGHT:0.2
;BEFORE_LAYER_CHANGE
G92 E0.0
;0.2


M73 P0 R56
G1 E-3.2 F4200
G1 Z.2 F720
;AFTER_LAYER_CHANGE
;0.2
G1 Z.4
G1 X3.251 Y20.881 F9000
G1 Z.2 F720
G1 E3.2 F2400
M204 P800
;TYPE:Skirt/Brim
;WIDTH:0.42
G1 F1200
G1 X86.442 Y7.931 E2.63983
G1 X152.608 Y7.902 E2.07458
G1 X153.915 Y8.294 E.04278
G1 X154.871 Y9.554 E.04961
G1 X168.971 Y53.554 E1.44869
G1 X169.084 Y54.234 E.02162
G1 X170.65 Y136.422 E2.57742
G1 X170.65 Y160.468 E.75392
G1 X170.258 Y161.775 E.04278
G1 X168.658 Y162.813 E.05984
G1 X88.705 Y175.921 E2.54034
G1 X22.52 Y175.953 E2.07517
M73 P1 R56
G1 X21.213 Y175.561 E.04278
G1 X20.256 Y174.301 E.04961
G1 X6.156 Y130.301 E1.44869
G1 X6.049 Y129.741 E.01789
G1 X.322 Y47.539 E2.58363
G1 X.316 Y23.374 E.75768
G1 X.708 Y22.067 E.04278
G1 X2.328 Y21.025 E.06039
G1 X3.191 Y20.89 E.0274
M204 P1000
; printing object prosperity_1st_div_4_7.stl_2 id:1 copy 0
G1 E-2.24 F4200
;WIPE_START
G1 F7200
G1 X4.817 Y20.637 E-.912
;WIPE_END
G1 E-.048 F4200
G1 Z.4 F720
G1 X45.962 Y84.157 F9000
G1 Z.2 F720
G1 E3.2 F2400
M204 P800
;TYPE:Perimeter
;WIDTH:0.419999
G1 F1200
G1 X46.226 Y84.067 E.00874
G1 X46.408 Y83.872 E.00835
G1 X46.481 Y83.595 E.00899
G1 X46.481 Y47.152 E1.14264
G1 X46.473 Y47.059 E.00293
G1 X46.386 Y46.838 E.00744
G1 X46.168 Y46.646 E.0091
G1 X45.915 Y46.586 E.00815
G1 X3.481 Y46.586 E1.3305
G1 X3.481 Y40.161 E.20148
G1 X46.008 Y40.153 E1.33341
G1 X46.229 Y40.066 E.00744
G1 X46.421 Y39.848 E.0091
G1 X46.481 Y39.595 E.00815
G1 X46.481 Y31.152 E.26472
G1 X46.471 Y31.048 E.00328
G1 X46.367 Y30.813 E.00805
G1 X46.132 Y30.63 E.00933
G1 X45.915 Y30.586 E.00696
G1 X3.481 Y30.586 E1.3305
G1 X3.481 Y24.161 E.20148
G1 X95.906 Y24.161 E2.89794
G1 X95.906 Y30.586 E.20148
G1 X53.472 Y30.586 E1.3305
G1 X53.374 Y30.595 E.00308
G1 X53.161 Y30.68 E.00721
G1 X52.979 Y30.875 E.00835
G1 X52.906 Y31.152 E.00899
G1 X52.909 Y39.644 E.26627
G1 X53.001 Y39.909 E.00879
G1 X53.219 Y40.101 E.0091
G1 X53.472 Y40.161 E.00815
G1 X95.906 Y40.161 E1.3305
G1 X95.906 Y46.586 E.20148
M73 P1 R55
G1 X53.472 Y46.586 E1.3305
G1 X53.158 Y46.681 E.01028
M73 P2 R55
G1 X52.966 Y46.899 E.0091
G1 X52.906 Y47.152 E.00815
G1 X52.906 Y83.595 E1.14264
G1 X52.916 Y83.699 E.00328
G1 X53.019 Y83.934 E.00805
G1 X53.254 Y84.117 E.00933
G1 X53.472 Y84.161 E.00696
G1 X81.806 Y84.161 E.8884
G1 X81.806 Y90.586 E.20148
G1 X17.581 Y90.586 E2.01375
G1 X17.581 Y84.161 E.20148
G1 X45.902 Y84.161 E.88801
M204 P1000
G1 X45.915 Y83.784 F9000
M204 P800
;TYPE:External perimeter
G1 F1200
G1 X46.045 Y83.732 E.00439
G1 X46.103 Y83.595 E.00466
G1 X46.103 Y47.152 E1.14264
G1 X46.06 Y47.031 E.00402
G1 X45.915 Y46.964 E.00501
G1 X3.103 Y46.964 E1.34232
G1 X3.103 Y39.784 E.22512
G1 X45.915 Y39.784 E1.34232
G1 X46.036 Y39.74 E.00402
G1 X46.103 Y39.595 E.00501
G1 X46.103 Y31.152 E.26472
G1 X46.045 Y31.016 E.00466
G1 X45.915 Y30.964 E.00439
G1 X3.103 Y30.964 E1.34232
G1 X3.103 Y23.784 E.22512
G1 X96.283 Y23.784 E2.92159
G1 X96.283 Y30.964 E.22512
G1 X53.472 Y30.964 E1.34232
G1 X53.342 Y31.016 E.00439
G1 X53.283 Y31.152 E.00466
G1 X53.283 Y39.595 E.26472
G1 X53.327 Y39.716 E.00402
G1 X53.472 Y39.784 E.00501
G1 X96.283 Y39.784 E1.34232
G1 X96.283 Y46.964 E.22512
G1 X53.472 Y46.964 E1.34232
G1 X53.351 Y47.007 E.00402
G1 X53.283 Y47.152 E.00501
G1 X53.283 Y83.595 E1.14264
G1 X53.342 Y83.732 E.00466
G1 X53.472 Y83.784 E.00439
G1 X82.183 Y83.784 E.90023
G1 X82.183 Y90.964 E.22512
M73 P3 R55
G1 X17.203 Y90.964 E2.0374
G1 X17.203 Y83.784 E.22512
G1 X45.855 Y83.784 E.89834
M204 P1000
G1 X46.021 Y83.875 F9000
G1 E-2.24 F4200
;WIPE_START
G1 F7200
G1 X46.045 Y83.732 E-.10918
G1 X46.103 Y83.595 E-.08232
G1 X46.103 Y82.295 E-.72051
;WIPE_END
G1 E-.048 F4200
G1 Z.4 F720
G1 X95.793 Y41.08 F9000
G1 Z.2 F720
G1 E3.2 F2400
M204 P800
;TYPE:Solid infill
;WIDTH:0.421024
G1 F1200
G1 X95.157 Y40.443 E.0283
G1 X94.622 Y40.443 E.01682
G1 X95.624 Y41.445 E.04454
G1 X95.624 Y41.98 E.01681
G1 X94.087 Y40.443 E.06832
G1 X93.552 Y40.443 E.01682
G1 X95.624 Y42.514 E.0921
G1 X95.624 Y43.049 E.01681
G1 X93.017 Y40.443 E.11588
G1 X92.483 Y40.443 E.01682
G1 X95.624 Y43.584 E.13966
G1 X95.624 Y44.118 E.01681
G1 X91.948 Y40.443 E.16344
G1 X91.413 Y40.442 E.01682
G1 X95.624 Y44.653 E.18722
G1 X95.624 Y45.188 E.01681
G1 X90.878 Y40.442 E.211
G1 X90.343 Y40.442 E.01682
G1 X95.624 Y45.723 E.23478
G1 X95.624 Y46.257 E.01681
G1 X89.808 Y40.442 E.25856
G1 X89.273 Y40.442 E.01682
G1 X95.135 Y46.304 E.26063
G1 X94.6 Y46.304 E.01681
G1 X88.739 Y40.442 E.26063
G1 X88.204 Y40.442 E.01682
G1 X94.066 Y46.304 E.26064
G1 X93.531 Y46.304 E.01681
G1 X87.669 Y40.441 E.26065
G1 X87.134 Y40.441 E.01682
G1 X92.996 Y46.304 E.26065
G1 X92.462 Y46.304 E.01681
G1 X86.599 Y40.441 E.26066
G1 X86.064 Y40.441 E.01682
G1 X91.927 Y46.304 E.26066
G1 X91.392 Y46.304 E.01681
G1 X85.529 Y40.441 E.26067
G1 X84.995 Y40.441 E.01682
G1 X90.857 Y46.304 E.26067
G1 X90.323 Y46.304 E.01681
G1 X84.46 Y40.441 E.26068
G1 X83.925 Y40.441 E.01682
G1 X89.788 Y46.304 E.26069
G1 X89.253 Y46.304 E.01681
G1 X83.39 Y40.44 E.26069
G1 X82.855 Y40.44 E.01682
G1 X88.719 Y46.304 E.2607
G1 X88.184 Y46.304 E.01681
G1 X82.32 Y40.44 E.2607
G1 X81.786 Y40.44 E.01682
G1 X87.649 Y46.304 E.26071
G1 X87.114 Y46.304 E.01681
G1 X81.251 Y40.44 E.26071
G1 X80.716 Y40.44 E.01682
G1 X86.58 Y46.304 E.26072
G1 X86.045 Y46.304 E.01681
G1 X80.181 Y40.44 E.26073
G1 X79.646 Y40.44 E.01682
G1 X85.51 Y46.304 E.26073
G1 X84.976 Y46.304 E.01681
G1 X79.111 Y40.439 E.26074
G1 X78.576 Y40.439 E.01682
G1 X84.441 Y46.304 E.26074
G1 X83.906 Y46.304 E.01681
G1 X78.042 Y40.439 E.26075
G1 X77.507 Y40.439 E.01682
G1 X83.371 Y46.304 E.26076
G1 X82.837 Y46.304 E.01681
G1 X76.972 Y40.439 E.26076
G1 X76.437 Y40.439 E.01682
G1 X82.302 Y46.304 E.26077
G1 X81.767 Y46.304 E.01681
G1 X75.902 Y40.439 E.26077
G1 X75.367 Y40.439 E.01682
G1 X81.232 Y46.304 E.26078
G1 X80.698 Y46.304 E.01681
G1 X74.832 Y40.438 E.26078
G1 X74.298 Y40.438 E.01682
G1 X80.163 Y46.304 E.26079
G1 X79.628 Y46.304 E.01681
G1 X73.763 Y40.438 E.2608
G1 X73.228 Y40.438 E.01682
M73 P3 R54
G1 X79.094 Y46.304 E.2608
G1 X78.559 Y46.304 E.01681
G1 X72.693 Y40.438 E.26081
G1 X72.158 Y40.438 E.01682
G1 X78.024 Y46.304 E.26081
G1 X77.489 Y46.304 E.01681
G1 X71.623 Y40.438 E.26082
G1 X71.089 Y40.437 E.01682
G1 X76.955 Y46.304 E.26082
G1 X76.42 Y46.304 E.01681
G1 X70.554 Y40.437 E.26083
G1 X70.019 Y40.437 E.01682
G1 X75.885 Y46.304 E.26084
G1 X75.351 Y46.304 E.01681
G1 X69.484 Y40.437 E.26084
G1 X68.949 Y40.437 E.01682
G1 X74.816 Y46.304 E.26085
G1 X74.281 Y46.304 E.01681
G1 X68.414 Y40.437 E.26085
G1 X67.879 Y40.437 E.01682
G1 X73.746 Y46.304 E.26086
G1 X73.212 Y46.304 E.01681
G1 X67.345 Y40.437 E.26086
G1 X66.81 Y40.436 E.01682
G1 X72.677 Y46.304 E.26087
G1 X72.142 Y46.304 E.01681
G1 X66.275 Y40.436 E.26088
G1 X65.74 Y40.436 E.01682
G1 X71.608 Y46.304 E.26088
G1 X71.073 Y46.304 E.01681
G1 X65.205 Y40.436 E.26089
G1 X64.67 Y40.436 E.01682
G1 X70.538 Y46.304 E.26089
G1 X70.003 Y46.304 E.01681
G1 X64.135 Y40.436 E.2609
G1 X63.601 Y40.436 E.01682
G1 X69.469 Y46.304 E.2609
G1 X68.934 Y46.304 E.01681
G1 X63.066 Y40.436 E.26091
G1 X62.531 Y40.435 E.01682
G1 X68.399 Y46.304 E.26092
G1 X67.865 Y46.304 E.01681
G1 X61.996 Y40.435 E.26092
G1 X61.461 Y40.435 E.01682
G1 X67.33 Y46.304 E.26093
G1 X66.795 Y46.304 E.01681
G1 X60.926 Y40.435 E.26093
G1 X60.392 Y40.435 E.01682
G1 X66.26 Y46.304 E.26094
G1 X65.726 Y46.304 E.01681
M73 P4 R54
G1 X59.857 Y40.435 E.26095
G1 X59.322 Y40.435 E.01682
G1 X65.191 Y46.304 E.26095
G1 X64.656 Y46.304 E.01681
G1 X58.787 Y40.434 E.26096
G1 X58.252 Y40.434 E.01682
G1 X64.121 Y46.304 E.26096
G1 X63.587 Y46.304 E.01681
G1 X57.717 Y40.434 E.26097
G1 X57.182 Y40.434 E.01682
G1 X63.052 Y46.304 E.26097
G1 X62.517 Y46.304 E.01681
G1 X56.648 Y40.434 E.26098
G1 X56.113 Y40.434 E.01682
G1 X61.983 Y46.304 E.26099
G1 X61.448 Y46.304 E.01681
G1 X55.578 Y40.434 E.26099
G1 X55.043 Y40.434 E.01682
G1 X60.913 Y46.304 E.261
G1 X60.378 Y46.304 E.01681
G1 X54.508 Y40.433 E.261
G1 X53.973 Y40.433 E.01682
G1 X60.013 Y46.473 E.26855
M204 P1000
G1 E-2.24 F4200
;WIPE_START
G1 F7200
G1 X58.85 Y45.31 E-.912
;WIPE_END
G1 E-.048 F4200
G1 Z.4 F720
G1 X95.029 Y24.274 F9000
G1 Z.2 F720
G1 E3.2 F2400
M204 P800
G1 F1200
G1 X95.624 Y24.869 E.02644
G1 X95.624 Y25.403 E.01681
G1 X94.664 Y24.443 E.04267
G1 X94.129 Y24.443 E.01681
G1 X95.624 Y25.938 E.06645
G1 X95.624 Y26.473 E.01681
G1 X93.594 Y24.443 E.09022
G1 X93.06 Y24.443 E.01681
G1 X95.624 Y27.007 E.114
G1 X95.624 Y27.542 E.01681
G1 X92.525 Y24.443 E.13777
G1 X91.99 Y24.443 E.01681
G1 X95.624 Y28.077 E.16155
G1 X95.624 Y28.612 E.01681
G1 X91.455 Y24.443 E.18532
G1 X90.921 Y24.443 E.01681
G1 X95.624 Y29.146 E.2091
G1 X95.624 Y29.681 E.01681
G1 X90.386 Y24.443 E.23287
G1 X89.851 Y24.443 E.01681
G1 X95.624 Y30.216 E.25665
G1 X95.624 Y30.304 E.00277
G1 X95.177 Y30.304 E.01405
G1 X89.317 Y24.443 E.26056
G1 X88.782 Y24.443 E.01681
G1 X94.642 Y30.304 E.26056
G1 X94.107 Y30.304 E.01681
G1 X88.247 Y24.443 E.26056
G1 X87.712 Y24.443 E.01681
G1 X93.573 Y30.304 E.26056
G1 X93.038 Y30.304 E.01681
G1 X87.178 Y24.443 E.26056
G1 X86.643 Y24.443 E.01681
G1 X92.503 Y30.304 E.26056
G1 X91.968 Y30.304 E.01681
G1 X86.108 Y24.443 E.26056
G1 X85.574 Y24.443 E.01681
G1 X91.434 Y30.304 E.26056
G1 X90.899 Y30.304 E.01681
G1 X85.039 Y24.443 E.26056
G1 X84.504 Y24.443 E.01681
G1 X90.364 Y30.304 E.26056
G1 X89.83 Y30.304 E.01681
G1 X83.969 Y24.443 E.26056
G1 X83.435 Y24.443 E.01681
G1 X89.295 Y30.304 E.26056
G1 X88.76 Y30.304 E.01681
G1 X82.9 Y24.443 E.26056
G1 X82.365 Y24.443 E.01681
G1 X88.225 Y30.304 E.26056
G1 X87.691 Y30.304 E.01681
G1 X81.83 Y24.443 E.26056
G1 X81.296 Y24.443 E.01681
G1 X87.156 Y30.304 E.26056
G1 X86.621 Y30.304 E.01681
G1 X80.761 Y24.443 E.26056
G1 X80.226 Y24.443 E.01681
G1 X86.087 Y30.304 E.26056
G1 X85.552 Y30.304 E.01681
G1 X79.692 Y24.443 E.26056
G1 X79.157 Y24.443 E.01681
G1 X85.017 Y30.304 E.26056
G1 X84.482 Y30.304 E.01681
G1 X78.622 Y24.443 E.26056
G1 X78.087 Y24.443 E.01681
G1 X83.948 Y30.304 E.26056
G1 X83.413 Y30.304 E.01681
G1 X77.553 Y24.443 E.26056
G1 X77.018 Y24.443 E.01681
G1 X82.878 Y30.304 E.26056
G1 X82.344 Y30.304 E.01681
G1 X76.483 Y24.443 E.26056
G1 X75.949 Y24.443 E.01681
G1 X81.809 Y30.304 E.26056
G1 X81.274 Y30.304 E.01681
G1 X75.414 Y24.443 E.26056
G1 X74.879 Y24.443 E.01681
G1 X80.739 Y30.304 E.26056
G1 X80.205 Y30.304 E.01681
G1 X74.344 Y24.443 E.26056
G1 X73.81 Y24.443 E.01681
G1 X79.67 Y30.304 E.26056
G1 X79.135 Y30.304 E.01681
G1 X73.275 Y24.443 E.26056
G1 X72.74 Y24.443 E.01681
G1 X78.6 Y30.304 E.26056
G1 X78.066 Y30.304 E.01681
G1 X72.206 Y24.443 E.26056
G1 X71.671 Y24.443 E.01681
G1 X77.531 Y30.304 E.26056
G1 X76.996 Y30.304 E.01681
G1 X71.136 Y24.443 E.26056
G1 X70.601 Y24.443 E.01681
G1 X76.462 Y30.304 E.26056
G1 X75.927 Y30.304 E.01681
G1 X70.067 Y24.443 E.26056
G1 X69.532 Y24.443 E.01681
G1 X75.392 Y30.304 E.26056
G1 X74.857 Y30.304 E.01681
G1 X68.997 Y24.443 E.26056
G1 X68.462 Y24.443 E.01681
G1 X74.323 Y30.304 E.26056
G1 X73.788 Y30.304 E.01681
G1 X67.928 Y24.443 E.26056
G1 X67.393 Y24.443 E.01681
G1 X73.253 Y30.304 E.26056
G1 X72.719 Y30.304 E.01681
G1 X66.858 Y24.443 E.26056
G1 X66.324 Y24.443 E.01681
G1 X72.184 Y30.304 E.26056
G1 X71.649 Y30.304 E.01681
G1 X65.789 Y24.443 E.26056
G1 X65.254 Y24.443 E.01681
G1 X71.114 Y30.304 E.26056
G1 X70.58 Y30.304 E.01681
G1 X64.719 Y24.443 E.26056
G1 X64.185 Y24.443 E.01681
G1 X70.045 Y30.304 E.26056
G1 X69.51 Y30.304 E.01681
G1 X63.65 Y24.443 E.26056
G1 X63.115 Y24.443 E.01681
G1 X68.976 Y30.304 E.26056
G1 X68.441 Y30.304 E.01681
G1 X62.581 Y24.443 E.26056
G1 X62.046 Y24.443 E.01681
G1 X67.906 Y30.304 E.26056
G1 X67.371 Y30.304 E.01681
G1 X61.511 Y24.443 E.26056
G1 X60.976 Y24.443 E.01681
G1 X66.837 Y30.304 E.26056
G1 X66.302 Y30.304 E.01681
G1 X60.442 Y24.443 E.26056
G1 X59.907 Y24.443 E.01681
M73 P5 R54
G1 X65.767 Y30.304 E.26056
G1 X65.232 Y30.304 E.01681
G1 X59.372 Y24.443 E.26056
G1 X58.838 Y24.443 E.01681
G1 X64.698 Y30.304 E.26056
G1 X64.163 Y30.304 E.01681
G1 X58.303 Y24.443 E.26056
G1 X57.768 Y24.443 E.01681
G1 X63.628 Y30.304 E.26056
G1 X63.094 Y30.304 E.01681
G1 X57.233 Y24.443 E.26056
G1 X56.699 Y24.443 E.01681
G1 X62.559 Y30.304 E.26056
G1 X62.024 Y30.304 E.01681
G1 X56.164 Y24.443 E.26056
G1 X55.629 Y24.443 E.01681
G1 X61.489 Y30.304 E.26056
G1 X60.955 Y30.304 E.01681
G1 X55.094 Y24.443 E.26056
G1 X54.56 Y24.443 E.01681
G1 X60.42 Y30.304 E.26056
G1 X59.885 Y30.304 E.01681
G1 X54.025 Y24.443 E.26056
G1 X53.49 Y24.443 E.01681
G1 X59.351 Y30.304 E.26056
G1 X58.816 Y30.304 E.01681
G1 X52.956 Y24.443 E.26056
G1 X52.421 Y24.443 E.01681
G1 X58.281 Y30.304 E.26056
G1 X57.746 Y30.304 E.01681
G1 X51.886 Y24.443 E.26056
G1 X51.351 Y24.443 E.01681
G1 X57.212 Y30.304 E.26056
G1 X56.677 Y30.304 E.01681
G1 X50.817 Y24.443 E.26056
G1 X50.282 Y24.443 E.01681
G1 X56.142 Y30.304 E.26056
G1 X55.608 Y30.304 E.01681
G1 X49.747 Y24.443 E.26056
G1 X49.213 Y24.443 E.01681
G1 X55.073 Y30.304 E.26056
G1 X54.538 Y30.304 E.01681
G1 X48.678 Y24.443 E.26056
G1 X48.143 Y24.443 E.01681
G1 X54.003 Y30.304 E.26056
G1 X53.469 Y30.304 E.01681
G1 X47.608 Y24.443 E.26056
G1 X47.074 Y24.443 E.01681
G1 X53.05 Y30.419 E.26571
G1 X52.884 Y30.539 E.00642
G1 X52.775 Y30.68 E.00559
G1 X46.539 Y24.443 E.27727
G1 X46.004 Y24.443 E.01681
G1 X52.631 Y31.07 E.29463
G1 X52.624 Y31.598 E.01659
G1 X45.47 Y24.443 E.31809
G1 X44.935 Y24.443 E.01681
G1 X52.624 Y32.132 E.34187
G1 X52.624 Y32.667 E.01682
G1 X44.4 Y24.443 E.36565
G1 X43.865 Y24.443 E.01681
G1 X52.624 Y33.202 E.38944
G1 X52.624 Y33.737 E.01682
M73 P5 R53
G1 X43.331 Y24.443 E.41322
G1 X42.796 Y24.443 E.01681
G1 X52.625 Y34.272 E.437
G1 X52.625 Y34.807 E.01682
G1 X42.261 Y24.443 E.46079
G1 X41.726 Y24.443 E.01681
G1 X52.625 Y35.342 E.48457
G1 X52.625 Y35.877 E.01682
G1 X41.192 Y24.443 E.50835
G1 X40.657 Y24.443 E.01681
G1 X52.625 Y36.412 E.53213
G1 X52.626 Y36.947 E.01682
G1 X46.757 Y31.078 E.26093
G1 X46.749 Y30.992 E.0027
G1 X46.656 Y30.736 E.00857
G1 X46.502 Y30.539 E.00785
