; generated by PrusaSlicer 2.5.0+win64 on 2023-05-04 at 15:47:53 UTC


;
;

;
;
; 

; external perimeters extrusion width = 0.45mm
; perimeters extrusion width = 0.45mm
; infill extrusion width = 0.45mm
; solid infill extrusion width = 0.45mm
; top infill extrusion width = 0.40mm
; first layer extrusion width = 0.42mm

; external perimeters extrusion width = 0.45mm
; perimeters extrusion width = 0.45mm
; infill extrusion width = 0.45mm
; solid infill extrusion width = 0.45mm
; top infill extrusion width = 0.40mm
; first layer extrusion width = 0.42mm

; external perimeters extrusion width = 0.45mm
; perimeters extrusion width = 0.45mm
; infill extrusion width = 0.45mm
; solid infill extrusion width = 0.45mm
; top infill extrusion width = 0.40mm
; first layer extrusion width = 0.42mm

; external perimeters extrusion width = 0.45mm
; perimeters extrusion width = 0.45mm
; infill extrusion width = 0.45mm
; solid infill extrusion width = 0.45mm
; top infill extrusion width = 0.40mm
; first layer extrusion width = 0.42mm

M73 P0 R55
M201 X2500 Y2500 Z400 E5000 ; sets maximum accelerations, mm/sec^2
M203 X180 Y180 Z12 E80 ; sets maximum feedrates, mm / sec
M204 P1250 R1250 T2500 ; sets acceleration (P, T) and retract acceleration (R), mm/sec^2
M205 X8.00 Y8.00 Z2.00 E10.00 ; sets the jerk limits, mm/sec
M205 S0 T0 ; sets the minimum extruding and travel feed rate, mm/sec
M107
;TYPE:Custom
M862.3 P "MINI" ; printer model check
G90 ; use absolute coordinates
M83 ; extruder relative mode
M104 S170 ; set extruder temp for bed leveling
M140 S60 ; set bed temp
M109 R170 ; wait for bed leveling temp
M190 S60 ; wait for bed temp
M204 T1250 ; set travel acceleration
G28 ; home all without mesh bed level
G29 ; mesh bed leveling 
M204 T2500 ; restore travel acceleration
M104 S215 ; set extruder temp
G92 E0
G1 Y-2 X179 F2400
G1 Z3 F720
M109 S215 ; wait for extruder temp

; intro line
G1 X170 F1000
G1 Z0.2 F720
G1 X110 E8 F900
G1 X40 E10 F700
G92 E0

M221 S95 ; set flow
G21 ; set units to millimeters
G90 ; use absolute coordinates
M83 ; use relative distances for extrusion
M900 K0.2 ; Filament gcode LA 1.5
; ; Filament gcode LA 1.0
M107
;LAYER_CHANGE
;Z:0.2
;HEIGHT:0.2
;BEFORE_LAYER_CHANGE
G92 E0.0
;0.2


G1 E-3.2 F4200
G1 Z.2 F720
;AFTER_LAYER_CHANGE
;0.2
G1 Z.4
G1 X7.266 Y16.747 F9000
G1 Z.2 F720
G1 E3.2 F2400
M204 P800
;TYPE:Skirt/Brim
;WIDTH:0.42
G1 F1200
G1 X87.333 Y5.842 E2.53361
G1 X153.454 Y5.82 E2.07317
G1 X154.761 Y6.212 E.04278
G1 X155.717 Y7.472 E.04961
G1 X169.817 Y51.472 E1.44869
G1 X169.931 Y52.197 E.02302
G1 X169.926 Y76.341 E.75702
G1 X164.746 Y161.687 E2.6809
G1 X164.276 Y162.968 E.04278
G1 X162.729 Y163.894 E.05654
G1 X87.481 Y175.263 E2.38613
G1 X21.325 Y175.29 E2.07425
M73 P1 R55
G1 X20.018 Y174.899 E.04278
G1 X19.062 Y173.638 E.04961
G1 X4.962 Y129.638 E1.44869
G1 X4.848 Y128.913 E.02302
G1 X4.848 Y104.903 E.75282
G1 X5.21 Y19.092 E2.69056
G1 X5.607 Y17.787 E.04278
G1 X7.215 Y16.779 E.05952
M204 P1000
; printing object prosperity_1st_div_0_3.stl_2 id:1 copy 0
G1 E-2.24 F4200
;WIPE_START
G1 F7200
G1 X8.846 Y16.556 E-.912
;WIPE_END
G1 E-.048 F4200
G1 Z.4 F720
G1 X58.294 Y79.875 F9000
G1 Z.2 F720
G1 E3.2 F2400
M204 P800
;TYPE:Perimeter
;WIDTH:0.419999
G1 F1200
G1 X58.366 Y79.889 E.00229
G1 X86.7 Y79.889 E.8884
G1 X86.7 Y86.315 E.20148
G1 X22.474 Y86.315 E2.01375
G1 X22.474 Y79.889 E.20148
M73 P1 R54
G1 X50.808 Y79.889 E.8884
G1 X50.906 Y79.881 E.00308
G1 X51.12 Y79.796 E.00721
G1 X51.301 Y79.601 E.00835
G1 X51.374 Y79.324 E.00899
G1 X51.366 Y42.788 E1.14556
G1 X51.279 Y42.567 E.00744
G1 X51.061 Y42.375 E.0091
G1 X50.808 Y42.315 E.00815
G1 X8.374 Y42.315 E1.3305
G1 X8.374 Y35.889 E.20148
G1 X50.901 Y35.882 E1.33341
G1 X51.122 Y35.794 E.00744
G1 X51.314 Y35.577 E.0091
G1 X51.374 Y35.324 E.00815
G1 X51.364 Y26.776 E.26799
G1 X51.261 Y26.541 E.00805
G1 X51.026 Y26.359 E.00933
G1 X50.808 Y26.315 E.00696
G1 X8.374 Y26.315 E1.3305
G1 X8.374 Y19.889 E.20148
G1 X100.8 Y19.889 E2.89794
G1 X100.8 Y26.315 E.20148
M73 P2 R54
G1 X58.366 Y26.315 E1.3305
G1 X58.268 Y26.324 E.00308
G1 X58.054 Y26.408 E.00721
G1 X57.873 Y26.603 E.00835
G1 X57.8 Y26.881 E.00899
G1 X57.802 Y35.373 E.26627
G1 X57.895 Y35.637 E.00879
G1 X58.113 Y35.83 E.0091
G1 X58.366 Y35.889 E.00815
G1 X100.8 Y35.889 E1.3305
G1 X100.8 Y42.315 E.20148
G1 X58.366 Y42.315 E1.3305
G1 X58.052 Y42.41 E.01028
G1 X57.86 Y42.628 E.0091
G1 X57.8 Y42.881 E.00815
G1 X57.8 Y79.324 E1.14264
G1 X57.81 Y79.428 E.00328
G1 X57.913 Y79.663 E.00805
G1 X58.148 Y79.846 E.00933
G1 X58.235 Y79.863 E.00279
M204 P1000
G1 X58.366 Y79.512 F9000
M204 P800
;TYPE:External perimeter
G1 F1200
G1 X87.077 Y79.512 E.90023
G1 X87.077 Y86.692 E.22512
G1 X22.097 Y86.692 E2.0374
G1 X22.097 Y79.512 E.22512
G1 X50.808 Y79.512 E.90023
G1 X50.939 Y79.46 E.00439
G1 X50.997 Y79.324 E.00466
G1 X50.997 Y42.881 E1.14264
G1 X50.953 Y42.76 E.00402
G1 X50.808 Y42.692 E.00501
G1 X7.997 Y42.692 E1.34232
G1 X7.997 Y35.512 E.22512
G1 X50.808 Y35.512 E1.34232
G1 X50.929 Y35.468 E.00402
G1 X50.997 Y35.324 E.00501
G1 X50.997 Y26.881 E.26472
G1 X50.939 Y26.744 E.00466
G1 X50.808 Y26.692 E.00439
G1 X7.997 Y26.692 E1.34232
G1 X7.997 Y19.512 E.22512
G1 X101.177 Y19.512 E2.92159
G1 X101.177 Y26.692 E.22512
G1 X58.366 Y26.692 E1.34232
G1 X58.236 Y26.744 E.00439
M73 P3 R54
G1 X58.177 Y26.881 E.00466
G1 X58.177 Y35.324 E.26472
G1 X58.221 Y35.444 E.00402
G1 X58.366 Y35.512 E.00501
G1 X101.177 Y35.512 E1.34232
G1 X101.177 Y42.692 E.22512
G1 X58.366 Y42.692 E1.34232
G1 X58.245 Y42.736 E.00402
G1 X58.177 Y42.881 E.00501
G1 X58.177 Y79.324 E1.14264
G1 X58.236 Y79.46 E.00466
G1 X58.31 Y79.49 E.00251
M204 P1000
G1 X58.469 Y79.899 F9000
G1 E-2.24 F4200
;WIPE_START
G1 F7200
G1 X59.956 Y79.491 E-.912
;WIPE_END
G1 E-.048 F4200
G1 Z.4 F720
G1 X100.687 Y36.808 F9000
G1 Z.2 F720
G1 E3.2 F2400
M204 P800
;TYPE:Solid infill
;WIDTH:0.421024
G1 F1200
G1 X100.05 Y36.172 E.0283
G1 X99.516 Y36.172 E.01682
G1 X100.517 Y37.173 E.04454
G1 X100.517 Y37.708 E.01681
G1 X98.981 Y36.172 E.06832
G1 X98.446 Y36.172 E.01682
G1 X100.517 Y38.243 E.0921
G1 X100.517 Y38.778 E.01681
G1 X97.911 Y36.171 E.11588
G1 X97.376 Y36.171 E.01682
G1 X100.517 Y39.312 E.13966
G1 X100.517 Y39.847 E.01681
G1 X96.841 Y36.171 E.16344
G1 X96.306 Y36.171 E.01682
G1 X100.517 Y40.382 E.18722
G1 X100.517 Y40.916 E.01681
G1 X95.772 Y36.171 E.211
G1 X95.237 Y36.171 E.01682
M73 P3 R53
G1 X100.517 Y41.451 E.23478
G1 X100.517 Y41.986 E.01681
G1 X94.702 Y36.171 E.25856
G1 X94.167 Y36.17 E.01682
G1 X100.029 Y42.032 E.26063
G1 X99.494 Y42.032 E.01681
G1 X93.632 Y36.17 E.26063
G1 X93.097 Y36.17 E.01682
G1 X98.959 Y42.032 E.26064
G1 X98.425 Y42.032 E.01681
G1 X92.562 Y36.17 E.26065
G1 X92.028 Y36.17 E.01682
G1 X97.89 Y42.032 E.26065
G1 X97.355 Y42.032 E.01681
G1 X91.493 Y36.17 E.26066
G1 X90.958 Y36.17 E.01682
G1 X96.82 Y42.032 E.26066
G1 X96.286 Y42.032 E.01681
G1 X90.423 Y36.17 E.26067
G1 X89.888 Y36.169 E.01682
G1 X95.751 Y42.032 E.26067
G1 X95.216 Y42.032 E.01681
G1 X89.353 Y36.169 E.26068
G1 X88.819 Y36.169 E.01682
G1 X94.682 Y42.032 E.26069
G1 X94.147 Y42.032 E.01681
G1 X88.284 Y36.169 E.26069
G1 X87.749 Y36.169 E.01682
G1 X93.612 Y42.032 E.2607
G1 X93.077 Y42.032 E.01681
G1 X87.214 Y36.169 E.2607
G1 X86.679 Y36.169 E.01682
G1 X92.543 Y42.032 E.26071
G1 X92.008 Y42.032 E.01681
G1 X86.144 Y36.169 E.26071
G1 X85.609 Y36.168 E.01682
G1 X91.473 Y42.032 E.26072
G1 X90.939 Y42.032 E.01681
G1 X85.075 Y36.168 E.26073
G1 X84.54 Y36.168 E.01682
G1 X90.404 Y42.032 E.26073
G1 X89.869 Y42.032 E.01681
G1 X84.005 Y36.168 E.26074
G1 X83.47 Y36.168 E.01682
G1 X89.334 Y42.032 E.26074
G1 X88.8 Y42.032 E.01681
G1 X82.935 Y36.168 E.26075
G1 X82.4 Y36.168 E.01682
G1 X88.265 Y42.032 E.26076
G1 X87.73 Y42.032 E.01681
G1 X81.865 Y36.168 E.26076
G1 X81.331 Y36.167 E.01682
G1 X87.196 Y42.032 E.26077
G1 X86.661 Y42.032 E.01681
G1 X80.796 Y36.167 E.26077
G1 X80.261 Y36.167 E.01682
G1 X86.126 Y42.032 E.26078
G1 X85.591 Y42.032 E.01681
G1 X79.726 Y36.167 E.26078
G1 X79.191 Y36.167 E.01682
G1 X85.057 Y42.032 E.26079
G1 X84.522 Y42.032 E.01681
G1 X78.656 Y36.167 E.2608
G1 X78.122 Y36.167 E.01682
G1 X83.987 Y42.032 E.2608
G1 X83.453 Y42.032 E.01681
G1 X77.587 Y36.166 E.26081
G1 X77.052 Y36.166 E.01682
G1 X82.918 Y42.032 E.26081
G1 X82.383 Y42.032 E.01681
G1 X76.517 Y36.166 E.26082
G1 X75.982 Y36.166 E.01682
G1 X81.848 Y42.032 E.26082
G1 X81.314 Y42.032 E.01681
G1 X75.447 Y36.166 E.26083
G1 X74.912 Y36.166 E.01682
G1 X80.779 Y42.032 E.26084
G1 X80.244 Y42.032 E.01681
G1 X74.378 Y36.166 E.26084
G1 X73.843 Y36.166 E.01682
G1 X79.709 Y42.032 E.26085
G1 X79.175 Y42.032 E.01681
G1 X73.308 Y36.165 E.26085
G1 X72.773 Y36.165 E.01682
G1 X78.64 Y42.032 E.26086
G1 X78.105 Y42.032 E.01681
G1 X72.238 Y36.165 E.26086
G1 X71.703 Y36.165 E.01682
G1 X77.571 Y42.032 E.26087
G1 X77.036 Y42.032 E.01681
G1 X71.168 Y36.165 E.26088
G1 X70.634 Y36.165 E.01682
G1 X76.501 Y42.032 E.26088
G1 X75.966 Y42.032 E.01681
G1 X70.099 Y36.165 E.26089
G1 X69.564 Y36.165 E.01682
G1 X75.432 Y42.032 E.26089
G1 X74.897 Y42.032 E.01681
G1 X69.029 Y36.164 E.2609
G1 X68.494 Y36.164 E.01682
G1 X74.362 Y42.032 E.2609
M73 P4 R53
G1 X73.828 Y42.032 E.01681
G1 X67.959 Y36.164 E.26091
G1 X67.425 Y36.164 E.01682
G1 X73.293 Y42.032 E.26092
G1 X72.758 Y42.032 E.01681
G1 X66.89 Y36.164 E.26092
G1 X66.355 Y36.164 E.01682
G1 X72.223 Y42.032 E.26093
G1 X71.689 Y42.032 E.01681
G1 X65.82 Y36.164 E.26093
G1 X65.285 Y36.163 E.01682
G1 X71.154 Y42.032 E.26094
G1 X70.619 Y42.032 E.01681
G1 X64.75 Y36.163 E.26095
G1 X64.215 Y36.163 E.01682
G1 X70.085 Y42.032 E.26095
G1 X69.55 Y42.032 E.01681
G1 X63.681 Y36.163 E.26096
G1 X63.146 Y36.163 E.01682
G1 X69.015 Y42.032 E.26096
G1 X68.48 Y42.032 E.01681
G1 X62.611 Y36.163 E.26097
G1 X62.076 Y36.163 E.01682
G1 X67.946 Y42.032 E.26097
G1 X67.411 Y42.032 E.01681
G1 X61.541 Y36.163 E.26098
G1 X61.006 Y36.162 E.01682
G1 X66.876 Y42.032 E.26099
G1 X66.341 Y42.032 E.01681
G1 X60.472 Y36.162 E.26099
G1 X59.937 Y36.162 E.01682
G1 X65.807 Y42.032 E.261
G1 X65.272 Y42.032 E.01681
G1 X59.402 Y36.162 E.261
G1 X58.867 Y36.162 E.01682
G1 X64.907 Y42.202 E.26855
M204 P1000
G1 E-2.24 F4200
;WIPE_START
G1 F7200
G1 X63.743 Y41.038 E-.912
;WIPE_END
G1 E-.048 F4200
G1 Z.4 F720
G1 X99.922 Y20.002 F9000
G1 Z.2 F720
G1 E3.2 F2400
M204 P800
G1 F1200
G1 X100.517 Y20.597 E.02644
G1 X100.517 Y21.132 E.01681
G1 X99.557 Y20.172 E.04267
G1 X99.023 Y20.172 E.01681
G1 X100.517 Y21.667 E.06645
G1 X100.517 Y22.201 E.01681
G1 X98.488 Y20.172 E.09022
G1 X97.953 Y20.172 E.01681
G1 X100.517 Y22.736 E.114
G1 X100.517 Y23.271 E.01681
G1 X97.418 Y20.172 E.13777
G1 X96.884 Y20.172 E.01681
G1 X100.517 Y23.805 E.16155
G1 X100.517 Y24.34 E.01681
G1 X96.349 Y20.172 E.18532
G1 X95.814 Y20.172 E.01681
G1 X100.517 Y24.875 E.2091
G1 X100.517 Y25.41 E.01681
G1 X95.28 Y20.172 E.23287
G1 X94.745 Y20.172 E.01681
G1 X100.517 Y25.944 E.25665
G1 X100.517 Y26.032 E.00277
G1 X100.07 Y26.032 E.01405
G1 X94.21 Y20.172 E.26056
G1 X93.675 Y20.172 E.01681
G1 X99.536 Y26.032 E.26056
G1 X99.001 Y26.032 E.01681
G1 X93.141 Y20.172 E.26056
G1 X92.606 Y20.172 E.01681
G1 X98.466 Y26.032 E.26056
G1 X97.932 Y26.032 E.01681
G1 X92.071 Y20.172 E.26056
G1 X91.537 Y20.172 E.01681
G1 X97.397 Y26.032 E.26056
G1 X96.862 Y26.032 E.01681
G1 X91.002 Y20.172 E.26056
G1 X90.467 Y20.172 E.01681
G1 X96.327 Y26.032 E.26056
G1 X95.793 Y26.032 E.01681
G1 X89.932 Y20.172 E.26056
G1 X89.398 Y20.172 E.01681
G1 X95.258 Y26.032 E.26056
G1 X94.723 Y26.032 E.01681
G1 X88.863 Y20.172 E.26056
G1 X88.328 Y20.172 E.01681
G1 X94.188 Y26.032 E.26056
G1 X93.654 Y26.032 E.01681
G1 X87.794 Y20.172 E.26056
G1 X87.259 Y20.172 E.01681
G1 X93.119 Y26.032 E.26056
G1 X92.584 Y26.032 E.01681
G1 X86.724 Y20.172 E.26056
G1 X86.189 Y20.172 E.01681
G1 X92.05 Y26.032 E.26056
G1 X91.515 Y26.032 E.01681
G1 X85.655 Y20.172 E.26056
G1 X85.12 Y20.172 E.01681
G1 X90.98 Y26.032 E.26056
G1 X90.445 Y26.032 E.01681
G1 X84.585 Y20.172 E.26056
G1 X84.05 Y20.172 E.01681
G1 X89.911 Y26.032 E.26056
G1 X89.376 Y26.032 E.01681
G1 X83.516 Y20.172 E.26056
G1 X82.981 Y20.172 E.01681
G1 X88.841 Y26.032 E.26056
G1 X88.307 Y26.032 E.01681
G1 X82.446 Y20.172 E.26056
G1 X81.912 Y20.172 E.01681
G1 X87.772 Y26.032 E.26056
G1 X87.237 Y26.032 E.01681
G1 X81.377 Y20.172 E.26056
G1 X80.842 Y20.172 E.01681
G1 X86.702 Y26.032 E.26056
G1 X86.168 Y26.032 E.01681
G1 X80.307 Y20.172 E.26056
G1 X79.773 Y20.172 E.01681
G1 X85.633 Y26.032 E.26056
G1 X85.098 Y26.032 E.01681
G1 X79.238 Y20.172 E.26056
G1 X78.703 Y20.172 E.01681
G1 X84.564 Y26.032 E.26056
G1 X84.029 Y26.032 E.01681
G1 X78.169 Y20.172 E.26056
G1 X77.634 Y20.172 E.01681
G1 X83.494 Y26.032 E.26056
G1 X82.959 Y26.032 E.01681
G1 X77.099 Y20.172 E.26056
G1 X76.564 Y20.172 E.01681
G1 X82.425 Y26.032 E.26056
G1 X81.89 Y26.032 E.01681
G1 X76.03 Y20.172 E.26056
G1 X75.495 Y20.172 E.01681
G1 X81.355 Y26.032 E.26056
G1 X80.82 Y26.032 E.01681
G1 X74.96 Y20.172 E.26056
G1 X74.426 Y20.172 E.01681
G1 X80.286 Y26.032 E.26056
G1 X79.751 Y26.032 E.01681
G1 X73.891 Y20.172 E.26056
G1 X73.356 Y20.172 E.01681
G1 X79.216 Y26.032 E.26056
G1 X78.682 Y26.032 E.01681
G1 X72.821 Y20.172 E.26056
G1 X72.287 Y20.172 E.01681
G1 X78.147 Y26.032 E.26056
G1 X77.612 Y26.032 E.01681
G1 X71.752 Y20.172 E.26056
G1 X71.217 Y20.172 E.01681
G1 X77.077 Y26.032 E.26056
G1 X76.543 Y26.032 E.01681
G1 X70.682 Y20.172 E.26056
G1 X70.148 Y20.172 E.01681
G1 X76.008 Y26.032 E.26056
G1 X75.473 Y26.032 E.01681
G1 X69.613 Y20.172 E.26056
G1 X69.078 Y20.172 E.01681
G1 X74.939 Y26.032 E.26056
M73 P5 R53
G1 X74.404 Y26.032 E.01681
G1 X68.544 Y20.172 E.26056
G1 X68.009 Y20.172 E.01681
G1 X73.869 Y26.032 E.26056
G1 X73.334 Y26.032 E.01681
G1 X67.474 Y20.172 E.26056
G1 X66.939 Y20.172 E.01681
G1 X72.8 Y26.032 E.26056
G1 X72.265 Y26.032 E.01681
G1 X66.405 Y20.172 E.26056
G1 X65.87 Y20.172 E.01681
G1 X71.73 Y26.032 E.26056
G1 X71.196 Y26.032 E.01681
G1 X65.335 Y20.172 E.26056
G1 X64.801 Y20.172 E.01681
G1 X70.661 Y26.032 E.26056
G1 X70.126 Y26.032 E.01681
M73 P5 R52
G1 X64.266 Y20.172 E.26056
G1 X63.731 Y20.172 E.01681
G1 X69.591 Y26.032 E.26056
G1 X69.057 Y26.032 E.01681
G1 X63.196 Y20.172 E.26056
G1 X62.662 Y20.172 E.01681
G1 X68.522 Y26.032 E.26056
G1 X67.987 Y26.032 E.01681
G1 X62.127 Y20.172 E.26056
G1 X61.592 Y20.172 E.01681
G1 X67.453 Y26.032 E.26056
G1 X66.918 Y26.032 E.01681
G1 X61.058 Y20.172 E.26056
G1 X60.523 Y20.172 E.01681
G1 X66.383 Y26.032 E.26056
G1 X65.848 Y26.032 E.01681
G1 X59.988 Y20.172 E.26056
G1 X59.453 Y20.172 E.01681
G1 X65.314 Y26.032 E.26056
G1 X64.779 Y26.032 E.01681
G1 X58.919 Y20.172 E.26056
G1 X58.384 Y20.172 E.01681
G1 X64.244 Y26.032 E.26056
G1 X63.709 Y26.032 E.01681
G1 X57.849 Y20.172 E.26056
G1 X57.314 Y20.172 E.01681
G1 X63.175 Y26.032 E.26056
G1 X62.64 Y26.032 E.01681
G1 X56.78 Y20.172 E.26056
G1 X56.245 Y20.172 E.01681
G1 X62.105 Y26.032 E.26056
G1 X61.571 Y26.032 E.01681
G1 X55.71 Y20.172 E.26056
G1 X55.176 Y20.172 E.01681
G1 X61.036 Y26.032 E.26056
G1 X60.501 Y26.032 E.01681
G1 X54.641 Y20.172 E.26056
G1 X54.106 Y20.172 E.01681
G1 X59.966 Y26.032 E.26056
G1 X59.432 Y26.032 E.01681
G1 X53.571 Y20.172 E.26056
G1 X53.037 Y20.172 E.01681
G1 X58.897 Y26.032 E.26056
G1 X58.362 Y26.032 E.01681
G1 X52.502 Y20.172 E.26056
G1 X51.967 Y20.172 E.01681
G1 X57.943 Y26.148 E.26571
G1 X57.778 Y26.268 E.00642
G1 X57.669 Y26.408 E.00559
G1 X51.433 Y20.172 E.27727
G1 X50.898 Y20.172 E.01681
G1 X57.524 Y26.799 E.29463
G1 X57.517 Y27.326 E.01659
G1 X50.363 Y20.172 E.31809
G1 X49.828 Y20.172 E.01681
G1 X57.517 Y27.861 E.34187
G1 X57.518 Y28.396 E.01682
G1 X49.294 Y20.172 E.36565
G1 X48.759 Y20.172 E.01681
G1 X57.518 Y28.931 E.38944
G1 X57.518 Y29.466 E.01682
G1 X48.224 Y20.172 E.41322
G1 X47.69 Y20.172 E.01681
G1 X57.518 Y30.001 E.437
G1 X57.518 Y30.536 E.01682
G1 X47.155 Y20.172 E.46079
G1 X46.62 Y20.172 E.01681
G1 X57.519 Y31.071 E.48457
G1 X57.519 Y31.605 E.01682
G1 X46.085 Y20.172 E.50835
G1 X45.551 Y20.172 E.01681
G1 X57.519 Y32.14 E.53213
G1 X57.519 Y32.675 E.01682
G1 X51.65 Y26.807 E.26093
G1 X51.642 Y26.721 E.0027
G1 X51.549 Y26.465 E.00857
G1 X51.396 Y26.268 E.00785
G1 X51.276 Y26.172 E.00484
G1 X51.135 Y26.097 E.00501
G1 X50.883 Y26.039 E.00812
