; generated by PrusaSlicer 2.5.0+win64 on 2023-05-05 at 19:48:45 UTC


;
;

;
;
; 

; external perimeters extrusion width = 0.45mm
; perimeters extrusion width = 0.45mm
; infill extrusion width = 0.45mm
; solid infill extrusion width = 0.45mm
; top infill extrusion width = 0.40mm
; first layer extrusion width = 0.42mm

; external perimeters extrusion width = 0.45mm
; perimeters extrusion width = 0.45mm
; infill extrusion width = 0.45mm
; solid infill extrusion width = 0.45mm
; top infill extrusion width = 0.40mm
; first layer extrusion width = 0.42mm

; external perimeters extrusion width = 0.45mm
; perimeters extrusion width = 0.45mm
; infill extrusion width = 0.45mm
; solid infill extrusion width = 0.45mm
; top infill extrusion width = 0.40mm
; first layer extrusion width = 0.42mm

; external perimeters extrusion width = 0.45mm
; perimeters extrusion width = 0.45mm
; infill extrusion width = 0.45mm
; solid infill extrusion width = 0.45mm
; top infill extrusion width = 0.40mm
; first layer extrusion width = 0.42mm

M73 P0 R56
M201 X2500 Y2500 Z400 E5000 ; sets maximum accelerations, mm/sec^2
M203 X180 Y180 Z12 E80 ; sets maximum feedrates, mm / sec
M204 P1250 R1250 T2500 ; sets acceleration (P, T) and retract acceleration (R), mm/sec^2
M205 X8.00 Y8.00 Z2.00 E10.00 ; sets the jerk limits, mm/sec
M205 S0 T0 ; sets the minimum extruding and travel feed rate, mm/sec
M107
;TYPE:Custom
M862.3 P "MINI" ; printer model check
G90 ; use absolute coordinates
M83 ; extruder relative mode
M104 S170 ; set extruder temp for bed leveling
M140 S60 ; set bed temp
M109 R170 ; wait for bed leveling temp
M190 S60 ; wait for bed temp
M204 T1250 ; set travel acceleration
G28 ; home all without mesh bed level
G29 ; mesh bed leveling 
M204 T2500 ; restore travel acceleration
M104 S215 ; set extruder temp
G92 E0
G1 Y-2 X179 F2400
G1 Z3 F720
M109 S215 ; wait for extruder temp

; intro line
G1 X170 F1000
G1 Z0.2 F720
G1 X110 E8 F900
G1 X40 E10 F700
G92 E0

M221 S95 ; set flow
G21 ; set units to millimeters
G90 ; use absolute coordinates
M83 ; use relative distances for extrusion
M900 K0.2 ; Filament gcode LA 1.5
; ; Filament gcode LA 1.0
M107
;LAYER_CHANGE
;Z:0.2
;HEIGHT:0.2
;BEFORE_LAYER_CHANGE
G92 E0.0
;0.2


G1 E-3.2 F4200
G1 Z.2 F720
;AFTER_LAYER_CHANGE
;0.2
G1 Z.4
G1 X6.313 Y16.995 F9000
G1 Z.2 F720
G1 E3.2 F2400
M204 P800
;TYPE:Skirt/Brim
;WIDTH:0.42
G1 F1200
G1 X76.662 Y4.872 E2.23825
G1 X142.865 Y4.838 E2.07577
M73 P0 R55
G1 X144.172 Y5.229 E.04278
G1 X145.129 Y6.489 E.04961
G1 X159.229 Y50.489 E1.44869
G1 X159.332 Y50.996 E.01622
G1 X167.299 Y137.244 E2.71576
G1 X167.309 Y161.463 E.75936
G1 X166.917 Y162.77 E.04278
G1 X165.314 Y163.809 E.05991
G1 X91.564 Y175.815 E2.34282
G1 X25.382 Y175.846 E2.07509
M73 P1 R55
G1 X24.075 Y175.455 E.04278
G1 X23.118 Y174.195 E.04961
G1 X9.018 Y130.195 E1.44869
G1 X8.908 Y129.595 E.01911
G1 X4.343 Y43.463 E2.70439
G1 X4.339 Y19.337 E.75645
G1 X4.731 Y18.03 E.04278
G1 X6.263 Y17.028 E.0574
M204 P1000
; printing object prosperity_1st_div_16_19.stl_4 id:3 copy 0
G1 E-2.24 F4200
;WIPE_START
G1 F7200
G1 X7.884 Y16.748 E-.912
;WIPE_END
G1 E-.048 F4200
G1 Z.4 F720
G1 X114.196 Y138.246 F9000
G1 Z.2 F720
G1 E3.2 F2400
M204 P800
;TYPE:Perimeter
;WIDTH:0.419999
G1 F1200
G1 X114.467 Y138.155 E.00897
G1 X114.659 Y137.937 E.0091
G1 X114.719 Y137.684 E.00815
G1 X114.719 Y101.241 E1.14264
G1 X114.709 Y101.137 E.00328
G1 X114.606 Y100.902 E.00805
G1 X114.371 Y100.719 E.00933
G1 X114.153 Y100.676 E.00696
G1 X85.819 Y100.676 E.8884
G1 X85.819 Y94.25 E.20148
G1 X150.045 Y94.25 E2.01375
G1 X150.045 Y100.676 E.20148
G1 X121.71 Y100.676 E.8884
G1 X121.613 Y100.684 E.00308
G1 X121.399 Y100.769 E.00721
G1 X121.217 Y100.964 E.00835
G1 X121.145 Y101.241 E.00899
G1 X121.147 Y137.734 E1.14419
G1 X121.24 Y137.998 E.00879
G1 X121.457 Y138.19 E.0091
G1 X121.71 Y138.25 E.00815
G1 X164.145 Y138.25 E1.3305
G1 X164.145 Y144.676 E.20148
G1 X121.661 Y144.678 E1.33204
G1 X121.397 Y144.771 E.00879
G1 X121.204 Y144.988 E.0091
G1 X121.145 Y145.241 E.00815
G1 X121.154 Y153.789 E.26799
G1 X121.258 Y154.024 E.00805
G1 X121.493 Y154.206 E.00933
G1 X121.71 Y154.25 E.00696
G1 X164.145 Y154.25 E1.3305
G1 X164.145 Y160.676 E.20148
G1 X71.719 Y160.676 E2.89794
G1 X71.719 Y154.25 E.20148
M73 P2 R55
G1 X114.153 Y154.25 E1.3305
G1 X114.251 Y154.241 E.00308
G1 X114.465 Y154.156 E.00721
G1 X114.646 Y153.962 E.00835
G1 X114.719 Y153.684 E.00899
G1 X114.719 Y145.241 E.26472
G1 X114.711 Y145.148 E.00293
G1 X114.624 Y144.928 E.00744
G1 X114.406 Y144.735 E.0091
G1 X114.153 Y144.676 E.00815
G1 X71.719 Y144.676 E1.3305
G1 X71.719 Y138.25 E.20148
G1 X114.136 Y138.25 E1.32996
M204 P1000
G1 X114.153 Y137.873 F9000
M204 P800
;TYPE:External perimeter
M73 P2 R54
G1 F1200
G1 X114.274 Y137.829 E.00402
G1 X114.342 Y137.684 E.00501
G1 X114.342 Y101.241 E1.14264
G1 X114.283 Y101.105 E.00466
G1 X114.153 Y101.053 E.00439
G1 X85.442 Y101.053 E.90023
G1 X85.442 Y93.873 E.22512
G1 X150.422 Y93.873 E2.0374
G1 X150.422 Y101.053 E.22512
G1 X121.71 Y101.053 E.90023
G1 X121.58 Y101.105 E.00439
G1 X121.522 Y101.241 E.00466
G1 X121.522 Y137.684 E1.14264
G1 X121.565 Y137.805 E.00402
G1 X121.71 Y137.873 E.00501
G1 X164.522 Y137.873 E1.34232
G1 X164.522 Y145.053 E.22512
G1 X121.71 Y145.053 E1.34232
G1 X121.59 Y145.097 E.00402
G1 X121.522 Y145.241 E.00501
G1 X121.522 Y153.684 E.26472
G1 X121.58 Y153.821 E.00466
G1 X121.71 Y153.873 E.00439
G1 X164.522 Y153.873 E1.34232
G1 X164.522 Y161.053 E.22512
G1 X71.342 Y161.053 E2.92159
G1 X71.342 Y153.873 E.22512
G1 X114.153 Y153.873 E1.34232
M73 P3 R54
G1 X114.283 Y153.821 E.00439
G1 X114.342 Y153.684 E.00466
G1 X114.342 Y145.241 E.26472
G1 X114.298 Y145.121 E.00402
G1 X114.153 Y145.053 E.00501
G1 X71.342 Y145.053 E1.34232
G1 X71.342 Y137.873 E.22512
G1 X114.093 Y137.873 E1.34044
M204 P1000
G1 X114.246 Y137.961 F9000
G1 E-2.24 F4200
;WIPE_START
G1 F7200
G1 X114.274 Y137.829 E-.10302
G1 X114.342 Y137.684 E-.08863
G1 X114.342 Y136.384 E-.72034
;WIPE_END
G1 E-.048 F4200
G1 Z.4 F720
G1 X164.032 Y139.172 F9000
G1 Z.2 F720
G1 E3.2 F2400
M204 P800
;TYPE:Solid infill
;WIDTH:0.421024
G1 F1200
G1 X163.392 Y138.533 E.02841
G1 X162.858 Y138.533 E.01681
G1 X163.862 Y139.537 E.04464
G1 X163.862 Y140.072 E.01681
G1 X162.323 Y138.533 E.06842
G1 X161.788 Y138.533 E.01681
G1 X163.862 Y140.606 E.09219
G1 X163.862 Y141.141 E.01681
G1 X161.254 Y138.533 E.11597
G1 X160.719 Y138.533 E.01681
G1 X163.862 Y141.676 E.13974
G1 X163.862 Y142.21 E.01681
G1 X160.184 Y138.533 E.16352
G1 X159.649 Y138.533 E.01681
G1 X163.862 Y142.745 E.18729
G1 X163.862 Y143.28 E.01681
G1 X159.115 Y138.533 E.21107
G1 X158.58 Y138.533 E.01681
G1 X163.862 Y143.815 E.23484
G1 X163.862 Y144.349 E.01681
G1 X158.045 Y138.533 E.25862
G1 X157.511 Y138.533 E.01681
G1 X163.371 Y144.393 E.26057
G1 X162.836 Y144.393 E.01681
G1 X156.976 Y138.533 E.26057
G1 X156.441 Y138.533 E.01681
G1 X162.302 Y144.393 E.26058
G1 X161.767 Y144.393 E.01681
G1 X155.906 Y138.533 E.26058
G1 X155.372 Y138.533 E.01681
G1 X161.233 Y144.394 E.26059
G1 X160.698 Y144.394 E.01681
G1 X154.837 Y138.533 E.26059
G1 X154.302 Y138.533 E.01681
G1 X160.163 Y144.394 E.2606
G1 X159.629 Y144.394 E.01681
G1 X153.767 Y138.533 E.26061
G1 X153.233 Y138.533 E.01681
G1 X159.094 Y144.394 E.26061
G1 X158.56 Y144.394 E.01681
G1 X152.698 Y138.533 E.26062
G1 X152.163 Y138.533 E.01681
G1 X158.025 Y144.394 E.26062
G1 X157.49 Y144.395 E.01681
G1 X151.629 Y138.533 E.26063
G1 X151.094 Y138.533 E.01681
G1 X156.956 Y144.395 E.26063
G1 X156.421 Y144.395 E.01681
G1 X150.559 Y138.533 E.26064
G1 X150.024 Y138.533 E.01681
G1 X155.887 Y144.395 E.26065
G1 X155.352 Y144.395 E.01681
G1 X149.49 Y138.533 E.26065
G1 X148.955 Y138.533 E.01681
G1 X154.817 Y144.395 E.26066
G1 X154.283 Y144.395 E.01681
G1 X148.42 Y138.533 E.26066
G1 X147.886 Y138.533 E.01681
G1 X153.748 Y144.395 E.26067
G1 X153.214 Y144.396 E.01681
G1 X147.351 Y138.533 E.26067
G1 X146.816 Y138.533 E.01681
G1 X152.679 Y144.396 E.26068
G1 X152.145 Y144.396 E.01681
G1 X146.281 Y138.533 E.26069
G1 X145.747 Y138.533 E.01681
G1 X151.61 Y144.396 E.26069
G1 X151.075 Y144.396 E.01681
G1 X145.212 Y138.533 E.2607
G1 X144.677 Y138.533 E.01681
G1 X150.541 Y144.396 E.2607
G1 X150.006 Y144.396 E.01681
G1 X144.143 Y138.533 E.26071
G1 X143.608 Y138.533 E.01681
G1 X149.472 Y144.396 E.26071
G1 X148.937 Y144.397 E.01681
G1 X143.073 Y138.533 E.26072
G1 X142.538 Y138.533 E.01681
G1 X148.402 Y144.397 E.26073
G1 X147.868 Y144.397 E.01681
G1 X142.004 Y138.533 E.26073
G1 X141.469 Y138.533 E.01681
G1 X147.333 Y144.397 E.26074
G1 X146.799 Y144.397 E.01681
G1 X140.934 Y138.533 E.26074
G1 X140.4 Y138.533 E.01681
G1 X146.264 Y144.397 E.26075
G1 X145.729 Y144.397 E.01681
G1 X139.865 Y138.533 E.26076
G1 X139.33 Y138.533 E.01681
G1 X145.195 Y144.397 E.26076
G1 X144.66 Y144.398 E.01681
G1 X138.795 Y138.533 E.26077
G1 X138.261 Y138.533 E.01681
G1 X144.126 Y144.398 E.26077
G1 X143.591 Y144.398 E.01681
G1 X137.726 Y138.533 E.26078
G1 X137.191 Y138.533 E.01681
G1 X143.056 Y144.398 E.26078
G1 X142.522 Y144.398 E.01681
G1 X136.656 Y138.533 E.26079
G1 X136.122 Y138.533 E.01681
G1 X141.987 Y144.398 E.2608
G1 X141.453 Y144.398 E.01681
G1 X135.587 Y138.533 E.2608
G1 X135.052 Y138.533 E.01681
G1 X140.918 Y144.399 E.26081
G1 X140.384 Y144.399 E.01681
G1 X134.518 Y138.533 E.26081
G1 X133.983 Y138.533 E.01681
G1 X139.849 Y144.399 E.26082
G1 X139.314 Y144.399 E.01681
G1 X133.448 Y138.533 E.26082
G1 X132.913 Y138.533 E.01681
G1 X138.78 Y144.399 E.26083
G1 X138.245 Y144.399 E.01681
G1 X132.379 Y138.533 E.26084
G1 X131.844 Y138.533 E.01681
G1 X137.711 Y144.399 E.26084
G1 X137.176 Y144.399 E.01681
G1 X131.309 Y138.533 E.26085
G1 X130.775 Y138.533 E.01681
G1 X136.641 Y144.4 E.26085
G1 X136.107 Y144.4 E.01681
M73 P4 R54
G1 X130.24 Y138.533 E.26086
G1 X129.705 Y138.533 E.01681
G1 X135.572 Y144.4 E.26086
G1 X135.038 Y144.4 E.01681
G1 X129.17 Y138.533 E.26087
G1 X128.636 Y138.533 E.01681
G1 X134.503 Y144.4 E.26088
G1 X133.968 Y144.4 E.01681
G1 X128.101 Y138.533 E.26088
G1 X127.566 Y138.533 E.01681
M73 P4 R53
G1 X133.434 Y144.4 E.26089
G1 X132.899 Y144.4 E.01681
G1 X127.032 Y138.533 E.26089
G1 X126.497 Y138.533 E.01681
G1 X132.365 Y144.401 E.2609
G1 X131.83 Y144.401 E.01681
G1 X125.962 Y138.533 E.2609
G1 X125.427 Y138.533 E.01681
G1 X131.296 Y144.401 E.26091
G1 X130.761 Y144.401 E.01681
G1 X124.893 Y138.533 E.26092
G1 X124.358 Y138.533 E.01681
G1 X130.226 Y144.401 E.26092
G1 X129.692 Y144.401 E.01681
G1 X123.823 Y138.533 E.26093
G1 X123.288 Y138.533 E.01681
G1 X129.157 Y144.401 E.26093
G1 X128.623 Y144.402 E.01681
G1 X122.754 Y138.533 E.26094
G1 X122.219 Y138.533 E.01681
G1 X128.258 Y144.571 E.26849
M204 P1000
G1 E-2.24 F4200
;WIPE_START
G1 F7200
G1 X127.094 Y143.408 E-.912
;WIPE_END
G1 E-.048 F4200
G1 Z.4 F720
G1 X163.181 Y154.363 F9000
G1 Z.2 F720
G1 E3.2 F2400
M204 P800
G1 F1200
G1 X163.862 Y155.044 E.03026
G1 X163.862 Y155.578 E.01681
G1 X162.816 Y154.533 E.04649
G1 X162.281 Y154.533 E.01681
G1 X163.862 Y156.113 E.07027
G1 X163.862 Y156.648 E.01681
G1 X161.747 Y154.533 E.09404
G1 X161.212 Y154.533 E.01681
G1 X163.862 Y157.183 E.11782
G1 X163.862 Y157.717 E.01681
G1 X160.677 Y154.533 E.14159
G1 X160.143 Y154.533 E.01681
G1 X163.862 Y158.252 E.16537
G1 X163.862 Y158.787 E.01681
G1 X159.608 Y154.533 E.18914
G1 X159.073 Y154.533 E.01681
G1 X163.862 Y159.321 E.21292
G1 X163.862 Y159.856 E.01681
G1 X158.538 Y154.533 E.23669
G1 X158.004 Y154.533 E.01681
G1 X163.862 Y160.393 E.26051
G1 X163.329 Y160.393 E.01675
G1 X157.469 Y154.533 E.26056
G1 X156.934 Y154.533 E.01681
G1 X162.794 Y160.393 E.26056
G1 X162.26 Y160.393 E.01681
G1 X156.4 Y154.533 E.26056
G1 X155.865 Y154.533 E.01681
G1 X161.725 Y160.393 E.26056
G1 X161.19 Y160.393 E.01681
G1 X155.33 Y154.533 E.26056
G1 X154.795 Y154.533 E.01681
G1 X160.656 Y160.393 E.26056
G1 X160.121 Y160.393 E.01681
G1 X154.261 Y154.533 E.26056
G1 X153.726 Y154.533 E.01681
G1 X159.586 Y160.393 E.26056
G1 X159.051 Y160.393 E.01681
G1 X153.191 Y154.533 E.26056
G1 X152.656 Y154.533 E.01681
G1 X158.517 Y160.393 E.26056
G1 X157.982 Y160.393 E.01681
G1 X152.122 Y154.533 E.26056
G1 X151.587 Y154.533 E.01681
G1 X157.447 Y160.393 E.26056
G1 X156.913 Y160.393 E.01681
G1 X151.052 Y154.533 E.26056
G1 X150.518 Y154.533 E.01681
G1 X156.378 Y160.393 E.26056
G1 X155.843 Y160.393 E.01681
G1 X149.983 Y154.533 E.26056
G1 X149.448 Y154.533 E.01681
G1 X155.308 Y160.393 E.26056
G1 X154.774 Y160.393 E.01681
G1 X148.913 Y154.533 E.26056
G1 X148.379 Y154.533 E.01681
G1 X154.239 Y160.393 E.26056
G1 X153.704 Y160.393 E.01681
G1 X147.844 Y154.533 E.26056
G1 X147.309 Y154.533 E.01681
G1 X153.17 Y160.393 E.26056
G1 X152.635 Y160.393 E.01681
G1 X146.775 Y154.533 E.26056
G1 X146.24 Y154.533 E.01681
G1 X152.1 Y160.393 E.26056
G1 X151.565 Y160.393 E.01681
G1 X145.705 Y154.533 E.26056
G1 X145.17 Y154.533 E.01681
G1 X151.031 Y160.393 E.26056
G1 X150.496 Y160.393 E.01681
G1 X144.636 Y154.533 E.26056
G1 X144.101 Y154.533 E.01681
G1 X149.961 Y160.393 E.26056
G1 X149.426 Y160.393 E.01681
G1 X143.566 Y154.533 E.26056
G1 X143.032 Y154.533 E.01681
G1 X148.892 Y160.393 E.26056
G1 X148.357 Y160.393 E.01681
G1 X142.497 Y154.533 E.26056
G1 X141.962 Y154.533 E.01681
G1 X147.822 Y160.393 E.26056
G1 X147.288 Y160.393 E.01681
G1 X141.427 Y154.533 E.26056
G1 X140.893 Y154.533 E.01681
G1 X146.753 Y160.393 E.26056
G1 X146.218 Y160.393 E.01681
G1 X140.358 Y154.533 E.26056
G1 X139.823 Y154.533 E.01681
G1 X145.683 Y160.393 E.26056
G1 X145.149 Y160.393 E.01681
G1 X139.288 Y154.533 E.26056
G1 X138.754 Y154.533 E.01681
G1 X144.614 Y160.393 E.26056
G1 X144.079 Y160.393 E.01681
G1 X138.219 Y154.533 E.26056
G1 X137.684 Y154.533 E.01681
G1 X143.545 Y160.393 E.26056
G1 X143.01 Y160.393 E.01681
G1 X137.15 Y154.533 E.26056
G1 X136.615 Y154.533 E.01681
G1 X142.475 Y160.393 E.26056
G1 X141.94 Y160.393 E.01681
G1 X136.08 Y154.533 E.26056
G1 X135.545 Y154.533 E.01681
G1 X141.406 Y160.393 E.26056
G1 X140.871 Y160.393 E.01681
G1 X135.011 Y154.533 E.26056
G1 X134.476 Y154.533 E.01681
G1 X140.336 Y160.393 E.26056
G1 X139.802 Y160.393 E.01681
G1 X133.941 Y154.533 E.26056
G1 X133.407 Y154.533 E.01681
G1 X139.267 Y160.393 E.26056
G1 X138.732 Y160.393 E.01681
G1 X132.872 Y154.533 E.26056
G1 X132.337 Y154.533 E.01681
G1 X138.197 Y160.393 E.26056
G1 X137.663 Y160.393 E.01681
G1 X131.802 Y154.533 E.26056
G1 X131.268 Y154.533 E.01681
G1 X137.128 Y160.393 E.26056
G1 X136.593 Y160.393 E.01681
M73 P5 R53
G1 X130.733 Y154.533 E.26056
G1 X130.198 Y154.533 E.01681
G1 X136.058 Y160.393 E.26056
G1 X135.524 Y160.393 E.01681
G1 X129.664 Y154.533 E.26056
G1 X129.129 Y154.533 E.01681
G1 X134.989 Y160.393 E.26056
G1 X134.454 Y160.393 E.01681
G1 X128.594 Y154.533 E.26056
G1 X128.059 Y154.533 E.01681
G1 X133.92 Y160.393 E.26056
G1 X133.385 Y160.393 E.01681
G1 X127.525 Y154.533 E.26056
G1 X126.99 Y154.533 E.01681
G1 X132.85 Y160.393 E.26056
G1 X132.315 Y160.393 E.01681
G1 X126.455 Y154.533 E.26056
G1 X125.92 Y154.533 E.01681
G1 X131.781 Y160.393 E.26056
G1 X131.246 Y160.393 E.01681
G1 X125.386 Y154.533 E.26056
G1 X124.851 Y154.533 E.01681
G1 X130.711 Y160.393 E.26056
G1 X130.177 Y160.393 E.01681
G1 X124.316 Y154.533 E.26056
G1 X123.782 Y154.533 E.01681
G1 X129.642 Y160.393 E.26056
G1 X129.107 Y160.393 E.01681
G1 X123.247 Y154.533 E.26056
G1 X122.712 Y154.533 E.01681
G1 X128.572 Y160.393 E.26056
G1 X128.038 Y160.393 E.01681
G1 X122.008 Y154.363 E.2681
M204 P1000
G1 E-2.24 F4200
;WIPE_START
G1 F7200
G1 X123.171 Y155.527 E-.912
;WIPE_END
G1 E-.048 F4200
G1 Z.4 F720
G1 X149.167 Y94.363 F9000
G1 Z.2 F720
G1 E3.2 F2400
M204 P800
G1 F1200
G1 X149.762 Y94.958 E.02644
G1 X149.762 Y95.492 E.01681
G1 X148.802 Y94.533 E.04267
G1 X148.267 Y94.533 E.01681
G1 X149.762 Y96.027 E.06645
G1 X149.762 Y96.562 E.01681
G1 X147.733 Y94.533 E.09022
G1 X147.198 Y94.533 E.01681
G1 X149.762 Y97.097 E.114
G1 X149.762 Y97.631 E.01681
G1 X146.663 Y94.533 E.13777
G1 X146.128 Y94.533 E.01681
G1 X149.762 Y98.166 E.16155
G1 X149.762 Y98.701 E.01681
G1 X145.594 Y94.533 E.18532
G1 X145.059 Y94.533 E.01681
G1 X149.762 Y99.236 E.2091
G1 X149.762 Y99.77 E.01681
G1 X144.524 Y94.533 E.23287
G1 X143.99 Y94.533 E.01681
G1 X149.762 Y100.305 E.25665
