; generated by PrusaSlicer 2.5.0+win64 on 2023-03-21 at 20:11:05 UTC


;
;

;
;
; 

; external perimeters extrusion width = 0.45mm
; perimeters extrusion width = 0.45mm
; infill extrusion width = 0.45mm
; solid infill extrusion width = 0.45mm
; top infill extrusion width = 0.40mm
; support material extrusion width = 0.35mm
; first layer extrusion width = 0.42mm

M73 P0 R230
M201 X2500 Y2500 Z400 E5000 ; sets maximum accelerations, mm/sec^2
M203 X180 Y180 Z12 E80 ; sets maximum feedrates, mm / sec
M204 P1250 R1250 T2500 ; sets acceleration (P, T) and retract acceleration (R), mm/sec^2
M205 X8.00 Y8.00 Z2.00 E10.00 ; sets the jerk limits, mm/sec
M205 S0 T0 ; sets the minimum extruding and travel feed rate, mm/sec
M107
;TYPE:Custom
M862.3 P "MINI" ; printer model check
G90 ; use absolute coordinates
M83 ; extruder relative mode
M104 S170 ; set extruder temp for bed leveling
M140 S60 ; set bed temp
M109 R170 ; wait for bed leveling temp
M190 S60 ; wait for bed temp
M204 T1250 ; set travel acceleration
G28 ; home all without mesh bed level
G29 ; mesh bed leveling 
M204 T2500 ; restore travel acceleration
M104 S215 ; set extruder temp
G92 E0
G1 Y-2 X179 F2400
G1 Z3 F720
M109 S215 ; wait for extruder temp

; intro line
G1 X170 F1000
G1 Z0.2 F720
G1 X110 E8 F900
G1 X40 E10 F700
G92 E0

M221 S95 ; set flow
G21 ; set units to millimeters
G90 ; use absolute coordinates
M83 ; use relative distances for extrusion
M900 K0.2 ; Filament gcode LA 1.5
; ; Filament gcode LA 1.0
M107
;LAYER_CHANGE
;Z:0.2
;HEIGHT:0.2
;BEFORE_LAYER_CHANGE
G92 E0.0
;0.2


G1 E-3.2 F4200
G1 Z.2 F720
;AFTER_LAYER_CHANGE
;0.2
G1 Z.4
G1 X33.178 Y33.178 F9000
G1 Z.2 F720
G1 E3.2 F2400
M204 P800
;TYPE:Skirt/Brim
;WIDTH:0.42
G1 F1200
G1 X34.619 Y31.737 E.06389
G1 X36.3 Y31.041 E.05704
G1 X143.215 Y31.041 E3.35226
G1 X144.896 Y31.737 E.05704
G1 X147.193 Y34.034 E.10182
G1 X147.889 Y35.715 E.05704
G1 X147.889 Y165.594 E4.07227
G1 X147.193 Y167.275 E.05704
G1 X144.896 Y169.571 E.10182
G1 X143.215 Y170.267 E.05704
G1 X36.3 Y170.267 E3.35226
G1 X34.619 Y169.571 E.05704
G1 X32.323 Y167.275 E.10182
G1 X31.626 Y165.594 E.05704
G1 X31.626 Y35.715 E4.07227
G1 X32.323 Y34.034 E.05704
G1 X33.136 Y33.221 E.03606
M204 P1000
; printing object base_kingdom_2nd_box_lid.stl id:0 copy 0
G1 E-2.24 F4200
;WIPE_START
G1 F7200
G1 X34.299 Y32.057 E-.912
;WIPE_END
G1 E-.048 F4200
G1 Z.4 F720
G1 X143.215 Y35.715 F9000
G1 Z.2 F720
G1 E3.2 F2400
M204 P800
;TYPE:Support material
G1 F1200
G1 X145.512 Y35.715 E.072
G1 X145.512 Y165.594 E4.07227
G1 X143.215 Y165.594 E.072
G1 X143.215 Y167.89 E.072
G1 X36.3 Y167.89 E3.35226
G1 X36.3 Y165.594 E.072
M73 P0 R229
G1 X34.003 Y165.594 E.072
G1 X34.003 Y35.715 E4.07227
G1 X36.3 Y35.715 E.072
G1 X36.3 Y33.418 E.072
G1 X143.215 Y33.418 E3.35226
G1 X143.215 Y35.658 E.07023
M204 P1000
G1 X39.898 Y39.749 F9000
M204 P800
G1 F1200
G1 X39.721 Y39.822 E.00599
G1 X39.486 Y40.057 E.01042
G1 X39.413 Y40.233 E.00599
G1 X39.413 Y161.075 E3.78892
G1 X39.486 Y161.252 E.00599
G1 X39.721 Y161.487 E.01042
G1 X39.898 Y161.56 E.00599
G1 X139.59 Y161.56 E3.12577
G1 X139.766 Y161.487 E.00599
G1 X140.001 Y161.252 E.01042
G1 X140.074 Y161.075 E.00599
G1 X140.074 Y40.233 E3.78892
G1 X140.001 Y40.057 E.00599
G1 X139.766 Y39.822 E.01042
G1 X139.59 Y39.749 E.00599
G1 X39.954 Y39.749 E3.124
M204 P1000
G1 E-2.24 F4200
;WIPE_START
G1 F7200
G1 X41.6 Y39.749 E-.912
;WIPE_END
G1 E-.048 F4200
G1 Z.4 F720
G1 X145.063 Y165.424 F9000
G1 Z.2 F720
G1 E3.2 F2400
M204 P800
G1 F1200
G1 X145.063 Y36.054 E4.05631
G1 X144.644 Y36.054 E.01314
G1 X144.644 Y165.254 E4.05098
G1 X144.225 Y165.254 E.01314
G1 X144.225 Y36.054 E4.05098
G1 X143.806 Y36.054 E.01314
M73 P0 R228
G1 X143.806 Y165.254 E4.05098
G1 X143.387 Y165.254 E.01314
G1 X143.387 Y36.054 E4.05098
G1 X142.968 Y36.054 E.01314
G1 X142.968 Y165.254 E4.05098
G1 X142.876 Y165.254 E.00287
G1 X142.876 Y167.551 E.072
G1 X142.549 Y167.551 E.01026
G1 X142.549 Y33.758 E4.19499
G1 X142.13 Y33.758 E.01314
G1 X142.13 Y167.551 E4.19499
G1 X141.711 Y167.551 E.01314
M73 P1 R228
G1 X141.711 Y33.758 E4.19499
G1 X141.292 Y33.758 E.01314
G1 X141.292 Y167.551 E4.19499
G1 X140.873 Y167.551 E.01314
G1 X140.873 Y33.758 E4.19499
G1 X140.454 Y33.758 E.01314
G1 X140.454 Y167.551 E4.19499
G1 X140.035 Y167.551 E.01314
M73 P1 R227
G1 X140.035 Y161.698 E.18352
G1 X139.958 Y161.774 E.0034
G1 X139.657 Y161.899 E.01022
G1 X139.616 Y161.899 E.00129
G1 X139.616 Y167.551 E.1772
G1 X139.197 Y167.551 E.01314
G1 X139.197 Y161.899 E.1772
G1 X138.778 Y161.899 E.01314
G1 X138.778 Y167.551 E.1772
G1 X138.359 Y167.551 E.01314
G1 X138.359 Y161.899 E.1772
G1 X137.94 Y161.899 E.01314
G1 X137.94 Y167.551 E.1772
G1 X137.521 Y167.551 E.01314
G1 X137.521 Y161.899 E.1772
G1 X137.102 Y161.899 E.01314
G1 X137.102 Y167.551 E.1772
G1 X136.683 Y167.551 E.01314
G1 X136.683 Y161.899 E.1772
G1 X136.264 Y161.899 E.01314
G1 X136.264 Y167.551 E.1772
G1 X135.845 Y167.551 E.01314
G1 X135.845 Y161.899 E.1772
G1 X135.426 Y161.899 E.01314
G1 X135.426 Y167.551 E.1772
G1 X135.007 Y167.551 E.01314
G1 X135.007 Y161.899 E.1772
G1 X134.588 Y161.899 E.01314
G1 X134.588 Y167.551 E.1772
G1 X134.169 Y167.551 E.01314
G1 X134.169 Y161.899 E.1772
G1 X133.75 Y161.899 E.01314
G1 X133.75 Y167.551 E.1772
G1 X133.331 Y167.551 E.01314
G1 X133.331 Y161.899 E.1772
G1 X132.912 Y161.899 E.01314
G1 X132.912 Y167.551 E.1772
G1 X132.493 Y167.551 E.01314
G1 X132.493 Y161.899 E.1772
G1 X132.074 Y161.899 E.01314
G1 X132.074 Y167.551 E.1772
G1 X131.655 Y167.551 E.01314
G1 X131.655 Y161.899 E.1772
G1 X131.236 Y161.899 E.01314
G1 X131.236 Y167.551 E.1772
G1 X130.817 Y167.551 E.01314
G1 X130.817 Y161.899 E.1772
G1 X130.398 Y161.899 E.01314
G1 X130.398 Y167.551 E.1772
G1 X129.979 Y167.551 E.01314
G1 X129.979 Y161.899 E.1772
G1 X129.56 Y161.899 E.01314
G1 X129.56 Y167.551 E.1772
G1 X129.141 Y167.551 E.01314
G1 X129.141 Y161.899 E.1772
G1 X128.722 Y161.899 E.01314
G1 X128.722 Y167.551 E.1772
G1 X128.303 Y167.551 E.01314
G1 X128.303 Y161.899 E.1772
G1 X127.884 Y161.899 E.01314
G1 X127.884 Y167.551 E.1772
G1 X127.466 Y167.551 E.01314
G1 X127.466 Y161.899 E.1772
G1 X127.047 Y161.899 E.01314
G1 X127.047 Y167.551 E.1772
G1 X126.628 Y167.551 E.01314
G1 X126.628 Y161.899 E.1772
G1 X126.209 Y161.899 E.01314
G1 X126.209 Y167.551 E.1772
G1 X125.79 Y167.551 E.01314
G1 X125.79 Y161.899 E.1772
G1 X125.371 Y161.899 E.01314
G1 X125.371 Y167.551 E.1772
G1 X124.952 Y167.551 E.01314
G1 X124.952 Y161.899 E.1772
G1 X124.533 Y161.899 E.01314
G1 X124.533 Y167.551 E.1772
G1 X124.114 Y167.551 E.01314
G1 X124.114 Y161.899 E.1772
G1 X123.695 Y161.899 E.01314
G1 X123.695 Y167.551 E.1772
G1 X123.276 Y167.551 E.01314
G1 X123.276 Y161.899 E.1772
G1 X122.857 Y161.899 E.01314
G1 X122.857 Y167.551 E.1772
G1 X122.438 Y167.551 E.01314
G1 X122.438 Y161.899 E.1772
G1 X122.019 Y161.899 E.01314
G1 X122.019 Y167.551 E.1772
G1 X121.6 Y167.551 E.01314
G1 X121.6 Y161.899 E.1772
G1 X121.181 Y161.899 E.01314
G1 X121.181 Y167.551 E.1772
G1 X120.762 Y167.551 E.01314
G1 X120.762 Y161.899 E.1772
G1 X120.343 Y161.899 E.01314
G1 X120.343 Y167.551 E.1772
G1 X119.924 Y167.551 E.01314
G1 X119.924 Y161.899 E.1772
G1 X119.505 Y161.899 E.01314
G1 X119.505 Y167.551 E.1772
G1 X119.086 Y167.551 E.01314
G1 X119.086 Y161.899 E.1772
G1 X118.667 Y161.899 E.01314
G1 X118.667 Y167.551 E.1772
G1 X118.248 Y167.551 E.01314
G1 X118.248 Y161.899 E.1772
G1 X117.829 Y161.899 E.01314
G1 X117.829 Y167.551 E.1772
G1 X117.41 Y167.551 E.01314
G1 X117.41 Y161.899 E.1772
G1 X116.991 Y161.899 E.01314
G1 X116.991 Y167.551 E.1772
G1 X116.572 Y167.551 E.01314
G1 X116.572 Y161.899 E.1772
G1 X116.153 Y161.899 E.01314
G1 X116.153 Y167.551 E.1772
G1 X115.734 Y167.551 E.01314
G1 X115.734 Y161.899 E.1772
G1 X115.315 Y161.899 E.01314
G1 X115.315 Y167.551 E.1772
G1 X114.896 Y167.551 E.01314
G1 X114.896 Y161.899 E.1772
G1 X114.477 Y161.899 E.01314
G1 X114.477 Y167.551 E.1772
G1 X114.058 Y167.551 E.01314
G1 X114.058 Y161.899 E.1772
G1 X113.639 Y161.899 E.01314
G1 X113.639 Y167.551 E.1772
G1 X113.22 Y167.551 E.01314
G1 X113.22 Y161.899 E.1772
G1 X112.801 Y161.899 E.01314
G1 X112.801 Y167.551 E.1772
G1 X112.382 Y167.551 E.01314
G1 X112.382 Y161.899 E.1772
G1 X111.963 Y161.899 E.01314
G1 X111.963 Y167.551 E.1772
G1 X111.544 Y167.551 E.01314
G1 X111.544 Y161.899 E.1772
G1 X111.125 Y161.899 E.01314
G1 X111.125 Y167.551 E.1772
G1 X110.706 Y167.551 E.01314
G1 X110.706 Y161.899 E.1772
G1 X110.287 Y161.899 E.01314
G1 X110.287 Y167.551 E.1772
G1 X109.868 Y167.551 E.01314
G1 X109.868 Y161.899 E.1772
G1 X109.449 Y161.899 E.01314
G1 X109.449 Y167.551 E.1772
G1 X109.031 Y167.551 E.01314
G1 X109.031 Y161.899 E.1772
G1 X108.612 Y161.899 E.01314
G1 X108.612 Y167.551 E.1772
G1 X108.193 Y167.551 E.01314
G1 X108.193 Y161.899 E.1772
G1 X107.774 Y161.899 E.01314
G1 X107.774 Y167.551 E.1772
G1 X107.355 Y167.551 E.01314
G1 X107.355 Y161.899 E.1772
G1 X106.936 Y161.899 E.01314
G1 X106.936 Y167.551 E.1772
G1 X106.517 Y167.551 E.01314
G1 X106.517 Y161.899 E.1772
G1 X106.098 Y161.899 E.01314
G1 X106.098 Y167.551 E.1772
G1 X105.679 Y167.551 E.01314
G1 X105.679 Y161.899 E.1772
G1 X105.26 Y161.899 E.01314
G1 X105.26 Y167.551 E.1772
G1 X104.841 Y167.551 E.01314
G1 X104.841 Y161.899 E.1772
G1 X104.422 Y161.899 E.01314
G1 X104.422 Y167.551 E.1772
G1 X104.003 Y167.551 E.01314
G1 X104.003 Y161.899 E.1772
G1 X103.584 Y161.899 E.01314
G1 X103.584 Y167.551 E.1772
G1 X103.165 Y167.551 E.01314
G1 X103.165 Y161.899 E.1772
G1 X102.746 Y161.899 E.01314
G1 X102.746 Y167.551 E.1772
G1 X102.327 Y167.551 E.01314
G1 X102.327 Y161.899 E.1772
G1 X101.908 Y161.899 E.01314
G1 X101.908 Y167.551 E.1772
G1 X101.489 Y167.551 E.01314
G1 X101.489 Y161.899 E.1772
G1 X101.07 Y161.899 E.01314
G1 X101.07 Y167.551 E.1772
G1 X100.651 Y167.551 E.01314
G1 X100.651 Y161.899 E.1772
G1 X100.232 Y161.899 E.01314
G1 X100.232 Y167.551 E.1772
G1 X99.813 Y167.551 E.01314
G1 X99.813 Y161.899 E.1772
G1 X99.394 Y161.899 E.01314
G1 X99.394 Y167.551 E.1772
G1 X98.975 Y167.551 E.01314
G1 X98.975 Y161.899 E.1772
G1 X98.556 Y161.899 E.01314
G1 X98.556 Y167.551 E.1772
G1 X98.137 Y167.551 E.01314
G1 X98.137 Y161.899 E.1772
G1 X97.718 Y161.899 E.01314
G1 X97.718 Y167.551 E.1772
G1 X97.299 Y167.551 E.01314
G1 X97.299 Y161.899 E.1772
G1 X96.88 Y161.899 E.01314
G1 X96.88 Y167.551 E.1772
G1 X96.461 Y167.551 E.01314
G1 X96.461 Y161.899 E.1772
G1 X96.042 Y161.899 E.01314
G1 X96.042 Y167.551 E.1772
G1 X95.623 Y167.551 E.01314
G1 X95.623 Y161.899 E.1772
G1 X95.204 Y161.899 E.01314
G1 X95.204 Y167.551 E.1772
G1 X94.785 Y167.551 E.01314
G1 X94.785 Y161.899 E.1772
G1 X94.366 Y161.899 E.01314
G1 X94.366 Y167.551 E.1772
G1 X93.947 Y167.551 E.01314
G1 X93.947 Y161.899 E.1772
G1 X93.528 Y161.899 E.01314
G1 X93.528 Y167.551 E.1772
G1 X93.109 Y167.551 E.01314
G1 X93.109 Y161.899 E.1772
G1 X92.69 Y161.899 E.01314
G1 X92.69 Y167.551 E.1772
G1 X92.271 Y167.551 E.01314
G1 X92.271 Y161.899 E.1772
G1 X91.852 Y161.899 E.01314
G1 X91.852 Y167.551 E.1772
G1 X91.433 Y167.551 E.01314
G1 X91.433 Y161.899 E.1772
G1 X91.015 Y161.899 E.01314
G1 X91.015 Y167.551 E.1772
G1 X90.596 Y167.551 E.01314
G1 X90.596 Y161.899 E.1772
G1 X90.177 Y161.899 E.01314
G1 X90.177 Y167.551 E.1772
G1 X89.758 Y167.551 E.01314
G1 X89.758 Y161.899 E.1772
G1 X89.339 Y161.899 E.01314
G1 X89.339 Y167.551 E.1772
G1 X88.92 Y167.551 E.01314
G1 X88.92 Y161.899 E.1772
G1 X88.501 Y161.899 E.01314
G1 X88.501 Y167.551 E.1772
G1 X88.082 Y167.551 E.01314
G1 X88.082 Y161.899 E.1772
G1 X87.663 Y161.899 E.01314
G1 X87.663 Y167.551 E.1772
G1 X87.244 Y167.551 E.01314
G1 X87.244 Y161.899 E.1772
G1 X86.825 Y161.899 E.01314
G1 X86.825 Y167.551 E.1772
G1 X86.406 Y167.551 E.01314
G1 X86.406 Y161.899 E.1772
G1 X85.987 Y161.899 E.01314
G1 X85.987 Y167.551 E.1772
G1 X85.568 Y167.551 E.01314
G1 X85.568 Y161.899 E.1772
G1 X85.149 Y161.899 E.01314
G1 X85.149 Y167.551 E.1772
G1 X84.73 Y167.551 E.01314
G1 X84.73 Y161.899 E.1772
G1 X84.311 Y161.899 E.01314
G1 X84.311 Y167.551 E.1772
G1 X83.892 Y167.551 E.01314
G1 X83.892 Y161.899 E.1772
G1 X83.473 Y161.899 E.01314
G1 X83.473 Y167.551 E.1772
G1 X83.054 Y167.551 E.01314
G1 X83.054 Y161.899 E.1772
G1 X82.635 Y161.899 E.01314
G1 X82.635 Y167.551 E.1772
G1 X82.216 Y167.551 E.01314
G1 X82.216 Y161.899 E.1772
G1 X81.797 Y161.899 E.01314
G1 X81.797 Y167.551 E.1772
G1 X81.378 Y167.551 E.01314
G1 X81.378 Y161.899 E.1772
G1 X80.959 Y161.899 E.01314
G1 X80.959 Y167.551 E.1772
G1 X80.54 Y167.551 E.01314
G1 X80.54 Y161.899 E.1772
G1 X80.121 Y161.899 E.01314
G1 X80.121 Y167.551 E.1772
G1 X79.702 Y167.551 E.01314
G1 X79.702 Y161.899 E.1772
G1 X79.283 Y161.899 E.01314
G1 X79.283 Y167.551 E.1772
G1 X78.864 Y167.551 E.01314
G1 X78.864 Y161.899 E.1772
G1 X78.445 Y161.899 E.01314
G1 X78.445 Y167.551 E.1772
G1 X78.026 Y167.551 E.01314
G1 X78.026 Y161.899 E.1772
G1 X77.607 Y161.899 E.01314
G1 X77.607 Y167.551 E.1772
G1 X77.188 Y167.551 E.01314
G1 X77.188 Y161.899 E.1772
G1 X76.769 Y161.899 E.01314
G1 X76.769 Y167.551 E.1772
G1 X76.35 Y167.551 E.01314
G1 X76.35 Y161.899 E.1772
G1 X75.931 Y161.899 E.01314
G1 X75.931 Y167.551 E.1772
G1 X75.512 Y167.551 E.01314
G1 X75.512 Y161.899 E.1772
G1 X75.093 Y161.899 E.01314
G1 X75.093 Y167.551 E.1772
G1 X74.674 Y167.551 E.01314
G1 X74.674 Y161.899 E.1772
G1 X74.255 Y161.899 E.01314
G1 X74.255 Y167.551 E.1772
G1 X73.836 Y167.551 E.01314
G1 X73.836 Y161.899 E.1772
G1 X73.417 Y161.899 E.01314
G1 X73.417 Y167.551 E.1772
G1 X72.998 Y167.551 E.01314
G1 X72.998 Y161.899 E.1772
G1 X72.58 Y161.899 E.01314
G1 X72.58 Y167.551 E.1772
G1 X72.161 Y167.551 E.01314
G1 X72.161 Y161.899 E.1772
G1 X71.742 Y161.899 E.01314
G1 X71.742 Y167.551 E.1772
G1 X71.323 Y167.551 E.01314
G1 X71.323 Y161.899 E.1772
G1 X70.904 Y161.899 E.01314
G1 X70.904 Y167.551 E.1772
G1 X70.485 Y167.551 E.01314
G1 X70.485 Y161.899 E.1772
G1 X70.066 Y161.899 E.01314
G1 X70.066 Y167.551 E.1772
G1 X69.647 Y167.551 E.01314
G1 X69.647 Y161.899 E.1772
G1 X69.228 Y161.899 E.01314
G1 X69.228 Y167.551 E.1772
G1 X68.809 Y167.551 E.01314
G1 X68.809 Y161.899 E.1772
G1 X68.39 Y161.899 E.01314
G1 X68.39 Y167.551 E.1772
G1 X67.971 Y167.551 E.01314
G1 X67.971 Y161.899 E.1772
G1 X67.552 Y161.899 E.01314
G1 X67.552 Y167.551 E.1772
G1 X67.133 Y167.551 E.01314
G1 X67.133 Y161.899 E.1772
G1 X66.714 Y161.899 E.01314
G1 X66.714 Y167.551 E.1772
G1 X66.295 Y167.551 E.01314
G1 X66.295 Y161.899 E.1772
G1 X65.876 Y161.899 E.01314
G1 X65.876 Y167.551 E.1772
G1 X65.457 Y167.551 E.01314
G1 X65.457 Y161.899 E.1772
G1 X65.038 Y161.899 E.01314
G1 X65.038 Y167.551 E.1772
G1 X64.619 Y167.551 E.01314
G1 X64.619 Y161.899 E.1772
G1 X64.2 Y161.899 E.01314
G1 X64.2 Y167.551 E.1772
G1 X63.781 Y167.551 E.01314
G1 X63.781 Y161.899 E.1772
G1 X63.362 Y161.899 E.01314
G1 X63.362 Y167.551 E.1772
G1 X62.943 Y167.551 E.01314
G1 X62.943 Y161.899 E.1772
G1 X62.524 Y161.899 E.01314
M73 P1 R226
G1 X62.524 Y167.551 E.1772
G1 X62.105 Y167.551 E.01314
G1 X62.105 Y161.899 E.1772
G1 X61.686 Y161.899 E.01314
G1 X61.686 Y167.551 E.1772
G1 X61.267 Y167.551 E.01314
G1 X61.267 Y161.899 E.1772
G1 X60.848 Y161.899 E.01314
G1 X60.848 Y167.551 E.1772
G1 X60.429 Y167.551 E.01314
G1 X60.429 Y161.899 E.1772
G1 X60.01 Y161.899 E.01314
G1 X60.01 Y167.551 E.1772
G1 X59.591 Y167.551 E.01314
G1 X59.591 Y161.899 E.1772
G1 X59.172 Y161.899 E.01314
G1 X59.172 Y167.551 E.1772
G1 X58.753 Y167.551 E.01314
G1 X58.753 Y161.899 E.1772
G1 X58.334 Y161.899 E.01314
G1 X58.334 Y167.551 E.1772
G1 X57.915 Y167.551 E.01314
G1 X57.915 Y161.899 E.1772
G1 X57.496 Y161.899 E.01314
G1 X57.496 Y167.551 E.1772
G1 X57.077 Y167.551 E.01314
G1 X57.077 Y161.899 E.1772
G1 X56.658 Y161.899 E.01314
G1 X56.658 Y167.551 E.1772
G1 X56.239 Y167.551 E.01314
G1 X56.239 Y161.899 E.1772
G1 X55.82 Y161.899 E.01314
G1 X55.82 Y167.551 E.1772
G1 X55.401 Y167.551 E.01314
G1 X55.401 Y161.899 E.1772
G1 X54.982 Y161.899 E.01314
G1 X54.982 Y167.551 E.1772
G1 X54.564 Y167.551 E.01314
G1 X54.564 Y161.899 E.1772
G1 X54.145 Y161.899 E.01314
G1 X54.145 Y167.551 E.1772
G1 X53.726 Y167.551 E.01314
G1 X53.726 Y161.899 E.1772
G1 X53.307 Y161.899 E.01314
G1 X53.307 Y167.551 E.1772
G1 X52.888 Y167.551 E.01314
G1 X52.888 Y161.899 E.1772
G1 X52.469 Y161.899 E.01314
G1 X52.469 Y167.551 E.1772
