; generated by PrusaSlicer 2.5.0+win64 on 2023-03-01 at 18:40:59 UTC


;
;

;
;
; 

; external perimeters extrusion width = 0.45mm
; perimeters extrusion width = 0.45mm
; infill extrusion width = 0.45mm
; solid infill extrusion width = 0.45mm
; top infill extrusion width = 0.40mm
; first layer extrusion width = 0.42mm

; external perimeters extrusion width = 0.45mm
; perimeters extrusion width = 0.45mm
; infill extrusion width = 0.45mm
; solid infill extrusion width = 0.45mm
; top infill extrusion width = 0.40mm
; first layer extrusion width = 0.42mm

; external perimeters extrusion width = 0.45mm
; perimeters extrusion width = 0.45mm
; infill extrusion width = 0.45mm
; solid infill extrusion width = 0.45mm
; top infill extrusion width = 0.40mm
; first layer extrusion width = 0.42mm

; external perimeters extrusion width = 0.45mm
; perimeters extrusion width = 0.45mm
; infill extrusion width = 0.45mm
; solid infill extrusion width = 0.45mm
; top infill extrusion width = 0.40mm
; first layer extrusion width = 0.42mm

M73 P0 R64
M201 X2500 Y2500 Z400 E5000 ; sets maximum accelerations, mm/sec^2
M203 X180 Y180 Z12 E80 ; sets maximum feedrates, mm / sec
M204 P1250 R1250 T2500 ; sets acceleration (P, T) and retract acceleration (R), mm/sec^2
M205 X8.00 Y8.00 Z2.00 E10.00 ; sets the jerk limits, mm/sec
M205 S0 T0 ; sets the minimum extruding and travel feed rate, mm/sec
M107
;TYPE:Custom
M862.3 P "MINI" ; printer model check
G90 ; use absolute coordinates
M83 ; extruder relative mode
M104 S170 ; set extruder temp for bed leveling
M140 S60 ; set bed temp
M109 R170 ; wait for bed leveling temp
M190 S60 ; wait for bed temp
M204 T1250 ; set travel acceleration
G28 ; home all without mesh bed level
G29 ; mesh bed leveling 
M204 T2500 ; restore travel acceleration
M104 S215 ; set extruder temp
G92 E0
G1 Y-2 X179 F2400
G1 Z3 F720
M109 S215 ; wait for extruder temp

; intro line
G1 X170 F1000
G1 Z0.2 F720
G1 X110 E8 F900
G1 X40 E10 F700
G92 E0

M221 S95 ; set flow
G21 ; set units to millimeters
G90 ; use absolute coordinates
M83 ; use relative distances for extrusion
M900 K0.2 ; Filament gcode LA 1.5
; ; Filament gcode LA 1.0
M107
;LAYER_CHANGE
;Z:0.2
;HEIGHT:0.2
;BEFORE_LAYER_CHANGE
G92 E0.0
;0.2


G1 E-3.2 F4200
G1 Z.2 F720
;AFTER_LAYER_CHANGE
;0.2
G1 Z.4
G1 X9.338 Y17.056 F9000
G1 Z.2 F720
G1 E3.2 F2400
M204 P800
;TYPE:Skirt/Brim
;WIDTH:0.42
G1 F1200
G1 X86.296 Y4.523 E2.44476
G1 X143.078 Y4.492 E1.78036
G1 X144.385 Y4.884 E.04278
G1 X145.264 Y5.935 E.04297
G1 X164.064 Y49.935 E1.50024
G1 X164.253 Y50.763 E.02662
G1 X168.116 Y137.05 E2.70817
G1 X168.119 Y161.156 E.75584
G1 X167.727 Y162.463 E.04278
G1 X166.08 Y163.509 E.06118
G1 X83.652 Y175.351 E2.61101
G1 X26.914 Y175.375 E1.77898
G1 X25.607 Y174.984 E.04278
G1 X24.728 Y173.932 E.04297
G1 X5.928 Y129.932 E1.50024
G1 X5.737 Y128.998 E.02989
M73 P1 R63
G1 X5.737 Y104.954 E.7539
G1 X7.343 Y19.358 E2.68428
G1 X7.759 Y18.058 E.04278
G1 X9.287 Y17.088 E.05674
M204 P1000
; printing object div_0_3.stl_4 id:3 copy 0
G1 E-2.24 F4200
;WIPE_START
G1 F7200
G1 X10.911 Y16.823 E-.912
;WIPE_END
G1 E-.048 F4200
G1 Z.4 F720
G1 X115.524 Y100.883 F9000
G1 Z.2 F720
G1 E3.2 F2400
M204 P800
;TYPE:Perimeter
;WIDTH:0.419999
G1 F1200
G1 X115.519 Y100.83 E.00167
G1 X115.416 Y100.595 E.00805
G1 X115.181 Y100.412 E.00933
G1 X114.963 Y100.369 E.00696
G1 X91.329 Y100.369 E.74104
G1 X91.329 Y93.943 E.20148
G1 X146.155 Y93.943 E1.71902
G1 X146.155 Y100.369 E.20148
G1 X122.52 Y100.369 E.74104
G1 X122.422 Y100.377 E.00308
G1 X122.209 Y100.462 E.00721
G1 X122.027 Y100.657 E.00835
G1 X121.955 Y100.934 E.00899
G1 X121.955 Y137.377 E1.14264
G1 X122.05 Y137.691 E.01028
G1 X122.267 Y137.883 E.0091
G1 X122.52 Y137.943 E.00815
G1 X164.955 Y137.943 E1.3305
G1 X164.955 Y144.369 E.20148
G1 X122.52 Y144.369 E1.3305
G1 X122.206 Y144.464 E.01028
G1 X122.014 Y144.681 E.0091
G1 X121.955 Y144.934 E.00815
G1 X121.955 Y153.377 E.26472
G1 X121.964 Y153.482 E.00328
G1 X122.068 Y153.717 E.00805
G1 X122.303 Y153.899 E.00933
G1 X122.52 Y153.943 E.00696
G1 X164.955 Y153.943 E1.3305
G1 X164.955 Y160.369 E.20148
G1 X72.529 Y160.369 E2.89794
G1 X72.529 Y153.943 E.20148
G1 X114.963 Y153.943 E1.3305
G1 X115.061 Y153.934 E.00308
G1 X115.274 Y153.85 E.00721
G1 X115.456 Y153.655 E.00835
G1 X115.529 Y153.377 E.00899
G1 X115.529 Y144.934 E.26472
G1 X115.521 Y144.841 E.00293
G1 X115.434 Y144.621 E.00744
G1 X115.216 Y144.429 E.0091
G1 X114.963 Y144.369 E.00815
G1 X72.529 Y144.369 E1.3305
G1 X72.529 Y137.943 E.20148
G1 X114.963 Y137.943 E1.3305
G1 X115.056 Y137.935 E.00293
G1 X115.277 Y137.848 E.00744
G1 X115.469 Y137.63 E.0091
G1 X115.529 Y137.377 E.00815
G1 X115.529 Y100.943 E1.14237
M204 P1000
G1 X115.152 Y100.934 F9000
M204 P800
;TYPE:External perimeter
G1 F1200
G1 X115.093 Y100.798 E.00466
G1 X114.963 Y100.746 E.00439
G1 X90.952 Y100.746 E.75286
G1 X90.952 Y93.566 E.22512
M73 P2 R63
G1 X146.532 Y93.566 E1.74267
G1 X146.532 Y100.746 E.22512
G1 X122.52 Y100.746 E.75286
G1 X122.39 Y100.798 E.00439
G1 X122.332 Y100.934 E.00466
G1 X122.332 Y137.377 E1.14264
G1 X122.375 Y137.498 E.00402
G1 X122.52 Y137.566 E.00501
G1 X165.332 Y137.566 E1.34232
G1 X165.332 Y144.746 E.22512
G1 X122.52 Y144.746 E1.34232
G1 X122.399 Y144.79 E.00402
G1 X122.332 Y144.934 E.00501
G1 X122.332 Y153.377 E.26472
G1 X122.39 Y153.514 E.00466
G1 X122.52 Y153.566 E.00439
G1 X165.332 Y153.566 E1.34232
G1 X165.332 Y160.746 E.22512
G1 X72.152 Y160.746 E2.92159
G1 X72.152 Y153.566 E.22512
G1 X114.963 Y153.566 E1.34232
G1 X115.067 Y153.535 E.0034
G1 X115.152 Y153.377 E.00561
G1 X115.152 Y144.934 E.26472
G1 X115.108 Y144.814 E.00402
G1 X114.963 Y144.746 E.00501
G1 X72.152 Y144.746 E1.34232
G1 X72.152 Y137.566 E.22512
M73 P2 R62
G1 X114.963 Y137.566 E1.34232
G1 X115.084 Y137.522 E.00402
G1 X115.152 Y137.377 E.00501
G1 X115.152 Y100.994 E1.14076
M204 P1000
G1 X115.256 Y100.829 F9000
G1 E-2.24 F4200
;WIPE_START
G1 F7200
G1 X115.093 Y100.798 E-.11363
G1 X114.963 Y100.746 E-.07761
G1 X113.662 Y100.746 E-.72076
;WIPE_END
G1 E-.048 F4200
G1 Z.4 F720
G1 X164.841 Y154.828 F9000
G1 Z.2 F720
G1 E3.2 F2400
M204 P800
;TYPE:Solid infill
;WIDTH:0.421329
G1 F1200
G1 X164.239 Y154.226 E.02679
G1 X163.704 Y154.226 E.01684
G1 X164.672 Y155.193 E.04305
G1 X164.672 Y155.728 E.01684
G1 X163.169 Y154.226 E.06687
G1 X162.634 Y154.226 E.01684
G1 X164.672 Y156.264 E.09068
G1 X164.672 Y156.799 E.01684
G1 X162.099 Y154.226 E.11449
G1 X161.564 Y154.226 E.01684
G1 X164.672 Y157.334 E.1383
G1 X164.672 Y157.869 E.01684
G1 X161.029 Y154.226 E.16212
G1 X160.493 Y154.226 E.01684
G1 X164.672 Y158.404 E.18593
G1 X164.672 Y158.939 E.01684
G1 X159.958 Y154.226 E.20974
G1 X159.423 Y154.226 E.01684
G1 X164.672 Y159.474 E.23356
G1 X164.672 Y160.01 E.01684
G1 X158.888 Y154.226 E.25737
G1 X158.353 Y154.226 E.01684
G1 X164.213 Y160.086 E.26077
G1 X163.678 Y160.086 E.01684
G1 X157.818 Y154.226 E.26077
G1 X157.282 Y154.226 E.01684
G1 X163.143 Y160.086 E.26077
G1 X162.608 Y160.086 E.01684
G1 X156.747 Y154.226 E.26077
G1 X156.212 Y154.226 E.01684
G1 X162.072 Y160.086 E.26077
G1 X161.537 Y160.086 E.01684
G1 X155.677 Y154.226 E.26077
G1 X155.142 Y154.226 E.01684
G1 X161.002 Y160.086 E.26077
G1 X160.467 Y160.086 E.01684
G1 X154.607 Y154.226 E.26077
G1 X154.072 Y154.226 E.01684
G1 X159.932 Y160.086 E.26077
G1 X159.397 Y160.086 E.01684
G1 X153.536 Y154.226 E.26077
G1 X153.001 Y154.226 E.01684
G1 X158.861 Y160.086 E.26077
G1 X158.326 Y160.086 E.01684
G1 X152.466 Y154.226 E.26077
G1 X151.931 Y154.226 E.01684
G1 X157.791 Y160.086 E.26077
G1 X157.256 Y160.086 E.01684
G1 X151.396 Y154.226 E.26077
G1 X150.861 Y154.226 E.01684
M73 P3 R62
G1 X156.721 Y160.086 E.26077
G1 X156.186 Y160.086 E.01684
G1 X150.325 Y154.226 E.26077
G1 X149.79 Y154.226 E.01684
G1 X155.651 Y160.086 E.26077
G1 X155.115 Y160.086 E.01684
G1 X149.255 Y154.226 E.26077
G1 X148.72 Y154.226 E.01684
G1 X154.58 Y160.086 E.26077
G1 X154.045 Y160.086 E.01684
G1 X148.185 Y154.226 E.26077
G1 X147.65 Y154.226 E.01684
G1 X153.51 Y160.086 E.26077
G1 X152.975 Y160.086 E.01684
G1 X147.115 Y154.226 E.26077
G1 X146.579 Y154.226 E.01684
G1 X152.44 Y160.086 E.26077
G1 X151.905 Y160.086 E.01684
G1 X146.044 Y154.226 E.26077
G1 X145.509 Y154.226 E.01684
G1 X151.369 Y160.086 E.26077
G1 X150.834 Y160.086 E.01684
G1 X144.974 Y154.226 E.26077
G1 X144.439 Y154.226 E.01684
G1 X150.299 Y160.086 E.26077
G1 X149.764 Y160.086 E.01684
G1 X143.904 Y154.226 E.26077
G1 X143.369 Y154.226 E.01684
G1 X149.229 Y160.086 E.26077
G1 X148.694 Y160.086 E.01684
G1 X142.833 Y154.226 E.26077
G1 X142.298 Y154.226 E.01684
G1 X148.158 Y160.086 E.26077
G1 X147.623 Y160.086 E.01684
G1 X141.763 Y154.226 E.26077
G1 X141.228 Y154.226 E.01684
G1 X147.088 Y160.086 E.26077
G1 X146.553 Y160.086 E.01684
G1 X140.693 Y154.226 E.26077
G1 X140.158 Y154.226 E.01684
G1 X146.018 Y160.086 E.26077
G1 X145.483 Y160.086 E.01684
G1 X139.622 Y154.226 E.26077
G1 X139.087 Y154.226 E.01684
G1 X144.948 Y160.086 E.26077
G1 X144.412 Y160.086 E.01684
G1 X138.552 Y154.226 E.26077
G1 X138.017 Y154.226 E.01684
G1 X143.877 Y160.086 E.26077
G1 X143.342 Y160.086 E.01684
G1 X137.482 Y154.226 E.26077
G1 X136.947 Y154.226 E.01684
G1 X142.807 Y160.086 E.26077
G1 X142.272 Y160.086 E.01684
G1 X136.412 Y154.226 E.26077
G1 X135.876 Y154.226 E.01684
G1 X141.737 Y160.086 E.26077
G1 X141.201 Y160.086 E.01684
G1 X135.341 Y154.226 E.26077
G1 X134.806 Y154.226 E.01684
G1 X140.666 Y160.086 E.26077
G1 X140.131 Y160.086 E.01684
G1 X134.271 Y154.226 E.26077
G1 X133.736 Y154.226 E.01684
G1 X139.596 Y160.086 E.26077
G1 X139.061 Y160.086 E.01684
G1 X133.201 Y154.226 E.26077
G1 X132.665 Y154.226 E.01684
G1 X138.526 Y160.086 E.26077
G1 X137.991 Y160.086 E.01684
G1 X132.13 Y154.226 E.26077
G1 X131.595 Y154.226 E.01684
G1 X137.455 Y160.086 E.26077
G1 X136.92 Y160.086 E.01684
G1 X131.06 Y154.226 E.26077
G1 X130.525 Y154.226 E.01684
G1 X136.385 Y160.086 E.26077
G1 X135.85 Y160.086 E.01684
G1 X129.99 Y154.226 E.26077
G1 X129.455 Y154.226 E.01684
G1 X135.315 Y160.086 E.26077
G1 X134.78 Y160.086 E.01684
G1 X128.919 Y154.226 E.26077
G1 X128.384 Y154.226 E.01684
G1 X134.245 Y160.086 E.26077
G1 X133.709 Y160.086 E.01684
G1 X127.849 Y154.226 E.26077
G1 X127.314 Y154.226 E.01684
G1 X133.174 Y160.086 E.26077
G1 X132.639 Y160.086 E.01684
G1 X126.779 Y154.226 E.26077
G1 X126.244 Y154.226 E.01684
G1 X132.104 Y160.086 E.26077
G1 X131.569 Y160.086 E.01684
G1 X125.709 Y154.226 E.26077
G1 X125.173 Y154.226 E.01684
G1 X131.034 Y160.086 E.26077
G1 X130.498 Y160.086 E.01684
G1 X124.638 Y154.226 E.26077
G1 X124.103 Y154.226 E.01684
G1 X129.963 Y160.086 E.26077
G1 X129.428 Y160.086 E.01684
G1 X123.568 Y154.226 E.26077
G1 X123.033 Y154.226 E.01684
G1 X129.063 Y160.256 E.26832
M204 P1000
G1 E-2.24 F4200
;WIPE_START
G1 F7200
G1 X127.899 Y159.092 E-.912
;WIPE_END
G1 E-.048 F4200
G1 Z.4 F720
G1 X164.124 Y138.056 F9000
G1 Z.2 F720
G1 E3.2 F2400
M204 P800
G1 F1200
G1 X164.672 Y138.604 E.02436
G1 X164.672 Y139.139 E.01684
G1 X163.759 Y138.226 E.04063
G1 X163.224 Y138.226 E.01684
G1 X164.672 Y139.674 E.06444
G1 X164.672 Y140.209 E.01684
G1 X162.688 Y138.226 E.08825
G1 X162.153 Y138.226 E.01684
G1 X164.672 Y140.744 E.11207
G1 X164.672 Y141.279 E.01684
G1 X161.618 Y138.226 E.13588
G1 X161.083 Y138.226 E.01684
G1 X164.672 Y141.815 E.15969
G1 X164.672 Y142.35 E.01684
G1 X160.548 Y138.226 E.1835
G1 X160.013 Y138.226 E.01684
G1 X164.672 Y142.885 E.20732
G1 X164.672 Y143.42 E.01684
G1 X159.478 Y138.226 E.23113
G1 X158.942 Y138.226 E.01684
G1 X164.672 Y143.955 E.25494
G1 X164.672 Y144.086 E.00412
G1 X164.268 Y144.086 E.01272
G1 X158.407 Y138.226 E.26077
G1 X157.872 Y138.226 E.01684
G1 X163.733 Y144.086 E.26078
G1 X163.198 Y144.086 E.01683
G1 X157.337 Y138.226 E.26079
G1 X156.802 Y138.226 E.01684
G1 X162.663 Y144.087 E.26079
G1 X162.128 Y144.087 E.01683
G1 X156.267 Y138.226 E.2608
G1 X155.732 Y138.226 E.01684
G1 X161.593 Y144.087 E.2608
G1 X161.058 Y144.087 E.01683
G1 X155.196 Y138.226 E.26081
G1 X154.661 Y138.226 E.01684
G1 X160.522 Y144.087 E.26081
G1 X159.987 Y144.087 E.01683
G1 X154.126 Y138.226 E.26082
G1 X153.591 Y138.226 E.01684
G1 X159.452 Y144.087 E.26083
G1 X158.917 Y144.087 E.01683
G1 X153.056 Y138.226 E.26083
G1 X152.521 Y138.226 E.01684
G1 X158.382 Y144.088 E.26084
G1 X157.847 Y144.088 E.01683
G1 X151.985 Y138.226 E.26084
G1 X151.45 Y138.226 E.01684
G1 X157.312 Y144.088 E.26085
G1 X156.777 Y144.088 E.01683
G1 X150.915 Y138.226 E.26086
G1 X150.38 Y138.226 E.01684
G1 X156.242 Y144.088 E.26086
G1 X155.707 Y144.088 E.01683
G1 X149.845 Y138.226 E.26087
G1 X149.31 Y138.226 E.01684
G1 X155.172 Y144.088 E.26087
G1 X154.637 Y144.088 E.01683
G1 X148.775 Y138.226 E.26088
G1 X148.239 Y138.226 E.01684
G1 X154.102 Y144.089 E.26088
G1 X153.567 Y144.089 E.01683
G1 X147.704 Y138.226 E.26089
G1 X147.169 Y138.226 E.01684
G1 X153.032 Y144.089 E.2609
G1 X152.497 Y144.089 E.01683
G1 X146.634 Y138.226 E.2609
G1 X146.099 Y138.226 E.01684
G1 X151.962 Y144.089 E.26091
G1 X151.427 Y144.089 E.01683
G1 X145.564 Y138.226 E.26091
G1 X145.029 Y138.226 E.01684
M73 P4 R62
G1 X150.892 Y144.089 E.26092
G1 X150.357 Y144.09 E.01683
G1 X144.493 Y138.226 E.26092
G1 X143.958 Y138.226 E.01684
G1 X149.822 Y144.09 E.26093
G1 X149.287 Y144.09 E.01683
G1 X143.423 Y138.226 E.26094
G1 X142.888 Y138.226 E.01684
G1 X148.752 Y144.09 E.26094
G1 X148.217 Y144.09 E.01683
G1 X142.353 Y138.226 E.26095
G1 X141.818 Y138.226 E.01684
G1 X147.682 Y144.09 E.26095
G1 X147.147 Y144.09 E.01683
G1 X141.282 Y138.226 E.26096
G1 X140.747 Y138.226 E.01684
G1 X146.612 Y144.09 E.26096
G1 X146.077 Y144.091 E.01683
G1 X140.212 Y138.226 E.26097
G1 X139.677 Y138.226 E.01684
G1 X145.542 Y144.091 E.26098
G1 X145.007 Y144.091 E.01683
M73 P4 R61
G1 X139.142 Y138.226 E.26098
G1 X138.607 Y138.226 E.01684
G1 X144.472 Y144.091 E.26099
G1 X143.937 Y144.091 E.01683
G1 X138.072 Y138.226 E.26099
G1 X137.536 Y138.226 E.01684
G1 X143.402 Y144.091 E.261
G1 X142.867 Y144.091 E.01683
G1 X137.001 Y138.226 E.26101
G1 X136.466 Y138.226 E.01684
G1 X142.332 Y144.091 E.26101
G1 X141.797 Y144.092 E.01683
G1 X135.931 Y138.226 E.26102
G1 X135.396 Y138.226 E.01684
G1 X141.262 Y144.092 E.26102
G1 X140.727 Y144.092 E.01683
G1 X134.861 Y138.226 E.26103
G1 X134.325 Y138.226 E.01684
G1 X140.192 Y144.092 E.26103
G1 X139.657 Y144.092 E.01683
G1 X133.79 Y138.226 E.26104
G1 X133.255 Y138.226 E.01684
G1 X139.122 Y144.092 E.26105
G1 X138.587 Y144.092 E.01683
G1 X132.72 Y138.226 E.26105
G1 X132.185 Y138.226 E.01684
G1 X138.052 Y144.092 E.26106
G1 X137.517 Y144.093 E.01683
G1 X131.65 Y138.226 E.26106
G1 X131.115 Y138.226 E.01684
G1 X136.982 Y144.093 E.26107
G1 X136.447 Y144.093 E.01683
G1 X130.579 Y138.226 E.26107
G1 X130.044 Y138.226 E.01684
G1 X135.912 Y144.093 E.26108
G1 X135.376 Y144.093 E.01683
G1 X129.509 Y138.226 E.26109
G1 X128.974 Y138.226 E.01684
G1 X134.841 Y144.093 E.26109
G1 X134.306 Y144.093 E.01683
G1 X128.439 Y138.226 E.2611
G1 X127.904 Y138.226 E.01684
G1 X133.771 Y144.094 E.2611
G1 X133.236 Y144.094 E.01683
G1 X127.369 Y138.226 E.26111
G1 X126.833 Y138.226 E.01684
G1 X132.701 Y144.094 E.26111
G1 X132.166 Y144.094 E.01683
G1 X126.298 Y138.226 E.26112
G1 X125.763 Y138.226 E.01684
G1 X131.631 Y144.094 E.26113
G1 X131.096 Y144.094 E.01683
G1 X125.228 Y138.226 E.26113
G1 X124.693 Y138.226 E.01684
G1 X130.561 Y144.094 E.26114
G1 X130.026 Y144.094 E.01683
G1 X124.158 Y138.226 E.26114
G1 X123.622 Y138.226 E.01684
G1 X129.491 Y144.095 E.26115
G1 X128.956 Y144.095 E.01683
G1 X122.918 Y138.056 E.26871
M204 P1000
G1 E-2.24 F4200
;WIPE_START
G1 F7200
G1 X124.081 Y139.22 E-.912
;WIPE_END
G1 E-.048 F4200
G1 Z.4 F720
G1 X146.041 Y94.821 F9000
G1 Z.2 F720
G1 E3.2 F2400
M204 P800
G1 F1200
G1 X145.446 Y94.226 E.02649
G1 X144.911 Y94.226 E.01684
G1 X145.872 Y95.187 E.04276
G1 X145.872 Y95.722 E.01684
G1 X144.376 Y94.226 E.06657
G1 X143.841 Y94.226 E.01684
G1 X145.872 Y96.257 E.09038
G1 X145.872 Y96.792 E.01684
G1 X143.305 Y94.226 E.1142
G1 X142.77 Y94.226 E.01684
G1 X145.872 Y97.327 E.13801
G1 X145.872 Y97.862 E.01684
G1 X142.235 Y94.226 E.16182
G1 X141.7 Y94.226 E.01684
G1 X145.872 Y98.398 E.18564
G1 X145.872 Y98.933 E.01684
G1 X141.165 Y94.226 E.20945
G1 X140.63 Y94.226 E.01684
