; generated by PrusaSlicer 2.5.0+win64 on 2023-03-01 at 22:08:22 UTC


;
;

;
;
; 

; external perimeters extrusion width = 0.45mm
; perimeters extrusion width = 0.45mm
; infill extrusion width = 0.45mm
; solid infill extrusion width = 0.45mm
; top infill extrusion width = 0.40mm
; first layer extrusion width = 0.42mm

; external perimeters extrusion width = 0.45mm
; perimeters extrusion width = 0.45mm
; infill extrusion width = 0.45mm
; solid infill extrusion width = 0.45mm
; top infill extrusion width = 0.40mm
; first layer extrusion width = 0.42mm

; external perimeters extrusion width = 0.45mm
; perimeters extrusion width = 0.45mm
; infill extrusion width = 0.45mm
; solid infill extrusion width = 0.45mm
; top infill extrusion width = 0.40mm
; first layer extrusion width = 0.42mm

; external perimeters extrusion width = 0.45mm
; perimeters extrusion width = 0.45mm
; infill extrusion width = 0.45mm
; solid infill extrusion width = 0.45mm
; top infill extrusion width = 0.40mm
; first layer extrusion width = 0.42mm

M73 P0 R63
M201 X2500 Y2500 Z400 E5000 ; sets maximum accelerations, mm/sec^2
M203 X180 Y180 Z12 E80 ; sets maximum feedrates, mm / sec
M204 P1250 R1250 T2500 ; sets acceleration (P, T) and retract acceleration (R), mm/sec^2
M205 X8.00 Y8.00 Z2.00 E10.00 ; sets the jerk limits, mm/sec
M205 S0 T0 ; sets the minimum extruding and travel feed rate, mm/sec
M107
;TYPE:Custom
M862.3 P "MINI" ; printer model check
G90 ; use absolute coordinates
M83 ; extruder relative mode
M104 S170 ; set extruder temp for bed leveling
M140 S60 ; set bed temp
M109 R170 ; wait for bed leveling temp
M190 S60 ; wait for bed temp
M204 T1250 ; set travel acceleration
G28 ; home all without mesh bed level
G29 ; mesh bed leveling 
M204 T2500 ; restore travel acceleration
M104 S215 ; set extruder temp
G92 E0
G1 Y-2 X179 F2400
G1 Z3 F720
M109 S215 ; wait for extruder temp

; intro line
G1 X170 F1000
G1 Z0.2 F720
G1 X110 E8 F900
G1 X40 E10 F700
G92 E0

M221 S95 ; set flow
G21 ; set units to millimeters
G90 ; use absolute coordinates
M83 ; use relative distances for extrusion
M900 K0.2 ; Filament gcode LA 1.5
; ; Filament gcode LA 1.0
M107
;LAYER_CHANGE
;Z:0.2
;HEIGHT:0.2
;BEFORE_LAYER_CHANGE
G92 E0.0
;0.2


G1 E-3.2 F4200
G1 Z.2 F720
;AFTER_LAYER_CHANGE
;0.2
G1 Z.4
G1 X14.003 Y15.356 F9000
G1 Z.2 F720
G1 E3.2 F2400
M204 P800
;TYPE:Skirt/Brim
;WIDTH:0.42
G1 F1200
G1 X15.488 Y14.518 E.05347
G1 X89.535 Y3.59 E2.34683
G1 X146.282 Y3.564 E1.77926
G1 X147.589 Y3.956 E.04278
G1 X148.468 Y5.008 E.04297
G1 X167.268 Y49.008 E1.50024
G1 X167.459 Y49.942 E.02989
G1 X167.456 Y74.055 E.75606
G1 X163.336 Y160.307 E2.70747
G1 X162.882 Y161.594 E.04278
G1 X161.312 Y162.545 E.05757
G1 X81.908 Y174.367 E2.5171
G1 X25.157 Y174.393 E1.77936
G1 X23.85 Y174.001 E.04278
G1 X22.972 Y172.95 E.04297
G1 X4.172 Y128.95 E1.50024
G1 X3.98 Y128.016 E.02989
M73 P1 R63
G1 X3.994 Y103.759 E.76056
G1 X13.472 Y16.613 E2.7485
G1 X13.979 Y15.411 E.0409
M204 P1000
; printing object div_8_11.stl_3 id:2 copy 0
G1 E-2.24 F4200
;WIPE_START
G1 F7200
G1 X15.396 Y14.573 E-.912
;WIPE_END
G1 E-.048 F4200
G1 Z.4 F720
G1 X57.064 Y164.788 F9000
G1 Z.2 F720
G1 E3.2 F2400
M204 P800
;TYPE:Perimeter
;WIDTH:0.419999
G1 F1200
G1 X57.136 Y164.803 E.00229
G1 X80.77 Y164.803 E.74104
G1 X80.77 Y171.228 E.20148
G1 X25.945 Y171.228 E1.71902
G1 X25.945 Y164.803 E.20148
G1 X49.579 Y164.803 E.74104
G1 X49.677 Y164.794 E.00308
G1 X49.89 Y164.709 E.00721
G1 X50.072 Y164.514 E.00835
G1 X50.145 Y164.237 E.00899
G1 X50.145 Y127.794 E1.14264
G1 X50.137 Y127.701 E.00293
G1 X50.05 Y127.48 E.00744
G1 X49.832 Y127.288 E.0091
G1 X49.579 Y127.228 E.00815
G1 X7.145 Y127.228 E1.3305
G1 X7.145 Y120.803 E.20148
M73 P1 R62
G1 X49.672 Y120.795 E1.33341
G1 X49.893 Y120.708 E.00744
G1 X50.085 Y120.49 E.0091
G1 X50.145 Y120.237 E.00815
G1 X50.145 Y111.794 E.26472
G1 X50.135 Y111.69 E.00328
G1 X50.031 Y111.455 E.00805
G1 X49.797 Y111.272 E.00933
G1 X49.579 Y111.228 E.00696
G1 X7.145 Y111.228 E1.3305
G1 X7.145 Y104.803 E.20148
G1 X99.57 Y104.803 E2.89794
G1 X99.57 Y111.228 E.20148
G1 X57.136 Y111.228 E1.3305
G1 X57.038 Y111.237 E.00308
G1 X56.825 Y111.322 E.00721
G1 X56.643 Y111.517 E.00835
G1 X56.57 Y111.794 E.00899
G1 X56.573 Y120.286 E.26627
G1 X56.665 Y120.551 E.00879
G1 X56.883 Y120.743 E.0091
G1 X57.136 Y120.803 E.00815
G1 X99.57 Y120.803 E1.3305
G1 X99.57 Y127.228 E.20148
G1 X57.136 Y127.228 E1.3305
G1 X56.822 Y127.323 E.01028
G1 X56.63 Y127.541 E.0091
G1 X56.57 Y127.794 E.00815
G1 X56.57 Y164.237 E1.14264
G1 X56.58 Y164.341 E.00328
M73 P2 R62
G1 X56.684 Y164.576 E.00805
G1 X56.918 Y164.759 E.00933
G1 X57.006 Y164.777 E.00279
M204 P1000
G1 X57.136 Y164.426 F9000
M204 P800
;TYPE:External perimeter
G1 F1200
G1 X81.147 Y164.426 E.75286
G1 X81.147 Y171.606 E.22512
G1 X25.567 Y171.606 E1.74267
G1 X25.567 Y164.426 E.22512
G1 X49.579 Y164.426 E.75286
G1 X49.709 Y164.374 E.00439
G1 X49.767 Y164.237 E.00466
G1 X49.767 Y127.794 E1.14264
G1 X49.724 Y127.673 E.00402
G1 X49.579 Y127.606 E.00501
G1 X6.767 Y127.606 E1.34232
G1 X6.767 Y120.426 E.22512
G1 X49.579 Y120.426 E1.34232
G1 X49.7 Y120.382 E.00402
G1 X49.767 Y120.237 E.00501
G1 X49.767 Y111.794 E.26472
G1 X49.709 Y111.658 E.00466
G1 X49.579 Y111.606 E.00439
G1 X6.767 Y111.606 E1.34232
G1 X6.767 Y104.426 E.22512
G1 X99.947 Y104.426 E2.92159
G1 X99.947 Y111.606 E.22512
G1 X57.136 Y111.606 E1.34232
G1 X57.006 Y111.658 E.00439
G1 X56.947 Y111.794 E.00466
G1 X56.947 Y120.237 E.26472
G1 X56.991 Y120.358 E.00402
G1 X57.136 Y120.426 E.00501
G1 X99.947 Y120.426 E1.34232
G1 X99.947 Y127.606 E.22512
G1 X57.136 Y127.606 E1.34232
G1 X57.015 Y127.649 E.00402
G1 X56.947 Y127.794 E.00501
G1 X56.947 Y164.237 E1.14264
G1 X57.006 Y164.374 E.00466
G1 X57.08 Y164.403 E.00251
M204 P1000
G1 X57.24 Y164.812 F9000
G1 E-2.24 F4200
;WIPE_START
G1 F7200
G1 X58.726 Y164.405 E-.912
;WIPE_END
G1 E-.048 F4200
G1 Z.4 F720
G1 X99.457 Y121.735 F9000
G1 Z.2 F720
G1 E3.2 F2400
M204 P800
;TYPE:Solid infill
;WIDTH:0.421329
G1 F1200
G1 X98.807 Y121.085 E.02893
G1 X98.272 Y121.085 E.01684
G1 X99.288 Y122.101 E.0452
G1 X99.288 Y122.636 E.01684
G1 X97.737 Y121.085 E.06901
G1 X97.201 Y121.085 E.01684
G1 X99.288 Y123.171 E.09283
G1 X99.288 Y123.706 E.01684
G1 X96.666 Y121.085 E.11665
G1 X96.131 Y121.085 E.01684
G1 X99.288 Y124.241 E.14047
G1 X99.288 Y124.777 E.01684
G1 X95.596 Y121.085 E.16429
G1 X95.06 Y121.084 E.01684
G1 X99.288 Y125.312 E.18811
G1 X99.288 Y125.847 E.01684
G1 X94.525 Y121.084 E.21193
G1 X93.99 Y121.084 E.01684
G1 X99.288 Y126.382 E.23575
G1 X99.288 Y126.917 E.01684
G1 X93.454 Y121.084 E.25957
G1 X92.919 Y121.084 E.01684
G1 X98.781 Y126.946 E.26084
G1 X98.246 Y126.946 E.01684
G1 X92.384 Y121.084 E.26084
G1 X91.849 Y121.084 E.01684
G1 X97.711 Y126.946 E.26085
G1 X97.175 Y126.946 E.01684
G1 X91.313 Y121.083 E.26086
G1 X90.778 Y121.083 E.01684
G1 X96.64 Y126.946 E.26086
G1 X96.105 Y126.946 E.01684
G1 X90.243 Y121.083 E.26087
G1 X89.707 Y121.083 E.01684
G1 X95.57 Y126.946 E.26087
G1 X95.035 Y126.946 E.01684
G1 X89.172 Y121.083 E.26088
G1 X88.637 Y121.083 E.01684
G1 X94.5 Y126.946 E.26089
G1 X93.965 Y126.946 E.01684
G1 X88.102 Y121.083 E.26089
G1 X87.566 Y121.083 E.01684
G1 X93.429 Y126.946 E.2609
G1 X92.894 Y126.946 E.01684
G1 X87.031 Y121.082 E.2609
M73 P3 R62
G1 X86.496 Y121.082 E.01684
G1 X92.359 Y126.946 E.26091
G1 X91.824 Y126.946 E.01684
M73 P3 R61
G1 X85.96 Y121.082 E.26091
G1 X85.425 Y121.082 E.01684
G1 X91.289 Y126.946 E.26092
G1 X90.754 Y126.946 E.01684
G1 X84.89 Y121.082 E.26093
G1 X84.355 Y121.082 E.01684
G1 X90.219 Y126.946 E.26093
G1 X89.683 Y126.946 E.01684
G1 X83.819 Y121.082 E.26094
G1 X83.284 Y121.082 E.01684
G1 X89.148 Y126.946 E.26094
G1 X88.613 Y126.946 E.01684
G1 X82.749 Y121.081 E.26095
G1 X82.214 Y121.081 E.01684
G1 X88.078 Y126.946 E.26095
G1 X87.543 Y126.946 E.01684
G1 X81.678 Y121.081 E.26096
G1 X81.143 Y121.081 E.01684
G1 X87.008 Y126.946 E.26097
G1 X86.472 Y126.946 E.01684
G1 X80.608 Y121.081 E.26097
G1 X80.072 Y121.081 E.01684
G1 X85.937 Y126.946 E.26098
G1 X85.402 Y126.946 E.01684
G1 X79.537 Y121.081 E.26098
G1 X79.002 Y121.081 E.01684
G1 X84.867 Y126.946 E.26099
G1 X84.332 Y126.946 E.01684
G1 X78.467 Y121.08 E.26099
G1 X77.931 Y121.08 E.01684
G1 X83.797 Y126.946 E.261
G1 X83.262 Y126.946 E.01684
G1 X77.396 Y121.08 E.26101
G1 X76.861 Y121.08 E.01684
G1 X82.726 Y126.946 E.26101
G1 X82.191 Y126.946 E.01684
G1 X76.325 Y121.08 E.26102
G1 X75.79 Y121.08 E.01684
G1 X81.656 Y126.946 E.26102
G1 X81.121 Y126.946 E.01684
G1 X75.255 Y121.08 E.26103
G1 X74.72 Y121.079 E.01684
G1 X80.586 Y126.946 E.26103
G1 X80.051 Y126.946 E.01684
G1 X74.184 Y121.079 E.26104
G1 X73.649 Y121.079 E.01684
G1 X79.516 Y126.946 E.26105
G1 X78.98 Y126.946 E.01684
G1 X73.114 Y121.079 E.26105
G1 X72.578 Y121.079 E.01684
G1 X78.445 Y126.946 E.26106
G1 X77.91 Y126.946 E.01684
G1 X72.043 Y121.079 E.26106
G1 X71.508 Y121.079 E.01684
G1 X77.375 Y126.946 E.26107
G1 X76.84 Y126.946 E.01684
G1 X70.973 Y121.079 E.26108
G1 X70.437 Y121.078 E.01684
G1 X76.305 Y126.946 E.26108
G1 X75.769 Y126.946 E.01684
G1 X69.902 Y121.078 E.26109
G1 X69.367 Y121.078 E.01684
G1 X75.234 Y126.946 E.26109
G1 X74.699 Y126.946 E.01684
G1 X68.832 Y121.078 E.2611
G1 X68.296 Y121.078 E.01684
G1 X74.164 Y126.946 E.2611
G1 X73.629 Y126.946 E.01684
G1 X67.761 Y121.078 E.26111
G1 X67.226 Y121.078 E.01684
G1 X73.094 Y126.946 E.26112
G1 X72.559 Y126.946 E.01684
G1 X66.69 Y121.078 E.26112
G1 X66.155 Y121.077 E.01684
G1 X72.023 Y126.946 E.26113
G1 X71.488 Y126.946 E.01684
G1 X65.62 Y121.077 E.26113
G1 X65.085 Y121.077 E.01684
G1 X70.953 Y126.946 E.26114
G1 X70.418 Y126.946 E.01684
G1 X64.549 Y121.077 E.26114
G1 X64.014 Y121.077 E.01684
G1 X69.883 Y126.946 E.26115
G1 X69.348 Y126.946 E.01684
G1 X63.479 Y121.077 E.26116
G1 X62.943 Y121.077 E.01684
G1 X68.812 Y126.946 E.26116
G1 X68.277 Y126.946 E.01684
G1 X62.408 Y121.076 E.26117
G1 X61.873 Y121.076 E.01684
G1 X67.742 Y126.946 E.26117
G1 X67.207 Y126.946 E.01684
G1 X61.338 Y121.076 E.26118
G1 X60.802 Y121.076 E.01684
G1 X66.672 Y126.946 E.26118
G1 X66.137 Y126.946 E.01684
G1 X60.267 Y121.076 E.26119
G1 X59.732 Y121.076 E.01684
G1 X65.602 Y126.946 E.2612
G1 X65.066 Y126.946 E.01684
G1 X59.196 Y121.076 E.2612
G1 X58.661 Y121.076 E.01684
G1 X64.531 Y126.946 E.26121
G1 X63.996 Y126.946 E.01684
G1 X58.126 Y121.075 E.26121
G1 X57.591 Y121.075 E.01684
G1 X63.631 Y127.115 E.26877
M204 P1000
G1 E-2.24 F4200
;WIPE_START
G1 F7200
G1 X62.467 Y125.952 E-.912
;WIPE_END
G1 E-.048 F4200
G1 Z.4 F720
G1 X98.692 Y104.916 F9000
G1 Z.2 F720
G1 E3.2 F2400
M204 P800
G1 F1200
G1 X99.288 Y105.511 E.02649
G1 X99.288 Y106.046 E.01684
G1 X98.327 Y105.085 E.04276
G1 X97.792 Y105.085 E.01684
G1 X99.288 Y106.581 E.06657
G1 X99.288 Y107.117 E.01684
G1 X97.256 Y105.085 E.09038
G1 X96.721 Y105.085 E.01684
G1 X99.288 Y107.652 E.1142
G1 X99.288 Y108.187 E.01684
G1 X96.186 Y105.085 E.13801
G1 X95.651 Y105.085 E.01684
G1 X99.288 Y108.722 E.16182
G1 X99.288 Y109.257 E.01684
G1 X95.116 Y105.085 E.18564
G1 X94.581 Y105.085 E.01684
G1 X99.288 Y109.792 E.20945
G1 X99.288 Y110.328 E.01684
G1 X94.046 Y105.085 E.23326
G1 X93.51 Y105.085 E.01684
G1 X99.288 Y110.863 E.25708
G1 X99.288 Y110.946 E.00261
G1 X98.835 Y110.946 E.01423
G1 X92.975 Y105.085 E.26077
G1 X92.44 Y105.085 E.01684
G1 X98.3 Y110.946 E.26077
G1 X97.765 Y110.946 E.01684
G1 X91.905 Y105.085 E.26077
G1 X91.37 Y105.085 E.01684
G1 X97.23 Y110.946 E.26077
G1 X96.695 Y110.946 E.01684
G1 X90.835 Y105.085 E.26077
G1 X90.299 Y105.085 E.01684
G1 X96.16 Y110.946 E.26077
G1 X95.625 Y110.946 E.01684
G1 X89.764 Y105.085 E.26077
G1 X89.229 Y105.085 E.01684
G1 X95.089 Y110.946 E.26077
G1 X94.554 Y110.946 E.01684
G1 X88.694 Y105.085 E.26077
G1 X88.159 Y105.085 E.01684
G1 X94.019 Y110.946 E.26077
G1 X93.484 Y110.946 E.01684
G1 X87.624 Y105.085 E.26077
G1 X87.089 Y105.085 E.01684
G1 X92.949 Y110.946 E.26077
G1 X92.414 Y110.946 E.01684
G1 X86.553 Y105.085 E.26077
G1 X86.018 Y105.085 E.01684
G1 X91.879 Y110.946 E.26077
G1 X91.343 Y110.946 E.01684
G1 X85.483 Y105.085 E.26077
G1 X84.948 Y105.085 E.01684
G1 X90.808 Y110.946 E.26077
G1 X90.273 Y110.946 E.01684
G1 X84.413 Y105.085 E.26077
G1 X83.878 Y105.085 E.01684
G1 X89.738 Y110.946 E.26077
G1 X89.203 Y110.946 E.01684
G1 X83.343 Y105.085 E.26077
G1 X82.807 Y105.085 E.01684
G1 X88.668 Y110.946 E.26077
G1 X88.132 Y110.946 E.01684
G1 X82.272 Y105.085 E.26077
G1 X81.737 Y105.085 E.01684
M73 P4 R61
G1 X87.597 Y110.946 E.26077
G1 X87.062 Y110.946 E.01684
G1 X81.202 Y105.085 E.26077
G1 X80.667 Y105.085 E.01684
G1 X86.527 Y110.946 E.26077
G1 X85.992 Y110.946 E.01684
G1 X80.132 Y105.085 E.26077
G1 X79.596 Y105.085 E.01684
G1 X85.457 Y110.946 E.26077
G1 X84.922 Y110.946 E.01684
G1 X79.061 Y105.085 E.26077
G1 X78.526 Y105.085 E.01684
G1 X84.386 Y110.946 E.26077
G1 X83.851 Y110.946 E.01684
G1 X77.991 Y105.085 E.26077
G1 X77.456 Y105.085 E.01684
G1 X83.316 Y110.946 E.26077
G1 X82.781 Y110.946 E.01684
G1 X76.921 Y105.085 E.26077
G1 X76.386 Y105.085 E.01684
G1 X82.246 Y110.946 E.26077
G1 X81.711 Y110.946 E.01684
G1 X75.85 Y105.085 E.26077
G1 X75.315 Y105.085 E.01684
G1 X81.175 Y110.946 E.26077
G1 X80.64 Y110.946 E.01684
G1 X74.78 Y105.085 E.26077
G1 X74.245 Y105.085 E.01684
G1 X80.105 Y110.946 E.26077
G1 X79.57 Y110.946 E.01684
G1 X73.71 Y105.085 E.26077
G1 X73.175 Y105.085 E.01684
G1 X79.035 Y110.946 E.26077
G1 X78.5 Y110.946 E.01684
G1 X72.639 Y105.085 E.26077
G1 X72.104 Y105.085 E.01684
G1 X77.965 Y110.946 E.26077
G1 X77.429 Y110.946 E.01684
G1 X71.569 Y105.085 E.26077
G1 X71.034 Y105.085 E.01684
G1 X76.894 Y110.946 E.26077
G1 X76.359 Y110.946 E.01684
G1 X70.499 Y105.085 E.26077
G1 X69.964 Y105.085 E.01684
G1 X75.824 Y110.946 E.26077
G1 X75.289 Y110.946 E.01684
G1 X69.429 Y105.085 E.26077
G1 X68.893 Y105.085 E.01684
G1 X74.754 Y110.946 E.26077
G1 X74.219 Y110.946 E.01684
G1 X68.358 Y105.085 E.26077
G1 X67.823 Y105.085 E.01684
G1 X73.683 Y110.946 E.26077
G1 X73.148 Y110.946 E.01684
G1 X67.288 Y105.085 E.26077
G1 X66.753 Y105.085 E.01684
G1 X72.613 Y110.946 E.26077
G1 X72.078 Y110.946 E.01684
G1 X66.218 Y105.085 E.26077
G1 X65.683 Y105.085 E.01684
G1 X71.543 Y110.946 E.26077
G1 X71.008 Y110.946 E.01684
G1 X65.147 Y105.085 E.26077
G1 X64.612 Y105.085 E.01684
G1 X70.472 Y110.946 E.26077
G1 X69.937 Y110.946 E.01684
G1 X64.077 Y105.085 E.26077
G1 X63.542 Y105.085 E.01684
G1 X69.402 Y110.946 E.26077
G1 X68.867 Y110.946 E.01684
G1 X63.007 Y105.085 E.26077
G1 X62.472 Y105.085 E.01684
G1 X68.332 Y110.946 E.26077
G1 X67.797 Y110.946 E.01684
G1 X61.936 Y105.085 E.26077
G1 X61.401 Y105.085 E.01684
G1 X67.262 Y110.946 E.26077
G1 X66.726 Y110.946 E.01684
G1 X60.866 Y105.085 E.26077
G1 X60.331 Y105.085 E.01684
G1 X66.191 Y110.946 E.26077
G1 X65.656 Y110.946 E.01684
G1 X59.796 Y105.085 E.26077
G1 X59.261 Y105.085 E.01684
G1 X65.121 Y110.946 E.26077
G1 X64.586 Y110.946 E.01684
G1 X58.726 Y105.085 E.26077
G1 X58.19 Y105.085 E.01684
G1 X64.051 Y110.946 E.26077
G1 X63.516 Y110.946 E.01684
G1 X57.655 Y105.085 E.26077
G1 X57.12 Y105.085 E.01684
G1 X62.98 Y110.946 E.26077
G1 X62.445 Y110.946 E.01684
G1 X56.585 Y105.085 E.26077
G1 X56.05 Y105.085 E.01684
G1 X61.91 Y110.946 E.26077
G1 X61.375 Y110.946 E.01684
M73 P4 R60
G1 X55.515 Y105.085 E.26077
G1 X54.98 Y105.085 E.01684
G1 X60.84 Y110.946 E.26077
G1 X60.305 Y110.946 E.01684
G1 X54.444 Y105.085 E.26077
G1 X53.909 Y105.085 E.01684
G1 X59.769 Y110.946 E.26077
G1 X59.234 Y110.946 E.01684
G1 X53.374 Y105.085 E.26077
G1 X52.839 Y105.085 E.01684
G1 X58.699 Y110.946 E.26077
G1 X58.164 Y110.946 E.01684
G1 X52.304 Y105.085 E.26077
G1 X51.769 Y105.085 E.01684
G1 X57.629 Y110.946 E.26077
G1 X57.097 Y110.949 E.01673
G1 X51.233 Y105.085 E.26092
G1 X50.698 Y105.085 E.01684
G1 X56.688 Y111.075 E.26653
G1 X56.457 Y111.283 E.00978
G1 X56.423 Y111.345 E.00223
G1 X50.163 Y105.085 E.27856
G1 X49.628 Y105.085 E.01684
G1 X56.294 Y111.751 E.29662
G1 X56.288 Y112.28 E.01665
G1 X49.093 Y105.085 E.32016
G1 X48.558 Y105.085 E.01684
G1 X56.288 Y112.816 E.34398
G1 X56.288 Y113.351 E.01684
G1 X48.023 Y105.085 E.3678
G1 X47.487 Y105.085 E.01684
G1 X56.288 Y113.886 E.39162
G1 X56.289 Y114.422 E.01684
G1 X46.952 Y105.085 E.41545
