; generated by PrusaSlicer 2.5.0+win64 on 2023-03-01 at 20:18:38 UTC


;
;

;
;
; 

; external perimeters extrusion width = 0.45mm
; perimeters extrusion width = 0.45mm
; infill extrusion width = 0.45mm
; solid infill extrusion width = 0.45mm
; top infill extrusion width = 0.40mm
; first layer extrusion width = 0.42mm

; external perimeters extrusion width = 0.45mm
; perimeters extrusion width = 0.45mm
; infill extrusion width = 0.45mm
; solid infill extrusion width = 0.45mm
; top infill extrusion width = 0.40mm
; first layer extrusion width = 0.42mm

; external perimeters extrusion width = 0.45mm
; perimeters extrusion width = 0.45mm
; infill extrusion width = 0.45mm
; solid infill extrusion width = 0.45mm
; top infill extrusion width = 0.40mm
; first layer extrusion width = 0.42mm

; external perimeters extrusion width = 0.45mm
; perimeters extrusion width = 0.45mm
; infill extrusion width = 0.45mm
; solid infill extrusion width = 0.45mm
; top infill extrusion width = 0.40mm
; first layer extrusion width = 0.42mm

M73 P0 R65
M201 X2500 Y2500 Z400 E5000 ; sets maximum accelerations, mm/sec^2
M203 X180 Y180 Z12 E80 ; sets maximum feedrates, mm / sec
M204 P1250 R1250 T2500 ; sets acceleration (P, T) and retract acceleration (R), mm/sec^2
M205 X8.00 Y8.00 Z2.00 E10.00 ; sets the jerk limits, mm/sec
M205 S0 T0 ; sets the minimum extruding and travel feed rate, mm/sec
M107
;TYPE:Custom
M862.3 P "MINI" ; printer model check
G90 ; use absolute coordinates
M83 ; extruder relative mode
M104 S170 ; set extruder temp for bed leveling
M140 S60 ; set bed temp
M109 R170 ; wait for bed leveling temp
M190 S60 ; wait for bed temp
M204 T1250 ; set travel acceleration
G28 ; home all without mesh bed level
G29 ; mesh bed leveling 
M204 T2500 ; restore travel acceleration
M104 S215 ; set extruder temp
G92 E0
G1 Y-2 X179 F2400
G1 Z3 F720
M109 S215 ; wait for extruder temp

; intro line
G1 X170 F1000
G1 Z0.2 F720
G1 X110 E8 F900
G1 X40 E10 F700
G92 E0

M221 S95 ; set flow
G21 ; set units to millimeters
G90 ; use absolute coordinates
M83 ; use relative distances for extrusion
M900 K0.2 ; Filament gcode LA 1.5
; ; Filament gcode LA 1.0
M107
;LAYER_CHANGE
;Z:0.2
;HEIGHT:0.2
;BEFORE_LAYER_CHANGE
G92 E0.0
;0.2


G1 E-3.2 F4200
G1 Z.2 F720
;AFTER_LAYER_CHANGE
;0.2
G1 Z.4
G1 X6.737 Y18.088 F9000
G1 Z.2 F720
G1 E3.2 F2400
M204 P800
;TYPE:Skirt/Brim
;WIDTH:0.42
G1 F1200
G1 X82.119 Y5.993 E2.39377
G1 X138.896 Y5.963 E1.78019
G1 X140.203 Y6.355 E.04278
G1 X141.082 Y7.406 E.04297
G1 X159.882 Y51.406 E1.50024
G1 X160.058 Y52.075 E.02169
G1 X169.26 Y134.082 E2.58739
G1 X169.275 Y158.347 E.76081
G1 X168.883 Y159.654 E.04278
G1 X167.218 Y160.702 E.06169
G1 X88.645 Y171.391 E2.48631
G1 X31.924 Y171.412 E1.77843
M73 P0 R64
G1 X30.617 Y171.021 E.04278
G1 X29.738 Y169.969 E.04297
G1 X10.938 Y125.969 E1.50024
G1 X10.754 Y125.212 E.02444
M73 P1 R64
G1 X4.743 Y44.612 E2.53419
G1 X4.737 Y20.435 E.75805
G1 X5.128 Y19.128 E.04278
G1 X6.687 Y18.12 E.05819
M204 P1000
; printing object div_4_7.stl_4 id:3 copy 0
G1 E-2.24 F4200
;WIPE_START
G1 F7200
G1 X8.312 Y17.859 E-.912
;WIPE_END
G1 E-.048 F4200
G1 Z.4 F720
G1 X116.68 Y98.074 F9000
G1 Z.2 F720
G1 E3.2 F2400
M204 P800
;TYPE:Perimeter
;WIDTH:0.419999
G1 F1200
G1 X116.675 Y98.021 E.00167
G1 X116.572 Y97.786 E.00805
G1 X116.337 Y97.603 E.00933
G1 X116.119 Y97.56 E.00696
G1 X92.485 Y97.56 E.74104
G1 X92.485 Y91.134 E.20148
G1 X147.31 Y91.134 E1.71902
G1 X147.31 Y97.56 E.20148
G1 X123.676 Y97.56 E.74104
G1 X123.578 Y97.568 E.00308
G1 X123.365 Y97.653 E.00721
G1 X123.183 Y97.848 E.00835
G1 X123.11 Y98.125 E.00899
G1 X123.11 Y134.568 E1.14264
G1 X123.205 Y134.882 E.01028
G1 X123.423 Y135.074 E.0091
G1 X123.676 Y135.134 E.00815
G1 X166.11 Y135.134 E1.3305
G1 X166.11 Y141.56 E.20148
G1 X123.676 Y141.56 E1.3305
G1 X123.362 Y141.655 E.01028
G1 X123.17 Y141.872 E.0091
G1 X123.11 Y142.125 E.00815
G1 X123.11 Y150.568 E.26472
G1 X123.12 Y150.673 E.00328
G1 X123.224 Y150.908 E.00805
G1 X123.459 Y151.09 E.00933
G1 X123.676 Y151.134 E.00696
G1 X166.11 Y151.134 E1.3305
G1 X166.11 Y157.56 E.20148
G1 X73.685 Y157.56 E2.89794
G1 X73.685 Y151.134 E.20148
G1 X116.119 Y151.134 E1.3305
G1 X116.217 Y151.125 E.00308
G1 X116.43 Y151.041 E.00721
G1 X116.612 Y150.846 E.00835
G1 X116.685 Y150.568 E.00899
G1 X116.685 Y142.125 E.26472
G1 X116.677 Y142.032 E.00293
G1 X116.59 Y141.812 E.00744
G1 X116.372 Y141.619 E.0091
G1 X116.119 Y141.56 E.00815
G1 X73.685 Y141.56 E1.3305
G1 X73.685 Y135.134 E.20148
G1 X116.119 Y135.134 E1.3305
G1 X116.212 Y135.126 E.00293
G1 X116.433 Y135.039 E.00744
G1 X116.625 Y134.821 E.0091
G1 X116.685 Y134.568 E.00815
G1 X116.685 Y98.134 E1.14237
M204 P1000
G1 X116.308 Y98.125 F9000
M204 P800
;TYPE:External perimeter
G1 F1200
G1 X116.249 Y97.989 E.00466
G1 X116.119 Y97.937 E.00439
G1 X92.108 Y97.937 E.75286
G1 X92.108 Y90.757 E.22512
G1 X147.688 Y90.757 E1.74267
G1 X147.688 Y97.937 E.22512
M73 P2 R64
G1 X123.676 Y97.937 E.75286
G1 X123.546 Y97.989 E.00439
G1 X123.488 Y98.125 E.00466
G1 X123.488 Y134.568 E1.14264
G1 X123.531 Y134.689 E.00402
G1 X123.676 Y134.757 E.00501
G1 X166.488 Y134.757 E1.34232
G1 X166.488 Y141.937 E.22512
G1 X123.676 Y141.937 E1.34232
G1 X123.555 Y141.981 E.00402
G1 X123.488 Y142.125 E.00501
G1 X123.488 Y150.568 E.26472
G1 X123.546 Y150.705 E.00466
G1 X123.676 Y150.757 E.00439
G1 X166.488 Y150.757 E1.34232
G1 X166.488 Y157.937 E.22512
G1 X73.308 Y157.937 E2.92159
G1 X73.308 Y150.757 E.22512
M73 P2 R63
G1 X116.119 Y150.757 E1.34232
G1 X116.249 Y150.705 E.00439
G1 X116.308 Y150.568 E.00466
G1 X116.308 Y142.125 E.26472
G1 X116.264 Y142.005 E.00402
G1 X116.119 Y141.937 E.00501
G1 X73.308 Y141.937 E1.34232
G1 X73.308 Y134.757 E.22512
G1 X116.119 Y134.757 E1.34232
G1 X116.24 Y134.713 E.00402
G1 X116.308 Y134.568 E.00501
G1 X116.308 Y98.185 E1.14076
M204 P1000
G1 X116.412 Y98.02 F9000
G1 E-2.24 F4200
;WIPE_START
G1 F7200
G1 X116.249 Y97.989 E-.11363
G1 X116.119 Y97.937 E-.07761
G1 X114.818 Y97.937 E-.72076
;WIPE_END
G1 E-.048 F4200
G1 Z.4 F720
G1 X165.997 Y152.019 F9000
G1 Z.2 F720
G1 E3.2 F2400
M204 P800
;TYPE:Solid infill
;WIDTH:0.421329
G1 F1200
G1 X165.395 Y151.417 E.02679
G1 X164.86 Y151.417 E.01684
G1 X165.828 Y152.384 E.04305
G1 X165.828 Y152.919 E.01684
G1 X164.325 Y151.417 E.06687
G1 X163.79 Y151.417 E.01684
G1 X165.828 Y153.455 E.09068
G1 X165.828 Y153.99 E.01684
G1 X163.255 Y151.417 E.11449
G1 X162.72 Y151.417 E.01684
G1 X165.828 Y154.525 E.1383
G1 X165.828 Y155.06 E.01684
G1 X162.184 Y151.417 E.16212
G1 X161.649 Y151.417 E.01684
G1 X165.828 Y155.595 E.18593
G1 X165.828 Y156.13 E.01684
G1 X161.114 Y151.417 E.20974
G1 X160.579 Y151.417 E.01684
G1 X165.828 Y156.665 E.23356
G1 X165.828 Y157.201 E.01684
G1 X160.044 Y151.417 E.25737
G1 X159.509 Y151.417 E.01684
G1 X165.369 Y157.277 E.26077
G1 X164.834 Y157.277 E.01684
G1 X158.974 Y151.417 E.26077
G1 X158.438 Y151.417 E.01684
G1 X164.299 Y157.277 E.26077
G1 X163.763 Y157.277 E.01684
G1 X157.903 Y151.417 E.26077
G1 X157.368 Y151.417 E.01684
G1 X163.228 Y157.277 E.26077
G1 X162.693 Y157.277 E.01684
G1 X156.833 Y151.417 E.26077
G1 X156.298 Y151.417 E.01684
G1 X162.158 Y157.277 E.26077
G1 X161.623 Y157.277 E.01684
G1 X155.763 Y151.417 E.26077
G1 X155.227 Y151.417 E.01684
G1 X161.088 Y157.277 E.26077
G1 X160.553 Y157.277 E.01684
G1 X154.692 Y151.417 E.26077
G1 X154.157 Y151.417 E.01684
G1 X160.017 Y157.277 E.26077
G1 X159.482 Y157.277 E.01684
G1 X153.622 Y151.417 E.26077
G1 X153.087 Y151.417 E.01684
G1 X158.947 Y157.277 E.26077
G1 X158.412 Y157.277 E.01684
G1 X152.552 Y151.417 E.26077
G1 X152.017 Y151.417 E.01684
G1 X157.877 Y157.277 E.26077
G1 X157.342 Y157.277 E.01684
G1 X151.481 Y151.417 E.26077
G1 X150.946 Y151.417 E.01684
G1 X156.806 Y157.277 E.26077
G1 X156.271 Y157.277 E.01684
G1 X150.411 Y151.417 E.26077
G1 X149.876 Y151.417 E.01684
G1 X155.736 Y157.277 E.26077
G1 X155.201 Y157.277 E.01684
M73 P3 R63
G1 X149.341 Y151.417 E.26077
G1 X148.806 Y151.417 E.01684
G1 X154.666 Y157.277 E.26077
G1 X154.131 Y157.277 E.01684
G1 X148.27 Y151.417 E.26077
G1 X147.735 Y151.417 E.01684
G1 X153.596 Y157.277 E.26077
G1 X153.06 Y157.277 E.01684
G1 X147.2 Y151.417 E.26077
G1 X146.665 Y151.417 E.01684
G1 X152.525 Y157.277 E.26077
G1 X151.99 Y157.277 E.01684
G1 X146.13 Y151.417 E.26077
G1 X145.595 Y151.417 E.01684
G1 X151.455 Y157.277 E.26077
G1 X150.92 Y157.277 E.01684
G1 X145.06 Y151.417 E.26077
G1 X144.524 Y151.417 E.01684
G1 X150.385 Y157.277 E.26077
G1 X149.85 Y157.277 E.01684
G1 X143.989 Y151.417 E.26077
G1 X143.454 Y151.417 E.01684
G1 X149.314 Y157.277 E.26077
G1 X148.779 Y157.277 E.01684
G1 X142.919 Y151.417 E.26077
G1 X142.384 Y151.417 E.01684
G1 X148.244 Y157.277 E.26077
G1 X147.709 Y157.277 E.01684
G1 X141.849 Y151.417 E.26077
G1 X141.314 Y151.417 E.01684
G1 X147.174 Y157.277 E.26077
G1 X146.639 Y157.277 E.01684
G1 X140.778 Y151.417 E.26077
G1 X140.243 Y151.417 E.01684
G1 X146.103 Y157.277 E.26077
G1 X145.568 Y157.277 E.01684
G1 X139.708 Y151.417 E.26077
G1 X139.173 Y151.417 E.01684
G1 X145.033 Y157.277 E.26077
G1 X144.498 Y157.277 E.01684
G1 X138.638 Y151.417 E.26077
G1 X138.103 Y151.417 E.01684
G1 X143.963 Y157.277 E.26077
G1 X143.428 Y157.277 E.01684
G1 X137.567 Y151.417 E.26077
G1 X137.032 Y151.417 E.01684
G1 X142.893 Y157.277 E.26077
G1 X142.357 Y157.277 E.01684
G1 X136.497 Y151.417 E.26077
G1 X135.962 Y151.417 E.01684
G1 X141.822 Y157.277 E.26077
G1 X141.287 Y157.277 E.01684
G1 X135.427 Y151.417 E.26077
G1 X134.892 Y151.417 E.01684
G1 X140.752 Y157.277 E.26077
G1 X140.217 Y157.277 E.01684
G1 X134.357 Y151.417 E.26077
G1 X133.821 Y151.417 E.01684
G1 X139.682 Y157.277 E.26077
G1 X139.146 Y157.277 E.01684
G1 X133.286 Y151.417 E.26077
G1 X132.751 Y151.417 E.01684
G1 X138.611 Y157.277 E.26077
G1 X138.076 Y157.277 E.01684
G1 X132.216 Y151.417 E.26077
G1 X131.681 Y151.417 E.01684
G1 X137.541 Y157.277 E.26077
G1 X137.006 Y157.277 E.01684
G1 X131.146 Y151.417 E.26077
G1 X130.61 Y151.417 E.01684
G1 X136.471 Y157.277 E.26077
G1 X135.936 Y157.277 E.01684
G1 X130.075 Y151.417 E.26077
G1 X129.54 Y151.417 E.01684
G1 X135.4 Y157.277 E.26077
G1 X134.865 Y157.277 E.01684
G1 X129.005 Y151.417 E.26077
G1 X128.47 Y151.417 E.01684
G1 X134.33 Y157.277 E.26077
G1 X133.795 Y157.277 E.01684
G1 X127.935 Y151.417 E.26077
G1 X127.4 Y151.417 E.01684
G1 X133.26 Y157.277 E.26077
G1 X132.725 Y157.277 E.01684
G1 X126.864 Y151.417 E.26077
G1 X126.329 Y151.417 E.01684
G1 X132.19 Y157.277 E.26077
G1 X131.654 Y157.277 E.01684
G1 X125.794 Y151.417 E.26077
G1 X125.259 Y151.417 E.01684
G1 X131.119 Y157.277 E.26077
G1 X130.584 Y157.277 E.01684
G1 X124.724 Y151.417 E.26077
G1 X124.189 Y151.417 E.01684
G1 X130.219 Y157.447 E.26832
M204 P1000
G1 E-2.24 F4200
;WIPE_START
G1 F7200
G1 X129.055 Y156.283 E-.912
;WIPE_END
G1 E-.048 F4200
G1 Z.4 F720
G1 X165.28 Y135.247 F9000
G1 Z.2 F720
G1 E3.2 F2400
M204 P800
G1 F1200
G1 X165.828 Y135.795 E.02436
G1 X165.828 Y136.33 E.01684
G1 X164.915 Y135.417 E.04063
G1 X164.38 Y135.417 E.01684
G1 X165.828 Y136.865 E.06444
G1 X165.828 Y137.4 E.01684
G1 X163.844 Y135.417 E.08825
G1 X163.309 Y135.417 E.01684
G1 X165.828 Y137.935 E.11207
G1 X165.828 Y138.47 E.01684
G1 X162.774 Y135.417 E.13588
G1 X162.239 Y135.417 E.01684
G1 X165.828 Y139.005 E.15969
G1 X165.828 Y139.541 E.01684
G1 X161.704 Y135.417 E.1835
G1 X161.169 Y135.417 E.01684
G1 X165.828 Y140.076 E.20732
G1 X165.828 Y140.611 E.01684
G1 X160.633 Y135.417 E.23113
G1 X160.098 Y135.417 E.01684
G1 X165.828 Y141.146 E.25494
G1 X165.828 Y141.277 E.00412
G1 X165.424 Y141.277 E.01272
G1 X159.563 Y135.417 E.26077
G1 X159.028 Y135.417 E.01684
G1 X164.889 Y141.277 E.26078
G1 X164.354 Y141.277 E.01683
G1 X158.493 Y135.417 E.26079
G1 X157.958 Y135.417 E.01684
G1 X163.818 Y141.277 E.26079
G1 X163.283 Y141.278 E.01683
G1 X157.423 Y135.417 E.2608
G1 X156.887 Y135.417 E.01684
G1 X162.748 Y141.278 E.2608
G1 X162.213 Y141.278 E.01683
G1 X156.352 Y135.417 E.26081
G1 X155.817 Y135.417 E.01684
G1 X161.678 Y141.278 E.26081
G1 X161.143 Y141.278 E.01683
G1 X155.282 Y135.417 E.26082
G1 X154.747 Y135.417 E.01684
G1 X160.608 Y141.278 E.26083
G1 X160.073 Y141.278 E.01683
G1 X154.212 Y135.417 E.26083
G1 X153.677 Y135.417 E.01684
G1 X159.538 Y141.279 E.26084
G1 X159.003 Y141.279 E.01683
G1 X153.141 Y135.417 E.26084
G1 X152.606 Y135.417 E.01684
G1 X158.468 Y141.279 E.26085
G1 X157.933 Y141.279 E.01683
G1 X152.071 Y135.417 E.26086
G1 X151.536 Y135.417 E.01684
G1 X157.398 Y141.279 E.26086
G1 X156.863 Y141.279 E.01683
G1 X151.001 Y135.417 E.26087
G1 X150.466 Y135.417 E.01684
G1 X156.328 Y141.279 E.26087
G1 X155.793 Y141.279 E.01683
G1 X149.93 Y135.417 E.26088
G1 X149.395 Y135.417 E.01684
G1 X155.258 Y141.28 E.26088
G1 X154.723 Y141.28 E.01683
G1 X148.86 Y135.417 E.26089
G1 X148.325 Y135.417 E.01684
G1 X154.188 Y141.28 E.2609
G1 X153.653 Y141.28 E.01683
G1 X147.79 Y135.417 E.2609
G1 X147.255 Y135.417 E.01684
G1 X153.118 Y141.28 E.26091
G1 X152.583 Y141.28 E.01683
G1 X146.72 Y135.417 E.26091
G1 X146.184 Y135.417 E.01684
M73 P3 R62
G1 X152.048 Y141.28 E.26092
G1 X151.513 Y141.28 E.01683
G1 X145.649 Y135.417 E.26092
G1 X145.114 Y135.417 E.01684
G1 X150.978 Y141.281 E.26093
G1 X150.443 Y141.281 E.01683
G1 X144.579 Y135.417 E.26094
G1 X144.044 Y135.417 E.01684
G1 X149.908 Y141.281 E.26094
G1 X149.373 Y141.281 E.01683
G1 X143.509 Y135.417 E.26095
G1 X142.974 Y135.417 E.01684
M73 P4 R62
G1 X148.838 Y141.281 E.26095
G1 X148.303 Y141.281 E.01683
G1 X142.438 Y135.417 E.26096
G1 X141.903 Y135.417 E.01684
G1 X147.768 Y141.281 E.26096
G1 X147.233 Y141.281 E.01683
G1 X141.368 Y135.417 E.26097
G1 X140.833 Y135.417 E.01684
G1 X146.698 Y141.282 E.26098
G1 X146.163 Y141.282 E.01683
G1 X140.298 Y135.417 E.26098
G1 X139.763 Y135.417 E.01684
G1 X145.628 Y141.282 E.26099
G1 X145.093 Y141.282 E.01683
G1 X139.227 Y135.417 E.26099
G1 X138.692 Y135.417 E.01684
G1 X144.558 Y141.282 E.261
G1 X144.023 Y141.282 E.01683
G1 X138.157 Y135.417 E.26101
G1 X137.622 Y135.417 E.01684
G1 X143.488 Y141.282 E.26101
G1 X142.953 Y141.283 E.01683
G1 X137.087 Y135.417 E.26102
G1 X136.552 Y135.417 E.01684
G1 X142.418 Y141.283 E.26102
G1 X141.883 Y141.283 E.01683
G1 X136.017 Y135.417 E.26103
G1 X135.481 Y135.417 E.01684
G1 X141.348 Y141.283 E.26103
G1 X140.813 Y141.283 E.01683
G1 X134.946 Y135.417 E.26104
G1 X134.411 Y135.417 E.01684
G1 X140.278 Y141.283 E.26105
G1 X139.743 Y141.283 E.01683
G1 X133.876 Y135.417 E.26105
G1 X133.341 Y135.417 E.01684
G1 X139.208 Y141.283 E.26106
G1 X138.672 Y141.284 E.01683
G1 X132.806 Y135.417 E.26106
G1 X132.27 Y135.417 E.01684
G1 X138.137 Y141.284 E.26107
G1 X137.602 Y141.284 E.01683
G1 X131.735 Y135.417 E.26107
G1 X131.2 Y135.417 E.01684
G1 X137.067 Y141.284 E.26108
G1 X136.532 Y141.284 E.01683
G1 X130.665 Y135.417 E.26109
G1 X130.13 Y135.417 E.01684
G1 X135.997 Y141.284 E.26109
G1 X135.462 Y141.284 E.01683
G1 X129.595 Y135.417 E.2611
G1 X129.06 Y135.417 E.01684
G1 X134.927 Y141.284 E.2611
G1 X134.392 Y141.285 E.01683
G1 X128.524 Y135.417 E.26111
G1 X127.989 Y135.417 E.01684
G1 X133.857 Y141.285 E.26111
G1 X133.322 Y141.285 E.01683
G1 X127.454 Y135.417 E.26112
G1 X126.919 Y135.417 E.01684
G1 X132.787 Y141.285 E.26113
G1 X132.252 Y141.285 E.01683
G1 X126.384 Y135.417 E.26113
G1 X125.849 Y135.417 E.01684
G1 X131.717 Y141.285 E.26114
G1 X131.182 Y141.285 E.01683
G1 X125.314 Y135.417 E.26114
G1 X124.778 Y135.417 E.01684
G1 X130.647 Y141.286 E.26115
G1 X130.112 Y141.286 E.01683
G1 X124.074 Y135.247 E.26871
M204 P1000
G1 E-2.24 F4200
;WIPE_START
G1 F7200
G1 X125.237 Y136.411 E-.912
;WIPE_END
G1 E-.048 F4200
G1 Z.4 F720
G1 X147.197 Y92.012 F9000
G1 Z.2 F720
G1 E3.2 F2400
M204 P800
G1 F1200
G1 X146.602 Y91.417 E.02649
G1 X146.067 Y91.417 E.01684
G1 X147.028 Y92.378 E.04276
G1 X147.028 Y92.913 E.01684
G1 X145.532 Y91.417 E.06657
G1 X144.997 Y91.417 E.01684
G1 X147.028 Y93.448 E.09038
G1 X147.028 Y93.983 E.01684
G1 X144.461 Y91.417 E.1142
G1 X143.926 Y91.417 E.01684
G1 X147.028 Y94.518 E.13801
G1 X147.028 Y95.053 E.01684
G1 X143.391 Y91.417 E.16182
G1 X142.856 Y91.417 E.01684
G1 X147.028 Y95.588 E.18564
G1 X147.028 Y96.124 E.01684
G1 X142.321 Y91.417 E.20945
G1 X141.786 Y91.417 E.01684
G1 X147.028 Y96.659 E.23326
G1 X147.028 Y97.194 E.01684
