; generated by PrusaSlicer 2.5.0+win64 on 2023-03-02 at 23:20:52 UTC


;
;

;
;
; 

; external perimeters extrusion width = 0.45mm
; perimeters extrusion width = 0.45mm
; infill extrusion width = 0.45mm
; solid infill extrusion width = 0.45mm
; top infill extrusion width = 0.40mm
; first layer extrusion width = 0.42mm

; external perimeters extrusion width = 0.45mm
; perimeters extrusion width = 0.45mm
; infill extrusion width = 0.45mm
; solid infill extrusion width = 0.45mm
; top infill extrusion width = 0.40mm
; first layer extrusion width = 0.42mm

M73 P0 R32
M201 X2500 Y2500 Z400 E5000 ; sets maximum accelerations, mm/sec^2
M203 X180 Y180 Z12 E80 ; sets maximum feedrates, mm / sec
M204 P1250 R1250 T2500 ; sets acceleration (P, T) and retract acceleration (R), mm/sec^2
M205 X8.00 Y8.00 Z2.00 E10.00 ; sets the jerk limits, mm/sec
M205 S0 T0 ; sets the minimum extruding and travel feed rate, mm/sec
M107
;TYPE:Custom
M862.3 P "MINI" ; printer model check
G90 ; use absolute coordinates
M83 ; extruder relative mode
M104 S170 ; set extruder temp for bed leveling
M140 S60 ; set bed temp
M109 R170 ; wait for bed leveling temp
M190 S60 ; wait for bed temp
M204 T1250 ; set travel acceleration
G28 ; home all without mesh bed level
G29 ; mesh bed leveling 
M204 T2500 ; restore travel acceleration
M104 S215 ; set extruder temp
G92 E0
G1 Y-2 X179 F2400
G1 Z3 F720
M109 S215 ; wait for extruder temp

; intro line
G1 X170 F1000
G1 Z0.2 F720
G1 X110 E8 F900
G1 X40 E10 F700
G92 E0

M221 S95 ; set flow
G21 ; set units to millimeters
G90 ; use absolute coordinates
M83 ; use relative distances for extrusion
M900 K0.2 ; Filament gcode LA 1.5
; ; Filament gcode LA 1.0
M107
;LAYER_CHANGE
;Z:0.2
;HEIGHT:0.2
;BEFORE_LAYER_CHANGE
G92 E0.0
;0.2


G1 E-3.2 F4200
G1 Z.2 F720
;AFTER_LAYER_CHANGE
;0.2
G1 Z.4
G1 X44.223 Y24.693 F9000
G1 Z.2 F720
G1 E3.2 F2400
M204 P800
;TYPE:Skirt/Brim
;WIDTH:0.42
G1 F1200
G1 X45.269 Y23.817 E.04278
G1 X46.209 Y23.623 E.03008
G1 X140.209 Y23.623 E2.9473
G1 X141.516 Y24.015 E.04278
M73 P1 R32
G1 X142.392 Y25.06 E.04278
G1 X142.586 Y26 E.03008
G1 X142.586 Y128.899 E3.22634
G1 X142.395 Y129.833 E.02989
G1 X123.595 Y173.833 E1.50024
G1 X122.721 Y174.882 E.04278
G1 X121.409 Y175.277 E.04297
G1 X65.009 Y175.277 E1.76838
G1 X63.702 Y174.885 E.04278
G1 X62.823 Y173.833 E.04297
G1 X44.023 Y129.833 E1.50024
G1 X43.832 Y128.899 E.02989
G1 X43.832 Y26 E3.22634
G1 X44.206 Y24.75 E.0409
M204 P1000
; printing object div_20_21.stl_1 id:0 copy 0
G1 E-2.24 F4200
;WIPE_START
G1 F7200
G1 X45.269 Y23.817 E-.78411
G1 X45.495 Y23.77 E-.12789
;WIPE_END
M73 P2 R32
G1 E-.048 F4200
G1 Z.4 F720
G1 X96.916 Y86.773 F9000
G1 Z.2 F720
G1 E3.2 F2400
M204 P800
;TYPE:Perimeter
;WIDTH:0.419999
G1 F1200
G1 X96.987 Y86.787 E.00229
G1 X120.622 Y86.787 E.74104
G1 X120.622 Y93.213 E.20148
G1 X65.796 Y93.213 E1.71902
G1 X65.796 Y86.787 E.20148
G1 X89.43 Y86.787 E.74104
G1 X89.528 Y86.779 E.00308
G1 X89.742 Y86.694 E.00721
G1 X89.923 Y86.499 E.00835
G1 X89.996 Y86.221 E.00899
G1 X89.996 Y49.779 E1.14264
G1 X89.988 Y49.686 E.00293
G1 X89.901 Y49.465 E.00744
G1 X89.683 Y49.273 E.0091
G1 X89.43 Y49.213 E.00815
G1 X46.996 Y49.213 E1.3305
G1 X46.996 Y42.787 E.20148
G1 X89.523 Y42.779 E1.33341
G1 X89.744 Y42.692 E.00744
G1 X89.936 Y42.474 E.0091
G1 X89.996 Y42.221 E.00815
G1 X89.996 Y33.779 E.26472
G1 X89.986 Y33.674 E.00328
G1 X89.883 Y33.439 E.00805
G1 X89.648 Y33.256 E.00933
G1 X89.43 Y33.213 E.00696
G1 X46.996 Y33.213 E1.3305
G1 X46.996 Y26.787 E.20148
M73 P2 R31
G1 X139.422 Y26.787 E2.89794
G1 X139.422 Y33.213 E.20148
M73 P3 R31
G1 X96.987 Y33.213 E1.3305
G1 X96.89 Y33.221 E.00308
G1 X96.676 Y33.306 E.00721
G1 X96.494 Y33.501 E.00835
G1 X96.422 Y33.779 E.00899
G1 X96.424 Y42.271 E.26627
G1 X96.517 Y42.535 E.00879
G1 X96.734 Y42.727 E.0091
G1 X96.987 Y42.787 E.00815
G1 X139.422 Y42.787 E1.3305
G1 X139.422 Y49.213 E.20148
G1 X96.987 Y49.213 E1.3305
G1 X96.674 Y49.308 E.01028
G1 X96.481 Y49.526 E.0091
G1 X96.422 Y49.779 E.00815
G1 X96.422 Y86.221 E1.14264
G1 X96.431 Y86.326 E.00328
G1 X96.535 Y86.561 E.00805
G1 X96.77 Y86.744 E.00933
G1 X96.857 Y86.761 E.00279
M204 P1000
G1 X96.987 Y86.41 F9000
M204 P800
;TYPE:External perimeter
G1 F1200
G1 X120.999 Y86.41 E.75286
G1 X120.999 Y93.59 E.22512
G1 X65.419 Y93.59 E1.74267
G1 X65.419 Y86.41 E.22512
G1 X89.43 Y86.41 E.75286
G1 X89.56 Y86.358 E.00439
G1 X89.619 Y86.221 E.00466
G1 X89.619 Y49.779 E1.14264
G1 X89.575 Y49.658 E.00402
G1 X89.43 Y49.59 E.00501
G1 X46.619 Y49.59 E1.34232
G1 X46.619 Y42.41 E.22512
M73 P4 R31
G1 X89.43 Y42.41 E1.34232
G1 X89.551 Y42.366 E.00402
G1 X89.619 Y42.221 E.00501
G1 X89.619 Y33.779 E.26472
G1 X89.56 Y33.642 E.00466
G1 X89.43 Y33.59 E.00439
G1 X46.619 Y33.59 E1.34232
G1 X46.619 Y26.41 E.22512
G1 X139.799 Y26.41 E2.92159
G1 X139.799 Y33.59 E.22512
G1 X96.987 Y33.59 E1.34232
G1 X96.857 Y33.642 E.00439
G1 X96.799 Y33.779 E.00466
G1 X96.799 Y42.221 E.26472
G1 X96.842 Y42.342 E.00402
G1 X96.987 Y42.41 E.00501
G1 X139.799 Y42.41 E1.34232
G1 X139.799 Y49.59 E.22512
G1 X96.987 Y49.59 E1.34232
G1 X96.867 Y49.634 E.00402
G1 X96.799 Y49.779 E.00501
G1 X96.799 Y86.221 E1.14264
G1 X96.857 Y86.358 E.00466
M73 P5 R31
G1 X96.932 Y86.388 E.00251
M204 P1000
G1 X97.091 Y86.796 F9000
G1 E-2.24 F4200
;WIPE_START
G1 F7200
G1 X98.577 Y86.389 E-.912
;WIPE_END
G1 E-.048 F4200
G1 Z.4 F720
G1 X139.309 Y43.72 F9000
G1 Z.2 F720
G1 E3.2 F2400
M204 P800
;TYPE:Solid infill
;WIDTH:0.421329
G1 F1200
G1 X138.659 Y43.07 E.02893
G1 X138.123 Y43.07 E.01684
G1 X139.139 Y44.085 E.0452
G1 X139.139 Y44.62 E.01684
G1 X137.588 Y43.069 E.06901
G1 X137.053 Y43.069 E.01684
G1 X139.139 Y45.156 E.09283
G1 X139.139 Y45.691 E.01684
G1 X136.517 Y43.069 E.11665
G1 X135.982 Y43.069 E.01684
G1 X139.139 Y46.226 E.14047
G1 X139.139 Y46.761 E.01684
G1 X135.447 Y43.069 E.16429
G1 X134.912 Y43.069 E.01684
G1 X139.139 Y47.296 E.18811
G1 X139.139 Y47.831 E.01684
G1 X134.376 Y43.069 E.21193
G1 X133.841 Y43.069 E.01684
G1 X139.139 Y48.366 E.23575
G1 X139.139 Y48.902 E.01684
G1 X133.306 Y43.068 E.25957
G1 X132.77 Y43.068 E.01684
G1 X138.632 Y48.93 E.26084
G1 X138.097 Y48.93 E.01684
G1 X132.235 Y43.068 E.26084
G1 X131.7 Y43.068 E.01684
G1 X137.562 Y48.93 E.26085
G1 X137.027 Y48.93 E.01684
G1 X131.165 Y43.068 E.26086
G1 X130.629 Y43.068 E.01684
G1 X136.492 Y48.93 E.26086
G1 X135.956 Y48.93 E.01684
G1 X130.094 Y43.068 E.26087
G1 X129.559 Y43.068 E.01684
G1 X135.421 Y48.93 E.26087
G1 X134.886 Y48.93 E.01684
G1 X129.023 Y43.067 E.26088
G1 X128.488 Y43.067 E.01684
G1 X134.351 Y48.93 E.26089
G1 X133.816 Y48.93 E.01684
G1 X127.953 Y43.067 E.26089
G1 X127.418 Y43.067 E.01684
G1 X133.281 Y48.93 E.2609
G1 X132.746 Y48.93 E.01684
G1 X126.882 Y43.067 E.2609
G1 X126.347 Y43.067 E.01684
G1 X132.21 Y48.93 E.26091
G1 X131.675 Y48.93 E.01684
G1 X125.812 Y43.067 E.26091
G1 X125.276 Y43.066 E.01684
G1 X131.14 Y48.93 E.26092
G1 X130.605 Y48.93 E.01684
G1 X124.741 Y43.066 E.26093
G1 X124.206 Y43.066 E.01684
G1 X130.07 Y48.93 E.26093
G1 X129.535 Y48.93 E.01684
G1 X123.671 Y43.066 E.26094
G1 X123.135 Y43.066 E.01684
G1 X129 Y48.93 E.26094
G1 X128.464 Y48.93 E.01684
G1 X122.6 Y43.066 E.26095
G1 X122.065 Y43.066 E.01684
G1 X127.929 Y48.93 E.26095
G1 X127.394 Y48.93 E.01684
G1 X121.53 Y43.066 E.26096
G1 X120.994 Y43.065 E.01684
G1 X126.859 Y48.93 E.26097
G1 X126.324 Y48.93 E.01684
G1 X120.459 Y43.065 E.26097
G1 X119.924 Y43.065 E.01684
G1 X125.789 Y48.93 E.26098
G1 X125.253 Y48.93 E.01684
G1 X119.388 Y43.065 E.26098
M73 P5 R30
G1 X118.853 Y43.065 E.01684
G1 X124.718 Y48.93 E.26099
G1 X124.183 Y48.93 E.01684
G1 X118.318 Y43.065 E.26099
G1 X117.783 Y43.065 E.01684
G1 X123.648 Y48.93 E.261
G1 X123.113 Y48.93 E.01684
G1 X117.247 Y43.065 E.26101
G1 X116.712 Y43.064 E.01684
G1 X122.578 Y48.93 E.26101
G1 X122.043 Y48.93 E.01684
G1 X116.177 Y43.064 E.26102
G1 X115.641 Y43.064 E.01684
G1 X121.507 Y48.93 E.26102
G1 X120.972 Y48.93 E.01684
G1 X115.106 Y43.064 E.26103
G1 X114.571 Y43.064 E.01684
G1 X120.437 Y48.93 E.26103
G1 X119.902 Y48.93 E.01684
M73 P6 R30
G1 X114.036 Y43.064 E.26104
G1 X113.5 Y43.064 E.01684
G1 X119.367 Y48.93 E.26105
G1 X118.832 Y48.93 E.01684
G1 X112.965 Y43.064 E.26105
G1 X112.43 Y43.063 E.01684
G1 X118.296 Y48.93 E.26106
G1 X117.761 Y48.93 E.01684
G1 X111.894 Y43.063 E.26106
G1 X111.359 Y43.063 E.01684
G1 X117.226 Y48.93 E.26107
G1 X116.691 Y48.93 E.01684
G1 X110.824 Y43.063 E.26108
G1 X110.289 Y43.063 E.01684
G1 X116.156 Y48.93 E.26108
G1 X115.621 Y48.93 E.01684
G1 X109.753 Y43.063 E.26109
G1 X109.218 Y43.063 E.01684
G1 X115.086 Y48.93 E.26109
G1 X114.55 Y48.93 E.01684
G1 X108.683 Y43.062 E.2611
G1 X108.148 Y43.062 E.01684
G1 X114.015 Y48.93 E.2611
G1 X113.48 Y48.93 E.01684
G1 X107.612 Y43.062 E.26111
G1 X107.077 Y43.062 E.01684
G1 X112.945 Y48.93 E.26112
G1 X112.41 Y48.93 E.01684
G1 X106.542 Y43.062 E.26112
G1 X106.006 Y43.062 E.01684
G1 X111.875 Y48.93 E.26113
G1 X111.34 Y48.93 E.01684
G1 X105.471 Y43.062 E.26113
G1 X104.936 Y43.062 E.01684
G1 X110.804 Y48.93 E.26114
G1 X110.269 Y48.93 E.01684
G1 X104.401 Y43.061 E.26114
G1 X103.865 Y43.061 E.01684
G1 X109.734 Y48.93 E.26115
G1 X109.199 Y48.93 E.01684
G1 X103.33 Y43.061 E.26116
G1 X102.795 Y43.061 E.01684
G1 X108.664 Y48.93 E.26116
G1 X108.129 Y48.93 E.01684
G1 X102.259 Y43.061 E.26117
G1 X101.724 Y43.061 E.01684
G1 X107.593 Y48.93 E.26117
G1 X107.058 Y48.93 E.01684
G1 X101.189 Y43.061 E.26118
G1 X100.654 Y43.061 E.01684
G1 X106.523 Y48.93 E.26118
G1 X105.988 Y48.93 E.01684
G1 X100.118 Y43.06 E.26119
G1 X99.583 Y43.06 E.01684
G1 X105.453 Y48.93 E.2612
G1 X104.918 Y48.93 E.01684
G1 X99.048 Y43.06 E.2612
G1 X98.512 Y43.06 E.01684
G1 X104.383 Y48.93 E.26121
G1 X103.847 Y48.93 E.01684
G1 X97.977 Y43.06 E.26121
G1 X97.442 Y43.06 E.01684
G1 X103.482 Y49.1 E.26877
M204 P1000
G1 E-2.24 F4200
;WIPE_START
G1 F7200
G1 X102.318 Y47.936 E-.912
;WIPE_END
G1 E-.048 F4200
G1 Z.4 F720
G1 X138.544 Y26.9 F9000
G1 Z.2 F720
G1 E3.2 F2400
M204 P800
G1 F1200
G1 X139.139 Y27.496 E.02649
G1 X139.139 Y28.031 E.01684
G1 X138.178 Y27.07 E.04276
G1 X137.643 Y27.07 E.01684
G1 X139.139 Y28.566 E.06657
G1 X139.139 Y29.101 E.01684
G1 X137.108 Y27.07 E.09038
G1 X136.573 Y27.07 E.01684
G1 X139.139 Y29.636 E.1142
G1 X139.139 Y30.171 E.01684
G1 X136.037 Y27.07 E.13801
G1 X135.502 Y27.07 E.01684
G1 X139.139 Y30.707 E.16182
G1 X139.139 Y31.242 E.01684
G1 X134.967 Y27.07 E.18564
G1 X134.432 Y27.07 E.01684
G1 X139.139 Y31.777 E.20945
G1 X139.139 Y32.312 E.01684
G1 X133.897 Y27.07 E.23326
G1 X133.362 Y27.07 E.01684
G1 X139.139 Y32.847 E.25708
G1 X139.139 Y32.93 E.00261
G1 X138.687 Y32.93 E.01423
G1 X132.827 Y27.07 E.26077
G1 X132.291 Y27.07 E.01684
G1 X138.152 Y32.93 E.26077
G1 X137.616 Y32.93 E.01684
G1 X131.756 Y27.07 E.26077
G1 X131.221 Y27.07 E.01684
M73 P7 R30
G1 X137.081 Y32.93 E.26077
G1 X136.546 Y32.93 E.01684
G1 X130.686 Y27.07 E.26077
G1 X130.151 Y27.07 E.01684
G1 X136.011 Y32.93 E.26077
G1 X135.476 Y32.93 E.01684
G1 X129.616 Y27.07 E.26077
G1 X129.08 Y27.07 E.01684
G1 X134.941 Y32.93 E.26077
G1 X134.406 Y32.93 E.01684
G1 X128.545 Y27.07 E.26077
G1 X128.01 Y27.07 E.01684
G1 X133.87 Y32.93 E.26077
G1 X133.335 Y32.93 E.01684
G1 X127.475 Y27.07 E.26077
G1 X126.94 Y27.07 E.01684
G1 X132.8 Y32.93 E.26077
G1 X132.265 Y32.93 E.01684
G1 X126.405 Y27.07 E.26077
G1 X125.87 Y27.07 E.01684
G1 X131.73 Y32.93 E.26077
G1 X131.195 Y32.93 E.01684
G1 X125.334 Y27.07 E.26077
G1 X124.799 Y27.07 E.01684
G1 X130.66 Y32.93 E.26077
G1 X130.124 Y32.93 E.01684
G1 X124.264 Y27.07 E.26077
G1 X123.729 Y27.07 E.01684
G1 X129.589 Y32.93 E.26077
G1 X129.054 Y32.93 E.01684
G1 X123.194 Y27.07 E.26077
G1 X122.659 Y27.07 E.01684
G1 X128.519 Y32.93 E.26077
G1 X127.984 Y32.93 E.01684
G1 X122.124 Y27.07 E.26077
G1 X121.588 Y27.07 E.01684
G1 X127.449 Y32.93 E.26077
G1 X126.913 Y32.93 E.01684
G1 X121.053 Y27.07 E.26077
G1 X120.518 Y27.07 E.01684
G1 X126.378 Y32.93 E.26077
G1 X125.843 Y32.93 E.01684
G1 X119.983 Y27.07 E.26077
G1 X119.448 Y27.07 E.01684
G1 X125.308 Y32.93 E.26077
G1 X124.773 Y32.93 E.01684
G1 X118.913 Y27.07 E.26077
G1 X118.377 Y27.07 E.01684
G1 X124.238 Y32.93 E.26077
G1 X123.703 Y32.93 E.01684
G1 X117.842 Y27.07 E.26077
G1 X117.307 Y27.07 E.01684
G1 X123.167 Y32.93 E.26077
G1 X122.632 Y32.93 E.01684
G1 X116.772 Y27.07 E.26077
G1 X116.237 Y27.07 E.01684
G1 X122.097 Y32.93 E.26077
G1 X121.562 Y32.93 E.01684
G1 X115.702 Y27.07 E.26077
G1 X115.167 Y27.07 E.01684
G1 X121.027 Y32.93 E.26077
G1 X120.492 Y32.93 E.01684
G1 X114.631 Y27.07 E.26077
G1 X114.096 Y27.07 E.01684
G1 X119.956 Y32.93 E.26077
G1 X119.421 Y32.93 E.01684
G1 X113.561 Y27.07 E.26077
G1 X113.026 Y27.07 E.01684
G1 X118.886 Y32.93 E.26077
G1 X118.351 Y32.93 E.01684
G1 X112.491 Y27.07 E.26077
G1 X111.956 Y27.07 E.01684
G1 X117.816 Y32.93 E.26077
G1 X117.281 Y32.93 E.01684
G1 X111.42 Y27.07 E.26077
G1 X110.885 Y27.07 E.01684
G1 X116.746 Y32.93 E.26077
G1 X116.21 Y32.93 E.01684
G1 X110.35 Y27.07 E.26077
G1 X109.815 Y27.07 E.01684
G1 X115.675 Y32.93 E.26077
G1 X115.14 Y32.93 E.01684
G1 X109.28 Y27.07 E.26077
G1 X108.745 Y27.07 E.01684
G1 X114.605 Y32.93 E.26077
G1 X114.07 Y32.93 E.01684
G1 X108.21 Y27.07 E.26077
G1 X107.674 Y27.07 E.01684
M73 P8 R30
G1 X113.535 Y32.93 E.26077
G1 X113 Y32.93 E.01684
G1 X107.139 Y27.07 E.26077
G1 X106.604 Y27.07 E.01684
G1 X112.464 Y32.93 E.26077
G1 X111.929 Y32.93 E.01684
G1 X106.069 Y27.07 E.26077
G1 X105.534 Y27.07 E.01684
G1 X111.394 Y32.93 E.26077
G1 X110.859 Y32.93 E.01684
G1 X104.999 Y27.07 E.26077
G1 X104.464 Y27.07 E.01684
G1 X110.324 Y32.93 E.26077
G1 X109.789 Y32.93 E.01684
G1 X103.928 Y27.07 E.26077
G1 X103.393 Y27.07 E.01684
G1 X109.253 Y32.93 E.26077
G1 X108.718 Y32.93 E.01684
G1 X102.858 Y27.07 E.26077
G1 X102.323 Y27.07 E.01684
G1 X108.183 Y32.93 E.26077
G1 X107.648 Y32.93 E.01684
G1 X101.788 Y27.07 E.26077
G1 X101.253 Y27.07 E.01684
G1 X107.113 Y32.93 E.26077
G1 X106.578 Y32.93 E.01684
G1 X100.717 Y27.07 E.26077
G1 X100.182 Y27.07 E.01684
G1 X106.043 Y32.93 E.26077
G1 X105.507 Y32.93 E.01684
G1 X99.647 Y27.07 E.26077
G1 X99.112 Y27.07 E.01684
G1 X104.972 Y32.93 E.26077
G1 X104.437 Y32.93 E.01684
G1 X98.577 Y27.07 E.26077
G1 X98.042 Y27.07 E.01684
G1 X103.902 Y32.93 E.26077
G1 X103.367 Y32.93 E.01684
G1 X97.507 Y27.07 E.26077
G1 X96.971 Y27.07 E.01684
G1 X102.832 Y32.93 E.26077
G1 X102.296 Y32.93 E.01684
G1 X96.436 Y27.07 E.26077
G1 X95.901 Y27.07 E.01684
G1 X101.761 Y32.93 E.26077
G1 X101.226 Y32.93 E.01684
G1 X95.366 Y27.07 E.26077
G1 X94.831 Y27.07 E.01684
G1 X100.691 Y32.93 E.26077
G1 X100.156 Y32.93 E.01684
G1 X94.296 Y27.07 E.26077
G1 X93.76 Y27.07 E.01684
G1 X99.621 Y32.93 E.26077
G1 X99.086 Y32.93 E.01684
G1 X93.225 Y27.07 E.26077
G1 X92.69 Y27.07 E.01684
G1 X98.55 Y32.93 E.26077
G1 X98.015 Y32.93 E.01684
G1 X92.155 Y27.07 E.26077
G1 X91.62 Y27.07 E.01684
G1 X97.48 Y32.93 E.26077
G1 X96.948 Y32.934 E.01673
G1 X91.085 Y27.07 E.26092
G1 X90.55 Y27.07 E.01684
G1 X96.539 Y33.06 E.26653
G1 X96.309 Y33.268 E.00978
G1 X96.274 Y33.33 E.00223
G1 X90.014 Y27.07 E.27856
G1 X89.479 Y27.07 E.01684
G1 X96.145 Y33.736 E.29662
G1 X96.139 Y34.265 E.01665
G1 X88.944 Y27.07 E.32016
G1 X88.409 Y27.07 E.01684
M73 P8 R29
G1 X96.139 Y34.8 E.34398
G1 X96.139 Y35.335 E.01684
G1 X87.874 Y27.07 E.3678
G1 X87.339 Y27.07 E.01684
G1 X96.14 Y35.871 E.39162
G1 X96.14 Y36.406 E.01684
G1 X86.804 Y27.07 E.41545
G1 X86.268 Y27.07 E.01684
G1 X96.14 Y36.941 E.43927
G1 X96.14 Y37.477 E.01684
M73 P9 R29
G1 X85.733 Y27.07 E.46309
G1 X85.198 Y27.07 E.01684
G1 X96.14 Y38.012 E.48691
G1 X96.141 Y38.547 E.01684
G1 X84.663 Y27.07 E.51073
G1 X84.128 Y27.07 E.01684
G1 X96.141 Y39.083 E.53455
G1 X96.141 Y39.618 E.01684
G1 X90.276 Y33.753 E.261
G1 X90.226 Y33.482 E.00866
G1 X90.109 Y33.268 E.00769
G1 X89.901 Y33.072 E.009
G1 X89.757 Y32.995 E.00514
G1 X89.598 Y32.946 E.00521
G1 X89.455 Y32.932 E.00453
G1 X83.593 Y27.07 E.26086
G1 X83.057 Y27.07 E.01684
G1 X88.918 Y32.93 E.26077
G1 X88.383 Y32.93 E.01684
G1 X82.522 Y27.07 E.26077
G1 X81.987 Y27.07 E.01684
G1 X87.847 Y32.93 E.26077
G1 X87.312 Y32.93 E.01684
G1 X81.452 Y27.07 E.26077
G1 X80.917 Y27.07 E.01684
G1 X86.777 Y32.93 E.26077
G1 X86.242 Y32.93 E.01684
G1 X80.382 Y27.07 E.26077
G1 X79.847 Y27.07 E.01684
