; generated by PrusaSlicer 2.5.0+win64 on 2023-03-02 at 18:51:02 UTC


;
;

;
;
; 

; external perimeters extrusion width = 0.45mm
; perimeters extrusion width = 0.45mm
; infill extrusion width = 0.45mm
; solid infill extrusion width = 0.45mm
; top infill extrusion width = 0.40mm
; first layer extrusion width = 0.42mm

; external perimeters extrusion width = 0.45mm
; perimeters extrusion width = 0.45mm
; infill extrusion width = 0.45mm
; solid infill extrusion width = 0.45mm
; top infill extrusion width = 0.40mm
; first layer extrusion width = 0.42mm

; external perimeters extrusion width = 0.45mm
; perimeters extrusion width = 0.45mm
; infill extrusion width = 0.45mm
; solid infill extrusion width = 0.45mm
; top infill extrusion width = 0.40mm
; first layer extrusion width = 0.42mm

; external perimeters extrusion width = 0.45mm
; perimeters extrusion width = 0.45mm
; infill extrusion width = 0.45mm
; solid infill extrusion width = 0.45mm
; top infill extrusion width = 0.40mm
; first layer extrusion width = 0.42mm

M73 P0 R64
M201 X2500 Y2500 Z400 E5000 ; sets maximum accelerations, mm/sec^2
M203 X180 Y180 Z12 E80 ; sets maximum feedrates, mm / sec
M204 P1250 R1250 T2500 ; sets acceleration (P, T) and retract acceleration (R), mm/sec^2
M205 X8.00 Y8.00 Z2.00 E10.00 ; sets the jerk limits, mm/sec
M205 S0 T0 ; sets the minimum extruding and travel feed rate, mm/sec
M107
;TYPE:Custom
M862.3 P "MINI" ; printer model check
G90 ; use absolute coordinates
M83 ; extruder relative mode
M104 S170 ; set extruder temp for bed leveling
M140 S60 ; set bed temp
M109 R170 ; wait for bed leveling temp
M190 S60 ; wait for bed temp
M204 T1250 ; set travel acceleration
G28 ; home all without mesh bed level
G29 ; mesh bed leveling 
M204 T2500 ; restore travel acceleration
M104 S215 ; set extruder temp
G92 E0
G1 Y-2 X179 F2400
G1 Z3 F720
M109 S215 ; wait for extruder temp

; intro line
G1 X170 F1000
G1 Z0.2 F720
G1 X110 E8 F900
G1 X40 E10 F700
G92 E0

M221 S95 ; set flow
G21 ; set units to millimeters
G90 ; use absolute coordinates
M83 ; use relative distances for extrusion
M900 K0.2 ; Filament gcode LA 1.5
; ; Filament gcode LA 1.0
M107
;LAYER_CHANGE
;Z:0.2
;HEIGHT:0.2
;BEFORE_LAYER_CHANGE
G92 E0.0
;0.2


G1 E-3.2 F4200
G1 Z.2 F720
;AFTER_LAYER_CHANGE
;0.2
G1 Z.4
G1 X14.602 Y18.118 F9000
G1 Z.2 F720
G1 E3.2 F2400
M204 P800
;TYPE:Skirt/Brim
;WIDTH:0.42
G1 F1200
G1 X16.185 Y17.083 E.05932
G1 X89.433 Y4.501 E2.33027
G1 X146.235 Y4.467 E1.781
G1 X147.542 Y4.859 E.04278
G1 X148.421 Y5.91 E.04297
G1 X167.221 Y49.91 E1.50024
G1 X167.392 Y50.536 E.02034
G1 X178.729 Y137.22 E2.74106
G1 X178.749 Y161.528 E.76217
G1 X178.357 Y162.835 E.04278
G1 X176.733 Y163.878 E.06053
G1 X101.239 Y175.468 E2.39477
G1 X44.479 Y175.495 E1.77969
G1 X43.172 Y175.104 E.04278
G1 X42.293 Y174.052 E.04297
G1 X23.493 Y130.052 E1.50024
G1 X23.315 Y129.369 E.02214
M73 P1 R64
G1 X14.223 Y43.676 E2.70191
G1 X14.21 Y19.425 E.76037
G1 X14.584 Y18.176 E.0409
M204 P1000
; printing object div_12_15.stl_4 id:3 copy 0
G1 E-2.24 F4200
;WIPE_START
G1 F7200
G1 X15.943 Y17.248 E-.912
;WIPE_END
G1 E-.048 F4200
G1 Z.4 F720
G1 X125.636 Y138.312 F9000
G1 Z.2 F720
G1 E3.2 F2400
M204 P800
;TYPE:Perimeter
;WIDTH:0.419999
G1 F1200
G1 X125.907 Y138.22 E.00897
G1 X126.099 Y138.003 E.0091
G1 X126.159 Y137.75 E.00815
G1 X126.159 Y101.307 E1.14264
G1 X126.149 Y101.202 E.00328
M73 P1 R63
G1 X126.046 Y100.967 E.00805
G1 X125.811 Y100.785 E.00933
G1 X125.593 Y100.741 E.00696
G1 X101.959 Y100.741 E.74104
G1 X101.959 Y94.315 E.20148
G1 X156.785 Y94.315 E1.71902
G1 X156.785 Y100.741 E.20148
G1 X133.15 Y100.741 E.74104
G1 X133.053 Y100.75 E.00308
G1 X132.839 Y100.834 E.00721
G1 X132.657 Y101.029 E.00835
G1 X132.585 Y101.307 E.00899
G1 X132.585 Y137.75 E1.14264
G1 X132.68 Y138.063 E.01028
G1 X132.897 Y138.255 E.0091
G1 X133.15 Y138.315 E.00815
G1 X175.585 Y138.315 E1.3305
G1 X175.585 Y144.741 E.20148
G1 X133.101 Y144.743 E1.33204
G1 X132.837 Y144.836 E.00879
G1 X132.644 Y145.054 E.0091
G1 X132.585 Y145.307 E.00815
G1 X132.594 Y153.854 E.26799
G1 X132.698 Y154.089 E.00805
G1 X132.933 Y154.272 E.00933
G1 X133.15 Y154.315 E.00696
G1 X175.585 Y154.315 E1.3305
G1 X175.585 Y160.741 E.20148
G1 X83.159 Y160.741 E2.89794
G1 X83.159 Y154.315 E.20148
G1 X125.593 Y154.315 E1.3305
G1 X125.691 Y154.307 E.00308
G1 X125.905 Y154.222 E.00721
G1 X126.086 Y154.027 E.00835
G1 X126.159 Y153.75 E.00899
G1 X126.159 Y145.307 E.26472
G1 X126.151 Y145.214 E.00293
G1 X126.064 Y144.993 E.00744
G1 X125.846 Y144.801 E.0091
G1 X125.593 Y144.741 E.00815
G1 X83.159 Y144.741 E1.3305
G1 X83.159 Y138.315 E.20148
G1 X125.576 Y138.315 E1.32996
M204 P1000
G1 X125.593 Y137.938 F9000
M204 P800
;TYPE:External perimeter
G1 F1200
G1 X125.714 Y137.894 E.00402
G1 X125.782 Y137.75 E.00501
G1 X125.782 Y101.307 E1.14264
G1 X125.723 Y101.17 E.00466
M73 P2 R63
G1 X125.593 Y101.118 E.00439
G1 X101.582 Y101.118 E.75286
G1 X101.582 Y93.938 E.22512
G1 X157.162 Y93.938 E1.74267
G1 X157.162 Y101.118 E.22512
G1 X133.15 Y101.118 E.75286
G1 X133.02 Y101.17 E.00439
G1 X132.962 Y101.307 E.00466
G1 X132.962 Y137.75 E1.14264
G1 X133.006 Y137.87 E.00402
G1 X133.15 Y137.938 E.00501
G1 X175.962 Y137.938 E1.34232
G1 X175.962 Y145.118 E.22512
G1 X133.15 Y145.118 E1.34232
G1 X133.03 Y145.162 E.00402
G1 X132.962 Y145.307 E.00501
G1 X132.962 Y153.75 E.26472
G1 X133.02 Y153.886 E.00466
G1 X133.15 Y153.938 E.00439
G1 X175.962 Y153.938 E1.34232
G1 X175.962 Y161.118 E.22512
G1 X82.782 Y161.118 E2.92159
G1 X82.782 Y153.938 E.22512
G1 X125.593 Y153.938 E1.34232
G1 X125.723 Y153.886 E.00439
G1 X125.782 Y153.75 E.00466
G1 X125.782 Y145.307 E.26472
G1 X125.738 Y145.186 E.00402
G1 X125.593 Y145.118 E.00501
G1 X82.782 Y145.118 E1.34232
G1 X82.782 Y137.938 E.22512
G1 X125.533 Y137.938 E1.34044
M204 P1000
G1 X125.686 Y138.027 F9000
G1 E-2.24 F4200
;WIPE_START
G1 F7200
G1 X125.714 Y137.894 E-.10302
G1 X125.782 Y137.75 E-.08863
G1 X125.782 Y136.45 E-.72034
;WIPE_END
G1 E-.048 F4200
G1 Z.4 F720
G1 X175.472 Y155.2 F9000
G1 Z.2 F720
G1 E3.2 F2400
M204 P800
;TYPE:Solid infill
;WIDTH:0.421329
G1 F1200
G1 X174.87 Y154.598 E.02679
G1 X174.334 Y154.598 E.01684
G1 X175.302 Y155.566 E.04305
G1 X175.302 Y156.101 E.01684
G1 X173.799 Y154.598 E.06687
G1 X173.264 Y154.598 E.01684
G1 X175.302 Y156.636 E.09068
G1 X175.302 Y157.171 E.01684
G1 X172.729 Y154.598 E.11449
G1 X172.194 Y154.598 E.01684
G1 X175.302 Y157.706 E.1383
G1 X175.302 Y158.241 E.01684
G1 X171.659 Y154.598 E.16212
G1 X171.124 Y154.598 E.01684
M73 P2 R62
G1 X175.302 Y158.776 E.18593
G1 X175.302 Y159.312 E.01684
G1 X170.588 Y154.598 E.20974
G1 X170.053 Y154.598 E.01684
G1 X175.302 Y159.847 E.23356
G1 X175.302 Y160.382 E.01684
G1 X169.518 Y154.598 E.25737
G1 X168.983 Y154.598 E.01684
G1 X174.843 Y160.458 E.26077
G1 X174.308 Y160.458 E.01684
G1 X168.448 Y154.598 E.26077
G1 X167.913 Y154.598 E.01684
G1 X173.773 Y160.458 E.26077
G1 X173.238 Y160.458 E.01684
G1 X167.378 Y154.598 E.26077
G1 X166.842 Y154.598 E.01684
G1 X172.703 Y160.458 E.26077
G1 X172.167 Y160.458 E.01684
G1 X166.307 Y154.598 E.26077
G1 X165.772 Y154.598 E.01684
G1 X171.632 Y160.458 E.26077
G1 X171.097 Y160.458 E.01684
G1 X165.237 Y154.598 E.26077
G1 X164.702 Y154.598 E.01684
G1 X170.562 Y160.458 E.26077
G1 X170.027 Y160.458 E.01684
G1 X164.167 Y154.598 E.26077
G1 X163.631 Y154.598 E.01684
G1 X169.492 Y160.458 E.26077
G1 X168.957 Y160.458 E.01684
G1 X163.096 Y154.598 E.26077
G1 X162.561 Y154.598 E.01684
G1 X168.421 Y160.458 E.26077
G1 X167.886 Y160.458 E.01684
G1 X162.026 Y154.598 E.26077
G1 X161.491 Y154.598 E.01684
G1 X167.351 Y160.458 E.26077
G1 X166.816 Y160.458 E.01684
G1 X160.956 Y154.598 E.26077
M73 P3 R62
G1 X160.421 Y154.598 E.01684
G1 X166.281 Y160.458 E.26077
G1 X165.746 Y160.458 E.01684
G1 X159.885 Y154.598 E.26077
G1 X159.35 Y154.598 E.01684
G1 X165.21 Y160.458 E.26077
G1 X164.675 Y160.458 E.01684
G1 X158.815 Y154.598 E.26077
G1 X158.28 Y154.598 E.01684
G1 X164.14 Y160.458 E.26077
G1 X163.605 Y160.458 E.01684
G1 X157.745 Y154.598 E.26077
G1 X157.21 Y154.598 E.01684
G1 X163.07 Y160.458 E.26077
G1 X162.535 Y160.458 E.01684
G1 X156.674 Y154.598 E.26077
G1 X156.139 Y154.598 E.01684
G1 X162 Y160.458 E.26077
G1 X161.464 Y160.458 E.01684
G1 X155.604 Y154.598 E.26077
G1 X155.069 Y154.598 E.01684
G1 X160.929 Y160.458 E.26077
G1 X160.394 Y160.458 E.01684
G1 X154.534 Y154.598 E.26077
G1 X153.999 Y154.598 E.01684
G1 X159.859 Y160.458 E.26077
G1 X159.324 Y160.458 E.01684
G1 X153.464 Y154.598 E.26077
G1 X152.928 Y154.598 E.01684
G1 X158.789 Y160.458 E.26077
G1 X158.254 Y160.458 E.01684
G1 X152.393 Y154.598 E.26077
G1 X151.858 Y154.598 E.01684
G1 X157.718 Y160.458 E.26077
G1 X157.183 Y160.458 E.01684
G1 X151.323 Y154.598 E.26077
G1 X150.788 Y154.598 E.01684
G1 X156.648 Y160.458 E.26077
G1 X156.113 Y160.458 E.01684
G1 X150.253 Y154.598 E.26077
G1 X149.718 Y154.598 E.01684
G1 X155.578 Y160.458 E.26077
G1 X155.043 Y160.458 E.01684
G1 X149.182 Y154.598 E.26077
G1 X148.647 Y154.598 E.01684
G1 X154.507 Y160.458 E.26077
G1 X153.972 Y160.458 E.01684
G1 X148.112 Y154.598 E.26077
G1 X147.577 Y154.598 E.01684
G1 X153.437 Y160.458 E.26077
G1 X152.902 Y160.458 E.01684
G1 X147.042 Y154.598 E.26077
G1 X146.507 Y154.598 E.01684
G1 X152.367 Y160.458 E.26077
G1 X151.832 Y160.458 E.01684
G1 X145.971 Y154.598 E.26077
G1 X145.436 Y154.598 E.01684
G1 X151.297 Y160.458 E.26077
G1 X150.761 Y160.458 E.01684
G1 X144.901 Y154.598 E.26077
G1 X144.366 Y154.598 E.01684
G1 X150.226 Y160.458 E.26077
G1 X149.691 Y160.458 E.01684
G1 X143.831 Y154.598 E.26077
G1 X143.296 Y154.598 E.01684
G1 X149.156 Y160.458 E.26077
G1 X148.621 Y160.458 E.01684
G1 X142.761 Y154.598 E.26077
G1 X142.225 Y154.598 E.01684
G1 X148.086 Y160.458 E.26077
G1 X147.551 Y160.458 E.01684
G1 X141.69 Y154.598 E.26077
G1 X141.155 Y154.598 E.01684
G1 X147.015 Y160.458 E.26077
G1 X146.48 Y160.458 E.01684
G1 X140.62 Y154.598 E.26077
G1 X140.085 Y154.598 E.01684
G1 X145.945 Y160.458 E.26077
G1 X145.41 Y160.458 E.01684
G1 X139.55 Y154.598 E.26077
G1 X139.015 Y154.598 E.01684
G1 X144.875 Y160.458 E.26077
G1 X144.34 Y160.458 E.01684
G1 X138.479 Y154.598 E.26077
G1 X137.944 Y154.598 E.01684
G1 X143.804 Y160.458 E.26077
G1 X143.269 Y160.458 E.01684
G1 X137.409 Y154.598 E.26077
G1 X136.874 Y154.598 E.01684
G1 X142.734 Y160.458 E.26077
G1 X142.199 Y160.458 E.01684
G1 X136.339 Y154.598 E.26077
G1 X135.804 Y154.598 E.01684
G1 X141.664 Y160.458 E.26077
G1 X141.129 Y160.458 E.01684
G1 X135.268 Y154.598 E.26077
G1 X134.733 Y154.598 E.01684
G1 X140.594 Y160.458 E.26077
G1 X140.058 Y160.458 E.01684
G1 X134.198 Y154.598 E.26077
G1 X133.663 Y154.598 E.01684
G1 X139.693 Y160.628 E.26832
M204 P1000
G1 E-2.24 F4200
;WIPE_START
G1 F7200
G1 X138.529 Y159.464 E-.912
;WIPE_END
G1 E-.048 F4200
G1 Z.4 F720
G1 X174.754 Y138.428 F9000
G1 Z.2 F720
G1 E3.2 F2400
M204 P800
G1 F1200
G1 X175.302 Y138.976 E.02436
G1 X175.302 Y139.511 E.01684
G1 X174.389 Y138.598 E.04063
G1 X173.854 Y138.598 E.01684
G1 X175.302 Y140.046 E.06444
G1 X175.302 Y140.581 E.01684
G1 X173.319 Y138.598 E.08825
G1 X172.784 Y138.598 E.01684
G1 X175.302 Y141.116 E.11207
G1 X175.302 Y141.652 E.01684
G1 X172.248 Y138.598 E.13588
G1 X171.713 Y138.598 E.01684
G1 X175.302 Y142.187 E.15969
G1 X175.302 Y142.722 E.01684
G1 X171.178 Y138.598 E.1835
G1 X170.643 Y138.598 E.01684
G1 X175.302 Y143.257 E.20732
G1 X175.302 Y143.792 E.01684
G1 X170.108 Y138.598 E.23113
G1 X169.573 Y138.598 E.01684
G1 X175.302 Y144.327 E.25494
G1 X175.302 Y144.458 E.00412
G1 X174.898 Y144.458 E.01272
G1 X169.038 Y138.598 E.26077
G1 X168.502 Y138.598 E.01684
G1 X174.363 Y144.458 E.26078
G1 X173.828 Y144.459 E.01683
G1 X167.967 Y138.598 E.26079
G1 X167.432 Y138.598 E.01684
G1 X173.293 Y144.459 E.26079
G1 X172.758 Y144.459 E.01683
G1 X166.897 Y138.598 E.2608
G1 X166.362 Y138.598 E.01684
G1 X172.223 Y144.459 E.2608
G1 X171.688 Y144.459 E.01683
G1 X165.827 Y138.598 E.26081
G1 X165.291 Y138.598 E.01684
G1 X171.153 Y144.459 E.26081
G1 X170.618 Y144.459 E.01683
G1 X164.756 Y138.598 E.26082
G1 X164.221 Y138.598 E.01684
G1 X170.083 Y144.46 E.26083
G1 X169.548 Y144.46 E.01683
G1 X163.686 Y138.598 E.26083
G1 X163.151 Y138.598 E.01684
G1 X169.013 Y144.46 E.26084
G1 X168.478 Y144.46 E.01683
G1 X162.616 Y138.598 E.26084
G1 X162.081 Y138.598 E.01684
G1 X167.943 Y144.46 E.26085
G1 X167.408 Y144.46 E.01683
G1 X161.545 Y138.598 E.26086
G1 X161.01 Y138.598 E.01684
G1 X166.873 Y144.46 E.26086
G1 X166.338 Y144.46 E.01683
G1 X160.475 Y138.598 E.26087
G1 X159.94 Y138.598 E.01684
G1 X165.802 Y144.461 E.26087
G1 X165.267 Y144.461 E.01683
G1 X159.405 Y138.598 E.26088
G1 X158.87 Y138.598 E.01684
G1 X164.732 Y144.461 E.26088
G1 X164.197 Y144.461 E.01683
G1 X158.334 Y138.598 E.26089
G1 X157.799 Y138.598 E.01684
G1 X163.662 Y144.461 E.2609
G1 X163.127 Y144.461 E.01683
G1 X157.264 Y138.598 E.2609
G1 X156.729 Y138.598 E.01684
G1 X162.592 Y144.461 E.26091
G1 X162.057 Y144.461 E.01683
G1 X156.194 Y138.598 E.26091
G1 X155.659 Y138.598 E.01684
G1 X161.522 Y144.462 E.26092
G1 X160.987 Y144.462 E.01683
M73 P4 R62
G1 X155.124 Y138.598 E.26092
G1 X154.588 Y138.598 E.01684
G1 X160.452 Y144.462 E.26093
G1 X159.917 Y144.462 E.01683
G1 X154.053 Y138.598 E.26094
G1 X153.518 Y138.598 E.01684
G1 X159.382 Y144.462 E.26094
G1 X158.847 Y144.462 E.01683
G1 X152.983 Y138.598 E.26095
G1 X152.448 Y138.598 E.01684
G1 X158.312 Y144.462 E.26095
G1 X157.777 Y144.463 E.01683
G1 X151.913 Y138.598 E.26096
G1 X151.378 Y138.598 E.01684
G1 X157.242 Y144.463 E.26096
G1 X156.707 Y144.463 E.01683
G1 X150.842 Y138.598 E.26097
G1 X150.307 Y138.598 E.01684
G1 X156.172 Y144.463 E.26098
G1 X155.637 Y144.463 E.01683
G1 X149.772 Y138.598 E.26098
G1 X149.237 Y138.598 E.01684
G1 X155.102 Y144.463 E.26099
G1 X154.567 Y144.463 E.01683
G1 X148.702 Y138.598 E.26099
G1 X148.167 Y138.598 E.01684
G1 X154.032 Y144.463 E.261
G1 X153.497 Y144.464 E.01683
G1 X147.631 Y138.598 E.26101
G1 X147.096 Y138.598 E.01684
G1 X152.962 Y144.464 E.26101
G1 X152.427 Y144.464 E.01683
G1 X146.561 Y138.598 E.26102
G1 X146.026 Y138.598 E.01684
G1 X151.892 Y144.464 E.26102
G1 X151.357 Y144.464 E.01683
G1 X145.491 Y138.598 E.26103
G1 X144.956 Y138.598 E.01684
G1 X150.822 Y144.464 E.26103
G1 X150.287 Y144.464 E.01683
G1 X144.421 Y138.598 E.26104
G1 X143.885 Y138.598 E.01684
G1 X149.752 Y144.464 E.26105
G1 X149.217 Y144.465 E.01683
G1 X143.35 Y138.598 E.26105
G1 X142.815 Y138.598 E.01684
G1 X148.682 Y144.465 E.26106
G1 X148.147 Y144.465 E.01683
G1 X142.28 Y138.598 E.26106
G1 X141.745 Y138.598 E.01684
G1 X147.612 Y144.465 E.26107
G1 X147.077 Y144.465 E.01683
G1 X141.21 Y138.598 E.26107
G1 X140.674 Y138.598 E.01684
G1 X146.542 Y144.465 E.26108
G1 X146.007 Y144.465 E.01683
M73 P4 R61
G1 X140.139 Y138.598 E.26109
G1 X139.604 Y138.598 E.01684
G1 X145.472 Y144.465 E.26109
G1 X144.937 Y144.466 E.01683
G1 X139.069 Y138.598 E.2611
G1 X138.534 Y138.598 E.01684
G1 X144.402 Y144.466 E.2611
G1 X143.867 Y144.466 E.01683
G1 X137.999 Y138.598 E.26111
G1 X137.464 Y138.598 E.01684
G1 X143.332 Y144.466 E.26111
G1 X142.797 Y144.466 E.01683
G1 X136.928 Y138.598 E.26112
G1 X136.393 Y138.598 E.01684
G1 X142.262 Y144.466 E.26113
G1 X141.727 Y144.466 E.01683
G1 X135.858 Y138.598 E.26113
G1 X135.323 Y138.598 E.01684
G1 X141.192 Y144.467 E.26114
G1 X140.656 Y144.467 E.01683
G1 X134.788 Y138.598 E.26114
G1 X134.253 Y138.598 E.01684
G1 X140.121 Y144.467 E.26115
G1 X139.586 Y144.467 E.01683
G1 X133.548 Y138.428 E.26871
M204 P1000
G1 E-2.24 F4200
;WIPE_START
G1 F7200
G1 X134.712 Y139.592 E-.912
;WIPE_END
G1 E-.048 F4200
G1 Z.4 F720
G1 X156.672 Y95.193 F9000
G1 Z.2 F720
G1 E3.2 F2400
M204 P800
G1 F1200
G1 X156.076 Y94.598 E.02649
G1 X155.541 Y94.598 E.01684
G1 X156.502 Y95.559 E.04276
G1 X156.502 Y96.094 E.01684
G1 X155.006 Y94.598 E.06657
G1 X154.471 Y94.598 E.01684
G1 X156.502 Y96.629 E.09038
G1 X156.502 Y97.164 E.01684
G1 X153.936 Y94.598 E.1142
G1 X153.401 Y94.598 E.01684
G1 X156.502 Y97.699 E.13801
G1 X156.502 Y98.235 E.01684
G1 X152.865 Y94.598 E.16182
G1 X152.33 Y94.598 E.01684
G1 X156.502 Y98.77 E.18564
G1 X156.502 Y99.305 E.01684
G1 X151.795 Y94.598 E.20945
G1 X151.26 Y94.598 E.01684
G1 X156.502 Y99.84 E.23326
G1 X156.502 Y100.375 E.01684
