; generated by PrusaSlicer 2.5.0+win64 on 2023-03-02 at 21:35:22 UTC


;
;

;
;
; 

; external perimeters extrusion width = 0.45mm
; perimeters extrusion width = 0.45mm
; infill extrusion width = 0.45mm
; solid infill extrusion width = 0.45mm
; top infill extrusion width = 0.40mm
; first layer extrusion width = 0.42mm

; external perimeters extrusion width = 0.45mm
; perimeters extrusion width = 0.45mm
; infill extrusion width = 0.45mm
; solid infill extrusion width = 0.45mm
; top infill extrusion width = 0.40mm
; first layer extrusion width = 0.42mm

; external perimeters extrusion width = 0.45mm
; perimeters extrusion width = 0.45mm
; infill extrusion width = 0.45mm
; solid infill extrusion width = 0.45mm
; top infill extrusion width = 0.40mm
; first layer extrusion width = 0.42mm

; external perimeters extrusion width = 0.45mm
; perimeters extrusion width = 0.45mm
; infill extrusion width = 0.45mm
; solid infill extrusion width = 0.45mm
; top infill extrusion width = 0.40mm
; first layer extrusion width = 0.42mm

M73 P0 R64
M201 X2500 Y2500 Z400 E5000 ; sets maximum accelerations, mm/sec^2
M203 X180 Y180 Z12 E80 ; sets maximum feedrates, mm / sec
M204 P1250 R1250 T2500 ; sets acceleration (P, T) and retract acceleration (R), mm/sec^2
M205 X8.00 Y8.00 Z2.00 E10.00 ; sets the jerk limits, mm/sec
M205 S0 T0 ; sets the minimum extruding and travel feed rate, mm/sec
M107
;TYPE:Custom
M862.3 P "MINI" ; printer model check
G90 ; use absolute coordinates
M83 ; extruder relative mode
M104 S170 ; set extruder temp for bed leveling
M140 S60 ; set bed temp
M109 R170 ; wait for bed leveling temp
M190 S60 ; wait for bed temp
M204 T1250 ; set travel acceleration
G28 ; home all without mesh bed level
G29 ; mesh bed leveling 
M204 T2500 ; restore travel acceleration
M104 S215 ; set extruder temp
G92 E0
G1 Y-2 X179 F2400
G1 Z3 F720
M109 S215 ; wait for extruder temp

; intro line
G1 X170 F1000
G1 Z0.2 F720
G1 X110 E8 F900
G1 X40 E10 F700
G92 E0

M221 S95 ; set flow
G21 ; set units to millimeters
G90 ; use absolute coordinates
M83 ; use relative distances for extrusion
M900 K0.2 ; Filament gcode LA 1.5
; ; Filament gcode LA 1.0
M107
;LAYER_CHANGE
;Z:0.2
;HEIGHT:0.2
;BEFORE_LAYER_CHANGE
G92 E0.0
;0.2


G1 E-3.2 F4200
G1 Z.2 F720
;AFTER_LAYER_CHANGE
;0.2
G1 Z.4
G1 X10.01 Y16.107 F9000
G1 Z.2 F720
G1 E3.2 F2400
M204 P800
;TYPE:Skirt/Brim
;WIDTH:0.42
G1 F1200
G1 X86.865 Y2.844 E2.44535
G1 X143.669 Y2.809 E1.78106
G1 X144.976 Y3.201 E.04278
G1 X145.855 Y4.252 E.04297
G1 X164.655 Y48.252 E1.50024
G1 X164.846 Y49.178 E.02965
G1 X165.14 Y137.311 E2.76335
G1 X165.14 Y161.319 E.75275
G1 X164.749 Y162.626 E.04278
G1 X163.123 Y163.669 E.06057
G1 X85.337 Y175.565 E2.46726
G1 X28.578 Y175.593 E1.77965
M73 P0 R63
G1 X27.271 Y175.201 E.04278
G1 X26.392 Y174.15 E.04297
G1 X7.592 Y130.15 E1.50024
G1 X7.401 Y129.216 E.02989
M73 P1 R63
G1 X7.401 Y105.198 E.75305
G1 X8.037 Y18.432 E2.72058
G1 X8.438 Y17.128 E.04278
G1 X9.96 Y16.139 E.05688
M204 P1000
; printing object div_16_19.stl_4 id:3 copy 0
G1 E-2.24 F4200
;WIPE_START
G1 F7200
G1 X11.581 Y15.859 E-.912
;WIPE_END
G1 E-.048 F4200
G1 Z.4 F720
G1 X119.495 Y100.536 F9000
G1 Z.2 F720
G1 E3.2 F2400
M204 P800
;TYPE:Perimeter
;WIDTH:0.419999
G1 F1200
G1 X119.23 Y100.625 E.00874
G1 X119.049 Y100.82 E.00835
G1 X118.976 Y101.097 E.00899
G1 X118.976 Y137.54 E1.14264
G1 X119.071 Y137.854 E.01028
G1 X119.289 Y138.046 E.0091
G1 X119.542 Y138.106 E.00815
G1 X161.976 Y138.106 E1.3305
G1 X161.976 Y144.532 E.20148
G1 X119.492 Y144.534 E1.33204
G1 X119.228 Y144.627 E.00879
G1 X119.036 Y144.844 E.0091
G1 X118.976 Y145.097 E.00815
G1 X118.976 Y153.54 E.26472
G1 X118.986 Y153.644 E.00328
G1 X119.089 Y153.88 E.00805
G1 X119.324 Y154.062 E.00933
G1 X119.542 Y154.106 E.00696
G1 X161.976 Y154.106 E1.3305
G1 X161.976 Y160.532 E.20148
G1 X69.55 Y160.532 E2.89794
G1 X69.55 Y154.106 E.20148
G1 X111.985 Y154.106 E1.3305
G1 X112.082 Y154.097 E.00308
G1 X112.296 Y154.012 E.00721
G1 X112.478 Y153.818 E.00835
G1 X112.55 Y153.54 E.00899
G1 X112.55 Y145.097 E.26472
G1 X112.543 Y145.004 E.00293
G1 X112.455 Y144.784 E.00744
G1 X112.238 Y144.591 E.0091
G1 X111.985 Y144.532 E.00815
G1 X69.55 Y144.532 E1.3305
G1 X69.55 Y138.106 E.20148
G1 X111.985 Y138.106 E1.3305
G1 X112.078 Y138.098 E.00293
G1 X112.298 Y138.011 E.00744
G1 X112.491 Y137.793 E.0091
G1 X112.55 Y137.54 E.00815
G1 X112.55 Y101.097 E1.14264
G1 X112.541 Y100.993 E.00328
G1 X112.437 Y100.758 E.00805
G1 X112.202 Y100.575 E.00933
G1 X111.985 Y100.532 E.00696
G1 X88.35 Y100.532 E.74104
G1 X88.35 Y94.106 E.20148
G1 X143.176 Y94.106 E1.71902
G1 X143.176 Y100.532 E.20148
G1 X119.554 Y100.532 E.74064
M204 P1000
G1 X119.542 Y100.909 F9000
M204 P800
;TYPE:External perimeter
G1 F1200
G1 X119.412 Y100.961 E.00439
G1 X119.353 Y101.097 E.00466
G1 X119.353 Y137.54 E1.14264
G1 X119.397 Y137.661 E.00402
M73 P2 R63
G1 X119.542 Y137.729 E.00501
G1 X162.353 Y137.729 E1.34232
G1 X162.353 Y144.909 E.22512
G1 X119.542 Y144.909 E1.34232
G1 X119.421 Y144.952 E.00402
G1 X119.353 Y145.097 E.00501
G1 X119.353 Y153.54 E.26472
G1 X119.412 Y153.677 E.00466
G1 X119.542 Y153.729 E.00439
G1 X162.353 Y153.729 E1.34232
G1 X162.353 Y160.909 E.22512
G1 X69.173 Y160.909 E2.92159
G1 X69.173 Y153.729 E.22512
G1 X111.985 Y153.729 E1.34232
G1 X112.115 Y153.677 E.00439
M73 P2 R62
G1 X112.173 Y153.54 E.00466
G1 X112.173 Y145.097 E.26472
G1 X112.129 Y144.977 E.00402
G1 X111.985 Y144.909 E.00501
G1 X69.173 Y144.909 E1.34232
G1 X69.173 Y137.729 E.22512
G1 X111.985 Y137.729 E1.34232
G1 X112.105 Y137.685 E.00402
G1 X112.173 Y137.54 E.00501
G1 X112.173 Y101.097 E1.14264
G1 X112.115 Y100.961 E.00466
G1 X111.985 Y100.909 E.00439
G1 X87.973 Y100.909 E.75286
G1 X87.973 Y93.729 E.22512
G1 X143.553 Y93.729 E1.74267
G1 X143.553 Y100.909 E.22512
G1 X119.602 Y100.909 E.75098
M204 P1000
G1 X119.434 Y100.819 F9000
G1 E-2.24 F4200
;WIPE_START
G1 F7200
G1 X119.412 Y100.961 E-.10918
G1 X119.353 Y101.097 E-.08232
G1 X119.353 Y102.397 E-.72051
;WIPE_END
G1 E-.048 F4200
G1 Z.4 F720
G1 X161.863 Y154.991 F9000
G1 Z.2 F720
G1 E3.2 F2400
M204 P800
;TYPE:Solid infill
;WIDTH:0.421329
G1 F1200
G1 X161.261 Y154.389 E.02679
G1 X160.726 Y154.389 E.01684
G1 X161.693 Y155.356 E.04305
G1 X161.693 Y155.891 E.01684
G1 X160.191 Y154.389 E.06687
G1 X159.656 Y154.389 E.01684
G1 X161.693 Y156.426 E.09068
G1 X161.693 Y156.962 E.01684
G1 X159.12 Y154.389 E.11449
G1 X158.585 Y154.389 E.01684
G1 X161.693 Y157.497 E.1383
G1 X161.693 Y158.032 E.01684
G1 X158.05 Y154.389 E.16212
G1 X157.515 Y154.389 E.01684
G1 X161.693 Y158.567 E.18593
G1 X161.693 Y159.102 E.01684
G1 X156.98 Y154.389 E.20974
G1 X156.445 Y154.389 E.01684
G1 X161.693 Y159.637 E.23356
G1 X161.693 Y160.173 E.01684
G1 X155.909 Y154.389 E.25737
G1 X155.374 Y154.389 E.01684
G1 X161.235 Y160.249 E.26077
G1 X160.699 Y160.249 E.01684
G1 X154.839 Y154.389 E.26077
G1 X154.304 Y154.389 E.01684
G1 X160.164 Y160.249 E.26077
G1 X159.629 Y160.249 E.01684
G1 X153.769 Y154.389 E.26077
G1 X153.234 Y154.389 E.01684
G1 X159.094 Y160.249 E.26077
G1 X158.559 Y160.249 E.01684
G1 X152.699 Y154.389 E.26077
G1 X152.163 Y154.389 E.01684
G1 X158.024 Y160.249 E.26077
G1 X157.488 Y160.249 E.01684
G1 X151.628 Y154.389 E.26077
G1 X151.093 Y154.389 E.01684
G1 X156.953 Y160.249 E.26077
G1 X156.418 Y160.249 E.01684
G1 X150.558 Y154.389 E.26077
G1 X150.023 Y154.389 E.01684
G1 X155.883 Y160.249 E.26077
G1 X155.348 Y160.249 E.01684
G1 X149.488 Y154.389 E.26077
G1 X148.952 Y154.389 E.01684
G1 X154.813 Y160.249 E.26077
G1 X154.278 Y160.249 E.01684
G1 X148.417 Y154.389 E.26077
G1 X147.882 Y154.389 E.01684
M73 P3 R62
G1 X153.742 Y160.249 E.26077
G1 X153.207 Y160.249 E.01684
G1 X147.347 Y154.389 E.26077
G1 X146.812 Y154.389 E.01684
G1 X152.672 Y160.249 E.26077
G1 X152.137 Y160.249 E.01684
G1 X146.277 Y154.389 E.26077
G1 X145.742 Y154.389 E.01684
G1 X151.602 Y160.249 E.26077
G1 X151.067 Y160.249 E.01684
G1 X145.206 Y154.389 E.26077
G1 X144.671 Y154.389 E.01684
G1 X150.532 Y160.249 E.26077
G1 X149.996 Y160.249 E.01684
G1 X144.136 Y154.389 E.26077
G1 X143.601 Y154.389 E.01684
G1 X149.461 Y160.249 E.26077
G1 X148.926 Y160.249 E.01684
G1 X143.066 Y154.389 E.26077
G1 X142.531 Y154.389 E.01684
G1 X148.391 Y160.249 E.26077
G1 X147.856 Y160.249 E.01684
G1 X141.996 Y154.389 E.26077
G1 X141.46 Y154.389 E.01684
G1 X147.321 Y160.249 E.26077
G1 X146.785 Y160.249 E.01684
G1 X140.925 Y154.389 E.26077
G1 X140.39 Y154.389 E.01684
G1 X146.25 Y160.249 E.26077
G1 X145.715 Y160.249 E.01684
G1 X139.855 Y154.389 E.26077
G1 X139.32 Y154.389 E.01684
G1 X145.18 Y160.249 E.26077
G1 X144.645 Y160.249 E.01684
G1 X138.785 Y154.389 E.26077
G1 X138.249 Y154.389 E.01684
G1 X144.11 Y160.249 E.26077
G1 X143.575 Y160.249 E.01684
G1 X137.714 Y154.389 E.26077
G1 X137.179 Y154.389 E.01684
G1 X143.039 Y160.249 E.26077
G1 X142.504 Y160.249 E.01684
G1 X136.644 Y154.389 E.26077
G1 X136.109 Y154.389 E.01684
G1 X141.969 Y160.249 E.26077
G1 X141.434 Y160.249 E.01684
G1 X135.574 Y154.389 E.26077
G1 X135.039 Y154.389 E.01684
G1 X140.899 Y160.249 E.26077
G1 X140.364 Y160.249 E.01684
G1 X134.503 Y154.389 E.26077
G1 X133.968 Y154.389 E.01684
G1 X139.828 Y160.249 E.26077
G1 X139.293 Y160.249 E.01684
G1 X133.433 Y154.389 E.26077
G1 X132.898 Y154.389 E.01684
G1 X138.758 Y160.249 E.26077
G1 X138.223 Y160.249 E.01684
G1 X132.363 Y154.389 E.26077
G1 X131.828 Y154.389 E.01684
G1 X137.688 Y160.249 E.26077
G1 X137.153 Y160.249 E.01684
G1 X131.292 Y154.389 E.26077
G1 X130.757 Y154.389 E.01684
G1 X136.618 Y160.249 E.26077
G1 X136.082 Y160.249 E.01684
G1 X130.222 Y154.389 E.26077
G1 X129.687 Y154.389 E.01684
G1 X135.547 Y160.249 E.26077
G1 X135.012 Y160.249 E.01684
G1 X129.152 Y154.389 E.26077
G1 X128.617 Y154.389 E.01684
G1 X134.477 Y160.249 E.26077
G1 X133.942 Y160.249 E.01684
G1 X128.082 Y154.389 E.26077
G1 X127.546 Y154.389 E.01684
G1 X133.407 Y160.249 E.26077
G1 X132.872 Y160.249 E.01684
G1 X127.011 Y154.389 E.26077
G1 X126.476 Y154.389 E.01684
G1 X132.336 Y160.249 E.26077
G1 X131.801 Y160.249 E.01684
G1 X125.941 Y154.389 E.26077
G1 X125.406 Y154.389 E.01684
G1 X131.266 Y160.249 E.26077
G1 X130.731 Y160.249 E.01684
G1 X124.871 Y154.389 E.26077
G1 X124.336 Y154.389 E.01684
G1 X130.196 Y160.249 E.26077
G1 X129.661 Y160.249 E.01684
G1 X123.8 Y154.389 E.26077
G1 X123.265 Y154.389 E.01684
G1 X129.125 Y160.249 E.26077
G1 X128.59 Y160.249 E.01684
G1 X122.73 Y154.389 E.26077
G1 X122.195 Y154.389 E.01684
G1 X128.055 Y160.249 E.26077
G1 X127.52 Y160.249 E.01684
G1 X121.66 Y154.389 E.26077
G1 X121.125 Y154.389 E.01684
G1 X126.985 Y160.249 E.26077
G1 X126.45 Y160.249 E.01684
G1 X120.589 Y154.389 E.26077
G1 X120.054 Y154.389 E.01684
G1 X126.084 Y160.419 E.26832
M204 P1000
G1 E-2.24 F4200
;WIPE_START
G1 F7200
G1 X124.921 Y159.255 E-.912
;WIPE_END
G1 E-.048 F4200
G1 Z.4 F720
G1 X161.146 Y138.219 F9000
G1 Z.2 F720
G1 E3.2 F2400
M204 P800
G1 F1200
G1 X161.693 Y138.766 E.02436
G1 X161.693 Y139.302 E.01684
G1 X160.78 Y138.389 E.04063
G1 X160.245 Y138.389 E.01684
G1 X161.693 Y139.837 E.06444
G1 X161.693 Y140.372 E.01684
G1 X159.71 Y138.389 E.08825
G1 X159.175 Y138.389 E.01684
G1 X161.693 Y140.907 E.11207
G1 X161.693 Y141.442 E.01684
G1 X158.64 Y138.389 E.13588
G1 X158.105 Y138.389 E.01684
G1 X161.693 Y141.977 E.15969
G1 X161.693 Y142.513 E.01684
G1 X157.569 Y138.389 E.1835
G1 X157.034 Y138.389 E.01684
G1 X161.693 Y143.048 E.20732
G1 X161.693 Y143.583 E.01684
G1 X156.499 Y138.389 E.23113
G1 X155.964 Y138.389 E.01684
G1 X161.693 Y144.118 E.25494
G1 X161.693 Y144.249 E.00412
G1 X161.289 Y144.249 E.01272
G1 X155.429 Y138.389 E.26077
G1 X154.894 Y138.389 E.01684
G1 X160.754 Y144.249 E.26078
G1 X160.219 Y144.249 E.01683
G1 X154.359 Y138.389 E.26079
G1 X153.823 Y138.389 E.01684
G1 X159.684 Y144.249 E.26079
G1 X159.149 Y144.25 E.01683
G1 X153.288 Y138.389 E.2608
G1 X152.753 Y138.389 E.01684
G1 X158.614 Y144.25 E.2608
G1 X158.079 Y144.25 E.01683
G1 X152.218 Y138.389 E.26081
G1 X151.683 Y138.389 E.01684
G1 X157.544 Y144.25 E.26081
G1 X157.009 Y144.25 E.01683
G1 X151.148 Y138.389 E.26082
G1 X150.612 Y138.389 E.01684
G1 X156.474 Y144.25 E.26083
G1 X155.939 Y144.25 E.01683
G1 X150.077 Y138.389 E.26083
G1 X149.542 Y138.389 E.01684
G1 X155.404 Y144.25 E.26084
G1 X154.869 Y144.251 E.01683
G1 X149.007 Y138.389 E.26084
G1 X148.472 Y138.389 E.01684
G1 X154.334 Y144.251 E.26085
G1 X153.799 Y144.251 E.01683
G1 X147.937 Y138.389 E.26086
G1 X147.402 Y138.389 E.01684
G1 X153.264 Y144.251 E.26086
G1 X152.729 Y144.251 E.01683
G1 X146.866 Y138.389 E.26087
G1 X146.331 Y138.389 E.01684
M73 P3 R61
G1 X152.194 Y144.251 E.26087
G1 X151.659 Y144.251 E.01683
G1 X145.796 Y138.389 E.26088
G1 X145.261 Y138.389 E.01684
G1 X151.124 Y144.251 E.26088
G1 X150.589 Y144.252 E.01683
G1 X144.726 Y138.389 E.26089
G1 X144.191 Y138.389 E.01684
G1 X150.054 Y144.252 E.2609
G1 X149.519 Y144.252 E.01683
G1 X143.656 Y138.389 E.2609
G1 X143.12 Y138.389 E.01684
G1 X148.984 Y144.252 E.26091
G1 X148.449 Y144.252 E.01683
M73 P4 R61
G1 X142.585 Y138.389 E.26091
G1 X142.05 Y138.389 E.01684
G1 X147.914 Y144.252 E.26092
G1 X147.379 Y144.252 E.01683
G1 X141.515 Y138.389 E.26092
G1 X140.98 Y138.389 E.01684
G1 X146.844 Y144.253 E.26093
G1 X146.309 Y144.253 E.01683
G1 X140.445 Y138.389 E.26094
G1 X139.909 Y138.389 E.01684
G1 X145.774 Y144.253 E.26094
G1 X145.239 Y144.253 E.01683
G1 X139.374 Y138.389 E.26095
G1 X138.839 Y138.389 E.01684
G1 X144.704 Y144.253 E.26095
G1 X144.169 Y144.253 E.01683
G1 X138.304 Y138.389 E.26096
G1 X137.769 Y138.389 E.01684
G1 X143.633 Y144.253 E.26096
G1 X143.098 Y144.253 E.01683
G1 X137.234 Y138.389 E.26097
G1 X136.699 Y138.389 E.01684
G1 X142.563 Y144.254 E.26098
G1 X142.028 Y144.254 E.01683
G1 X136.163 Y138.389 E.26098
G1 X135.628 Y138.389 E.01684
G1 X141.493 Y144.254 E.26099
G1 X140.958 Y144.254 E.01683
G1 X135.093 Y138.389 E.26099
G1 X134.558 Y138.389 E.01684
G1 X140.423 Y144.254 E.261
G1 X139.888 Y144.254 E.01683
G1 X134.023 Y138.389 E.26101
G1 X133.488 Y138.389 E.01684
G1 X139.353 Y144.254 E.26101
G1 X138.818 Y144.254 E.01683
G1 X132.952 Y138.389 E.26102
G1 X132.417 Y138.389 E.01684
G1 X138.283 Y144.255 E.26102
G1 X137.748 Y144.255 E.01683
G1 X131.882 Y138.389 E.26103
G1 X131.347 Y138.389 E.01684
G1 X137.213 Y144.255 E.26103
G1 X136.678 Y144.255 E.01683
G1 X130.812 Y138.389 E.26104
G1 X130.277 Y138.389 E.01684
G1 X136.143 Y144.255 E.26105
G1 X135.608 Y144.255 E.01683
G1 X129.742 Y138.389 E.26105
G1 X129.206 Y138.389 E.01684
G1 X135.073 Y144.255 E.26106
G1 X134.538 Y144.255 E.01683
G1 X128.671 Y138.389 E.26106
G1 X128.136 Y138.389 E.01684
G1 X134.003 Y144.256 E.26107
G1 X133.468 Y144.256 E.01683
G1 X127.601 Y138.389 E.26107
G1 X127.066 Y138.389 E.01684
G1 X132.933 Y144.256 E.26108
G1 X132.398 Y144.256 E.01683
G1 X126.531 Y138.389 E.26109
G1 X125.996 Y138.389 E.01684
G1 X131.863 Y144.256 E.26109
G1 X131.328 Y144.256 E.01683
G1 X125.46 Y138.389 E.2611
G1 X124.925 Y138.389 E.01684
G1 X130.793 Y144.256 E.2611
G1 X130.258 Y144.257 E.01683
G1 X124.39 Y138.389 E.26111
G1 X123.855 Y138.389 E.01684
G1 X129.723 Y144.257 E.26111
G1 X129.188 Y144.257 E.01683
G1 X123.32 Y138.389 E.26112
G1 X122.785 Y138.389 E.01684
G1 X128.653 Y144.257 E.26113
G1 X128.118 Y144.257 E.01683
G1 X122.249 Y138.389 E.26113
G1 X121.714 Y138.389 E.01684
G1 X127.583 Y144.257 E.26114
G1 X127.048 Y144.257 E.01683
G1 X121.179 Y138.389 E.26114
G1 X120.644 Y138.389 E.01684
G1 X126.513 Y144.257 E.26115
G1 X125.978 Y144.258 E.01683
G1 X119.939 Y138.219 E.26871
M204 P1000
G1 E-2.24 F4200
;WIPE_START
G1 F7200
G1 X121.103 Y139.383 E-.912
;WIPE_END
G1 E-.048 F4200
G1 Z.4 F720
G1 X143.063 Y94.984 F9000
G1 Z.2 F720
G1 E3.2 F2400
M204 P800
G1 F1200
G1 X142.468 Y94.389 E.02649
G1 X141.932 Y94.389 E.01684
G1 X142.893 Y95.35 E.04276
G1 X142.893 Y95.885 E.01684
G1 X141.397 Y94.389 E.06657
G1 X140.862 Y94.389 E.01684
G1 X142.893 Y96.42 E.09038
G1 X142.893 Y96.955 E.01684
G1 X140.327 Y94.389 E.1142
G1 X139.792 Y94.389 E.01684
G1 X142.893 Y97.49 E.13801
G1 X142.893 Y98.025 E.01684
G1 X139.257 Y94.389 E.16182
G1 X138.722 Y94.389 E.01684
G1 X142.893 Y98.56 E.18564
G1 X142.893 Y99.096 E.01684
G1 X138.186 Y94.389 E.20945
G1 X137.651 Y94.389 E.01684
G1 X142.893 Y99.631 E.23326
