; generated by PrusaSlicer 2.5.0+win64 on 2023-02-19 at 20:09:05 UTC


;
;

;
;
; 

; external perimeters extrusion width = 0.45mm
; perimeters extrusion width = 0.45mm
; infill extrusion width = 0.45mm
; solid infill extrusion width = 0.45mm
; top infill extrusion width = 0.40mm
; support material extrusion width = 0.35mm
; first layer extrusion width = 0.42mm

M73 P0 R131
M201 X2500 Y2500 Z400 E5000 ; sets maximum accelerations, mm/sec^2
M203 X180 Y180 Z12 E80 ; sets maximum feedrates, mm / sec
M204 P1250 R1250 T2500 ; sets acceleration (P, T) and retract acceleration (R), mm/sec^2
M205 X8.00 Y8.00 Z2.00 E10.00 ; sets the jerk limits, mm/sec
M205 S0 T0 ; sets the minimum extruding and travel feed rate, mm/sec
M107
;TYPE:Custom
M862.3 P "MINI" ; printer model check
G90 ; use absolute coordinates
M83 ; extruder relative mode
M104 S170 ; set extruder temp for bed leveling
M140 S60 ; set bed temp
M109 R170 ; wait for bed leveling temp
M190 S60 ; wait for bed temp
M204 T1250 ; set travel acceleration
G28 ; home all without mesh bed level
G29 ; mesh bed leveling 
M204 T2500 ; restore travel acceleration
M104 S215 ; set extruder temp
G92 E0
G1 Y-2 X179 F2400
G1 Z3 F720
M109 S215 ; wait for extruder temp

; intro line
G1 X170 F1000
G1 Z0.2 F720
G1 X110 E8 F900
G1 X40 E10 F700
G92 E0

M221 S95 ; set flow
G21 ; set units to millimeters
G90 ; use absolute coordinates
M83 ; use relative distances for extrusion
M900 K0.2 ; Filament gcode LA 1.5
; ; Filament gcode LA 1.0
M107
;LAYER_CHANGE
;Z:0.2
;HEIGHT:0.2
;BEFORE_LAYER_CHANGE
G92 E0.0
;0.2


G1 E-3.2 F4200
M73 P0 R130
G1 Z.2 F720
;AFTER_LAYER_CHANGE
;0.2
G1 Z.4
G1 X37.997 Y72.244 F9000
G1 Z.2 F720
G1 E3.2 F2400
M204 P800
;TYPE:Skirt/Brim
;WIDTH:0.42
G1 F1200
G1 X39.75 Y71.472 E.06006
G1 X140.251 Y71.472 E3.15113
G1 X142.004 Y72.244 E.06006
G1 X147.759 Y78.53 E.26722
G1 X148.383 Y80.135 E.054
G1 X148.383 Y95.251 E.47393
G1 X148.002 Y96.541 E.0422
G1 X142.247 Y105.441 E.33232
G1 X141.432 Y106.331 E.03784
G1 X139.751 Y107.027 E.05704
G1 X40.25 Y107.027 E3.11978
G1 X38.569 Y106.331 E.05704
G1 X37.754 Y105.441 E.03783
G1 X31.998 Y96.542 E.33233
G1 X31.617 Y95.251 E.0422
G1 X31.617 Y80.135 E.47393
G1 X32.241 Y78.53 E.05401
G1 X37.957 Y72.288 E.26536
M204 P1000
; printing object base_cards_box_lid.stl id:0 copy 0
G1 E-2.24 F4200
;WIPE_START
G1 F7200
G1 X39.455 Y71.607 E-.912
;WIPE_END
G1 E-.048 F4200
G1 Z.4 F720
G1 X39.67 Y95.251 F9000
G1 Z.2 F720
G1 E3.2 F2400
M204 P800
;TYPE:Support material
G1 F1200
G1 X33.994 Y95.251 E.17798
G1 X33.994 Y80.135 E.47393
G1 X39.67 Y80.135 E.17798
G1 X39.67 Y95.194 E.47215
M204 P1000
G1 X39.304 Y95.081 F9000
M204 P800
G1 F1200
G1 X39.304 Y80.475 E.45797
G1 X38.885 Y80.475 E.01314
G1 X38.885 Y94.911 E.45265
G1 X38.466 Y94.911 E.01314
G1 X38.466 Y80.475 E.45265
G1 X38.047 Y80.475 E.01314
G1 X38.047 Y94.911 E.45265
G1 X37.628 Y94.911 E.01314
G1 X37.628 Y80.475 E.45265
G1 X37.209 Y80.475 E.01314
G1 X37.209 Y94.911 E.45265
G1 X36.79 Y94.911 E.01314
G1 X36.79 Y80.475 E.45265
G1 X36.371 Y80.475 E.01314
G1 X36.371 Y94.911 E.45265
G1 X35.952 Y94.911 E.01314
G1 X35.952 Y80.475 E.45265
G1 X35.533 Y80.475 E.01314
G1 X35.533 Y94.911 E.45265
G1 X35.114 Y94.911 E.01314
G1 X35.114 Y80.475 E.45265
G1 X34.695 Y80.475 E.01314
G1 X34.695 Y95.081 E.45797
M204 P1000
G1 E-2.24 F4200
;WIPE_START
G1 F7200
G1 X34.695 Y93.435 E-.912
;WIPE_END
G1 E-.048 F4200
G1 Z.4 F720
G1 X146.006 Y95.251 F9000
G1 Z.2 F720
G1 E3.2 F2400
M204 P800
G1 F1200
G1 X140.331 Y95.251 E.17794
G1 X140.331 Y80.135 E.47393
G1 X146.006 Y80.135 E.17794
G1 X146.006 Y95.194 E.47215
M204 P1000
G1 X145.305 Y95.081 F9000
M204 P800
G1 F1200
G1 X145.305 Y80.475 E.45797
G1 X144.886 Y80.475 E.01314
G1 X144.886 Y94.911 E.45265
G1 X144.467 Y94.911 E.01314
G1 X144.467 Y80.475 E.45265
G1 X144.048 Y80.475 E.01314
G1 X144.048 Y94.911 E.45265
G1 X143.629 Y94.911 E.01314
G1 X143.629 Y80.475 E.45265
G1 X143.21 Y80.475 E.01314
G1 X143.21 Y94.911 E.45265
G1 X142.791 Y94.911 E.01314
G1 X142.791 Y80.475 E.45265
G1 X142.372 Y80.475 E.01314
G1 X142.372 Y94.911 E.45265
G1 X141.953 Y94.911 E.01314
G1 X141.953 Y80.475 E.45265
G1 X141.534 Y80.475 E.01314
G1 X141.534 Y94.911 E.45265
G1 X141.115 Y94.911 E.01314
G1 X141.115 Y80.475 E.45265
G1 X140.696 Y80.475 E.01314
G1 X140.696 Y95.081 E.45797
M204 P1000
G1 E-2.24 F4200
;WIPE_START
G1 F7200
G1 X140.696 Y93.435 E-.912
;WIPE_END
G1 E-.048 F4200
G1 Z.4 F720
G1 X40.937 Y103.463 F9000
G1 Z.2 F720
G1 E3.2 F2400
M204 P800
;TYPE:Perimeter
;WIDTH:0.419999
G1 F1200
G1 X40.937 Y74.637 E.90384
G1 X139.064 Y74.637 E3.07669
G1 X139.064 Y103.463 E.90384
G1 X40.997 Y103.463 E3.07481
M204 P1000
G1 X40.56 Y103.841 F9000
M204 P800
;TYPE:External perimeter
G1 F1200
G1 X40.56 Y74.259 E.92749
G1 X139.441 Y74.259 E3.10034
G1 X139.441 Y103.841 E.92749
G1 X40.62 Y103.841 E3.09846
M204 P1000
M73 P0 R129
G1 X40.726 Y103.476 F9000
M73 P1 R129
G1 E-2.24 F4200
;WIPE_START
G1 F7200
G1 X40.617 Y102.195 E-.912
;WIPE_END
G1 E-.048 F4200
G1 Z.4 F720
G1 X138.187 Y74.75 F9000
G1 Z.2 F720
G1 E3.2 F2400
M204 P800
;TYPE:Solid infill
;WIDTH:0.42057
G1 F1200
G1 X138.781 Y75.343 E.02637
G1 X138.781 Y75.878 E.01677
G1 X137.823 Y74.919 E.04255
G1 X137.289 Y74.919 E.01677
G1 X138.781 Y76.412 E.06627
G1 X138.781 Y76.946 E.01677
G1 X136.755 Y74.919 E.08999
G1 X136.221 Y74.919 E.01677
G1 X138.781 Y77.48 E.11371
G1 X138.781 Y78.014 E.01677
G1 X135.687 Y74.919 E.13742
G1 X135.153 Y74.919 E.01677
G1 X138.781 Y78.548 E.16114
G1 X138.781 Y79.082 E.01677
G1 X134.618 Y74.919 E.18486
G1 X134.084 Y74.919 E.01677
G1 X138.781 Y79.616 E.20858
G1 X138.781 Y80.15 E.01677
G1 X133.55 Y74.919 E.23229
G1 X133.016 Y74.919 E.01677
G1 X138.781 Y80.684 E.25601
G1 X138.781 Y81.218 E.01677
G1 X132.482 Y74.919 E.27973
G1 X131.948 Y74.919 E.01677
G1 X138.781 Y81.752 E.30345
G1 X138.781 Y82.286 E.01677
G1 X131.414 Y74.919 E.32716
G1 X130.88 Y74.919 E.01677
G1 X138.781 Y82.821 E.35088
G1 X138.781 Y83.355 E.01677
G1 X130.346 Y74.919 E.3746
G1 X129.812 Y74.919 E.01677
G1 X138.781 Y83.889 E.39832
G1 X138.781 Y84.423 E.01677
G1 X129.278 Y74.919 E.42204
G1 X128.744 Y74.919 E.01677
G1 X138.781 Y84.957 E.44575
G1 X138.781 Y85.491 E.01677
G1 X128.21 Y74.919 E.46947
G1 X127.675 Y74.919 E.01677
G1 X138.781 Y86.025 E.49319
G1 X138.781 Y86.559 E.01677
G1 X127.141 Y74.919 E.51691
G1 X126.607 Y74.919 E.01677
G1 X138.781 Y87.093 E.54062
G1 X138.781 Y87.627 E.01677
G1 X126.073 Y74.919 E.56434
G1 X125.539 Y74.919 E.01677
G1 X138.781 Y88.161 E.58806
G1 X138.781 Y88.695 E.01677
G1 X125.005 Y74.919 E.61178
G1 X124.471 Y74.919 E.01677
G1 X138.781 Y89.23 E.6355
G1 X138.781 Y89.764 E.01677
G1 X123.937 Y74.919 E.65921
G1 X123.403 Y74.919 E.01677
G1 X138.781 Y90.298 E.68293
G1 X138.781 Y90.832 E.01677
G1 X122.869 Y74.919 E.70665
G1 X122.335 Y74.919 E.01677
G1 X138.781 Y91.366 E.73037
G1 X138.781 Y91.9 E.01677
G1 X121.801 Y74.919 E.75408
G1 X121.267 Y74.919 E.01677
G1 X138.781 Y92.434 E.7778
G1 X138.781 Y92.968 E.01677
G1 X120.732 Y74.919 E.80152
G1 X120.198 Y74.919 E.01677
G1 X138.781 Y93.502 E.82524
G1 X138.781 Y94.036 E.01677
G1 X119.664 Y74.919 E.84895
G1 X119.13 Y74.919 E.01677
G1 X138.781 Y94.57 E.87267
G1 X138.781 Y95.104 E.01677
G1 X118.596 Y74.919 E.89639
G1 X118.062 Y74.919 E.01677
G1 X138.781 Y95.638 E.92011
G1 X138.781 Y96.173 E.01677
G1 X117.528 Y74.919 E.94383
G1 X116.994 Y74.919 E.01677
G1 X138.781 Y96.707 E.96754
G1 X138.781 Y97.241 E.01677
G1 X116.46 Y74.919 E.99126
G1 X115.926 Y74.919 E.01677
G1 X138.781 Y97.775 E1.01498
G1 X138.781 Y98.309 E.01677
G1 X115.392 Y74.919 E1.0387
G1 X114.858 Y74.919 E.01677
G1 X138.781 Y98.843 E1.06241
G1 X138.781 Y99.377 E.01677
G1 X114.324 Y74.919 E1.08613
G1 X113.789 Y74.919 E.01677
G1 X138.781 Y99.911 E1.10985
G1 X138.781 Y100.445 E.01677
G1 X113.255 Y74.919 E1.13357
G1 X112.721 Y74.919 E.01677
G1 X138.781 Y100.979 E1.15728
G1 X138.781 Y101.513 E.01677
G1 X112.187 Y74.919 E1.181
G1 X111.653 Y74.919 E.01677
G1 X138.781 Y102.047 E1.20472
G1 X138.781 Y102.581 E.01677
G1 X111.119 Y74.919 E1.22844
G1 X110.585 Y74.919 E.01677
M73 P1 R128
G1 X138.781 Y103.116 E1.25216
G1 X138.781 Y103.181 E.00204
G1 X138.312 Y103.181 E.01473
G1 X110.051 Y74.919 E1.25505
G1 X109.517 Y74.919 E.01677
G1 X137.778 Y103.181 E1.25505
G1 X137.244 Y103.181 E.01677
G1 X108.983 Y74.919 E1.25505
G1 X108.449 Y74.919 E.01677
G1 X136.71 Y103.181 E1.25505
G1 X136.176 Y103.181 E.01677
G1 X107.915 Y74.919 E1.25505
G1 X107.381 Y74.919 E.01677
G1 X135.642 Y103.181 E1.25505
G1 X135.108 Y103.181 E.01677
G1 X106.846 Y74.919 E1.25505
G1 X106.312 Y74.919 E.01677
G1 X134.574 Y103.181 E1.25505
G1 X134.04 Y103.181 E.01677
G1 X105.778 Y74.919 E1.25505
G1 X105.244 Y74.919 E.01677
G1 X133.505 Y103.181 E1.25505
G1 X132.971 Y103.181 E.01677
M73 P2 R128
G1 X104.71 Y74.919 E1.25505
G1 X104.176 Y74.919 E.01677
G1 X132.437 Y103.181 E1.25505
G1 X131.903 Y103.181 E.01677
G1 X103.642 Y74.919 E1.25505
G1 X103.108 Y74.919 E.01677
G1 X131.369 Y103.181 E1.25505
G1 X130.835 Y103.181 E.01677
G1 X102.574 Y74.919 E1.25505
G1 X102.04 Y74.919 E.01677
G1 X130.301 Y103.181 E1.25505
G1 X129.767 Y103.181 E.01677
G1 X101.506 Y74.919 E1.25505
G1 X100.972 Y74.919 E.01677
G1 X129.233 Y103.181 E1.25505
G1 X128.699 Y103.181 E.01677
G1 X100.437 Y74.919 E1.25505
G1 X99.903 Y74.919 E.01677
G1 X128.165 Y103.181 E1.25505
G1 X127.631 Y103.181 E.01677
G1 X99.369 Y74.919 E1.25505
G1 X98.835 Y74.919 E.01677
G1 X127.097 Y103.181 E1.25505
G1 X126.562 Y103.181 E.01677
G1 X98.301 Y74.919 E1.25505
G1 X97.767 Y74.919 E.01677
G1 X126.028 Y103.181 E1.25505
G1 X125.494 Y103.181 E.01677
G1 X97.233 Y74.919 E1.25505
G1 X96.699 Y74.919 E.01677
G1 X124.96 Y103.181 E1.25505
G1 X124.426 Y103.181 E.01677
G1 X96.165 Y74.919 E1.25505
G1 X95.631 Y74.919 E.01677
G1 X123.892 Y103.181 E1.25505
G1 X123.358 Y103.181 E.01677
M73 P2 R127
G1 X95.097 Y74.919 E1.25505
G1 X94.563 Y74.919 E.01677
G1 X122.824 Y103.181 E1.25505
G1 X122.29 Y103.181 E.01677
G1 X94.029 Y74.919 E1.25505
G1 X93.494 Y74.919 E.01677
G1 X121.756 Y103.181 E1.25505
G1 X121.222 Y103.181 E.01677
G1 X92.96 Y74.919 E1.25505
G1 X92.426 Y74.919 E.01677
G1 X120.688 Y103.181 E1.25505
G1 X120.153 Y103.181 E.01677
G1 X91.892 Y74.919 E1.25505
G1 X91.358 Y74.919 E.01677
G1 X119.619 Y103.181 E1.25505
G1 X119.085 Y103.181 E.01677
G1 X90.824 Y74.919 E1.25505
G1 X90.29 Y74.919 E.01677
G1 X118.551 Y103.181 E1.25505
G1 X118.017 Y103.181 E.01677
G1 X89.756 Y74.919 E1.25505
G1 X89.222 Y74.919 E.01677
G1 X117.483 Y103.181 E1.25505
G1 X116.949 Y103.181 E.01677
G1 X88.688 Y74.919 E1.25505
G1 X88.154 Y74.919 E.01677
G1 X116.415 Y103.181 E1.25505
G1 X115.881 Y103.181 E.01677
G1 X87.62 Y74.919 E1.25505
G1 X87.086 Y74.919 E.01677
G1 X115.347 Y103.181 E1.25505
G1 X114.813 Y103.181 E.01677
G1 X86.551 Y74.919 E1.25505
G1 X86.017 Y74.919 E.01677
G1 X114.279 Y103.181 E1.25505
G1 X113.745 Y103.181 E.01677
G1 X85.483 Y74.919 E1.25505
G1 X84.949 Y74.919 E.01677
G1 X113.21 Y103.181 E1.25505
G1 X112.676 Y103.181 E.01677
G1 X84.415 Y74.919 E1.25505
G1 X83.881 Y74.919 E.01677
M73 P3 R127
G1 X112.142 Y103.181 E1.25505
G1 X111.608 Y103.181 E.01677
G1 X83.347 Y74.919 E1.25505
G1 X82.813 Y74.919 E.01677
G1 X111.074 Y103.181 E1.25505
G1 X110.54 Y103.181 E.01677
G1 X82.279 Y74.919 E1.25505
G1 X81.745 Y74.919 E.01677
G1 X110.006 Y103.181 E1.25505
G1 X109.472 Y103.181 E.01677
G1 X81.211 Y74.919 E1.25505
G1 X80.677 Y74.919 E.01677
G1 X108.938 Y103.181 E1.25505
G1 X108.404 Y103.181 E.01677
G1 X80.143 Y74.919 E1.25505
G1 X79.608 Y74.919 E.01677
G1 X107.87 Y103.181 E1.25505
G1 X107.336 Y103.181 E.01677
M73 P3 R126
G1 X79.074 Y74.919 E1.25505
G1 X78.54 Y74.919 E.01677
G1 X106.802 Y103.181 E1.25505
G1 X106.267 Y103.181 E.01677
G1 X78.006 Y74.919 E1.25505
G1 X77.472 Y74.919 E.01677
G1 X105.733 Y103.181 E1.25505
G1 X105.199 Y103.181 E.01677
G1 X76.938 Y74.919 E1.25505
G1 X76.404 Y74.919 E.01677
G1 X104.665 Y103.181 E1.25505
G1 X104.131 Y103.181 E.01677
G1 X75.87 Y74.919 E1.25505
G1 X75.336 Y74.919 E.01677
G1 X103.597 Y103.181 E1.25505
G1 X103.063 Y103.181 E.01677
G1 X74.802 Y74.919 E1.25505
G1 X74.268 Y74.919 E.01677
G1 X102.529 Y103.181 E1.25505
G1 X101.995 Y103.181 E.01677
G1 X73.734 Y74.919 E1.25505
G1 X73.2 Y74.919 E.01677
G1 X101.461 Y103.181 E1.25505
G1 X100.927 Y103.181 E.01677
G1 X72.665 Y74.919 E1.25505
G1 X72.131 Y74.919 E.01677
G1 X100.393 Y103.181 E1.25505
G1 X99.859 Y103.181 E.01677
G1 X71.597 Y74.919 E1.25505
G1 X71.063 Y74.919 E.01677
G1 X99.324 Y103.181 E1.25505
G1 X98.79 Y103.181 E.01677
G1 X70.529 Y74.919 E1.25505
G1 X69.995 Y74.919 E.01677
G1 X98.256 Y103.181 E1.25505
G1 X97.722 Y103.181 E.01677
G1 X69.461 Y74.919 E1.25505
G1 X68.927 Y74.919 E.01677
G1 X97.188 Y103.181 E1.25505
G1 X96.654 Y103.181 E.01677
G1 X68.393 Y74.919 E1.25505
G1 X67.859 Y74.919 E.01677
G1 X96.12 Y103.181 E1.25505
G1 X95.586 Y103.181 E.01677
G1 X67.325 Y74.919 E1.25505
G1 X66.791 Y74.919 E.01677
G1 X95.052 Y103.181 E1.25505
G1 X94.518 Y103.181 E.01677
G1 X66.257 Y74.919 E1.25505
G1 X65.722 Y74.919 E.01677
G1 X93.984 Y103.181 E1.25505
G1 X93.45 Y103.181 E.01677
G1 X65.188 Y74.919 E1.25505
G1 X64.654 Y74.919 E.01677
G1 X92.916 Y103.181 E1.25505
G1 X92.381 Y103.181 E.01677
G1 X64.12 Y74.919 E1.25505
G1 X63.586 Y74.919 E.01677
M73 P4 R125
G1 X91.847 Y103.181 E1.25505
G1 X91.313 Y103.181 E.01677
G1 X63.052 Y74.919 E1.25505
G1 X62.518 Y74.919 E.01677
G1 X90.779 Y103.181 E1.25505
G1 X90.245 Y103.181 E.01677
G1 X61.984 Y74.919 E1.25505
G1 X61.45 Y74.919 E.01677
G1 X89.711 Y103.181 E1.25505
G1 X89.177 Y103.181 E.01677
G1 X60.916 Y74.919 E1.25505
G1 X60.382 Y74.919 E.01677
G1 X88.643 Y103.181 E1.25505
G1 X88.109 Y103.181 E.01677
G1 X59.848 Y74.919 E1.25505
G1 X59.314 Y74.919 E.01677
G1 X87.575 Y103.181 E1.25505
G1 X87.041 Y103.181 E.01677
G1 X58.779 Y74.919 E1.25505
G1 X58.245 Y74.919 E.01677
G1 X86.507 Y103.181 E1.25505
G1 X85.973 Y103.181 E.01677
G1 X57.711 Y74.919 E1.25505
G1 X57.177 Y74.919 E.01677
G1 X85.438 Y103.181 E1.25505
G1 X84.904 Y103.181 E.01677
G1 X56.643 Y74.919 E1.25505
G1 X56.109 Y74.919 E.01677
G1 X84.37 Y103.181 E1.25505
G1 X83.836 Y103.181 E.01677
G1 X55.575 Y74.919 E1.25505
G1 X55.041 Y74.919 E.01677
G1 X83.302 Y103.181 E1.25505
G1 X82.768 Y103.181 E.01677
G1 X54.507 Y74.919 E1.25505
G1 X53.973 Y74.919 E.01677
G1 X82.234 Y103.181 E1.25505
G1 X81.7 Y103.181 E.01677
G1 X53.439 Y74.919 E1.25505
G1 X52.905 Y74.919 E.01677
G1 X81.166 Y103.181 E1.25505
G1 X80.632 Y103.181 E.01677
G1 X52.37 Y74.919 E1.25505
G1 X51.836 Y74.919 E.01677
G1 X80.098 Y103.181 E1.25505
G1 X79.564 Y103.181 E.01677
G1 X51.302 Y74.919 E1.25505
G1 X50.768 Y74.919 E.01677
G1 X79.03 Y103.181 E1.25505
G1 X78.495 Y103.181 E.01677
G1 X50.234 Y74.919 E1.25505
G1 X49.7 Y74.919 E.01677
G1 X77.961 Y103.181 E1.25505
G1 X77.427 Y103.181 E.01677
G1 X49.166 Y74.919 E1.25505
G1 X48.632 Y74.919 E.01677
G1 X76.893 Y103.181 E1.25505
G1 X76.359 Y103.181 E.01677
G1 X48.098 Y74.919 E1.25505
G1 X47.564 Y74.919 E.01677
M73 P4 R124
G1 X75.825 Y103.181 E1.25505
G1 X75.291 Y103.181 E.01677
G1 X47.03 Y74.919 E1.25505
G1 X46.496 Y74.919 E.01677
G1 X74.757 Y103.181 E1.25505
G1 X74.223 Y103.181 E.01677
G1 X45.962 Y74.919 E1.25505
G1 X45.427 Y74.919 E.01677
G1 X73.689 Y103.181 E1.25505
G1 X73.155 Y103.181 E.01677
G1 X44.893 Y74.919 E1.25505
G1 X44.359 Y74.919 E.01677
G1 X72.621 Y103.181 E1.25505
G1 X72.087 Y103.181 E.01677
G1 X43.825 Y74.919 E1.25505
G1 X43.291 Y74.919 E.01677
G1 X71.552 Y103.181 E1.25505
G1 X71.018 Y103.181 E.01677
M73 P5 R124
G1 X42.757 Y74.919 E1.25505
G1 X42.223 Y74.919 E.01677
G1 X70.484 Y103.181 E1.25505
G1 X69.95 Y103.181 E.01677
G1 X41.689 Y74.919 E1.25505
G1 X41.22 Y74.919 E.01473
G1 X41.22 Y74.984 E.00204
G1 X69.416 Y103.181 E1.25216
G1 X68.882 Y103.181 E.01677
G1 X41.22 Y75.518 E1.22844
G1 X41.22 Y76.053 E.01677
G1 X68.348 Y103.181 E1.20472
G1 X67.814 Y103.181 E.01677
G1 X41.22 Y76.587 E1.18101
G1 X41.22 Y77.121 E.01677
G1 X67.28 Y103.181 E1.15729
G1 X66.746 Y103.181 E.01677
G1 X41.22 Y77.655 E1.13357
G1 X41.22 Y78.189 E.01677
G1 X66.212 Y103.181 E1.10985
G1 X65.678 Y103.181 E.01677
G1 X41.22 Y78.723 E1.08614
G1 X41.22 Y79.257 E.01677
G1 X65.143 Y103.181 E1.06242
G1 X64.609 Y103.181 E.01677
G1 X41.22 Y79.791 E1.0387
G1 X41.22 Y80.325 E.01677
