; generated by PrusaSlicer 2.5.0+win64 on 2023-02-20 at 02:37:41 UTC


;
;

;
;
; 

; external perimeters extrusion width = 0.45mm
; perimeters extrusion width = 0.45mm
; infill extrusion width = 0.45mm
; solid infill extrusion width = 0.45mm
; top infill extrusion width = 0.40mm
; support material extrusion width = 0.35mm
; first layer extrusion width = 0.42mm

M73 P0 R133
M201 X2500 Y2500 Z400 E5000 ; sets maximum accelerations, mm/sec^2
M203 X180 Y180 Z12 E80 ; sets maximum feedrates, mm / sec
M204 P1250 R1250 T2500 ; sets acceleration (P, T) and retract acceleration (R), mm/sec^2
M205 X8.00 Y8.00 Z2.00 E10.00 ; sets the jerk limits, mm/sec
M205 S0 T0 ; sets the minimum extruding and travel feed rate, mm/sec
M107
;TYPE:Custom
M862.3 P "MINI" ; printer model check
G90 ; use absolute coordinates
M83 ; extruder relative mode
M104 S170 ; set extruder temp for bed leveling
M140 S60 ; set bed temp
M109 R170 ; wait for bed leveling temp
M190 S60 ; wait for bed temp
M204 T1250 ; set travel acceleration
G28 ; home all without mesh bed level
G29 ; mesh bed leveling 
M204 T2500 ; restore travel acceleration
M104 S215 ; set extruder temp
G92 E0
G1 Y-2 X179 F2400
G1 Z3 F720
M109 S215 ; wait for extruder temp

; intro line
G1 X170 F1000
G1 Z0.2 F720
G1 X110 E8 F900
G1 X40 E10 F700
G92 E0

M221 S95 ; set flow
G21 ; set units to millimeters
G90 ; use absolute coordinates
M83 ; use relative distances for extrusion
M900 K0.2 ; Filament gcode LA 1.5
; ; Filament gcode LA 1.0
M107
;LAYER_CHANGE
;Z:0.2
;HEIGHT:0.2
;BEFORE_LAYER_CHANGE
G92 E0.0
;0.2


G1 E-3.2 F4200
M73 P0 R132
G1 Z.2 F720
;AFTER_LAYER_CHANGE
;0.2
G1 Z.4
G1 X38.924 Y67.866 F9000
G1 Z.2 F720
G1 E3.2 F2400
M204 P800
;TYPE:Skirt/Brim
;WIDTH:0.42
G1 F1200
G1 X39.738 Y67.722 E.02591
G1 X140.239 Y67.722 E3.15114
G1 X141.546 Y68.114 E.04278
G1 X142.144 Y68.678 E.02577
G1 X147.911 Y76.407 E.30236
G1 X148.383 Y77.828 E.04697
G1 X148.383 Y92.943 E.47393
G1 X148.224 Y93.799 E.02727
G1 X142.457 Y108.756 E.50262
G1 X141.92 Y109.581 E.03088
G1 X141.42 Y110.081 E.02217
G1 X139.739 Y110.778 E.05704
G1 X40.238 Y110.778 E3.11978
G1 X38.557 Y110.081 E.05704
G1 X38.057 Y109.581 E.02217
G1 X37.519 Y108.753 E.03098
G1 X31.775 Y93.796 E.50236
G1 X31.617 Y92.943 E.02718
G1 X31.617 Y77.828 E.47393
G1 X32.086 Y76.41 E.04683
G1 X37.83 Y68.682 E.30193
G1 X38.876 Y67.902 E.0409
M204 P1000
; printing object base_cards_box_lid.stl id:0 copy 0
G1 E-2.24 F4200
;WIPE_START
G1 F7200
G1 X39.738 Y67.722 E-.48794
G1 X40.503 Y67.722 E-.42406
;WIPE_END
G1 E-.048 F4200
G1 Z.4 F720
G1 X39.658 Y92.943 F9000
G1 Z.2 F720
G1 E3.2 F2400
M204 P800
;TYPE:Support material
G1 F1200
G1 X33.994 Y92.943 E.1776
G1 X33.994 Y77.828 E.47393
G1 X39.658 Y77.828 E.1776
G1 X39.658 Y92.887 E.47215
M204 P1000
G1 X39.304 Y92.774 F9000
M204 P800
G1 F1200
G1 X39.304 Y78.168 E.45797
G1 X38.885 Y78.168 E.01314
G1 X38.885 Y92.604 E.45265
G1 X38.466 Y92.604 E.01314
G1 X38.466 Y78.168 E.45265
G1 X38.047 Y78.168 E.01314
G1 X38.047 Y92.604 E.45265
G1 X37.628 Y92.604 E.01314
G1 X37.628 Y78.168 E.45265
G1 X37.209 Y78.168 E.01314
G1 X37.209 Y92.604 E.45265
G1 X36.79 Y92.604 E.01314
G1 X36.79 Y78.168 E.45265
G1 X36.371 Y78.168 E.01314
G1 X36.371 Y92.604 E.45265
G1 X35.952 Y92.604 E.01314
G1 X35.952 Y78.168 E.45265
G1 X35.533 Y78.168 E.01314
G1 X35.533 Y92.604 E.45265
G1 X35.114 Y92.604 E.01314
G1 X35.114 Y78.168 E.45265
G1 X34.695 Y78.168 E.01314
G1 X34.695 Y92.774 E.45797
M204 P1000
G1 E-2.24 F4200
;WIPE_START
G1 F7200
G1 X34.695 Y91.128 E-.912
;WIPE_END
G1 E-.048 F4200
G1 Z.4 F720
G1 X146.006 Y92.943 F9000
G1 Z.2 F720
G1 E3.2 F2400
M204 P800
G1 F1200
G1 X140.319 Y92.943 E.17832
G1 X140.319 Y77.828 E.47393
G1 X146.006 Y77.828 E.17832
G1 X146.006 Y92.887 E.47215
M204 P1000
G1 X145.305 Y92.774 F9000
M204 P800
G1 F1200
G1 X145.305 Y78.168 E.45797
G1 X144.886 Y78.168 E.01314
G1 X144.886 Y92.604 E.45265
G1 X144.467 Y92.604 E.01314
G1 X144.467 Y78.168 E.45265
G1 X144.048 Y78.168 E.01314
G1 X144.048 Y92.604 E.45265
G1 X143.629 Y92.604 E.01314
G1 X143.629 Y78.168 E.45265
G1 X143.21 Y78.168 E.01314
G1 X143.21 Y92.604 E.45265
G1 X142.791 Y92.604 E.01314
G1 X142.791 Y78.168 E.45265
G1 X142.372 Y78.168 E.01314
G1 X142.372 Y92.604 E.45265
G1 X141.953 Y92.604 E.01314
G1 X141.953 Y78.168 E.45265
G1 X141.534 Y78.168 E.01314
G1 X141.534 Y92.604 E.45265
G1 X141.115 Y92.604 E.01314
G1 X141.115 Y78.168 E.45265
G1 X140.696 Y78.168 E.01314
G1 X140.696 Y92.774 E.45797
M204 P1000
G1 E-2.24 F4200
;WIPE_START
G1 F7200
G1 X140.696 Y91.128 E-.912
;WIPE_END
G1 E-.048 F4200
G1 Z.4 F720
G1 X40.925 Y107.213 F9000
G1 Z.2 F720
G1 E3.2 F2400
M204 P800
;TYPE:Perimeter
;WIDTH:0.419999
G1 F1200
G1 X40.925 Y70.887 E1.139
G1 X139.052 Y70.887 E3.07669
G1 X139.052 Y107.213 E1.139
G1 X40.985 Y107.213 E3.07481
M204 P1000
G1 X40.548 Y107.591 F9000
M204 P800
;TYPE:External perimeter
G1 F1200
G1 X40.548 Y70.509 E1.16265
G1 X139.429 Y70.509 E3.10034
M73 P0 R131
G1 X139.429 Y107.591 E1.16265
G1 X40.608 Y107.591 E3.09846
M204 P1000
G1 X40.705 Y107.223 F9000
M73 P1 R131
G1 E-2.24 F4200
;WIPE_START
G1 F7200
G1 X40.605 Y105.945 E-.912
;WIPE_END
G1 E-.048 F4200
G1 Z.4 F720
G1 X138.175 Y71 F9000
G1 Z.2 F720
G1 E3.2 F2400
M204 P800
;TYPE:Solid infill
;WIDTH:0.420635
G1 F1200
G1 X138.769 Y71.594 E.02638
G1 X138.769 Y72.128 E.01678
G1 X137.811 Y71.169 E.04257
G1 X137.277 Y71.169 E.01678
G1 X138.769 Y72.662 E.0663
G1 X138.769 Y73.196 E.01678
G1 X136.742 Y71.169 E.09002
G1 X136.208 Y71.169 E.01678
G1 X138.769 Y73.73 E.11375
G1 X138.769 Y74.264 E.01678
G1 X135.674 Y71.169 E.13747
G1 X135.14 Y71.169 E.01678
G1 X138.769 Y74.799 E.1612
G1 X138.769 Y75.333 E.01678
G1 X134.606 Y71.169 E.18492
G1 X134.072 Y71.169 E.01678
G1 X138.769 Y75.867 E.20865
G1 X138.769 Y76.401 E.01678
G1 X133.537 Y71.169 E.23238
G1 X133.003 Y71.169 E.01678
G1 X138.769 Y76.935 E.2561
G1 X138.769 Y77.469 E.01678
G1 X132.469 Y71.169 E.27983
G1 X131.935 Y71.169 E.01678
G1 X138.769 Y78.004 E.30355
G1 X138.769 Y78.538 E.01678
G1 X131.401 Y71.169 E.32728
G1 X130.867 Y71.169 E.01678
G1 X138.769 Y79.072 E.35101
G1 X138.769 Y79.606 E.01678
G1 X130.332 Y71.169 E.37473
G1 X129.798 Y71.169 E.01678
G1 X138.769 Y80.14 E.39846
G1 X138.769 Y80.675 E.01678
G1 X129.264 Y71.169 E.42218
G1 X128.73 Y71.169 E.01678
G1 X138.769 Y81.209 E.44591
G1 X138.769 Y81.743 E.01678
G1 X128.196 Y71.169 E.46964
G1 X127.661 Y71.169 E.01678
G1 X138.769 Y82.277 E.49336
G1 X138.769 Y82.811 E.01678
G1 X127.127 Y71.169 E.51709
G1 X126.593 Y71.169 E.01678
G1 X138.769 Y83.345 E.54081
G1 X138.769 Y83.88 E.01678
G1 X126.059 Y71.169 E.56454
G1 X125.525 Y71.169 E.01678
G1 X138.769 Y84.414 E.58826
G1 X138.769 Y84.948 E.01678
G1 X124.991 Y71.169 E.61199
G1 X124.456 Y71.169 E.01678
G1 X138.769 Y85.482 E.63572
G1 X138.769 Y86.016 E.01678
G1 X123.922 Y71.169 E.65944
G1 X123.388 Y71.169 E.01678
G1 X138.769 Y86.55 E.68317
G1 X138.769 Y87.085 E.01678
G1 X122.854 Y71.169 E.70689
G1 X122.32 Y71.169 E.01678
G1 X138.769 Y87.619 E.73062
G1 X138.769 Y88.153 E.01678
G1 X121.786 Y71.169 E.75435
G1 X121.251 Y71.169 E.01678
G1 X138.769 Y88.687 E.77807
G1 X138.769 Y89.221 E.01678
G1 X120.717 Y71.169 E.8018
G1 X120.183 Y71.169 E.01678
G1 X138.769 Y89.755 E.82552
G1 X138.769 Y90.29 E.01678
G1 X119.649 Y71.169 E.84925
G1 X119.115 Y71.169 E.01678
G1 X138.769 Y90.824 E.87298
G1 X138.769 Y91.358 E.01678
G1 X118.581 Y71.169 E.8967
G1 X118.046 Y71.169 E.01678
G1 X138.769 Y91.892 E.92043
G1 X138.769 Y92.426 E.01678
G1 X117.512 Y71.169 E.94415
G1 X116.978 Y71.169 E.01678
G1 X138.769 Y92.96 E.96788
G1 X138.769 Y93.495 E.01678
G1 X116.444 Y71.169 E.99161
G1 X115.91 Y71.169 E.01678
G1 X138.769 Y94.029 E1.01533
G1 X138.769 Y94.563 E.01678
G1 X115.376 Y71.169 E1.03906
G1 X114.841 Y71.169 E.01678
G1 X138.769 Y95.097 E1.06278
G1 X138.769 Y95.631 E.01678
G1 X114.307 Y71.169 E1.08651
G1 X113.773 Y71.169 E.01678
G1 X138.769 Y96.165 E1.11023
G1 X138.769 Y96.7 E.01678
G1 X113.239 Y71.169 E1.13396
G1 X112.705 Y71.169 E.01678
G1 X138.769 Y97.234 E1.15769
G1 X138.769 Y97.768 E.01678
M73 P1 R130
G1 X112.171 Y71.169 E1.18141
G1 X111.636 Y71.169 E.01678
G1 X138.769 Y98.302 E1.20514
G1 X138.769 Y98.836 E.01678
G1 X111.102 Y71.169 E1.22886
G1 X110.568 Y71.169 E.01678
G1 X138.769 Y99.37 E1.25259
G1 X138.769 Y99.905 E.01678
G1 X110.034 Y71.169 E1.27632
G1 X109.5 Y71.169 E.01678
G1 X138.769 Y100.439 E1.30004
G1 X138.769 Y100.973 E.01678
G1 X108.966 Y71.169 E1.32377
G1 X108.431 Y71.169 E.01678
G1 X138.769 Y101.507 E1.34749
G1 X138.769 Y102.041 E.01678
G1 X107.897 Y71.169 E1.37122
G1 X107.363 Y71.169 E.01678
G1 X138.769 Y102.575 E1.39495
G1 X138.769 Y103.11 E.01678
G1 X106.829 Y71.169 E1.41867
G1 X106.295 Y71.169 E.01678
G1 X138.769 Y103.644 E1.4424
G1 X138.769 Y104.178 E.01678
G1 X105.761 Y71.169 E1.46612
G1 X105.226 Y71.169 E.01678
M73 P2 R130
G1 X138.769 Y104.712 E1.48985
G1 X138.769 Y105.246 E.01678
G1 X104.692 Y71.169 E1.51357
G1 X104.158 Y71.169 E.01678
G1 X138.769 Y105.78 E1.5373
G1 X138.769 Y106.315 E.01678
G1 X103.624 Y71.169 E1.56103
G1 X103.09 Y71.169 E.01678
G1 X138.769 Y106.849 E1.58475
G1 X138.769 Y106.931 E.00257
G1 X138.317 Y106.931 E.01421
G1 X102.556 Y71.169 E1.58839
G1 X102.021 Y71.169 E.01678
G1 X137.783 Y106.931 E1.58839
G1 X137.248 Y106.931 E.01678
G1 X101.487 Y71.169 E1.58839
G1 X100.953 Y71.169 E.01678
G1 X136.714 Y106.931 E1.58839
G1 X136.18 Y106.931 E.01678
G1 X100.419 Y71.169 E1.58839
G1 X99.885 Y71.169 E.01678
G1 X135.646 Y106.931 E1.58839
G1 X135.112 Y106.931 E.01678
G1 X99.35 Y71.169 E1.58839
G1 X98.816 Y71.169 E.01678
G1 X134.578 Y106.931 E1.58839
G1 X134.043 Y106.931 E.01678
M73 P2 R129
G1 X98.282 Y71.169 E1.58839
G1 X97.748 Y71.169 E.01678
G1 X133.509 Y106.931 E1.58839
G1 X132.975 Y106.931 E.01678
G1 X97.214 Y71.169 E1.58839
G1 X96.68 Y71.169 E.01678
G1 X132.441 Y106.931 E1.58839
G1 X131.907 Y106.931 E.01678
G1 X96.145 Y71.169 E1.58839
G1 X95.611 Y71.169 E.01678
G1 X131.373 Y106.931 E1.58839
G1 X130.838 Y106.931 E.01678
G1 X95.077 Y71.169 E1.58839
G1 X94.543 Y71.169 E.01678
G1 X130.304 Y106.931 E1.58839
G1 X129.77 Y106.931 E.01678
G1 X94.009 Y71.169 E1.58839
G1 X93.475 Y71.169 E.01678
G1 X129.236 Y106.931 E1.58839
G1 X128.702 Y106.931 E.01678
G1 X92.94 Y71.169 E1.58839
G1 X92.406 Y71.169 E.01678
G1 X128.168 Y106.931 E1.58839
G1 X127.633 Y106.931 E.01678
G1 X91.872 Y71.169 E1.58839
G1 X91.338 Y71.169 E.01678
G1 X127.099 Y106.931 E1.58839
G1 X126.565 Y106.931 E.01678
G1 X90.804 Y71.169 E1.58839
G1 X90.27 Y71.169 E.01678
G1 X126.031 Y106.931 E1.58839
G1 X125.497 Y106.931 E.01678
G1 X89.735 Y71.169 E1.58839
G1 X89.201 Y71.169 E.01678
G1 X124.963 Y106.931 E1.58839
G1 X124.428 Y106.931 E.01678
G1 X88.667 Y71.169 E1.58839
G1 X88.133 Y71.169 E.01678
M73 P3 R129
G1 X123.894 Y106.931 E1.58839
G1 X123.36 Y106.931 E.01678
G1 X87.599 Y71.169 E1.58839
G1 X87.065 Y71.169 E.01678
G1 X122.826 Y106.931 E1.58839
G1 X122.292 Y106.931 E.01678
G1 X86.53 Y71.169 E1.58839
G1 X85.996 Y71.169 E.01678
M73 P3 R128
G1 X121.758 Y106.931 E1.58839
G1 X121.223 Y106.931 E.01678
G1 X85.462 Y71.169 E1.58839
G1 X84.928 Y71.169 E.01678
G1 X120.689 Y106.931 E1.58839
G1 X120.155 Y106.931 E.01678
G1 X84.394 Y71.169 E1.58839
G1 X83.86 Y71.169 E.01678
G1 X119.621 Y106.931 E1.58839
G1 X119.087 Y106.931 E.01678
G1 X83.325 Y71.169 E1.58839
G1 X82.791 Y71.169 E.01678
G1 X118.552 Y106.931 E1.58839
G1 X118.018 Y106.931 E.01678
G1 X82.257 Y71.169 E1.58839
G1 X81.723 Y71.169 E.01678
G1 X117.484 Y106.931 E1.58839
G1 X116.95 Y106.931 E.01678
G1 X81.189 Y71.169 E1.58839
G1 X80.655 Y71.169 E.01678
G1 X116.416 Y106.931 E1.58839
G1 X115.882 Y106.931 E.01678
G1 X80.12 Y71.169 E1.58839
G1 X79.586 Y71.169 E.01678
G1 X115.347 Y106.931 E1.58839
G1 X114.813 Y106.931 E.01678
G1 X79.052 Y71.169 E1.58839
G1 X78.518 Y71.169 E.01678
G1 X114.279 Y106.931 E1.58839
G1 X113.745 Y106.931 E.01678
G1 X77.984 Y71.169 E1.58839
G1 X77.45 Y71.169 E.01678
G1 X113.211 Y106.931 E1.58839
G1 X112.677 Y106.931 E.01678
G1 X76.915 Y71.169 E1.58839
G1 X76.381 Y71.169 E.01678
G1 X112.142 Y106.931 E1.58839
G1 X111.608 Y106.931 E.01678
G1 X75.847 Y71.169 E1.58839
G1 X75.313 Y71.169 E.01678
G1 X111.074 Y106.931 E1.58839
G1 X110.54 Y106.931 E.01678
G1 X74.779 Y71.169 E1.58839
G1 X74.245 Y71.169 E.01678
G1 X110.006 Y106.931 E1.58839
G1 X109.472 Y106.931 E.01678
M73 P3 R127
G1 X73.71 Y71.169 E1.58839
G1 X73.176 Y71.169 E.01678
G1 X108.937 Y106.931 E1.58839
G1 X108.403 Y106.931 E.01678
G1 X72.642 Y71.169 E1.58839
G1 X72.108 Y71.169 E.01678
G1 X107.869 Y106.931 E1.58839
G1 X107.335 Y106.931 E.01678
M73 P4 R127
G1 X71.574 Y71.169 E1.58839
G1 X71.04 Y71.169 E.01678
G1 X106.801 Y106.931 E1.58839
G1 X106.267 Y106.931 E.01678
G1 X70.505 Y71.169 E1.58839
G1 X69.971 Y71.169 E.01678
G1 X105.732 Y106.931 E1.58839
G1 X105.198 Y106.931 E.01678
G1 X69.437 Y71.169 E1.58839
G1 X68.903 Y71.169 E.01678
G1 X104.664 Y106.931 E1.58839
G1 X104.13 Y106.931 E.01678
G1 X68.369 Y71.169 E1.58839
G1 X67.834 Y71.169 E.01678
G1 X103.596 Y106.931 E1.58839
G1 X103.062 Y106.931 E.01678
G1 X67.3 Y71.169 E1.58839
G1 X66.766 Y71.169 E.01678
G1 X102.527 Y106.931 E1.58839
G1 X101.993 Y106.931 E.01678
G1 X66.232 Y71.169 E1.58839
G1 X65.698 Y71.169 E.01678
G1 X101.459 Y106.931 E1.58839
G1 X100.925 Y106.931 E.01678
G1 X65.164 Y71.169 E1.58839
G1 X64.629 Y71.169 E.01678
G1 X100.391 Y106.931 E1.58839
G1 X99.857 Y106.931 E.01678
G1 X64.095 Y71.169 E1.58839
G1 X63.561 Y71.169 E.01678
G1 X99.322 Y106.931 E1.58839
G1 X98.788 Y106.931 E.01678
G1 X63.027 Y71.169 E1.58839
G1 X62.493 Y71.169 E.01678
G1 X98.254 Y106.931 E1.58839
G1 X97.72 Y106.931 E.01678
G1 X61.959 Y71.169 E1.58839
G1 X61.424 Y71.169 E.01678
G1 X97.186 Y106.931 E1.58839
G1 X96.652 Y106.931 E.01678
M73 P4 R126
G1 X60.89 Y71.169 E1.58839
G1 X60.356 Y71.169 E.01678
G1 X96.117 Y106.931 E1.58839
G1 X95.583 Y106.931 E.01678
G1 X59.822 Y71.169 E1.58839
G1 X59.288 Y71.169 E.01678
G1 X95.049 Y106.931 E1.58839
G1 X94.515 Y106.931 E.01678
G1 X58.754 Y71.169 E1.58839
G1 X58.219 Y71.169 E.01678
G1 X93.981 Y106.931 E1.58839
G1 X93.447 Y106.931 E.01678
G1 X57.685 Y71.169 E1.58839
G1 X57.151 Y71.169 E.01678
G1 X92.912 Y106.931 E1.58839
G1 X92.378 Y106.931 E.01678
G1 X56.617 Y71.169 E1.58839
G1 X56.083 Y71.169 E.01678
G1 X91.844 Y106.931 E1.58839
G1 X91.31 Y106.931 E.01678
G1 X55.549 Y71.169 E1.58839
G1 X55.014 Y71.169 E.01678
M73 P5 R126
G1 X90.776 Y106.931 E1.58839
G1 X90.241 Y106.931 E.01678
G1 X54.48 Y71.169 E1.58839
G1 X53.946 Y71.169 E.01678
G1 X89.707 Y106.931 E1.58839
G1 X89.173 Y106.931 E.01678
G1 X53.412 Y71.169 E1.58839
G1 X52.878 Y71.169 E.01678
G1 X88.639 Y106.931 E1.58839
G1 X88.105 Y106.931 E.01678
G1 X52.344 Y71.169 E1.58839
G1 X51.809 Y71.169 E.01678
G1 X87.571 Y106.931 E1.58839
G1 X87.036 Y106.931 E.01678
G1 X51.275 Y71.169 E1.58839
G1 X50.741 Y71.169 E.01678
G1 X86.502 Y106.931 E1.58839
G1 X85.968 Y106.931 E.01678
G1 X50.207 Y71.169 E1.58839
G1 X49.673 Y71.169 E.01678
G1 X85.434 Y106.931 E1.58839
G1 X84.9 Y106.931 E.01678
G1 X49.139 Y71.169 E1.58839
G1 X48.604 Y71.169 E.01678
M73 P5 R125
G1 X84.366 Y106.931 E1.58839
G1 X83.831 Y106.931 E.01678
G1 X48.07 Y71.169 E1.58839
G1 X47.536 Y71.169 E.01678
G1 X83.297 Y106.931 E1.58839
G1 X82.763 Y106.931 E.01678
G1 X47.002 Y71.169 E1.58839
G1 X46.468 Y71.169 E.01678
G1 X82.229 Y106.931 E1.58839
G1 X81.695 Y106.931 E.01678
G1 X45.934 Y71.169 E1.58839
G1 X45.399 Y71.169 E.01678
G1 X81.161 Y106.931 E1.58839
G1 X80.626 Y106.931 E.01678
G1 X44.865 Y71.169 E1.58839
G1 X44.331 Y71.169 E.01678
G1 X80.092 Y106.931 E1.58839
G1 X79.558 Y106.931 E.01678
G1 X43.797 Y71.169 E1.58839
G1 X43.263 Y71.169 E.01678
G1 X79.024 Y106.931 E1.58839
G1 X78.49 Y106.931 E.01678
G1 X42.729 Y71.169 E1.58839
G1 X42.194 Y71.169 E.01678
G1 X77.956 Y106.931 E1.58839
G1 X77.421 Y106.931 E.01678
G1 X41.66 Y71.169 E1.58839
G1 X41.208 Y71.169 E.01421
G1 X41.208 Y71.251 E.00257
G1 X76.887 Y106.931 E1.58475
G1 X76.353 Y106.931 E.01678
G1 X41.208 Y71.785 E1.56102
G1 X41.208 Y72.32 E.01678
G1 X75.819 Y106.931 E1.5373
G1 X75.285 Y106.931 E.01678
G1 X41.208 Y72.854 E1.51357
G1 X41.208 Y73.388 E.01678
G1 X74.751 Y106.931 E1.48985
G1 X74.216 Y106.931 E.01678
M73 P6 R125
G1 X41.208 Y73.922 E1.46612
G1 X41.208 Y74.456 E.01678
G1 X73.682 Y106.931 E1.44239
