; generated by PrusaSlicer 2.5.0+win64 on 2023-02-26 at 17:25:19 UTC


;
;

;
;
; 

; external perimeters extrusion width = 0.45mm
; perimeters extrusion width = 0.45mm
; infill extrusion width = 0.45mm
; solid infill extrusion width = 0.45mm
; top infill extrusion width = 0.40mm
; first layer extrusion width = 0.42mm

M73 P0 R82
M201 X2500 Y2500 Z400 E5000 ; sets maximum accelerations, mm/sec^2
M203 X180 Y180 Z12 E80 ; sets maximum feedrates, mm / sec
M204 P1250 R1250 T2500 ; sets acceleration (P, T) and retract acceleration (R), mm/sec^2
M205 X8.00 Y8.00 Z2.00 E10.00 ; sets the jerk limits, mm/sec
M205 S0 T0 ; sets the minimum extruding and travel feed rate, mm/sec
M107
;TYPE:Custom
M862.3 P "MINI" ; printer model check
G90 ; use absolute coordinates
M83 ; extruder relative mode
M104 S170 ; set extruder temp for bed leveling
M140 S60 ; set bed temp
M109 R170 ; wait for bed leveling temp
M190 S60 ; wait for bed temp
M204 T1250 ; set travel acceleration
G28 ; home all without mesh bed level
G29 ; mesh bed leveling 
M204 T2500 ; restore travel acceleration
M104 S215 ; set extruder temp
G92 E0
G1 Y-2 X179 F2400
G1 Z3 F720
M109 S215 ; wait for extruder temp

; intro line
G1 X170 F1000
G1 Z0.2 F720
G1 X110 E8 F900
G1 X40 E10 F700
G92 E0

M221 S95 ; set flow
G21 ; set units to millimeters
G90 ; use absolute coordinates
M83 ; use relative distances for extrusion
M900 K0.2 ; Filament gcode LA 1.5
; ; Filament gcode LA 1.0
M107
;LAYER_CHANGE
;Z:0.2
;HEIGHT:0.2
;BEFORE_LAYER_CHANGE
G92 E0.0
;0.2


G1 E-3.2 F4200
G1 Z.2 F720
;AFTER_LAYER_CHANGE
;0.2
G1 Z.4
G1 X38.721 Y67.916 F9000
G1 Z.2 F720
G1 E3.2 F2400
M204 P800
;TYPE:Skirt/Brim
;WIDTH:0.42
G1 F1200
G1 X39.661 Y67.722 E.03008
G1 X140.311 Y67.722 E3.15584
G1 X141.618 Y68.114 E.04278
G1 X142.495 Y69.16 E.04278
G1 X142.689 Y70.099 E.03008
G1 X142.689 Y107.901 E1.18522
G1 X141.992 Y109.581 E.05704
G1 X141.417 Y110.156 E.02549
G1 X139.737 Y110.853 E.05704
G1 X40.235 Y110.853 E3.11978
G1 X38.555 Y110.156 E.05704
M73 P0 R81
G1 X37.98 Y109.581 E.02549
G1 X37.283 Y107.901 E.05704
G1 X37.283 Y70.099 E1.18522
G1 X37.675 Y68.792 E.04278
G1 X38.675 Y67.955 E.0409
M204 P1000
; printing object base_cards_box_lid.stl id:0 copy 0
G1 E-2.24 F4200
;WIPE_START
G1 F7200
G1 X39.661 Y67.722 E-.56121
G1 X40.294 Y67.722 E-.35079
;WIPE_END
G1 E-.048 F4200
G1 Z.4 F720
G1 X40.923 Y107.213 F9000
G1 Z.2 F720
G1 E3.2 F2400
M204 P800
;TYPE:Perimeter
;WIDTH:0.419999
G1 F1200
G1 X40.923 Y70.887 E1.139
G1 X139.049 Y70.887 E3.07669
G1 X139.049 Y107.213 E1.139
G1 X40.983 Y107.213 E3.07481
M204 P1000
G1 X40.545 Y107.591 F9000
M204 P800
;TYPE:External perimeter
G1 F1200
G1 X40.545 Y70.509 E1.16265
G1 X139.427 Y70.509 E3.10034
G1 X139.427 Y107.591 E1.16265
M73 P1 R81
G1 X40.605 Y107.591 E3.09846
M204 P1000
G1 X40.703 Y107.223 F9000
G1 E-2.24 F4200
;WIPE_START
G1 F7200
G1 X40.603 Y105.945 E-.912
;WIPE_END
G1 E-.048 F4200
G1 Z.4 F720
G1 X138.173 Y71 F9000
G1 Z.2 F720
G1 E3.2 F2400
M204 P800
;TYPE:Solid infill
;WIDTH:0.420635
G1 F1200
G1 X138.767 Y71.594 E.02638
G1 X138.767 Y72.128 E.01678
G1 X137.808 Y71.169 E.04257
G1 X137.274 Y71.169 E.01678
G1 X138.767 Y72.662 E.0663
G1 X138.767 Y73.196 E.01678
G1 X136.74 Y71.169 E.09002
G1 X136.206 Y71.169 E.01678
G1 X138.767 Y73.73 E.11375
G1 X138.767 Y74.264 E.01678
G1 X135.672 Y71.169 E.13747
G1 X135.137 Y71.169 E.01678
G1 X138.767 Y74.799 E.1612
G1 X138.767 Y75.333 E.01678
G1 X134.603 Y71.169 E.18492
G1 X134.069 Y71.169 E.01678
G1 X138.767 Y75.867 E.20865
G1 X138.767 Y76.401 E.01678
G1 X133.535 Y71.169 E.23238
G1 X133.001 Y71.169 E.01678
G1 X138.767 Y76.935 E.2561
G1 X138.767 Y77.469 E.01678
G1 X132.467 Y71.169 E.27983
G1 X131.932 Y71.169 E.01678
G1 X138.767 Y78.004 E.30355
G1 X138.767 Y78.538 E.01678
G1 X131.398 Y71.169 E.32728
G1 X130.864 Y71.169 E.01678
G1 X138.767 Y79.072 E.35101
G1 X138.767 Y79.606 E.01678
G1 X130.33 Y71.169 E.37473
G1 X129.796 Y71.169 E.01678
G1 X138.767 Y80.14 E.39846
G1 X138.767 Y80.675 E.01678
G1 X129.261 Y71.169 E.42218
G1 X128.727 Y71.169 E.01678
G1 X138.767 Y81.209 E.44591
G1 X138.767 Y81.743 E.01678
G1 X128.193 Y71.169 E.46964
G1 X127.659 Y71.169 E.01678
G1 X138.767 Y82.277 E.49336
G1 X138.767 Y82.811 E.01678
G1 X127.125 Y71.169 E.51709
G1 X126.591 Y71.169 E.01678
G1 X138.767 Y83.345 E.54081
G1 X138.767 Y83.88 E.01678
G1 X126.056 Y71.169 E.56454
G1 X125.522 Y71.169 E.01678
G1 X138.767 Y84.414 E.58826
G1 X138.767 Y84.948 E.01678
G1 X124.988 Y71.169 E.61199
G1 X124.454 Y71.169 E.01678
G1 X138.767 Y85.482 E.63572
G1 X138.767 Y86.016 E.01678
G1 X123.92 Y71.169 E.65944
G1 X123.386 Y71.169 E.01678
G1 X138.767 Y86.55 E.68317
G1 X138.767 Y87.085 E.01678
G1 X122.851 Y71.169 E.70689
G1 X122.317 Y71.169 E.01678
G1 X138.767 Y87.619 E.73062
G1 X138.767 Y88.153 E.01678
G1 X121.783 Y71.169 E.75435
G1 X121.249 Y71.169 E.01678
G1 X138.767 Y88.687 E.77807
G1 X138.767 Y89.221 E.01678
G1 X120.715 Y71.169 E.8018
G1 X120.181 Y71.169 E.01678
G1 X138.767 Y89.755 E.82552
G1 X138.767 Y90.29 E.01678
G1 X119.646 Y71.169 E.84925
G1 X119.112 Y71.169 E.01678
M73 P1 R80
G1 X138.767 Y90.824 E.87298
G1 X138.767 Y91.358 E.01678
G1 X118.578 Y71.169 E.8967
G1 X118.044 Y71.169 E.01678
G1 X138.767 Y91.892 E.92043
G1 X138.767 Y92.426 E.01678
G1 X117.51 Y71.169 E.94415
G1 X116.976 Y71.169 E.01678
G1 X138.767 Y92.96 E.96788
G1 X138.767 Y93.495 E.01678
G1 X116.441 Y71.169 E.9916
G1 X115.907 Y71.169 E.01678
G1 X138.767 Y94.029 E1.01533
G1 X138.767 Y94.563 E.01678
G1 X115.373 Y71.169 E1.03906
G1 X114.839 Y71.169 E.01678
G1 X138.767 Y95.097 E1.06278
G1 X138.767 Y95.631 E.01678
M73 P2 R80
G1 X114.305 Y71.169 E1.08651
G1 X113.771 Y71.169 E.01678
G1 X138.767 Y96.165 E1.11023
G1 X138.767 Y96.7 E.01678
G1 X113.236 Y71.169 E1.13396
G1 X112.702 Y71.169 E.01678
G1 X138.767 Y97.234 E1.15769
G1 X138.767 Y97.768 E.01678
G1 X112.168 Y71.169 E1.18141
G1 X111.634 Y71.169 E.01678
G1 X138.767 Y98.302 E1.20514
G1 X138.767 Y98.836 E.01678
G1 X111.1 Y71.169 E1.22886
G1 X110.566 Y71.169 E.01678
G1 X138.767 Y99.37 E1.25259
G1 X138.767 Y99.905 E.01678
G1 X110.031 Y71.169 E1.27632
G1 X109.497 Y71.169 E.01678
G1 X138.767 Y100.439 E1.30004
G1 X138.767 Y100.973 E.01678
G1 X108.963 Y71.169 E1.32377
G1 X108.429 Y71.169 E.01678
G1 X138.767 Y101.507 E1.34749
G1 X138.767 Y102.041 E.01678
G1 X107.895 Y71.169 E1.37122
G1 X107.361 Y71.169 E.01678
G1 X138.767 Y102.575 E1.39495
G1 X138.767 Y103.11 E.01678
G1 X106.826 Y71.169 E1.41867
G1 X106.292 Y71.169 E.01678
G1 X138.767 Y103.644 E1.4424
G1 X138.767 Y104.178 E.01678
G1 X105.758 Y71.169 E1.46612
G1 X105.224 Y71.169 E.01678
G1 X138.767 Y104.712 E1.48985
G1 X138.767 Y105.246 E.01678
G1 X104.69 Y71.169 E1.51357
G1 X104.156 Y71.169 E.01678
G1 X138.767 Y105.78 E1.5373
G1 X138.767 Y106.315 E.01678
G1 X103.621 Y71.169 E1.56103
G1 X103.087 Y71.169 E.01678
M73 P2 R79
G1 X138.767 Y106.849 E1.58475
G1 X138.767 Y106.931 E.00257
G1 X138.314 Y106.931 E.01421
G1 X102.553 Y71.169 E1.58839
G1 X102.019 Y71.169 E.01678
M73 P3 R79
G1 X137.78 Y106.931 E1.58839
G1 X137.246 Y106.931 E.01678
G1 X101.485 Y71.169 E1.58839
G1 X100.951 Y71.169 E.01678
G1 X136.712 Y106.931 E1.58839
G1 X136.178 Y106.931 E.01678
G1 X100.416 Y71.169 E1.58839
G1 X99.882 Y71.169 E.01678
G1 X135.643 Y106.931 E1.58839
G1 X135.109 Y106.931 E.01678
G1 X99.348 Y71.169 E1.58839
G1 X98.814 Y71.169 E.01678
G1 X134.575 Y106.931 E1.58839
G1 X134.041 Y106.931 E.01678
G1 X98.28 Y71.169 E1.58839
G1 X97.745 Y71.169 E.01678
G1 X133.507 Y106.931 E1.58839
G1 X132.973 Y106.931 E.01678
G1 X97.211 Y71.169 E1.58839
G1 X96.677 Y71.169 E.01678
G1 X132.438 Y106.931 E1.58839
G1 X131.904 Y106.931 E.01678
G1 X96.143 Y71.169 E1.58839
G1 X95.609 Y71.169 E.01678
G1 X131.37 Y106.931 E1.58839
G1 X130.836 Y106.931 E.01678
G1 X95.075 Y71.169 E1.58839
G1 X94.54 Y71.169 E.01678
G1 X130.302 Y106.931 E1.58839
G1 X129.768 Y106.931 E.01678
G1 X94.006 Y71.169 E1.58839
G1 X93.472 Y71.169 E.01678
G1 X129.233 Y106.931 E1.58839
G1 X128.699 Y106.931 E.01678
G1 X92.938 Y71.169 E1.58839
G1 X92.404 Y71.169 E.01678
G1 X128.165 Y106.931 E1.58839
G1 X127.631 Y106.931 E.01678
M73 P4 R79
G1 X91.87 Y71.169 E1.58839
G1 X91.335 Y71.169 E.01678
G1 X127.097 Y106.931 E1.58839
G1 X126.563 Y106.931 E.01678
G1 X90.801 Y71.169 E1.58839
G1 X90.267 Y71.169 E.01678
M73 P4 R78
G1 X126.028 Y106.931 E1.58839
G1 X125.494 Y106.931 E.01678
G1 X89.733 Y71.169 E1.58839
G1 X89.199 Y71.169 E.01678
G1 X124.96 Y106.931 E1.58839
G1 X124.426 Y106.931 E.01678
G1 X88.665 Y71.169 E1.58839
G1 X88.13 Y71.169 E.01678
G1 X123.892 Y106.931 E1.58839
G1 X123.358 Y106.931 E.01678
G1 X87.596 Y71.169 E1.58839
G1 X87.062 Y71.169 E.01678
G1 X122.823 Y106.931 E1.58839
G1 X122.289 Y106.931 E.01678
G1 X86.528 Y71.169 E1.58839
G1 X85.994 Y71.169 E.01678
G1 X121.755 Y106.931 E1.58839
G1 X121.221 Y106.931 E.01678
G1 X85.46 Y71.169 E1.58839
G1 X84.925 Y71.169 E.01678
G1 X120.687 Y106.931 E1.58839
G1 X120.152 Y106.931 E.01678
G1 X84.391 Y71.169 E1.58839
G1 X83.857 Y71.169 E.01678
G1 X119.618 Y106.931 E1.58839
G1 X119.084 Y106.931 E.01678
G1 X83.323 Y71.169 E1.58839
G1 X82.789 Y71.169 E.01678
G1 X118.55 Y106.931 E1.58839
G1 X118.016 Y106.931 E.01678
G1 X82.255 Y71.169 E1.58839
G1 X81.72 Y71.169 E.01678
M73 P5 R78
G1 X117.482 Y106.931 E1.58839
G1 X116.947 Y106.931 E.01678
G1 X81.186 Y71.169 E1.58839
G1 X80.652 Y71.169 E.01678
G1 X116.413 Y106.931 E1.58839
G1 X115.879 Y106.931 E.01678
G1 X80.118 Y71.169 E1.58839
G1 X79.584 Y71.169 E.01678
G1 X115.345 Y106.931 E1.58839
G1 X114.811 Y106.931 E.01678
G1 X79.05 Y71.169 E1.58839
G1 X78.515 Y71.169 E.01678
G1 X114.277 Y106.931 E1.58839
G1 X113.742 Y106.931 E.01678
M73 P5 R77
G1 X77.981 Y71.169 E1.58839
G1 X77.447 Y71.169 E.01678
G1 X113.208 Y106.931 E1.58839
G1 X112.674 Y106.931 E.01678
G1 X76.913 Y71.169 E1.58839
G1 X76.379 Y71.169 E.01678
G1 X112.14 Y106.931 E1.58839
G1 X111.606 Y106.931 E.01678
G1 X75.845 Y71.169 E1.58839
G1 X75.31 Y71.169 E.01678
G1 X111.072 Y106.931 E1.58839
G1 X110.537 Y106.931 E.01678
G1 X74.776 Y71.169 E1.58839
G1 X74.242 Y71.169 E.01678
G1 X110.003 Y106.931 E1.58839
G1 X109.469 Y106.931 E.01678
G1 X73.708 Y71.169 E1.58839
G1 X73.174 Y71.169 E.01678
G1 X108.935 Y106.931 E1.58839
G1 X108.401 Y106.931 E.01678
G1 X72.64 Y71.169 E1.58839
G1 X72.105 Y71.169 E.01678
G1 X107.867 Y106.931 E1.58839
G1 X107.332 Y106.931 E.01678
M73 P6 R77
G1 X71.571 Y71.169 E1.58839
G1 X71.037 Y71.169 E.01678
G1 X106.798 Y106.931 E1.58839
G1 X106.264 Y106.931 E.01678
G1 X70.503 Y71.169 E1.58839
G1 X69.969 Y71.169 E.01678
G1 X105.73 Y106.931 E1.58839
G1 X105.196 Y106.931 E.01678
G1 X69.434 Y71.169 E1.58839
G1 X68.9 Y71.169 E.01678
G1 X104.662 Y106.931 E1.58839
G1 X104.127 Y106.931 E.01678
G1 X68.366 Y71.169 E1.58839
G1 X67.832 Y71.169 E.01678
G1 X103.593 Y106.931 E1.58839
G1 X103.059 Y106.931 E.01678
G1 X67.298 Y71.169 E1.58839
G1 X66.764 Y71.169 E.01678
G1 X102.525 Y106.931 E1.58839
G1 X101.991 Y106.931 E.01678
G1 X66.229 Y71.169 E1.58839
G1 X65.695 Y71.169 E.01678
M73 P6 R76
G1 X101.457 Y106.931 E1.58839
G1 X100.922 Y106.931 E.01678
G1 X65.161 Y71.169 E1.58839
G1 X64.627 Y71.169 E.01678
G1 X100.388 Y106.931 E1.58839
G1 X99.854 Y106.931 E.01678
G1 X64.093 Y71.169 E1.58839
G1 X63.559 Y71.169 E.01678
G1 X99.32 Y106.931 E1.58839
G1 X98.786 Y106.931 E.01678
G1 X63.024 Y71.169 E1.58839
G1 X62.49 Y71.169 E.01678
G1 X98.252 Y106.931 E1.58839
G1 X97.717 Y106.931 E.01678
G1 X61.956 Y71.169 E1.58839
G1 X61.422 Y71.169 E.01678
G1 X97.183 Y106.931 E1.58839
G1 X96.649 Y106.931 E.01678
M73 P7 R76
G1 X60.888 Y71.169 E1.58839
G1 X60.354 Y71.169 E.01678
G1 X96.115 Y106.931 E1.58839
G1 X95.581 Y106.931 E.01678
G1 X59.819 Y71.169 E1.58839
G1 X59.285 Y71.169 E.01678
G1 X95.047 Y106.931 E1.58839
G1 X94.512 Y106.931 E.01678
G1 X58.751 Y71.169 E1.58839
G1 X58.217 Y71.169 E.01678
G1 X93.978 Y106.931 E1.58839
G1 X93.444 Y106.931 E.01678
G1 X57.683 Y71.169 E1.58839
G1 X57.149 Y71.169 E.01678
G1 X92.91 Y106.931 E1.58839
G1 X92.376 Y106.931 E.01678
G1 X56.614 Y71.169 E1.58839
G1 X56.08 Y71.169 E.01678
G1 X91.841 Y106.931 E1.58839
G1 X91.307 Y106.931 E.01678
G1 X55.546 Y71.169 E1.58839
G1 X55.012 Y71.169 E.01678
G1 X90.773 Y106.931 E1.58839
G1 X90.239 Y106.931 E.01678
G1 X54.478 Y71.169 E1.58839
G1 X53.944 Y71.169 E.01678
G1 X89.705 Y106.931 E1.58839
G1 X89.171 Y106.931 E.01678
G1 X53.409 Y71.169 E1.58839
G1 X52.875 Y71.169 E.01678
M73 P7 R75
G1 X88.636 Y106.931 E1.58839
G1 X88.102 Y106.931 E.01678
G1 X52.341 Y71.169 E1.58839
G1 X51.807 Y71.169 E.01678
G1 X87.568 Y106.931 E1.58839
G1 X87.034 Y106.931 E.01678
G1 X51.273 Y71.169 E1.58839
G1 X50.739 Y71.169 E.01678
M73 P8 R75
G1 X86.5 Y106.931 E1.58839
G1 X85.966 Y106.931 E.01678
G1 X50.204 Y71.169 E1.58839
G1 X49.67 Y71.169 E.01678
G1 X85.431 Y106.931 E1.58839
G1 X84.897 Y106.931 E.01678
G1 X49.136 Y71.169 E1.58839
G1 X48.602 Y71.169 E.01678
G1 X84.363 Y106.931 E1.58839
G1 X83.829 Y106.931 E.01678
G1 X48.068 Y71.169 E1.58839
G1 X47.534 Y71.169 E.01678
G1 X83.295 Y106.931 E1.58839
G1 X82.761 Y106.931 E.01678
G1 X46.999 Y71.169 E1.58839
G1 X46.465 Y71.169 E.01678
G1 X82.226 Y106.931 E1.58839
G1 X81.692 Y106.931 E.01678
G1 X45.931 Y71.169 E1.58839
G1 X45.397 Y71.169 E.01678
G1 X81.158 Y106.931 E1.58839
G1 X80.624 Y106.931 E.01678
G1 X44.863 Y71.169 E1.58839
G1 X44.329 Y71.169 E.01678
G1 X80.09 Y106.931 E1.58839
G1 X79.556 Y106.931 E.01678
G1 X43.794 Y71.169 E1.58839
G1 X43.26 Y71.169 E.01678
G1 X79.021 Y106.931 E1.58839
G1 X78.487 Y106.931 E.01678
G1 X42.726 Y71.169 E1.58839
G1 X42.192 Y71.169 E.01678
G1 X77.953 Y106.931 E1.58839
G1 X77.419 Y106.931 E.01678
G1 X41.658 Y71.169 E1.58839
G1 X41.205 Y71.169 E.01421
G1 X41.205 Y71.251 E.00257
G1 X76.885 Y106.931 E1.58475
G1 X76.351 Y106.931 E.01678
M73 P9 R74
G1 X41.205 Y71.785 E1.56102
G1 X41.205 Y72.32 E.01678
G1 X75.816 Y106.931 E1.5373
G1 X75.282 Y106.931 E.01678
G1 X41.205 Y72.854 E1.51357
G1 X41.205 Y73.388 E.01678
G1 X74.748 Y106.931 E1.48985
G1 X74.214 Y106.931 E.01678
G1 X41.205 Y73.922 E1.46612
G1 X41.205 Y74.456 E.01678
G1 X73.68 Y106.931 E1.44239
G1 X73.146 Y106.931 E.01678
G1 X41.205 Y74.99 E1.41867
G1 X41.205 Y75.525 E.01678
G1 X72.611 Y106.931 E1.39494
G1 X72.077 Y106.931 E.01678
G1 X41.205 Y76.059 E1.37122
G1 X41.205 Y76.593 E.01678
G1 X71.543 Y106.931 E1.34749
G1 X71.009 Y106.931 E.01678
G1 X41.205 Y77.127 E1.32376
G1 X41.205 Y77.661 E.01678
G1 X70.475 Y106.931 E1.30004
G1 X69.941 Y106.931 E.01678
G1 X41.205 Y78.195 E1.27631
G1 X41.205 Y78.73 E.01678
G1 X69.406 Y106.931 E1.25259
G1 X68.872 Y106.931 E.01678
G1 X41.205 Y79.264 E1.22886
G1 X41.205 Y79.798 E.01678
G1 X68.338 Y106.931 E1.20513
G1 X67.804 Y106.931 E.01678
G1 X41.205 Y80.332 E1.18141
G1 X41.205 Y80.866 E.01678
G1 X67.27 Y106.931 E1.15768
G1 X66.736 Y106.931 E.01678
G1 X41.205 Y81.4 E1.13396
G1 X41.205 Y81.935 E.01678
G1 X66.201 Y106.931 E1.11023
G1 X65.667 Y106.931 E.01678
G1 X41.205 Y82.469 E1.08651
G1 X41.205 Y83.003 E.01678
G1 X65.133 Y106.931 E1.06278
G1 X64.599 Y106.931 E.01678
G1 X41.205 Y83.537 E1.03905
G1 X41.205 Y84.071 E.01678
M73 P10 R74
G1 X64.065 Y106.931 E1.01533
G1 X63.531 Y106.931 E.01678
G1 X41.205 Y84.605 E.9916
G1 X41.205 Y85.14 E.01678
G1 X62.996 Y106.931 E.96788
G1 X62.462 Y106.931 E.01678
G1 X41.205 Y85.674 E.94415
G1 X41.205 Y86.208 E.01678
G1 X61.928 Y106.931 E.92042
G1 X61.394 Y106.931 E.01678
G1 X41.205 Y86.742 E.8967
G1 X41.205 Y87.276 E.01678
G1 X60.86 Y106.931 E.87297
G1 X60.325 Y106.931 E.01678
M73 P10 R73
G1 X41.205 Y87.811 E.84925
G1 X41.205 Y88.345 E.01678
G1 X59.791 Y106.931 E.82552
G1 X59.257 Y106.931 E.01678
G1 X41.205 Y88.879 E.80179
G1 X41.205 Y89.413 E.01678
G1 X58.723 Y106.931 E.77807
G1 X58.189 Y106.931 E.01678
G1 X41.205 Y89.947 E.75434
G1 X41.205 Y90.481 E.01678
G1 X57.655 Y106.931 E.73062
G1 X57.12 Y106.931 E.01678
G1 X41.205 Y91.016 E.70689
G1 X41.205 Y91.55 E.01678
G1 X56.586 Y106.931 E.68317
G1 X56.052 Y106.931 E.01678
G1 X41.205 Y92.084 E.65944
G1 X41.205 Y92.618 E.01678
G1 X55.518 Y106.931 E.63571
G1 X54.984 Y106.931 E.01678
G1 X41.205 Y93.152 E.61199
G1 X41.205 Y93.686 E.01678
G1 X54.45 Y106.931 E.58826
G1 X53.915 Y106.931 E.01678
G1 X41.205 Y94.221 E.56454
G1 X41.205 Y94.755 E.01678
G1 X53.381 Y106.931 E.54081
G1 X52.847 Y106.931 E.01678
G1 X41.205 Y95.289 E.51708
