; generated by PrusaSlicer 2.5.0+win64 on 2023-02-26 at 01:08:32 UTC


;
;

;
;
; 

; external perimeters extrusion width = 0.45mm
; perimeters extrusion width = 0.45mm
; infill extrusion width = 0.45mm
; solid infill extrusion width = 0.45mm
; top infill extrusion width = 0.40mm
; support material extrusion width = 0.35mm
; first layer extrusion width = 0.42mm

M73 P0 R204
M201 X2500 Y2500 Z400 E5000 ; sets maximum accelerations, mm/sec^2
M203 X180 Y180 Z12 E80 ; sets maximum feedrates, mm / sec
M204 P1250 R1250 T2500 ; sets acceleration (P, T) and retract acceleration (R), mm/sec^2
M205 X8.00 Y8.00 Z2.00 E10.00 ; sets the jerk limits, mm/sec
M205 S0 T0 ; sets the minimum extruding and travel feed rate, mm/sec
M107
;TYPE:Custom
M862.3 P "MINI" ; printer model check
G90 ; use absolute coordinates
M83 ; extruder relative mode
M104 S170 ; set extruder temp for bed leveling
M140 S60 ; set bed temp
M109 R170 ; wait for bed leveling temp
M190 S60 ; wait for bed temp
M204 T1250 ; set travel acceleration
G28 ; home all without mesh bed level
G29 ; mesh bed leveling 
M204 T2500 ; restore travel acceleration
M104 S215 ; set extruder temp
G92 E0
G1 Y-2 X179 F2400
G1 Z3 F720
M109 S215 ; wait for extruder temp

; intro line
G1 X170 F1000
G1 Z0.2 F720
G1 X110 E8 F900
G1 X40 E10 F700
G92 E0

M221 S95 ; set flow
G21 ; set units to millimeters
G90 ; use absolute coordinates
M83 ; use relative distances for extrusion
M900 K0.2 ; Filament gcode LA 1.5
; ; Filament gcode LA 1.0
M107
;LAYER_CHANGE
;Z:0.2
;HEIGHT:0.2
;BEFORE_LAYER_CHANGE
G92 E0.0
;0.2


M73 P0 R203
G1 E-3.2 F4200
G1 Z.2 F720
;AFTER_LAYER_CHANGE
;0.2
G1 Z.4
G1 X22.766 Y26.678 F9000
G1 Z.2 F720
G1 E3.2 F2400
M204 P800
;TYPE:Skirt/Brim
;WIDTH:0.42
G1 F1200
G1 X24.447 Y25.982 E.05704
G1 X131.362 Y25.982 E3.35226
G1 X133.043 Y26.678 E.05704
G1 X135.34 Y28.975 E.10182
G1 X136.036 Y30.656 E.05704
G1 X136.036 Y123.793 E2.92026
G1 X135.34 Y125.474 E.05704
G1 X133.043 Y127.77 E.10182
G1 X131.362 Y128.466 E.05704
G1 X24.447 Y128.466 E3.35226
G1 X22.766 Y127.77 E.05704
G1 X20.47 Y125.474 E.10182
G1 X19.773 Y123.793 E.05704
G1 X19.773 Y30.656 E2.92026
G1 X20.47 Y28.975 E.05704
G1 X22.724 Y26.721 E.09994
M204 P1000
; printing object base_cards_box_lid.stl id:0 copy 0
G1 E-2.24 F4200
;WIPE_START
G1 F7200
G1 X24.236 Y26.072 E-.912
;WIPE_END
G1 E-.048 F4200
G1 Z.4 F720
G1 X131.362 Y30.656 F9000
G1 Z.2 F720
G1 E3.2 F2400
M204 P800
;TYPE:Support material
G1 F1200
G1 X133.659 Y30.656 E.072
G1 X133.659 Y123.793 E2.92026
G1 X131.362 Y123.793 E.072
G1 X131.362 Y126.089 E.072
G1 X24.447 Y126.089 E3.35226
G1 X24.447 Y123.793 E.072
G1 X22.15 Y123.793 E.072
G1 X22.15 Y30.656 E2.92026
G1 X24.447 Y30.656 E.072
G1 X24.447 Y28.359 E.072
G1 X131.362 Y28.359 E3.35226
G1 X131.362 Y30.599 E.07023
M204 P1000
G1 X28.16 Y33.744 F9000
M204 P800
G1 F1200
G1 X27.983 Y33.817 E.00599
G1 X27.748 Y34.052 E.01042
G1 X27.675 Y34.228 E.00599
G1 X27.675 Y120.22 E2.69622
G1 X27.748 Y120.397 E.00599
G1 X27.983 Y120.632 E.01042
G1 X28.16 Y120.705 E.00599
G1 X127.852 Y120.705 E3.12577
G1 X128.028 Y120.632 E.00599
M73 P0 R202
G1 X128.263 Y120.397 E.01042
G1 X128.336 Y120.22 E.00599
G1 X128.336 Y34.228 E2.69622
G1 X128.263 Y34.052 E.00599
G1 X128.028 Y33.817 E.01042
G1 X127.852 Y33.744 E.00599
G1 X28.216 Y33.744 E3.124
M204 P1000
G1 E-2.24 F4200
;WIPE_START
G1 F7200
G1 X29.862 Y33.744 E-.912
;WIPE_END
G1 E-.048 F4200
G1 Z.4 F720
G1 X133.21 Y123.623 F9000
G1 Z.2 F720
G1 E3.2 F2400
M204 P800
G1 F1200
G1 X133.21 Y30.995 E2.9043
G1 X132.791 Y30.995 E.01314
G1 X132.791 Y123.454 E2.89898
G1 X132.372 Y123.454 E.01314
G1 X132.372 Y30.995 E2.89898
G1 X131.953 Y30.995 E.01314
G1 X131.953 Y123.454 E2.89898
G1 X131.534 Y123.454 E.01314
G1 X131.534 Y30.995 E2.89898
G1 X131.115 Y30.995 E.01314
G1 X131.115 Y123.454 E2.89898
G1 X131.023 Y123.454 E.00287
G1 X131.023 Y125.75 E.072
G1 X130.696 Y125.75 E.01026
G1 X130.696 Y28.699 E3.04298
G1 X130.277 Y28.699 E.01314
G1 X130.277 Y125.75 E3.04298
G1 X129.858 Y125.75 E.01314
G1 X129.858 Y28.699 E3.04298
G1 X129.439 Y28.699 E.01314
M73 P1 R202
G1 X129.439 Y125.75 E3.04298
G1 X129.02 Y125.75 E.01314
M73 P1 R201
G1 X129.02 Y28.699 E3.04298
G1 X128.601 Y28.699 E.01314
G1 X128.601 Y125.75 E3.04298
G1 X128.182 Y125.75 E.01314
G1 X128.182 Y120.935 E.15096
G1 X127.919 Y121.044 E.00892
G1 X127.763 Y121.044 E.0049
G1 X127.763 Y125.75 E.14755
G1 X127.344 Y125.75 E.01314
G1 X127.344 Y121.044 E.14755
G1 X126.925 Y121.044 E.01314
G1 X126.925 Y125.75 E.14755
G1 X126.506 Y125.75 E.01314
G1 X126.506 Y121.044 E.14755
G1 X126.087 Y121.044 E.01314
G1 X126.087 Y125.75 E.14755
G1 X125.668 Y125.75 E.01314
G1 X125.668 Y121.044 E.14755
G1 X125.249 Y121.044 E.01314
G1 X125.249 Y125.75 E.14755
G1 X124.83 Y125.75 E.01314
G1 X124.83 Y121.044 E.14755
G1 X124.411 Y121.044 E.01314
G1 X124.411 Y125.75 E.14755
G1 X123.992 Y125.75 E.01314
G1 X123.992 Y121.044 E.14755
G1 X123.573 Y121.044 E.01314
G1 X123.573 Y125.75 E.14755
G1 X123.154 Y125.75 E.01314
G1 X123.154 Y121.044 E.14755
G1 X122.735 Y121.044 E.01314
G1 X122.735 Y125.75 E.14755
G1 X122.316 Y125.75 E.01314
G1 X122.316 Y121.044 E.14755
G1 X121.897 Y121.044 E.01314
G1 X121.897 Y125.75 E.14755
G1 X121.478 Y125.75 E.01314
G1 X121.478 Y121.044 E.14755
G1 X121.059 Y121.044 E.01314
G1 X121.059 Y125.75 E.14755
G1 X120.64 Y125.75 E.01314
G1 X120.64 Y121.044 E.14755
G1 X120.221 Y121.044 E.01314
G1 X120.221 Y125.75 E.14755
G1 X119.802 Y125.75 E.01314
G1 X119.802 Y121.044 E.14755
G1 X119.383 Y121.044 E.01314
G1 X119.383 Y125.75 E.14755
G1 X118.964 Y125.75 E.01314
G1 X118.964 Y121.044 E.14755
G1 X118.545 Y121.044 E.01314
G1 X118.545 Y125.75 E.14755
G1 X118.126 Y125.75 E.01314
G1 X118.126 Y121.044 E.14755
G1 X117.707 Y121.044 E.01314
G1 X117.707 Y125.75 E.14755
G1 X117.288 Y125.75 E.01314
G1 X117.288 Y121.044 E.14755
G1 X116.869 Y121.044 E.01314
G1 X116.869 Y125.75 E.14755
G1 X116.45 Y125.75 E.01314
G1 X116.45 Y121.044 E.14755
G1 X116.031 Y121.044 E.01314
G1 X116.031 Y125.75 E.14755
G1 X115.612 Y125.75 E.01314
G1 X115.612 Y121.044 E.14755
G1 X115.194 Y121.044 E.01314
G1 X115.194 Y125.75 E.14755
G1 X114.775 Y125.75 E.01314
G1 X114.775 Y121.044 E.14755
G1 X114.356 Y121.044 E.01314
G1 X114.356 Y125.75 E.14755
G1 X113.937 Y125.75 E.01314
G1 X113.937 Y121.044 E.14755
G1 X113.518 Y121.044 E.01314
G1 X113.518 Y125.75 E.14755
G1 X113.099 Y125.75 E.01314
G1 X113.099 Y121.044 E.14755
G1 X112.68 Y121.044 E.01314
G1 X112.68 Y125.75 E.14755
G1 X112.261 Y125.75 E.01314
G1 X112.261 Y121.044 E.14755
G1 X111.842 Y121.044 E.01314
G1 X111.842 Y125.75 E.14755
G1 X111.423 Y125.75 E.01314
G1 X111.423 Y121.044 E.14755
G1 X111.004 Y121.044 E.01314
G1 X111.004 Y125.75 E.14755
G1 X110.585 Y125.75 E.01314
G1 X110.585 Y121.044 E.14755
G1 X110.166 Y121.044 E.01314
G1 X110.166 Y125.75 E.14755
G1 X109.747 Y125.75 E.01314
G1 X109.747 Y121.044 E.14755
G1 X109.328 Y121.044 E.01314
G1 X109.328 Y125.75 E.14755
G1 X108.909 Y125.75 E.01314
G1 X108.909 Y121.044 E.14755
G1 X108.49 Y121.044 E.01314
G1 X108.49 Y125.75 E.14755
G1 X108.071 Y125.75 E.01314
G1 X108.071 Y121.044 E.14755
G1 X107.652 Y121.044 E.01314
G1 X107.652 Y125.75 E.14755
G1 X107.233 Y125.75 E.01314
G1 X107.233 Y121.044 E.14755
G1 X106.814 Y121.044 E.01314
G1 X106.814 Y125.75 E.14755
G1 X106.395 Y125.75 E.01314
G1 X106.395 Y121.044 E.14755
G1 X105.976 Y121.044 E.01314
G1 X105.976 Y125.75 E.14755
G1 X105.557 Y125.75 E.01314
G1 X105.557 Y121.044 E.14755
G1 X105.138 Y121.044 E.01314
G1 X105.138 Y125.75 E.14755
G1 X104.719 Y125.75 E.01314
G1 X104.719 Y121.044 E.14755
G1 X104.3 Y121.044 E.01314
G1 X104.3 Y125.75 E.14755
G1 X103.881 Y125.75 E.01314
G1 X103.881 Y121.044 E.14755
G1 X103.462 Y121.044 E.01314
G1 X103.462 Y125.75 E.14755
G1 X103.043 Y125.75 E.01314
G1 X103.043 Y121.044 E.14755
G1 X102.624 Y121.044 E.01314
G1 X102.624 Y125.75 E.14755
G1 X102.205 Y125.75 E.01314
G1 X102.205 Y121.044 E.14755
G1 X101.786 Y121.044 E.01314
G1 X101.786 Y125.75 E.14755
G1 X101.367 Y125.75 E.01314
G1 X101.367 Y121.044 E.14755
G1 X100.948 Y121.044 E.01314
G1 X100.948 Y125.75 E.14755
G1 X100.529 Y125.75 E.01314
G1 X100.529 Y121.044 E.14755
G1 X100.11 Y121.044 E.01314
G1 X100.11 Y125.75 E.14755
G1 X99.691 Y125.75 E.01314
G1 X99.691 Y121.044 E.14755
G1 X99.272 Y121.044 E.01314
G1 X99.272 Y125.75 E.14755
G1 X98.853 Y125.75 E.01314
G1 X98.853 Y121.044 E.14755
G1 X98.434 Y121.044 E.01314
G1 X98.434 Y125.75 E.14755
G1 X98.015 Y125.75 E.01314
G1 X98.015 Y121.044 E.14755
G1 X97.596 Y121.044 E.01314
G1 X97.596 Y125.75 E.14755
G1 X97.178 Y125.75 E.01314
G1 X97.178 Y121.044 E.14755
G1 X96.759 Y121.044 E.01314
G1 X96.759 Y125.75 E.14755
G1 X96.34 Y125.75 E.01314
G1 X96.34 Y121.044 E.14755
G1 X95.921 Y121.044 E.01314
G1 X95.921 Y125.75 E.14755
G1 X95.502 Y125.75 E.01314
G1 X95.502 Y121.044 E.14755
G1 X95.083 Y121.044 E.01314
G1 X95.083 Y125.75 E.14755
G1 X94.664 Y125.75 E.01314
G1 X94.664 Y121.044 E.14755
G1 X94.245 Y121.044 E.01314
G1 X94.245 Y125.75 E.14755
G1 X93.826 Y125.75 E.01314
G1 X93.826 Y121.044 E.14755
G1 X93.407 Y121.044 E.01314
G1 X93.407 Y125.75 E.14755
G1 X92.988 Y125.75 E.01314
G1 X92.988 Y121.044 E.14755
G1 X92.569 Y121.044 E.01314
G1 X92.569 Y125.75 E.14755
G1 X92.15 Y125.75 E.01314
G1 X92.15 Y121.044 E.14755
G1 X91.731 Y121.044 E.01314
G1 X91.731 Y125.75 E.14755
G1 X91.312 Y125.75 E.01314
G1 X91.312 Y121.044 E.14755
G1 X90.893 Y121.044 E.01314
G1 X90.893 Y125.75 E.14755
G1 X90.474 Y125.75 E.01314
G1 X90.474 Y121.044 E.14755
G1 X90.055 Y121.044 E.01314
G1 X90.055 Y125.75 E.14755
G1 X89.636 Y125.75 E.01314
G1 X89.636 Y121.044 E.14755
G1 X89.217 Y121.044 E.01314
G1 X89.217 Y125.75 E.14755
G1 X88.798 Y125.75 E.01314
G1 X88.798 Y121.044 E.14755
G1 X88.379 Y121.044 E.01314
G1 X88.379 Y125.75 E.14755
G1 X87.96 Y125.75 E.01314
G1 X87.96 Y121.044 E.14755
G1 X87.541 Y121.044 E.01314
G1 X87.541 Y125.75 E.14755
G1 X87.122 Y125.75 E.01314
G1 X87.122 Y121.044 E.14755
G1 X86.703 Y121.044 E.01314
G1 X86.703 Y125.75 E.14755
G1 X86.284 Y125.75 E.01314
G1 X86.284 Y121.044 E.14755
G1 X85.865 Y121.044 E.01314
G1 X85.865 Y125.75 E.14755
G1 X85.446 Y125.75 E.01314
G1 X85.446 Y121.044 E.14755
G1 X85.027 Y121.044 E.01314
G1 X85.027 Y125.75 E.14755
G1 X84.608 Y125.75 E.01314
G1 X84.608 Y121.044 E.14755
G1 X84.189 Y121.044 E.01314
G1 X84.189 Y125.75 E.14755
G1 X83.77 Y125.75 E.01314
G1 X83.77 Y121.044 E.14755
G1 X83.351 Y121.044 E.01314
G1 X83.351 Y125.75 E.14755
G1 X82.932 Y125.75 E.01314
G1 X82.932 Y121.044 E.14755
G1 X82.513 Y121.044 E.01314
G1 X82.513 Y125.75 E.14755
G1 X82.094 Y125.75 E.01314
G1 X82.094 Y121.044 E.14755
G1 X81.675 Y121.044 E.01314
G1 X81.675 Y125.75 E.14755
G1 X81.256 Y125.75 E.01314
G1 X81.256 Y121.044 E.14755
G1 X80.837 Y121.044 E.01314
G1 X80.837 Y125.75 E.14755
G1 X80.418 Y125.75 E.01314
G1 X80.418 Y121.044 E.14755
G1 X79.999 Y121.044 E.01314
G1 X79.999 Y125.75 E.14755
G1 X79.58 Y125.75 E.01314
G1 X79.58 Y121.044 E.14755
G1 X79.161 Y121.044 E.01314
G1 X79.161 Y125.75 E.14755
G1 X78.743 Y125.75 E.01314
G1 X78.743 Y121.044 E.14755
G1 X78.324 Y121.044 E.01314
G1 X78.324 Y125.75 E.14755
G1 X77.905 Y125.75 E.01314
G1 X77.905 Y121.044 E.14755
G1 X77.486 Y121.044 E.01314
G1 X77.486 Y125.75 E.14755
G1 X77.067 Y125.75 E.01314
G1 X77.067 Y121.044 E.14755
G1 X76.648 Y121.044 E.01314
G1 X76.648 Y125.75 E.14755
G1 X76.229 Y125.75 E.01314
G1 X76.229 Y121.044 E.14755
G1 X75.81 Y121.044 E.01314
G1 X75.81 Y125.75 E.14755
G1 X75.391 Y125.75 E.01314
G1 X75.391 Y121.044 E.14755
G1 X74.972 Y121.044 E.01314
G1 X74.972 Y125.75 E.14755
G1 X74.553 Y125.75 E.01314
G1 X74.553 Y121.044 E.14755
G1 X74.134 Y121.044 E.01314
G1 X74.134 Y125.75 E.14755
G1 X73.715 Y125.75 E.01314
G1 X73.715 Y121.044 E.14755
G1 X73.296 Y121.044 E.01314
G1 X73.296 Y125.75 E.14755
G1 X72.877 Y125.75 E.01314
G1 X72.877 Y121.044 E.14755
G1 X72.458 Y121.044 E.01314
G1 X72.458 Y125.75 E.14755
G1 X72.039 Y125.75 E.01314
G1 X72.039 Y121.044 E.14755
G1 X71.62 Y121.044 E.01314
G1 X71.62 Y125.75 E.14755
G1 X71.201 Y125.75 E.01314
G1 X71.201 Y121.044 E.14755
G1 X70.782 Y121.044 E.01314
G1 X70.782 Y125.75 E.14755
G1 X70.363 Y125.75 E.01314
G1 X70.363 Y121.044 E.14755
G1 X69.944 Y121.044 E.01314
G1 X69.944 Y125.75 E.14755
G1 X69.525 Y125.75 E.01314
G1 X69.525 Y121.044 E.14755
G1 X69.106 Y121.044 E.01314
G1 X69.106 Y125.75 E.14755
G1 X68.687 Y125.75 E.01314
G1 X68.687 Y121.044 E.14755
G1 X68.268 Y121.044 E.01314
G1 X68.268 Y125.75 E.14755
G1 X67.849 Y125.75 E.01314
G1 X67.849 Y121.044 E.14755
G1 X67.43 Y121.044 E.01314
G1 X67.43 Y125.75 E.14755
G1 X67.011 Y125.75 E.01314
G1 X67.011 Y121.044 E.14755
G1 X66.592 Y121.044 E.01314
G1 X66.592 Y125.75 E.14755
G1 X66.173 Y125.75 E.01314
G1 X66.173 Y121.044 E.14755
G1 X65.754 Y121.044 E.01314
G1 X65.754 Y125.75 E.14755
G1 X65.335 Y125.75 E.01314
G1 X65.335 Y121.044 E.14755
G1 X64.916 Y121.044 E.01314
G1 X64.916 Y125.75 E.14755
G1 X64.497 Y125.75 E.01314
G1 X64.497 Y121.044 E.14755
G1 X64.078 Y121.044 E.01314
G1 X64.078 Y125.75 E.14755
G1 X63.659 Y125.75 E.01314
G1 X63.659 Y121.044 E.14755
G1 X63.24 Y121.044 E.01314
G1 X63.24 Y125.75 E.14755
G1 X62.821 Y125.75 E.01314
G1 X62.821 Y121.044 E.14755
G1 X62.402 Y121.044 E.01314
G1 X62.402 Y125.75 E.14755
G1 X61.983 Y125.75 E.01314
G1 X61.983 Y121.044 E.14755
G1 X61.564 Y121.044 E.01314
G1 X61.564 Y125.75 E.14755
G1 X61.145 Y125.75 E.01314
G1 X61.145 Y121.044 E.14755
G1 X60.727 Y121.044 E.01314
G1 X60.727 Y125.75 E.14755
G1 X60.308 Y125.75 E.01314
G1 X60.308 Y121.044 E.14755
G1 X59.889 Y121.044 E.01314
G1 X59.889 Y125.75 E.14755
G1 X59.47 Y125.75 E.01314
G1 X59.47 Y121.044 E.14755
G1 X59.051 Y121.044 E.01314
G1 X59.051 Y125.75 E.14755
G1 X58.632 Y125.75 E.01314
G1 X58.632 Y121.044 E.14755
G1 X58.213 Y121.044 E.01314
G1 X58.213 Y125.75 E.14755
G1 X57.794 Y125.75 E.01314
G1 X57.794 Y121.044 E.14755
G1 X57.375 Y121.044 E.01314
G1 X57.375 Y125.75 E.14755
G1 X56.956 Y125.75 E.01314
G1 X56.956 Y121.044 E.14755
G1 X56.537 Y121.044 E.01314
G1 X56.537 Y125.75 E.14755
G1 X56.118 Y125.75 E.01314
G1 X56.118 Y121.044 E.14755
G1 X55.699 Y121.044 E.01314
G1 X55.699 Y125.75 E.14755
G1 X55.28 Y125.75 E.01314
G1 X55.28 Y121.044 E.14755
G1 X54.861 Y121.044 E.01314
G1 X54.861 Y125.75 E.14755
G1 X54.442 Y125.75 E.01314
M73 P1 R200
G1 X54.442 Y121.044 E.14755
G1 X54.023 Y121.044 E.01314
G1 X54.023 Y125.75 E.14755
G1 X53.604 Y125.75 E.01314
G1 X53.604 Y121.044 E.14755
G1 X53.185 Y121.044 E.01314
G1 X53.185 Y125.75 E.14755
G1 X52.766 Y125.75 E.01314
G1 X52.766 Y121.044 E.14755
G1 X52.347 Y121.044 E.01314
G1 X52.347 Y125.75 E.14755
G1 X51.928 Y125.75 E.01314
G1 X51.928 Y121.044 E.14755
G1 X51.509 Y121.044 E.01314
G1 X51.509 Y125.75 E.14755
G1 X51.09 Y125.75 E.01314
G1 X51.09 Y121.044 E.14755
G1 X50.671 Y121.044 E.01314
G1 X50.671 Y125.75 E.14755
G1 X50.252 Y125.75 E.01314
G1 X50.252 Y121.044 E.14755
G1 X49.833 Y121.044 E.01314
G1 X49.833 Y125.75 E.14755
G1 X49.414 Y125.75 E.01314
G1 X49.414 Y121.044 E.14755
G1 X48.995 Y121.044 E.01314
G1 X48.995 Y125.75 E.14755
G1 X48.576 Y125.75 E.01314
G1 X48.576 Y121.044 E.14755
G1 X48.157 Y121.044 E.01314
G1 X48.157 Y125.75 E.14755
G1 X47.738 Y125.75 E.01314
G1 X47.738 Y121.044 E.14755
G1 X47.319 Y121.044 E.01314
G1 X47.319 Y125.75 E.14755
G1 X46.9 Y125.75 E.01314
G1 X46.9 Y121.044 E.14755
G1 X46.481 Y121.044 E.01314
G1 X46.481 Y125.75 E.14755
G1 X46.062 Y125.75 E.01314
G1 X46.062 Y121.044 E.14755
G1 X45.643 Y121.044 E.01314
G1 X45.643 Y125.75 E.14755
G1 X45.224 Y125.75 E.01314
G1 X45.224 Y121.044 E.14755
G1 X44.805 Y121.044 E.01314
G1 X44.805 Y125.75 E.14755
G1 X44.386 Y125.75 E.01314
G1 X44.386 Y121.044 E.14755
G1 X43.967 Y121.044 E.01314
G1 X43.967 Y125.75 E.14755
G1 X43.548 Y125.75 E.01314
G1 X43.548 Y121.044 E.14755
G1 X43.129 Y121.044 E.01314
G1 X43.129 Y125.75 E.14755
G1 X42.711 Y125.75 E.01314
G1 X42.711 Y121.044 E.14755
G1 X42.292 Y121.044 E.01314
G1 X42.292 Y125.75 E.14755
G1 X41.873 Y125.75 E.01314
G1 X41.873 Y121.044 E.14755
G1 X41.454 Y121.044 E.01314
G1 X41.454 Y125.75 E.14755
G1 X41.035 Y125.75 E.01314
G1 X41.035 Y121.044 E.14755
G1 X40.616 Y121.044 E.01314
G1 X40.616 Y125.75 E.14755
G1 X40.197 Y125.75 E.01314
G1 X40.197 Y121.044 E.14755
G1 X39.778 Y121.044 E.01314
G1 X39.778 Y125.75 E.14755
