; generated by PrusaSlicer 2.5.0+win64 on 2023-02-16 at 05:17:32 UTC


;
;

;
;
; 

; external perimeters extrusion width = 0.45mm
; perimeters extrusion width = 0.45mm
; infill extrusion width = 0.45mm
; solid infill extrusion width = 0.45mm
; top infill extrusion width = 0.40mm
; first layer extrusion width = 0.42mm

M73 P0 R83
M201 X2500 Y2500 Z400 E5000 ; sets maximum accelerations, mm/sec^2
M203 X180 Y180 Z12 E80 ; sets maximum feedrates, mm / sec
M204 P1250 R1250 T2500 ; sets acceleration (P, T) and retract acceleration (R), mm/sec^2
M205 X8.00 Y8.00 Z2.00 E10.00 ; sets the jerk limits, mm/sec
M205 S0 T0 ; sets the minimum extruding and travel feed rate, mm/sec
M107
;TYPE:Custom
M862.3 P "MINI" ; printer model check
G90 ; use absolute coordinates
M83 ; extruder relative mode
M104 S170 ; set extruder temp for bed leveling
M140 S60 ; set bed temp
M109 R170 ; wait for bed leveling temp
M190 S60 ; wait for bed temp
M204 T1250 ; set travel acceleration
G28 ; home all without mesh bed level
G29 ; mesh bed leveling 
M204 T2500 ; restore travel acceleration
M104 S215 ; set extruder temp
G92 E0
G1 Y-2 X179 F2400
G1 Z3 F720
M109 S215 ; wait for extruder temp

; intro line
G1 X170 F1000
G1 Z0.2 F720
G1 X110 E8 F900
G1 X40 E10 F700
G92 E0

M221 S95 ; set flow
G21 ; set units to millimeters
G90 ; use absolute coordinates
M83 ; use relative distances for extrusion
M900 K0.2 ; Filament gcode LA 1.5
; ; Filament gcode LA 1.0
M107
;LAYER_CHANGE
;Z:0.2
;HEIGHT:0.2
;BEFORE_LAYER_CHANGE
G92 E0.0
;0.2


G1 E-3.2 F4200
G1 Z.2 F720
;AFTER_LAYER_CHANGE
;0.2
G1 Z.4
G1 X38.735 Y75.416 F9000
G1 Z.2 F720
G1 E3.2 F2400
M204 P800
;TYPE:Skirt/Brim
;WIDTH:0.42
G1 F1200
G1 X39.674 Y75.222 E.03008
G1 X140.326 Y75.222 E3.15584
G1 X141.633 Y75.614 E.04278
G1 X142.509 Y76.66 E.04278
G1 X142.703 Y77.599 E.03008
G1 X142.703 Y100.401 E.71491
G1 X142.006 Y102.081 E.05704
G1 X141.431 Y102.656 E.0255
G1 X139.751 Y103.353 E.05704
G1 X40.25 Y103.353 E3.11978
G1 X38.569 Y102.656 E.05704
G1 X37.994 Y102.081 E.0255
G1 X37.297 Y100.401 E.05704
G1 X37.297 Y77.599 E.71491
G1 X37.689 Y76.292 E.04278
G1 X38.689 Y75.455 E.0409
M204 P1000
; printing object base_cards_box.stl id:0 copy 0
G1 E-2.24 F4200
;WIPE_START
G1 F7200
G1 X39.675 Y75.222 E-.56121
G1 X40.308 Y75.222 E-.35079
;WIPE_END
G1 E-.048 F4200
G1 Z.4 F720
G1 X40.937 Y78.387 F9000
G1 Z.2 F720
G1 E3.2 F2400
M204 P800
;TYPE:Perimeter
;WIDTH:0.419999
G1 F1200
G1 X139.063 Y78.387 E3.07669
G1 X139.063 Y99.713 E.66869
G1 X40.937 Y99.713 E3.07669
G1 X40.937 Y78.447 E.66681
M204 P1000
G1 X40.559 Y78.009 F9000
M204 P800
;TYPE:External perimeter
G1 F1200
G1 X139.441 Y78.009 E3.10034
G1 X139.441 Y100.091 E.69233
G1 X40.559 Y100.091 E3.10034
G1 X40.559 Y78.069 E.69045
M204 P1000
M73 P1 R83
G1 X40.958 Y78.039 F9000
G1 E-2.24 F4200
;WIPE_START
G1 F7200
G1 X42.205 Y78.069 E-.912
;WIPE_END
G1 E-.048 F4200
G1 Z.4 F720
G1 X138.187 Y78.5 F9000
G1 Z.2 F720
G1 E3.2 F2400
M204 P800
;TYPE:Solid infill
;WIDTH:0.420498
G1 F1200
G1 X138.781 Y79.093 E.02636
G1 X138.781 Y79.627 E.01676
G1 X137.823 Y78.669 E.04253
G1 X137.289 Y78.669 E.01676
G1 X138.781 Y80.161 E.06624
G1 X138.781 Y80.695 E.01676
G1 X136.755 Y78.669 E.08995
G1 X136.221 Y78.669 E.01676
G1 X138.781 Y81.229 E.11366
G1 X138.781 Y81.763 E.01676
G1 X135.687 Y78.669 E.13737
G1 X135.153 Y78.669 E.01676
G1 X138.781 Y82.297 E.16108
G1 X138.781 Y82.831 E.01676
G1 X134.619 Y78.669 E.18478
G1 X134.085 Y78.669 E.01676
M73 P1 R82
G1 X138.781 Y83.365 E.20849
G1 X138.781 Y83.899 E.01676
G1 X133.551 Y78.669 E.2322
G1 X133.017 Y78.669 E.01676
G1 X138.781 Y84.433 E.25591
G1 X138.781 Y84.967 E.01676
G1 X132.483 Y78.669 E.27962
G1 X131.949 Y78.669 E.01676
G1 X138.781 Y85.501 E.30333
G1 X138.781 Y86.035 E.01676
G1 X131.415 Y78.669 E.32704
G1 X130.881 Y78.669 E.01676
G1 X138.781 Y86.569 E.35075
G1 X138.781 Y87.103 E.01676
G1 X130.347 Y78.669 E.37445
G1 X129.813 Y78.669 E.01676
G1 X138.781 Y87.637 E.39816
G1 X138.781 Y88.171 E.01676
G1 X129.279 Y78.669 E.42187
G1 X128.745 Y78.669 E.01676
G1 X138.781 Y88.705 E.44558
G1 X138.781 Y89.239 E.01676
G1 X128.211 Y78.669 E.46929
G1 X127.677 Y78.669 E.01676
G1 X138.781 Y89.773 E.493
G1 X138.781 Y90.307 E.01676
G1 X127.143 Y78.669 E.51671
G1 X126.609 Y78.669 E.01676
G1 X138.781 Y90.841 E.54041
G1 X138.781 Y91.375 E.01676
G1 X126.075 Y78.669 E.56412
G1 X125.541 Y78.669 E.01676
G1 X138.781 Y91.909 E.58783
G1 X138.781 Y92.443 E.01676
G1 X125.007 Y78.669 E.61154
G1 X124.473 Y78.669 E.01676
G1 X138.781 Y92.977 E.63525
G1 X138.781 Y93.511 E.01676
G1 X123.939 Y78.669 E.65896
G1 X123.405 Y78.669 E.01676
G1 X138.781 Y94.045 E.68267
G1 X138.781 Y94.579 E.01676
G1 X122.871 Y78.669 E.70638
G1 X122.337 Y78.669 E.01676
G1 X138.781 Y95.113 E.73008
G1 X138.781 Y95.647 E.01676
G1 X121.803 Y78.669 E.75379
G1 X121.269 Y78.669 E.01676
G1 X138.781 Y96.181 E.7775
G1 X138.781 Y96.715 E.01676
G1 X120.735 Y78.669 E.80121
G1 X120.201 Y78.669 E.01676
G1 X138.781 Y97.249 E.82492
G1 X138.781 Y97.782 E.01676
G1 X119.668 Y78.669 E.84863
G1 X119.134 Y78.669 E.01676
G1 X138.781 Y98.316 E.87234
G1 X138.781 Y98.85 E.01676
G1 X118.6 Y78.669 E.89604
G1 X118.066 Y78.669 E.01676
G1 X138.781 Y99.384 E.91975
G1 X138.781 Y99.431 E.00145
G1 X138.293 Y99.431 E.01531
G1 X117.532 Y78.669 E.92181
G1 X116.998 Y78.669 E.01676
G1 X137.759 Y99.431 E.92181
G1 X137.225 Y99.431 E.01676
G1 X116.464 Y78.669 E.92181
G1 X115.93 Y78.669 E.01676
G1 X136.691 Y99.431 E.92181
G1 X136.157 Y99.431 E.01676
G1 X115.396 Y78.669 E.92181
G1 X114.862 Y78.669 E.01676
G1 X135.623 Y99.431 E.92181
G1 X135.089 Y99.431 E.01676
G1 X114.328 Y78.669 E.92181
G1 X113.794 Y78.669 E.01676
G1 X134.555 Y99.431 E.92181
G1 X134.021 Y99.431 E.01676
G1 X113.26 Y78.669 E.92181
G1 X112.726 Y78.669 E.01676
G1 X133.487 Y99.431 E.92181
G1 X132.953 Y99.431 E.01676
M73 P2 R82
G1 X112.192 Y78.669 E.92181
G1 X111.658 Y78.669 E.01676
G1 X132.419 Y99.431 E.92181
G1 X131.885 Y99.431 E.01676
G1 X111.124 Y78.669 E.92181
G1 X110.59 Y78.669 E.01676
G1 X131.351 Y99.431 E.92181
G1 X130.817 Y99.431 E.01676
G1 X110.056 Y78.669 E.92181
G1 X109.522 Y78.669 E.01676
G1 X130.283 Y99.431 E.92181
G1 X129.749 Y99.431 E.01676
G1 X108.988 Y78.669 E.92181
G1 X108.454 Y78.669 E.01676
G1 X129.215 Y99.431 E.92181
G1 X128.681 Y99.431 E.01676
G1 X107.92 Y78.669 E.92181
G1 X107.386 Y78.669 E.01676
G1 X128.147 Y99.431 E.92181
G1 X127.613 Y99.431 E.01676
G1 X106.852 Y78.669 E.92181
G1 X106.318 Y78.669 E.01676
M73 P2 R81
G1 X127.079 Y99.431 E.92181
G1 X126.545 Y99.431 E.01676
G1 X105.784 Y78.669 E.92181
G1 X105.25 Y78.669 E.01676
G1 X126.011 Y99.431 E.92181
G1 X125.477 Y99.431 E.01676
G1 X104.716 Y78.669 E.92181
G1 X104.182 Y78.669 E.01676
G1 X124.943 Y99.431 E.92181
G1 X124.409 Y99.431 E.01676
G1 X103.648 Y78.669 E.92181
G1 X103.114 Y78.669 E.01676
G1 X123.876 Y99.431 E.92181
G1 X123.342 Y99.431 E.01676
G1 X102.58 Y78.669 E.92181
G1 X102.046 Y78.669 E.01676
G1 X122.808 Y99.431 E.92181
G1 X122.274 Y99.431 E.01676
G1 X101.512 Y78.669 E.92181
G1 X100.978 Y78.669 E.01676
G1 X121.74 Y99.431 E.92181
G1 X121.206 Y99.431 E.01676
G1 X100.444 Y78.669 E.92181
G1 X99.91 Y78.669 E.01676
G1 X120.672 Y99.431 E.92181
G1 X120.138 Y99.431 E.01676
G1 X99.376 Y78.669 E.92181
G1 X98.842 Y78.669 E.01676
G1 X119.604 Y99.431 E.92181
G1 X119.07 Y99.431 E.01676
G1 X98.308 Y78.669 E.92181
G1 X97.774 Y78.669 E.01676
G1 X118.536 Y99.431 E.92181
G1 X118.002 Y99.431 E.01676
G1 X97.241 Y78.669 E.92181
G1 X96.707 Y78.669 E.01676
G1 X117.468 Y99.431 E.92181
G1 X116.934 Y99.431 E.01676
G1 X96.173 Y78.669 E.92181
G1 X95.639 Y78.669 E.01676
G1 X116.4 Y99.431 E.92181
G1 X115.866 Y99.431 E.01676
G1 X95.105 Y78.669 E.92181
G1 X94.571 Y78.669 E.01676
G1 X115.332 Y99.431 E.92181
G1 X114.798 Y99.431 E.01676
M73 P3 R81
G1 X94.037 Y78.669 E.92181
G1 X93.503 Y78.669 E.01676
G1 X114.264 Y99.431 E.92181
G1 X113.73 Y99.431 E.01676
G1 X92.969 Y78.669 E.92181
G1 X92.435 Y78.669 E.01676
G1 X113.196 Y99.431 E.92181
G1 X112.662 Y99.431 E.01676
G1 X91.901 Y78.669 E.92181
G1 X91.367 Y78.669 E.01676
G1 X112.128 Y99.431 E.92181
G1 X111.594 Y99.431 E.01676
G1 X90.833 Y78.669 E.92181
G1 X90.299 Y78.669 E.01676
G1 X111.06 Y99.431 E.92181
G1 X110.526 Y99.431 E.01676
G1 X89.765 Y78.669 E.92181
G1 X89.231 Y78.669 E.01676
G1 X109.992 Y99.431 E.92181
G1 X109.458 Y99.431 E.01676
G1 X88.697 Y78.669 E.92181
G1 X88.163 Y78.669 E.01676
G1 X108.924 Y99.431 E.92181
G1 X108.39 Y99.431 E.01676
G1 X87.629 Y78.669 E.92181
G1 X87.095 Y78.669 E.01676
G1 X107.856 Y99.431 E.92181
G1 X107.322 Y99.431 E.01676
G1 X86.561 Y78.669 E.92181
G1 X86.027 Y78.669 E.01676
G1 X106.788 Y99.431 E.92181
G1 X106.254 Y99.431 E.01676
G1 X85.493 Y78.669 E.92181
G1 X84.959 Y78.669 E.01676
M73 P3 R80
G1 X105.72 Y99.431 E.92181
G1 X105.186 Y99.431 E.01676
G1 X84.425 Y78.669 E.92181
G1 X83.891 Y78.669 E.01676
G1 X104.652 Y99.431 E.92181
G1 X104.118 Y99.431 E.01676
G1 X83.357 Y78.669 E.92181
G1 X82.823 Y78.669 E.01676
G1 X103.584 Y99.431 E.92181
G1 X103.05 Y99.431 E.01676
G1 X82.289 Y78.669 E.92181
G1 X81.755 Y78.669 E.01676
G1 X102.516 Y99.431 E.92181
G1 X101.982 Y99.431 E.01676
G1 X81.221 Y78.669 E.92181
G1 X80.687 Y78.669 E.01676
G1 X101.449 Y99.431 E.92181
G1 X100.915 Y99.431 E.01676
G1 X80.153 Y78.669 E.92181
G1 X79.619 Y78.669 E.01676
G1 X100.381 Y99.431 E.92181
G1 X99.847 Y99.431 E.01676
G1 X79.085 Y78.669 E.92181
G1 X78.551 Y78.669 E.01676
G1 X99.313 Y99.431 E.92181
G1 X98.779 Y99.431 E.01676
G1 X78.017 Y78.669 E.92181
G1 X77.483 Y78.669 E.01676
G1 X98.245 Y99.431 E.92181
G1 X97.711 Y99.431 E.01676
G1 X76.949 Y78.669 E.92181
G1 X76.415 Y78.669 E.01676
M73 P4 R80
G1 X97.177 Y99.431 E.92181
G1 X96.643 Y99.431 E.01676
G1 X75.881 Y78.669 E.92181
G1 X75.348 Y78.669 E.01676
G1 X96.109 Y99.431 E.92181
G1 X95.575 Y99.431 E.01676
G1 X74.814 Y78.669 E.92181
G1 X74.28 Y78.669 E.01676
G1 X95.041 Y99.431 E.92181
G1 X94.507 Y99.431 E.01676
G1 X73.746 Y78.669 E.92181
G1 X73.212 Y78.669 E.01676
G1 X93.973 Y99.431 E.92181
G1 X93.439 Y99.431 E.01676
G1 X72.678 Y78.669 E.92181
G1 X72.144 Y78.669 E.01676
G1 X92.905 Y99.431 E.92181
G1 X92.371 Y99.431 E.01676
G1 X71.61 Y78.669 E.92181
G1 X71.076 Y78.669 E.01676
G1 X91.837 Y99.431 E.92181
G1 X91.303 Y99.431 E.01676
G1 X70.542 Y78.669 E.92181
G1 X70.008 Y78.669 E.01676
G1 X90.769 Y99.431 E.92181
G1 X90.235 Y99.431 E.01676
G1 X69.474 Y78.669 E.92181
G1 X68.94 Y78.669 E.01676
G1 X89.701 Y99.431 E.92181
G1 X89.167 Y99.431 E.01676
G1 X68.406 Y78.669 E.92181
G1 X67.872 Y78.669 E.01676
G1 X88.633 Y99.431 E.92181
G1 X88.099 Y99.431 E.01676
G1 X67.338 Y78.669 E.92181
G1 X66.804 Y78.669 E.01676
G1 X87.565 Y99.431 E.92181
G1 X87.031 Y99.431 E.01676
G1 X66.27 Y78.669 E.92181
G1 X65.736 Y78.669 E.01676
G1 X86.497 Y99.431 E.92181
G1 X85.963 Y99.431 E.01676
G1 X65.202 Y78.669 E.92181
G1 X64.668 Y78.669 E.01676
G1 X85.429 Y99.431 E.92181
G1 X84.895 Y99.431 E.01676
M73 P4 R79
G1 X64.134 Y78.669 E.92181
G1 X63.6 Y78.669 E.01676
G1 X84.361 Y99.431 E.92181
G1 X83.827 Y99.431 E.01676
G1 X63.066 Y78.669 E.92181
G1 X62.532 Y78.669 E.01676
G1 X83.293 Y99.431 E.92181
G1 X82.759 Y99.431 E.01676
G1 X61.998 Y78.669 E.92181
G1 X61.464 Y78.669 E.01676
G1 X82.225 Y99.431 E.92181
G1 X81.691 Y99.431 E.01676
G1 X60.93 Y78.669 E.92181
G1 X60.396 Y78.669 E.01676
G1 X81.157 Y99.431 E.92181
G1 X80.623 Y99.431 E.01676
G1 X59.862 Y78.669 E.92181
G1 X59.328 Y78.669 E.01676
G1 X80.089 Y99.431 E.92181
G1 X79.556 Y99.431 E.01676
G1 X58.794 Y78.669 E.92181
G1 X58.26 Y78.669 E.01676
M73 P5 R79
G1 X79.022 Y99.431 E.92181
G1 X78.488 Y99.431 E.01676
G1 X57.726 Y78.669 E.92181
G1 X57.192 Y78.669 E.01676
G1 X77.954 Y99.431 E.92181
G1 X77.42 Y99.431 E.01676
G1 X56.658 Y78.669 E.92181
G1 X56.124 Y78.669 E.01676
G1 X76.886 Y99.431 E.92181
G1 X76.352 Y99.431 E.01676
G1 X55.59 Y78.669 E.92181
G1 X55.056 Y78.669 E.01676
G1 X75.818 Y99.431 E.92181
G1 X75.284 Y99.431 E.01676
G1 X54.522 Y78.669 E.92181
G1 X53.988 Y78.669 E.01676
G1 X74.75 Y99.431 E.92181
G1 X74.216 Y99.431 E.01676
G1 X53.454 Y78.669 E.92181
G1 X52.921 Y78.669 E.01676
G1 X73.682 Y99.431 E.92181
G1 X73.148 Y99.431 E.01676
G1 X52.387 Y78.669 E.92181
G1 X51.853 Y78.669 E.01676
G1 X72.614 Y99.431 E.92181
G1 X72.08 Y99.431 E.01676
G1 X51.319 Y78.669 E.92181
G1 X50.785 Y78.669 E.01676
G1 X71.546 Y99.431 E.92181
G1 X71.012 Y99.431 E.01676
G1 X50.251 Y78.669 E.92181
G1 X49.717 Y78.669 E.01676
G1 X70.478 Y99.431 E.92181
G1 X69.944 Y99.431 E.01676
G1 X49.183 Y78.669 E.92181
G1 X48.649 Y78.669 E.01676
G1 X69.41 Y99.431 E.92181
G1 X68.876 Y99.431 E.01676
G1 X48.115 Y78.669 E.92181
G1 X47.581 Y78.669 E.01676
G1 X68.342 Y99.431 E.92181
G1 X67.808 Y99.431 E.01676
G1 X47.047 Y78.669 E.92181
G1 X46.513 Y78.669 E.01676
G1 X67.274 Y99.431 E.92181
G1 X66.74 Y99.431 E.01676
G1 X45.979 Y78.669 E.92181
G1 X45.445 Y78.669 E.01676
G1 X66.206 Y99.431 E.92181
G1 X65.672 Y99.431 E.01676
G1 X44.911 Y78.669 E.92181
G1 X44.377 Y78.669 E.01676
G1 X65.138 Y99.431 E.92181
G1 X64.604 Y99.431 E.01676
G1 X43.843 Y78.669 E.92181
G1 X43.309 Y78.669 E.01676
G1 X64.07 Y99.431 E.92181
G1 X63.536 Y99.431 E.01676
M73 P5 R78
G1 X42.775 Y78.669 E.92181
G1 X42.241 Y78.669 E.01676
G1 X63.002 Y99.431 E.92181
G1 X62.468 Y99.431 E.01676
G1 X41.707 Y78.669 E.92181
G1 X41.219 Y78.669 E.01531
G1 X41.219 Y78.716 E.00145
G1 X61.934 Y99.431 E.91975
G1 X61.4 Y99.431 E.01676
M73 P6 R78
G1 X41.219 Y79.25 E.89604
G1 X41.219 Y79.784 E.01676
G1 X60.866 Y99.431 E.87233
G1 X60.332 Y99.431 E.01676
G1 X41.219 Y80.318 E.84862
G1 X41.219 Y80.852 E.01676
G1 X59.798 Y99.431 E.82491
G1 X59.264 Y99.431 E.01676
G1 X41.219 Y81.386 E.8012
G1 X41.219 Y81.92 E.01676
G1 X58.73 Y99.431 E.7775
G1 X58.196 Y99.431 E.01676
G1 X41.219 Y82.454 E.75379
G1 X41.219 Y82.988 E.01676
G1 X57.662 Y99.431 E.73008
G1 X57.129 Y99.431 E.01676
G1 X41.219 Y83.521 E.70637
G1 X41.219 Y84.055 E.01676
G1 X56.595 Y99.431 E.68266
G1 X56.061 Y99.431 E.01676
G1 X41.219 Y84.589 E.65895
G1 X41.219 Y85.123 E.01676
G1 X55.527 Y99.431 E.63524
G1 X54.993 Y99.431 E.01676
G1 X41.219 Y85.657 E.61154
G1 X41.219 Y86.191 E.01676
G1 X54.459 Y99.431 E.58783
G1 X53.925 Y99.431 E.01676
G1 X41.219 Y86.725 E.56412
G1 X41.219 Y87.259 E.01676
G1 X53.391 Y99.431 E.54041
G1 X52.857 Y99.431 E.01676
G1 X41.219 Y87.793 E.5167
G1 X41.219 Y88.327 E.01676
G1 X52.323 Y99.431 E.49299
G1 X51.789 Y99.431 E.01676
G1 X41.219 Y88.861 E.46928
G1 X41.219 Y89.395 E.01676
G1 X51.255 Y99.431 E.44557
G1 X50.721 Y99.431 E.01676
G1 X41.219 Y89.929 E.42187
G1 X41.219 Y90.463 E.01676
G1 X50.187 Y99.431 E.39816
G1 X49.653 Y99.431 E.01676
G1 X41.219 Y90.997 E.37445
G1 X41.219 Y91.531 E.01676
G1 X49.119 Y99.431 E.35074
G1 X48.585 Y99.431 E.01676
G1 X41.219 Y92.065 E.32703
G1 X41.219 Y92.599 E.01676
G1 X48.051 Y99.431 E.30332
G1 X47.517 Y99.431 E.01676
G1 X41.219 Y93.133 E.27961
G1 X41.219 Y93.667 E.01676
G1 X46.983 Y99.431 E.25591
G1 X46.449 Y99.431 E.01676
G1 X41.219 Y94.201 E.2322
G1 X41.219 Y94.735 E.01676
G1 X45.915 Y99.431 E.20849
G1 X45.381 Y99.431 E.01676
G1 X41.219 Y95.269 E.18478
G1 X41.219 Y95.803 E.01676
G1 X44.847 Y99.431 E.16107
G1 X44.313 Y99.431 E.01676
G1 X41.219 Y96.337 E.13736
G1 X41.219 Y96.871 E.01676
G1 X43.779 Y99.431 E.11365
G1 X43.245 Y99.431 E.01676
G1 X41.219 Y97.405 E.08994
G1 X41.219 Y97.939 E.01676
G1 X42.711 Y99.431 E.06624
G1 X42.177 Y99.431 E.01676
G1 X41.219 Y98.473 E.04253
G1 X41.219 Y99.007 E.01676
G1 X41.813 Y99.6 E.02635
M204 P1000
; stop printing object base_cards_box.stl id:0 copy 0
M106 S84.15
;LAYER_CHANGE
;Z:0.45
;HEIGHT:0.25
;BEFORE_LAYER_CHANGE
G92 E0.0
;0.45


G1 E-2.24 F4200
;WIPE_START
G1 F7200
G1 X41.219 Y99.007 E-.46515
G1 X41.219 Y98.473 E-.29591
G1 X41.412 Y98.665 E-.15094
;WIPE_END
G1 E-.048 F4200
G1 Z.4 F720
G1 Z.45
;AFTER_LAYER_CHANGE
;0.45
G1 Z.65
G1 X37.297 Y98.665 F9000
G1 Z.45 F720
G1 E3.2 F2400
;TYPE:Skirt/Brim
;WIDTH:0.42
G1 X37.297 Y77.599 E.80214
G1 X37.689 Y76.292 E.05195
G1 X38.735 Y75.416 E.05195
G1 X39.674 Y75.222 E.03654
G1 X140.326 Y75.222 E3.83255
G1 X141.633 Y75.614 E.05195
G1 X142.509 Y76.66 E.05195
G1 X142.703 Y77.599 E.03654
G1 X142.703 Y100.401 E.86821
G1 X142.006 Y102.081 E.06928
G1 X141.431 Y102.656 E.03096
G1 X139.751 Y103.353 E.06928
G1 X40.25 Y103.353 E3.78876
G1 X38.569 Y102.656 E.06928
