; generated by PrusaSlicer 2.5.0+win64 on 2023-01-24 at 19:28:00 UTC


;
;

;
;
; 

; external perimeters extrusion width = 0.45mm
; perimeters extrusion width = 0.45mm
; infill extrusion width = 0.45mm
; solid infill extrusion width = 0.45mm
; top infill extrusion width = 0.40mm
; first layer extrusion width = 0.42mm

M73 P0 R8
M201 X2500 Y2500 Z400 E5000 ; sets maximum accelerations, mm/sec^2
M203 X180 Y180 Z12 E80 ; sets maximum feedrates, mm / sec
M204 P1250 R1250 T2500 ; sets acceleration (P, T) and retract acceleration (R), mm/sec^2
M205 X8.00 Y8.00 Z2.00 E10.00 ; sets the jerk limits, mm/sec
M205 S0 T0 ; sets the minimum extruding and travel feed rate, mm/sec
M107
;TYPE:Custom
M862.3 P "MINI" ; printer model check
G90 ; use absolute coordinates
M83 ; extruder relative mode
M104 S170 ; set extruder temp for bed leveling
M140 S60 ; set bed temp
M109 R170 ; wait for bed leveling temp
M190 S60 ; wait for bed temp
M204 T1250 ; set travel acceleration
G28 ; home all without mesh bed level
G29 ; mesh bed leveling 
M204 T2500 ; restore travel acceleration
M104 S215 ; set extruder temp
G92 E0
G1 Y-2 X179 F2400
G1 Z3 F720
M109 S215 ; wait for extruder temp

; intro line
G1 X170 F1000
G1 Z0.2 F720
M73 P1 R8
G1 X110 E8 F900
G1 X40 E10 F700
G92 E0

M221 S95 ; set flow
G21 ; set units to millimeters
G90 ; use absolute coordinates
M83 ; use relative distances for extrusion
M900 K0.2 ; Filament gcode LA 1.5
; ; Filament gcode LA 1.0
M107
;LAYER_CHANGE
;Z:0.2
;HEIGHT:0.2
;BEFORE_LAYER_CHANGE
G92 E0.0
;0.2


M73 P1 R7
G1 E-3.2 F4200
M73 P3 R7
G1 Z.2 F720
;AFTER_LAYER_CHANGE
;0.2
G1 Z.4
G1 X76.089 Y76.083 F9000
G1 Z.2 F720
G1 E3.2 F2400
M204 P800
;TYPE:Skirt/Brim
;WIDTH:0.42
G1 F1200
G1 X77.155 Y75.069 E.04612
G1 X78.45 Y74.746 E.04186
G1 X101.55 Y74.746 E.72428
G1 X102.967 Y75.139 E.04612
G1 X103.981 Y76.205 E.04612
G1 X104.304 Y77.5 E.04186
G1 X104.304 Y102.5 E.78386
G1 X103.911 Y103.917 E.04612
G1 X102.845 Y104.931 E.04612
G1 X101.55 Y105.254 E.04186
G1 X78.45 Y105.254 E.72428
G1 X77.033 Y104.861 E.04612
M73 P4 R7
G1 X76.019 Y103.795 E.04612
G1 X75.696 Y102.5 E.04186
G1 X75.696 Y77.5 E.78386
G1 X76.073 Y76.14 E.04424
M204 P1000
G1 X76.447 Y76.252 F9000
M204 P800
G1 F1200
G1 X76.465 Y76.193 E.00195
G1 X77.51 Y75.317 E.04278
G1 X78.45 Y75.123 E.03008
G1 X101.55 Y75.123 E.72428
G1 X102.857 Y75.515 E.04278
G1 X103.733 Y76.56 E.04278
G1 X103.927 Y77.5 E.03008
G1 X103.927 Y102.5 E.78386
G1 X103.535 Y103.807 E.04278
M73 P5 R7
G1 X102.49 Y104.683 E.04278
G1 X101.55 Y104.877 E.03008
G1 X78.45 Y104.877 E.72428
G1 X77.143 Y104.485 E.04278
G1 X76.267 Y103.44 E.04278
G1 X76.073 Y102.5 E.03008
G1 X76.073 Y77.5 E.78386
G1 X76.429 Y76.31 E.03895
M204 P1000
; printing object divider_prototype_000.stl id:0 copy 0
G1 E-2.24 F4200
;WIPE_START
G1 F7200
G1 X76.465 Y76.193 E-.06768
G1 X77.51 Y75.317 E-.75612
G1 X77.666 Y75.284 E-.0882
;WIPE_END
G1 E-.048 F4200
G1 Z.4 F720
G1 X89.547 Y101.753 F9000
G1 Z.2 F720
G1 E3.2 F2400
M204 P800
;TYPE:Perimeter
;WIDTH:0.423112
G1 F1200
G1 X89.626 Y101.662 E.00379
G1 X89.711 Y100.558 E.03502
G1 X89.787 Y100.54 E.00248
G1 X89.919 Y101.252 E.0229
G1 X90.12 Y101.762 E.01733
G1 X89.607 Y101.754 E.01622
M204 P1000
G1 E-2.24 F4200
;WIPE_START
G1 F7200
G1 X89.626 Y101.662 E-.05168
G1 X89.711 Y100.558 E-.61394
G1 X89.787 Y100.54 E-.0434
G1 X89.854 Y100.9 E-.20297
;WIPE_END
G1 E-.048 F4200
G1 Z.4 F720
G1 X88.412 Y99.548 F9000
G1 Z.2 F720
G1 E3.2 F2400
M204 P800
;TYPE:External perimeter
;WIDTH:0.38292
G1 F1200
G1 X88.412 Y99.907 E.01013
M204 P1000
G1 E-2.24 F4200
;WIPE_START
G1 F7200
G1 X88.412 Y99.548 E-.19861
;WIPE_END
G1 E-.76139 F4200
G1 Z.4 F720
G1 X86.695 Y101.51 F9000
G1 Z.2 F720
G1 E3.2 F2400
M204 P800
G1 F1200
G1 X86.694 Y99.545 E.05556
M204 P1000
G1 E-2.24 F4200
;WIPE_START
M73 P6 R7
G1 F7200
G1 X86.694 Y101.191 E-.912
;WIPE_END
G1 E-.048 F4200
G1 Z.4 F720
G1 X94.1 Y99.861 F9000
G1 Z.2 F720
G1 E3.2 F2400
M204 P800
G1 F1200
G1 X94.1 Y100.595 E.02076
;WIDTH:0.424447
G1 X94.061 Y100.698 E.00348
;WIDTH:0.465974
G1 X94.021 Y100.8 E.00386
G1 X94.002 Y100.799 E.00066
;WIDTH:0.455872
G1 X93.753 Y100.767 E.00864
;WIDTH:0.419396
G1 X93.503 Y100.734 E.00788
;WIDTH:0.429465
G1 X93.411 Y100.763 E.00312
;WIDTH:0.47601
G1 X93.318 Y100.791 E.00349
;WIDTH:0.522555
G1 X93.225 Y100.82 E.00387
;WIDTH:0.5691
G1 X93.133 Y100.848 E.00424
;WIDTH:0.615644
G1 X93.04 Y100.877 E.00462
;WIDTH:0.64664
G1 X92.871 Y100.801 E.00928
G1 X92.8 Y100.595 E.01093
;WIDTH:0.627708
G1 X92.82 Y100.405 E.00929
;WIDTH:0.590573
G1 X92.841 Y100.215 E.0087
;WIDTH:0.553438
G1 X92.874 Y100.172 E.00232
;WIDTH:0.523551
G1 X92.908 Y100.129 E.00218
;WIDTH:0.493664
G1 X92.981 Y100.1 E.00297
;WIDTH:0.461246
G1 X93.055 Y100.07 E.00276
M204 P1000
G1 E-2.24 F4200
;WIPE_START
G1 F7200
G1 X92.981 Y100.1 E-.04391
G1 X92.908 Y100.129 E-.04391
G1 X92.874 Y100.172 E-.03023
G1 X92.841 Y100.215 E-.03023
G1 X92.82 Y100.405 E-.10591
G1 X92.8 Y100.595 E-.10591
G1 X92.871 Y100.801 E-.12068
G1 X93.04 Y100.877 E-.10242
G1 X93.133 Y100.848 E-.05371
G1 X93.225 Y100.82 E-.05371
G1 X93.318 Y100.791 E-.05371
G1 X93.411 Y100.763 E-.05371
G1 X93.503 Y100.734 E-.05371
G1 X93.611 Y100.748 E-.06027
;WIPE_END
G1 E-.048 F4200
G1 Z.4 F720
G1 X95.068 Y100.127 F9000
G1 Z.2 F720
G1 E3.2 F2400
M204 P800
;WIDTH:0.503188
G1 F1200
G1 X95.696 Y100.127 E.02402
M204 P1000
G1 X95.061 Y100.928 F9000
M204 P800
;WIDTH:0.480118
G1 F1200
G1 X95.696 Y100.928 E.02308
;WIDTH:0.48343
G1 X95.734 Y100.926 E.0014
M204 P1000
G1 E-2.24 F4200
;WIPE_START
G1 F7200
G1 X95.696 Y100.928 E-.02111
G1 X95.061 Y100.928 E-.35177
;WIPE_END
G1 E-.58712 F4200
G1 Z.4 F720
G1 X79.237 Y78.287 F9000
G1 Z.2 F720
G1 E3.2 F2400
M204 P800
;TYPE:Perimeter
;WIDTH:0.419999
G1 F1200
G1 X100.763 Y78.287 E.67493
G1 X100.763 Y79.5 E.03803
G1 X100.763 Y80.5 E.03135
;WIDTH:0.444381
G1 X100.751 Y98.721 E.60826
;WIDTH:0.450279
G1 X100.763 Y99.501 E.0264
;WIDTH:0.419999
G1 X100.763 Y101.713 E.06937
G1 X97.094 Y101.717 E.11504
G1 X96.217 Y101.767 E.02755
G1 X96.413 Y101.464 E.01131
G1 X96.313 Y100.973 E.0157
G1 X96.22 Y100.84 E.00508
G1 X96.254 Y100.798 E.00171
G1 X96.252 Y100.27 E.01657
G1 X96.362 Y100.089 E.00664
G1 X96.48 Y99.581 E.01634
G1 X96.234 Y99.248 E.013
G1 X97.1 Y99.285 E.0272
G1 X99.771 Y99.287 E.08374
G1 X100.111 Y99.174 E.01122
;WIDTH:0.450279
G1 X100.343 Y98.822 E.01431
G1 X100.349 Y98.721 E.0034
;WIDTH:0.444381
G1 X100.349 Y81.279 E.58227
G1 X100.111 Y80.826 E.01707
;WIDTH:0.419999
M73 P7 R7
G1 X99.771 Y80.713 E.01122
G1 X80.229 Y80.713 E.61275
G1 X79.889 Y80.826 E.01122
;WIDTH:0.444381
G1 X79.651 Y81.279 E.01707
G1 X79.651 Y98.721 E.58227
;WIDTH:0.45028
G1 X79.657 Y98.822 E.0034
G1 X79.89 Y99.174 E.01432
;WIDTH:0.419999
G1 X80.23 Y99.287 E.01122
G1 X84.2 Y99.262 E.1245
G1 X83.996 Y99.67 E.01431
G1 X83.676 Y100.487 E.02752
G1 X83.405 Y101.463 E.03174
G1 X83.617 Y101.758 E.01137
G1 X82.875 Y101.717 E.0233
G1 X79.237 Y101.713 E.11405
G1 X79.237 Y99.501 E.06935
;WIDTH:0.444381
G1 X79.237 Y80.5 E.6343
;WIDTH:0.419999
G1 X79.237 Y78.347 E.0675
M204 P1000
G1 X78.86 Y77.91 F9000
M204 P800
;TYPE:External perimeter
G1 F1200
G1 X101.14 Y77.91 E.69857
G1 X101.14 Y79.5 E.04985
M73 P8 R7
G1 X101.14 Y102.09 E.7083
G1 X97.333 Y102.093 E.11935
G1 X96.784 Y102.112 E.01724
;WIDTH:0.435773
G1 X95.64 Y102.169 E.03741
G1 X94.951 Y102.171 E.02252
;WIDTH:0.467104
G1 X94.587 Y102.147 E.01285
;WIDTH:0.509948
G1 X94.224 Y102.123 E.01415
;WIDTH:0.552792
G1 X93.86 Y102.099 E.01545
G1 X93.675 Y102.118 E.00786
;WIDTH:0.513595
G1 X93.385 Y102.149 E.01143
;WIDTH:0.468556
G1 X93.095 Y102.18 E.01033
;WIDTH:0.438921
G1 X92.533 Y102.146 E.01853
G1 X91.879 Y102.149 E.02154
;WIDTH:0.431937
G1 X90.641 Y102.173 E.04006
;WIDTH:0.419999
G1 X89.726 Y102.122 E.02871
G1 X89.071 Y102.164 E.02058
;WIDTH:0.41485
G1 X88.378 Y102.169 E.02143
;WIDTH:0.45664
G1 X88.254 Y102.145 E.00435
;WIDTH:0.49843
G1 X88.13 Y102.121 E.00479
;WIDTH:0.54022
G1 X88.006 Y102.097 E.00523
;WIDTH:0.58201
G1 X87.882 Y102.072 E.00567
G1 X87.783 Y102.095 E.00457
;WIDTH:0.542614
G1 X87.683 Y102.119 E.00424
;WIDTH:0.503217
G1 X87.584 Y102.142 E.0039
;WIDTH:0.46382
G1 X87.485 Y102.165 E.00357
;WIDTH:0.430967
G1 X87.286 Y102.171 E.00641
;WIDTH:0.47637
G1 X86.539 Y102.149 E.02693
;WIDTH:0.477535
G1 X85.509 Y102.155 E.03724
;WIDTH:0.463985
G1 X84.655 Y102.163 E.02988
;WIDTH:0.447322
G1 X83.919 Y102.159 E.02474
;WIDTH:0.419999
G1 X82.874 Y102.094 E.03284
G1 X78.86 Y102.09 E.12586
G1 X78.86 Y77.97 E.75627
M204 P1000
G1 X79.217 Y78.091 F9000
G1 E-2.24 F4200
;WIPE_START
G1 F7200
G1 X80.506 Y77.966 E-.912
;WIPE_END
G1 E-.048 F4200
G1 Z.4 F720
G1 X80.115 Y81.128 F9000
G1 Z.2 F720
G1 E3.2 F2400
M204 P800
G1 F1200
G1 X80.45 Y81.09 E.01056
G1 X99.771 Y81.09 E.60581
G1 X99.885 Y81.128 E.00374
M73 P9 R7
G1 X99.96 Y81.279 E.00529
G1 X99.96 Y98.721 E.54691
G1 X99.884 Y98.872 E.00529
G1 X99.551 Y98.91 E.01053
G1 X97.101 Y98.908 E.07682
;WIDTH:0.436767
G1 X95.451 Y98.848 E.05405
;WIDTH:0.440971
G1 X94.621 Y98.859 E.02747
;WIDTH:0.481135
G1 X94.37 Y98.88 E.0092
;WIDTH:0.521299
G1 X94.118 Y98.901 E.01004
;WIDTH:0.561463
G1 X93.867 Y98.922 E.01088
G1 X93.614 Y98.893 E.01096
;WIDTH:0.513084
G1 X93.362 Y98.864 E.00994
;WIDTH:0.490893
G1 X92.923 Y98.878 E.01635
;WIDTH:0.51708
G1 X92.484 Y98.892 E.0173
G1 X92.008 Y98.876 E.01878
;WIDTH:0.475323
G1 X91.532 Y98.86 E.01712
;WIDTH:0.460441
G1 X91.224 Y98.877 E.01072
;WIDTH:0.496764
G1 X91.144 Y98.895 E.00311
;WIDTH:0.533086
G1 X91.063 Y98.913 E.00336
;WIDTH:0.569408
G1 X90.983 Y98.931 E.00361
G1 X90.812 Y98.91 E.00756
;WIDTH:0.52845
G1 X90.64 Y98.89 E.00697
;WIDTH:0.487492
G1 X90.469 Y98.869 E.00638
;WIDTH:0.446534
G1 X89.549 Y98.866 E.03085
;WIDTH:0.444381
G1 X89.002 Y98.864 E.01828
;WIDTH:0.488828
G1 X88.431 Y98.886 E.02119
G1 X87.893 Y98.863 E.01996
;WIDTH:0.446
G1 X87.345 Y98.861 E.01836
;WIDTH:0.490449
G1 X86.773 Y98.884 E.02128
G1 X86.097 Y98.879 E.02519
;WIDTH:0.527505
G1 X85.901 Y98.9 E.00791
;WIDTH:0.570169
G1 X85.706 Y98.921 E.0086
G1 X85.428 Y98.898 E.01226
;WIDTH:0.52464
G1 X85.149 Y98.875 E.01121
;WIDTH:0.479111
G1 X84.87 Y98.851 E.01015
;WIDTH:0.433581
G1 X84.284 Y98.879 E.01906
;WIDTH:0.420152
G1 X83.73 Y98.904 E.01739
;WIDTH:0.419999
G1 X80.229 Y98.91 E.10978
G1 X80.116 Y98.872 E.00374
G1 X80.04 Y98.721 E.0053
G1 X80.04 Y81.279 E.54691
G1 X80.089 Y81.181 E.00341
M204 P1000
G1 X80.091 Y80.792 F9000
G1 E-2.24 F4200
;WIPE_START
G1 F7200
G1 X80.45 Y81.09 E-.20659
G1 X81.723 Y81.09 E-.70541
;WIPE_END
G1 E-.048 F4200
G1 Z.4 F720
G1 X83.965 Y101.796 F9000
G1 Z.2 F720
G1 E3.2 F2400
M204 P800
G1 F1200
G1 X83.769 Y101.564 E.00955
G1 X84.039 Y100.588 E.03174
G1 X84.347 Y99.809 E.02626
;WIDTH:0.420152
G1 X84.585 Y99.338 E.01656
;WIDTH:0.422694
G1 X84.742 Y99.234 E.00595
;WIDTH:0.448498
G1 X85.035 Y99.267 E.00998
;WIDTH:0.474301
G1 X85.329 Y99.301 E.01061
;WIDTH:0.522235
G1 X85.415 Y99.325 E.00353
;WIDTH:0.570169
G1 X85.5 Y99.349 E.00388
G1 X85.831 Y100.311 E.04457
G1 X85.83 Y99.543 E.03367
G1 X85.9 Y99.364 E.00842
G1 X85.997 Y99.342 E.00438
;WIDTH:0.527505
G1 X86.095 Y99.321 E.00402
;WIDTH:0.500003
G1 X86.619 Y99.331 E.01992
G1 X86.644 Y99.402 E.00288
;WIDTH:0.460976
G1 X86.669 Y99.474 E.00263
;WIDTH:0.421948
G1 X86.694 Y99.545 E.00238
G1 X86.721 Y99.474 E.00238
;WIDTH:0.460976
G1 X86.748 Y99.403 E.00263
;WIDTH:0.500003
G1 X86.774 Y99.332 E.00288
G1 X87.042 Y99.298 E.01026
;WIDTH:0.473304
G1 X87.31 Y99.263 E.00966
;WIDTH:0.446605
G1 X87.823 Y99.262 E.01723
;WIDTH:0.488863
G1 X88.356 Y99.329 E.01992
G1 X88.375 Y99.402 E.0028
;WIDTH:0.453549
G1 X88.394 Y99.475 E.00258
;WIDTH:0.418235
G1 X88.412 Y99.548 E.00236
G1 X88.431 Y99.475 E.00236
;WIDTH:0.453526
G1 X88.45 Y99.402 E.00258
;WIDTH:0.488828
G1 X88.468 Y99.329 E.0028
G1 X88.967 Y99.264 E.01864
;WIDTH:0.444984
G1 X89.48 Y99.263 E.01716
;WIDTH:0.483871
G1 X90.01 Y99.331 E.0196
G1 X90.534 Y99.268 E.01932
;WIDTH:0.485706
G1 X90.612 Y99.297 E.00307
;WIDTH:0.527557
G1 X90.691 Y99.325 E.00336
;WIDTH:0.569408
G1 X90.769 Y99.353 E.00366
G1 X90.924 Y99.684 E.01599
G1 X91.058 Y99.658 E.00596
G1 X91.216 Y99.316 E.0165
G1 X91.293 Y99.292 E.00354
;WIDTH:0.522412
G1 X91.37 Y99.268 E.00322
;WIDTH:0.475416
G1 X91.448 Y99.244 E.0029
;WIDTH:0.461223
G1 X91.729 Y99.287 E.00989
;WIDTH:0.494026
G1 X92.01 Y99.33 E.01066
;WIDTH:0.525901
G1 X92.072 Y99.346 E.00258
;WIDTH:0.557776
G1 X92.135 Y99.361 E.00276
G1 X92.198 Y99.547 E.0084
G1 X92.553 Y99.356 E.01726
;WIDTH:0.51708
G1 X92.797 Y99.31 E.0098
;WIDTH:0.485195
G1 X93.041 Y99.263 E.00914
;WIDTH:0.482172
G1 X93.409 Y99.296 E.01348
;WIDTH:0.521818
G1 X93.651 Y99.387 E.01032
;WIDTH:0.561463
G1 X93.893 Y99.479 E.01117
G1 X93.994 Y99.549 E.00527
G1 X93.997 Y99.441 E.00465
G1 X94.05 Y99.365 E.00402
G1 X94.232 Y99.33 E.00798
;WIDTH:0.5229
G1 X94.413 Y99.294 E.00739
;WIDTH:0.484337
G1 X94.595 Y99.259 E.00679
;WIDTH:0.445773
G1 X95.415 Y99.229 E.02748
;WIDTH:0.436767
G1 X95.943 Y99.261 E.01733
G1 X96.112 Y99.498 E.00956
;WIDTH:0.419999
G1 X95.989 Y99.998 E.01614
;WIDTH:0.447508
G1 X95.909 Y100.056 E.0033
;WIDTH:0.475016
M73 P10 R7
G1 X95.83 Y100.113 E.00352
;WIDTH:0.503188
G1 X95.696 Y100.127 E.00516
G1 X95.812 Y100.175 E.0048
;WIDTH:0.475016
G1 X95.848 Y100.266 E.00352
;WIDTH:0.447508
G1 X95.884 Y100.357 E.0033
;WIDTH:0.419999
G1 X95.882 Y100.739 E.01197
;WIDTH:0.448443
G1 X95.828 Y100.834 E.00369
;WIDTH:0.476887
G1 X95.775 Y100.93 E.00395
G1 X95.864 Y101.009 E.00433
;WIDTH:0.448443
G1 X95.954 Y101.089 E.00404
;WIDTH:0.419999
G1 X96.043 Y101.536 E.0143
;WIDTH:0.433226
G1 X95.869 Y101.767 E.00938
G1 X95.011 Y101.792 E.02783
;WIDTH:0.449246
G1 X94.607 Y101.751 E.01373
;WIDTH:0.47572
G1 X94.203 Y101.709 E.01463
;WIDTH:0.514256
G1 X94.125 Y101.689 E.00315
;WIDTH:0.552792
G1 X94.047 Y101.67 E.00341
G1 X93.978 Y101.495 E.00797
G1 X93.978 Y101.357 E.00586
G1 X93.738 Y101.622 E.01516
G1 X93.534 Y101.68 E.00899
;WIDTH:0.514203
G1 X93.33 Y101.738 E.00831
;WIDTH:0.475614
G1 X93.126 Y101.796 E.00763
;WIDTH:0.438921
G1 X92.566 Y101.751 E.01847
G1 X92.15 Y101.465 E.01664
;WIDTH:0.419999
G1 X91.94 Y101.025 E.0153
G1 X91.864 Y100.503 E.01653
G1 X91.948 Y100.078 E.01358
G1 X91.651 Y100.954 E.029
G1 X91.489 Y101.63 E.02181
;WIDTH:0.431937
G1 X91.321 Y101.768 E.00702
G1 X90.733 Y101.798 E.01905
;WIDTH:0.421143
G1 X90.662 Y101.799 E.00222
;WIDTH:0.419999
G1 X90.499 Y101.686 E.00622
G1 X90.303 Y101.222 E.01578
G1 X90.135 Y100.36 E.02754
G1 X90.029 Y100.072 E.0096
G1 X89.643 Y100.185 E.01261
G1 X89.331 Y100.231 E.00991
G1 X89.249 Y101.628 E.0439
G1 X89.071 Y101.795 E.00763
;WIDTH:0.414916
G1 X88.393 Y101.798 E.02097
;WIDTH:0.45669
G1 X88.33 Y101.775 E.0023
;WIDTH:0.498463
G1 X88.267 Y101.752 E.00253
;WIDTH:0.540237
G1 X88.204 Y101.73 E.00277
;WIDTH:0.58201
G1 X88.141 Y101.707 E.003
G1 X88.155 Y101.429 E.01249
;WIDTH:0.549472
G1 X88.168 Y101.151 E.01173
;WIDTH:0.550522
G1 X88.234 Y100.587 E.02394
G1 X88.253 Y100.188 E.01689
G1 X87.957 Y100.284 E.01314
G1 X87.738 Y100.309 E.00931
G1 X87.705 Y100.895 E.02479
;WIDTH:0.542449
G1 X87.647 Y101.564 E.02787
;WIDTH:0.561334
G1 X87.61 Y101.738 E.00769
G1 X87.524 Y101.756 E.00379
;WIDTH:0.516724
G1 X87.437 Y101.773 E.00346
;WIDTH:0.472114
G1 X87.351 Y101.791 E.00314
;WIDTH:0.455019
G1 X87.079 Y101.751 E.00943
;WIDTH:0.482533
G1 X86.807 Y101.71 E.01006
G1 X86.739 Y101.649 E.00333
;WIDTH:0.436437
G1 X86.717 Y101.58 E.00238
;WIDTH:0.409679
G1 X86.695 Y101.51 E.00222
;WIDTH:0.419024
G1 X86.669 Y101.576 E.0022
;WIDTH:0.455127
G1 X86.644 Y101.642 E.00242
;WIDTH:0.49123
G1 X86.619 Y101.708 E.00263
G1 X86.096 Y101.715 E.01951
;WIDTH:0.478555
G1 X86.065 Y101.714 E.00111
G1 X86.053 Y101.608 E.00386
;WIDTH:0.430738
G1 X86.041 Y101.503 E.00344
;WIDTH:0.430228
G1 X86.02 Y101.608 E.00347
;WIDTH:0.477535
G1 X85.998 Y101.714 E.0039
G1 X85.509 Y101.734 E.01771
;WIDTH:0.463985
G1 X85.355 Y101.633 E.00641
;WIDTH:0.419999
G1 X85.049 Y100.628 E.03296
G1 X84.894 Y101.119 E.01615
G1 X84.783 Y101.656 E.0172
;WIDTH:0.447322
G1 X84.638 Y101.76 E.00598
G1 X84.025 Y101.793 E.02064
M204 P1000
G1 X83.702 Y101.949 F9000
G1 E-2.24 F4200
;WIPE_START
G1 F7200
G1 X83.769 Y101.564 E-.19078
G1 X84.039 Y100.588 E-.56104
G1 X84.145 Y100.319 E-.16018
;WIPE_END
G1 E-.048 F4200
G1 Z.4 F720
G1 X91.895 Y101.704 F9000
