; generated by PrusaSlicer 2.5.0+win64 on 2023-01-28 at 06:04:38 UTC


;
;

;
;
; 

; external perimeters extrusion width = 0.45mm
; perimeters extrusion width = 0.45mm
; infill extrusion width = 0.45mm
; solid infill extrusion width = 0.45mm
; top infill extrusion width = 0.40mm
; support material extrusion width = 0.35mm
; first layer extrusion width = 0.42mm

M73 P0 R12
M201 X2500 Y2500 Z400 E5000 ; sets maximum accelerations, mm/sec^2
M203 X180 Y180 Z12 E80 ; sets maximum feedrates, mm / sec
M204 P1250 R1250 T2500 ; sets acceleration (P, T) and retract acceleration (R), mm/sec^2
M205 X8.00 Y8.00 Z2.00 E10.00 ; sets the jerk limits, mm/sec
M205 S0 T0 ; sets the minimum extruding and travel feed rate, mm/sec
M107
;TYPE:Custom
M862.3 P "MINI" ; printer model check
G90 ; use absolute coordinates
M83 ; extruder relative mode
M104 S170 ; set extruder temp for bed leveling
M140 S60 ; set bed temp
M109 R170 ; wait for bed leveling temp
M190 S60 ; wait for bed temp
M204 T1250 ; set travel acceleration
G28 ; home all without mesh bed level
G29 ; mesh bed leveling 
M204 T2500 ; restore travel acceleration
M104 S215 ; set extruder temp
G92 E0
G1 Y-2 X179 F2400
G1 Z3 F720
M109 S215 ; wait for extruder temp

; intro line
G1 X170 F1000
G1 Z0.2 F720
G1 X110 E8 F900
G1 X40 E10 F700
G92 E0

M221 S95 ; set flow
G21 ; set units to millimeters
G90 ; use absolute coordinates
M83 ; use relative distances for extrusion
M900 K0.2 ; Filament gcode LA 1.5
; ; Filament gcode LA 1.0
M107
;LAYER_CHANGE
;Z:0.2
;HEIGHT:0.2
;BEFORE_LAYER_CHANGE
G92 E0.0
;0.2


M73 P1 R12
G1 E-3.2 F4200
M73 P2 R12
G1 Z.2 F720
;AFTER_LAYER_CHANGE
;0.2
G1 Z.4
G1 X41.06 Y52.817 F9000
G1 Z.2 F720
G1 E3.2 F2400
M204 P800
;TYPE:Skirt/Brim
;WIDTH:0.42
G1 F1200
G1 X42 Y52.623 E.03008
G1 X138 Y52.623 E3.01001
G1 X139.307 Y53.015 E.04278
G1 X140.183 Y54.06 E.04278
G1 X140.377 Y55 E.03008
G1 X140.377 Y125 E2.1948
G1 X139.985 Y126.307 E.04278
M73 P3 R12
G1 X138.94 Y127.183 E.04278
G1 X138 Y127.377 E.03008
G1 X42 Y127.377 E3.01001
G1 X40.693 Y126.985 E.04278
G1 X39.817 Y125.94 E.04278
G1 X39.623 Y125 E.03008
G1 X39.623 Y55 E2.1948
G1 X40.015 Y53.693 E.04278
M73 P4 R12
G1 X41.014 Y52.855 E.0409
M204 P1000
; printing object divider_prototype_003.stl id:0 copy 0
G1 E-2.24 F4200
;WIPE_START
G1 F7200
G1 X42 Y52.623 E-.56121
G1 X42.633 Y52.623 E-.35079
;WIPE_END
G1 E-.048 F4200
G1 Z.4 F720
G1 X108.668 Y118.484 F9000
G1 Z.2 F720
G1 E3.2 F2400
M204 P800
;TYPE:Perimeter
;WIDTH:0.419999
G1 F1200
G1 X108.668 Y116.528 E.06134
G1 X108.554 Y116.171 E.01175
;WIDTH:0.459432
G1 X108.441 Y116.095 E.00473
;WIDTH:0.498865
G1 X108.328 Y116.019 E.00517
;WIDTH:0.538298
G1 X108.215 Y115.942 E.00562
;WIDTH:0.57773
G1 X108.102 Y115.866 E.00607
G1 X108.263 Y115.846 E.00722
;WIDTH:0.538298
G1 X108.424 Y115.827 E.00669
;WIDTH:0.498865
G1 X108.585 Y115.807 E.00615
;WIDTH:0.459432
G1 X108.746 Y115.787 E.00562
;WIDTH:0.419999
G1 X110.228 Y115.787 E.04646
;WIDTH:0.461874
G1 X110.381 Y115.808 E.00537
;WIDTH:0.503748
G1 X110.533 Y115.829 E.0059
;WIDTH:0.545622
G1 X110.686 Y115.85 E.00644
;WIDTH:0.587496
G1 X110.839 Y115.871 E.00698
G1 X110.746 Y115.957 E.00573
;WIDTH:0.545622
G1 X110.654 Y116.043 E.00529
;WIDTH:0.503748
G1 X110.561 Y116.129 E.00485
;WIDTH:0.461874
G1 X110.468 Y116.215 E.00441
;WIDTH:0.419999
G1 X109.081 Y118.484 E.08338
G1 X108.728 Y118.484 E.0111
M204 P1000
G1 E-2.24 F4200
;WIPE_START
G1 F7200
G1 X108.677 Y116.839 E-.912
;WIPE_END
G1 E-.048 F4200
G1 Z.4 F720
G1 X106.122 Y124.096 F9000
G1 Z.2 F720
G1 E3.2 F2400
M204 P800
;WIDTH:0.425614
G1 F1200
G1 X106.259 Y124.21 E.00567
G1 X105.31 Y124.213 E.03018
;WIDTH:0.434228
G1 X104.461 Y124.206 E.02764
G1 X104.918 Y123.743 E.02117
;WIDTH:0.419999
G1 X104.928 Y122.116 E.051
G1 X104.745 Y121.7 E.01425
G1 X104.621 Y121.614 E.00474
;WIDTH:0.458546
G1 X104.474 Y121.574 E.00527
;WIDTH:0.497092
G1 X104.327 Y121.533 E.00576
;WIDTH:0.535638
G1 X104.18 Y121.493 E.00625
G1 X104.259 Y121.453 E.0036
;WIDTH:0.509011
G1 X104.337 Y121.414 E.00341
;WIDTH:0.482384
G1 X104.432 Y121.314 E.00504
;WIDTH:0.451192
G1 X104.528 Y121.214 E.00468
;WIDTH:0.419999
G1 X104.6 Y121.082 E.00474
G1 X104.638 Y120.879 E.00647
G1 X104.638 Y119.354 E.04782
G1 X104.609 Y119.174 E.00572
G1 X104.438 Y118.923 E.00951
;WIDTH:0.466745
G1 X104.347 Y118.866 E.0038
;WIDTH:0.51349
G1 X104.255 Y118.809 E.00422
;WIDTH:0.560235
G1 X104.164 Y118.752 E.00464
;WIDTH:0.60698
G1 X104.072 Y118.695 E.00506
G1 X104.266 Y118.651 E.00933
;WIDTH:0.560235
G1 X104.461 Y118.607 E.00856
;WIDTH:0.51349
G1 X104.655 Y118.564 E.00778
;WIDTH:0.466745
G1 X104.849 Y118.52 E.00701
;WIDTH:0.454446
G1 X104.954 Y118.394 E.00562
;WIDTH:0.488893
G1 X105.059 Y118.268 E.00609
;WIDTH:0.523339
G1 X105.165 Y118.142 E.00656
G1 X105.171 Y118.036 E.00427
;WIDTH:0.516891
G1 X105.171 Y116.51 E.06011
;WIDTH:0.554086
G1 X105.163 Y116.383 E.00545
;WIDTH:0.59128
G1 X105.155 Y116.255 E.00584
G1 X104.557 Y115.866 E.03255
G1 X106.146 Y115.871 E.07249
G1 X105.66 Y116.255 E.02826
G1 X105.652 Y116.383 E.00584
;WIDTH:0.554086
G1 X105.645 Y116.51 E.00545
;WIDTH:0.516891
G1 X105.645 Y118.036 E.06011
;WIDTH:0.523339
G1 X105.659 Y118.455 E.01675
;WIDTH:0.488893
G1 X105.676 Y118.726 E.01007
;WIDTH:0.454446
G1 X105.693 Y118.997 E.00929
;WIDTH:0.419999
G1 X105.702 Y123.743 E.14882
;WIDTH:0.425614
G1 X106.076 Y124.057 E.01554
M204 P1000
G1 E-2.24 F4200
;WIPE_START
G1 F7200
G1 X106.259 Y124.21 E-.13193
G1 X105.31 Y124.213 E-.52554
G1 X104.851 Y124.209 E-.25452
;WIPE_END
G1 E-.048 F4200
G1 Z.4 F720
G1 X98.659 Y124.21 F9000
G1 Z.2 F720
G1 E3.2 F2400
M204 P800
G1 F1200
G1 X97.523 Y124.213 E.03618
;WIDTH:0.419999
G1 X95.939 Y124.213 E.04966
;WIDTH:0.459418
G1 X95.555 Y124.193 E.0133
;WIDTH:0.498836
G1 X95.172 Y124.174 E.01456
G1 X95.238 Y124.15 E.00268
;WIDTH:0.484703
G1 X95.636 Y124.004 E.01555
;WIDTH:0.452351
G1 X96.033 Y123.858 E.01441
;WIDTH:0.419999
G1 X96.711 Y123.406 E.02555
G1 X97.209 Y122.782 E.02504
;WIDTH:0.458181
G1 X97.322 Y122.539 E.00923
;WIDTH:0.496363
G1 X97.434 Y122.296 E.01008
;WIDTH:0.534545
G1 X97.547 Y122.054 E.01093
G1 X97.607 Y121.26 E.03256
;WIDTH:0.523932
G1 X97.568 Y120.699 E.02248
G1 X97.504 Y120.53 E.00723
;WIDTH:0.489288
G1 X97.44 Y120.361 E.00671
;WIDTH:0.454644
G1 X97.376 Y120.192 E.00619
;WIDTH:0.419999
G1 X97.141 Y119.708 E.01686
G1 X96.817 Y119.276 E.01692
G1 X96.419 Y118.919 E.01679
G1 X95.956 Y118.64 E.01695
G1 X95.44 Y118.444 E.01729
G1 X94.89 Y118.333 E.01759
G1 X94.351 Y118.299 E.01696
G1 X93.469 Y118.299 E.02764
G1 X93.469 Y116.51 E.05609
G1 X93.356 Y116.171 E.01122
;WIDTH:0.459432
G1 X93.243 Y116.095 E.00473
;WIDTH:0.498865
G1 X93.13 Y116.019 E.00517
;WIDTH:0.538298
G1 X93.017 Y115.942 E.00562
;WIDTH:0.57773
G1 X92.903 Y115.866 E.00607
G1 X93.065 Y115.846 E.00722
;WIDTH:0.538298
G1 X93.226 Y115.827 E.00669
;WIDTH:0.498865
G1 X93.387 Y115.807 E.00615
;WIDTH:0.459432
G1 X93.548 Y115.787 E.00562
;WIDTH:0.419999
G1 X98.015 Y115.787 E.14006
;WIDTH:0.461874
G1 X98.148 Y115.808 E.00469
;WIDTH:0.503748
G1 X98.281 Y115.829 E.00516
;WIDTH:0.545622
G1 X98.414 Y115.85 E.00563
;WIDTH:0.587496
G1 X98.547 Y115.871 E.0061
G1 X98.462 Y115.946 E.00514
;WIDTH:0.545622
G1 X98.377 Y116.021 E.00474
;WIDTH:0.503748
G1 X98.292 Y116.096 E.00435
;WIDTH:0.461874
G1 X98.207 Y116.171 E.00395
;WIDTH:0.419999
G1 X98.094 Y116.51 E.01122
G1 X98.094 Y120.203 E.11579
;WIDTH:0.465959
G1 X98.071 Y120.494 E.01026
;WIDTH:0.511918
G1 X98.048 Y120.785 E.01138
G1 X98.056 Y121.402 E.02407
;WIDTH:0.534545
G1 X98.037 Y122.082 E.0278
G1 X98.05 Y122.205 E.00503
;WIDTH:0.507464
G1 X98.064 Y122.327 E.00476
;WIDTH:0.480382
G1 X98.079 Y122.642 E.01148
;WIDTH:0.450191
G1 X98.094 Y122.958 E.01069
;WIDTH:0.419999
G1 X98.094 Y123.642 E.02145
;WIDTH:0.425614
G1 X98.617 Y124.168 E.02361
M204 P1000
G1 E-2.24 F4200
;WIPE_START
G1 F7200
G1 X97.523 Y124.213 E-.60707
G1 X96.972 Y124.213 E-.30493
;WIPE_END
G1 E-.048 F4200
G1 Z.4 F720
G1 X104.261 Y120.879 F9000
G1 Z.2 F720
M73 P5 R12
G1 E3.2 F2400
M204 P800
;TYPE:External perimeter
;WIDTH:0.419999
G1 F1200
G1 X104.224 Y120.991 E.00369
G1 X104.072 Y121.068 E.00533
G1 X100.691 Y121.068 E.10601
G1 X100.691 Y121.928 E.02698
G1 X104.362 Y121.928 E.11509
G1 X104.49 Y121.978 E.0043
G1 X104.55 Y122.116 E.00475
G1 X104.55 Y123.642 E.04782
G1 X104.395 Y123.827 E.0076
G1 X98.659 Y123.83 E.17982
G1 X98.471 Y123.642 E.00836
G1 X98.471 Y116.51 E.2236
G1 X98.509 Y116.397 E.00374
G1 X98.659 Y116.322 E.00529
G1 X104.557 Y116.322 E.1849
G1 X104.73 Y116.436 E.00651
G1 X104.745 Y116.51 E.00237
G1 X104.745 Y118.036 E.04782
G1 X104.654 Y118.197 E.00581
G1 X104.072 Y118.224 E.01826
G1 X100.691 Y118.224 E.10601
G1 X100.691 Y119.165 E.02951
G1 X104.072 Y119.165 E.10601
G1 X104.234 Y119.257 E.00583
G1 X104.261 Y119.354 E.00315
G1 X104.261 Y120.819 E.04594
M204 P1000
G1 X104.349 Y120.957 F9000
G1 E-2.24 F4200
;WIPE_START
G1 F7200
G1 X104.224 Y120.991 E-.09735
G1 X104.072 Y121.068 E-.09427
G1 X102.772 Y121.068 E-.72038
;WIPE_END
G1 E-.048 F4200
G1 Z.4 F720
G1 X101.162 Y118.695 F9000
G1 Z.2 F720
G1 E3.2 F2400
M204 P800
;TYPE:Perimeter
;WIDTH:0.60698
G1 F1200
G1 X104.072 Y118.695 E.13651
M204 P1000
G1 E-2.24 F4200
;WIPE_START
G1 F7200
G1 X102.427 Y118.695 E-.912
;WIPE_END
G1 E-.048 F4200
G1 Z.4 F720
G1 X104.18 Y121.493 F9000
G1 Z.2 F720
G1 E3.2 F2400
M204 P800
;WIDTH:0.535638
G1 F1200
G1 X104.072 Y121.498 E.00442
;WIDTH:0.526262
G1 X101.121 Y121.498 E.1186
M204 P1000
G1 E-2.24 F4200
;WIPE_START
G1 F7200
G1 X102.767 Y121.498 E-.912
;WIPE_END
G1 E-.048 F4200
G1 Z.4 F720
G1 X104.461 Y124.206 F9000
G1 Z.2 F720
G1 E3.2 F2400
M204 P800
;WIDTH:0.434228
G1 F1200
G1 X104.362 Y124.21 E.00322
;WIDTH:0.425614
G1 X98.659 Y124.21 E.18146
M204 P1000
G1 E-2.24 F4200
;WIPE_START
G1 F7200
G1 X100.305 Y124.21 E-.912
;WIPE_END
G1 E-.048 F4200
G1 Z.4 F720
G1 X98.547 Y115.871 F9000
G1 Z.2 F720
G1 E3.2 F2400
M204 P800
;WIDTH:0.587496
G1 F1200
G1 X98.659 Y115.866 E.00509
;WIDTH:0.57773
G1 X104.557 Y115.866 E.26224
M204 P1000
G1 E-2.24 F4200
;WIPE_START
G1 F7200
G1 X102.911 Y115.866 E-.912
;WIPE_END
G1 E-.048 F4200
G1 Z.4 F720
G1 X90.948 Y115.871 F9000
G1 Z.2 F720
G1 E3.2 F2400
M204 P800
;WIDTH:0.587496
G1 F1200
G1 X90.863 Y115.946 E.00514
;WIDTH:0.545622
G1 X90.778 Y116.021 E.00474
;WIDTH:0.503748
G1 X90.693 Y116.096 E.00435
;WIDTH:0.461874
G1 X90.608 Y116.171 E.00395
;WIDTH:0.419999
G1 X90.495 Y116.51 E.01122
G1 X90.495 Y120.203 E.11579
;WIDTH:0.465955
G1 X90.472 Y120.494 E.01026
;WIDTH:0.511911
G1 X90.449 Y120.785 E.01138
G1 X90.457 Y121.402 E.02407
;WIDTH:0.534538
G1 X90.437 Y122.082 E.0278
G1 X90.451 Y122.205 E.00503
;WIDTH:0.507459
G1 X90.464 Y122.327 E.00476
;WIDTH:0.480379
G1 X90.48 Y122.642 E.01148
;WIDTH:0.450189
G1 X90.495 Y122.958 E.01069
;WIDTH:0.419999
G1 X90.495 Y123.642 E.02145
;WIDTH:0.425614
G1 X91.06 Y124.21 E.02552
G1 X89.923 Y124.213 E.03618
;WIDTH:0.419999
G1 X88.34 Y124.213 E.04966
;WIDTH:0.459418
G1 X87.956 Y124.193 E.0133
;WIDTH:0.498836
G1 X87.572 Y124.174 E.01456
G1 X87.639 Y124.15 E.00268
;WIDTH:0.484703
G1 X88.036 Y124.004 E.01555
;WIDTH:0.452351
G1 X88.434 Y123.858 E.01441
;WIDTH:0.419999
G1 X89.111 Y123.406 E.02555
G1 X89.61 Y122.782 E.02504
;WIDTH:0.458179
G1 X89.722 Y122.539 E.00923
;WIDTH:0.496359
G1 X89.835 Y122.296 E.01008
;WIDTH:0.534538
G1 X89.947 Y122.054 E.01093
G1 X90.007 Y121.26 E.03256
;WIDTH:0.523924
G1 X89.969 Y120.699 E.02248
G1 X89.905 Y120.53 E.00723
;WIDTH:0.489283
G1 X89.841 Y120.361 E.00671
;WIDTH:0.454641
G1 X89.776 Y120.192 E.00619
;WIDTH:0.419999
G1 X89.542 Y119.708 E.01686
G1 X89.218 Y119.276 E.01692
G1 X88.82 Y118.919 E.01679
G1 X88.356 Y118.64 E.01695
G1 X87.841 Y118.444 E.01729
G1 X87.291 Y118.333 E.01759
G1 X86.751 Y118.299 E.01696
G1 X85.87 Y118.299 E.02764
G1 X85.87 Y116.51 E.05609
G1 X85.757 Y116.171 E.01122
;WIDTH:0.459432
G1 X85.644 Y116.095 E.00473
;WIDTH:0.498865
G1 X85.531 Y116.019 E.00517
;WIDTH:0.538298
G1 X85.417 Y115.942 E.00562
;WIDTH:0.57773
G1 X85.304 Y115.866 E.00607
G1 X85.465 Y115.846 E.00722
;WIDTH:0.538298
G1 X85.627 Y115.827 E.00669
;WIDTH:0.498865
G1 X85.788 Y115.807 E.00615
;WIDTH:0.459432
G1 X85.949 Y115.787 E.00562
;WIDTH:0.419999
G1 X90.416 Y115.787 E.14006
;WIDTH:0.461874
G1 X90.549 Y115.808 E.00469
;WIDTH:0.503748
G1 X90.682 Y115.829 E.00516
;WIDTH:0.545622
G1 X90.815 Y115.85 E.00563
;WIDTH:0.587496
G1 X90.889 Y115.862 E.00338
M204 P1000
G1 E-2.24 F4200
;WIPE_START
G1 F7200
G1 X90.863 Y115.946 E-.0489
G1 X90.778 Y116.021 E-.06287
G1 X90.693 Y116.096 E-.06287
G1 X90.608 Y116.171 E-.06287
G1 X90.495 Y116.51 E-.19824
G1 X90.495 Y117.37 E-.47625
;WIPE_END
G1 E-.048 F4200
G1 Z.4 F720
G1 X92.903 Y116.322 F9000
G1 Z.2 F720
G1 E3.2 F2400
M204 P800
;TYPE:External perimeter
;WIDTH:0.419999
G1 F1200
G1 X93.054 Y116.397 E.00529
G1 X93.092 Y116.51 E.00374
G1 X93.092 Y118.676 E.06791
G1 X94.351 Y118.676 E.03946
G1 X94.866 Y118.709 E.0162
G1 X95.362 Y118.813 E.01588
G1 X95.847 Y119.006 E.01637
G1 X96.219 Y119.238 E.01377
G1 X96.585 Y119.58 E.01569
G1 X96.852 Y119.959 E.01454
G1 X97.045 Y120.382 E.0146
G1 X97.158 Y120.837 E.01468
G1 X97.193 Y121.329 E.01546
G1 X97.115 Y122.004 E.02131
G1 X96.861 Y122.637 E.02139
G1 X96.424 Y123.16 E.02135
G1 X95.833 Y123.538 E.022
G1 X95.121 Y123.758 E.02338
M73 P6 R12
G1 X94.296 Y123.83 E.02598
G1 X91.06 Y123.83 E.10145
G1 X90.872 Y123.642 E.00836
G1 X90.872 Y116.51 E.2236
G1 X90.909 Y116.397 E.00374
G1 X91.06 Y116.322 E.00529
G1 X92.843 Y116.322 E.05591
M204 P1000
G1 X93.027 Y116.207 F9000
G1 E-2.24 F4200
;WIPE_START
G1 F7200
G1 X93.054 Y116.397 E-.12409
G1 X93.092 Y116.51 E-.06608
G1 X93.092 Y117.813 E-.72183
;WIPE_END
G1 E-.048 F4200
G1 Z.4 F720
G1 X95.172 Y124.174 F9000
G1 Z.2 F720
G1 E3.2 F2400
M204 P800
;TYPE:Perimeter
;WIDTH:0.498836
G1 F1200
G1 X94.757 Y124.191 E.01572
;WIDTH:0.463204
G1 X94.343 Y124.209 E.01449
;WIDTH:0.427572
G1 X94.296 Y124.21 E.00151
;WIDTH:0.425614
G1 X91.06 Y124.21 E.10296
M204 P1000
G1 E-2.24 F4200
;WIPE_START
G1 F7200
G1 X92.706 Y124.21 E-.912
;WIPE_END
G1 E-.048 F4200
G1 Z.4 F720
G1 X90.948 Y115.871 F9000
G1 Z.2 F720
G1 E3.2 F2400
M204 P800
;WIDTH:0.587496
G1 F1200
G1 X91.06 Y115.866 E.00509
;WIDTH:0.57773
G1 X92.903 Y115.866 E.08197
M204 P1000
G1 E-2.24 F4200
;WIPE_START
G1 F7200
G1 X91.258 Y115.866 E-.912
;WIPE_END
G1 E-.048 F4200
G1 Z.4 F720
G1 X83.349 Y115.871 F9000
G1 Z.2 F720
G1 E3.2 F2400
M204 P800
;WIDTH:0.587496
G1 F1200
G1 X83.264 Y115.946 E.00514
;WIDTH:0.545622
G1 X83.179 Y116.021 E.00474
;WIDTH:0.503748
G1 X83.094 Y116.096 E.00435
;WIDTH:0.461874
G1 X83.009 Y116.171 E.00395
;WIDTH:0.419999
G1 X82.895 Y116.51 E.01122
G1 X82.895 Y123.642 E.2236
;WIDTH:0.425614
G1 X83.461 Y124.21 E.02552
G1 X82.324 Y124.213 E.03618
;WIDTH:0.419999
G1 X80.123 Y124.213 E.06903
;WIDTH:0.439862
G1 X79.077 Y124.203 E.03453
G1 X79.174 Y124.174 E.00337
;WIDTH:0.434679
G1 X80.202 Y123.764 E.03604
;WIDTH:0.419999
G1 X80.928 Y123.218 E.02849
G1 X81.272 Y122.787 E.01728
G1 X81.656 Y122.221 E.02147
G1 X82.005 Y121.198 E.03388
G1 X82.109 Y120.167 E.03247
G1 X82.049 Y119.283 E.0278
G1 X81.875 Y118.544 E.0238
G1 X81.583 Y117.86 E.02333
G1 X81.175 Y117.249 E.02302
G1 X80.663 Y116.74 E.02264
G1 X80.06 Y116.343 E.02264
G1 X79.386 Y116.062 E.02288
;WIDTH:0.462622
G1 X79.18 Y115.992 E.00762
;WIDTH:0.505244
G1 X78.973 Y115.921 E.00839
;WIDTH:0.547866
G1 X78.766 Y115.851 E.00916
G1 X78.984 Y115.83 E.00916
;WIDTH:0.505244
G1 X79.201 Y115.808 E.00839
;WIDTH:0.462622
G1 X79.418 Y115.787 E.00762
;WIDTH:0.419999
G1 X82.817 Y115.787 E.10656
;WIDTH:0.461874
G1 X82.95 Y115.808 E.00469
;WIDTH:0.503748
G1 X83.083 Y115.829 E.00516
;WIDTH:0.545622
G1 X83.216 Y115.85 E.00563
;WIDTH:0.587496
G1 X83.29 Y115.862 E.00338
M204 P1000
G1 E-2.24 F4200
;WIPE_START
G1 F7200
G1 X83.264 Y115.946 E-.0489
G1 X83.179 Y116.021 E-.06287
G1 X83.094 Y116.096 E-.06287
G1 X83.009 Y116.171 E-.06287
G1 X82.895 Y116.51 E-.19824
G1 X82.895 Y117.37 E-.47625
;WIPE_END
G1 E-.048 F4200
G1 Z.4 F720
G1 X85.493 Y116.51 F9000
G1 Z.2 F720
G1 E3.2 F2400
M204 P800
;TYPE:External perimeter
;WIDTH:0.419999
G1 F1200
G1 X85.493 Y118.676 E.06791
G1 X86.751 Y118.676 E.03946
G1 X87.267 Y118.709 E.0162
G1 X87.763 Y118.813 E.01588
G1 X88.248 Y119.006 E.01637
G1 X88.649 Y119.26 E.01489
