; generated by PrusaSlicer 2.5.0+win64 on 2023-01-25 at 19:43:49 UTC


;
;

;
;
; 

; external perimeters extrusion width = 0.45mm
; perimeters extrusion width = 0.45mm
; infill extrusion width = 0.45mm
; solid infill extrusion width = 0.45mm
; top infill extrusion width = 0.40mm
; first layer extrusion width = 0.42mm

M73 P0 R13
M201 X2500 Y2500 Z400 E5000 ; sets maximum accelerations, mm/sec^2
M203 X180 Y180 Z12 E80 ; sets maximum feedrates, mm / sec
M204 P1250 R1250 T2500 ; sets acceleration (P, T) and retract acceleration (R), mm/sec^2
M205 X8.00 Y8.00 Z2.00 E10.00 ; sets the jerk limits, mm/sec
M205 S0 T0 ; sets the minimum extruding and travel feed rate, mm/sec
M107
;TYPE:Custom
M862.3 P "MINI" ; printer model check
G90 ; use absolute coordinates
M83 ; extruder relative mode
M104 S170 ; set extruder temp for bed leveling
M140 S60 ; set bed temp
M109 R170 ; wait for bed leveling temp
M190 S60 ; wait for bed temp
M204 T1250 ; set travel acceleration
G28 ; home all without mesh bed level
G29 ; mesh bed leveling 
M204 T2500 ; restore travel acceleration
M104 S215 ; set extruder temp
G92 E0
G1 Y-2 X179 F2400
G1 Z3 F720
M109 S215 ; wait for extruder temp

; intro line
G1 X170 F1000
G1 Z0.2 F720
G1 X110 E8 F900
G1 X40 E10 F700
G92 E0

M221 S95 ; set flow
G21 ; set units to millimeters
G90 ; use absolute coordinates
M83 ; use relative distances for extrusion
M900 K0.2 ; Filament gcode LA 1.5
; ; Filament gcode LA 1.0
M107
;LAYER_CHANGE
;Z:0.2
;HEIGHT:0.2
;BEFORE_LAYER_CHANGE
G92 E0.0
;0.2


M73 P1 R13
G1 E-3.2 F4200
G1 Z.2 F720
;AFTER_LAYER_CHANGE
;0.2
G1 Z.4
G1 X68.015 Y68.693 F9000
G1 Z.2 F720
M73 P2 R13
G1 E3.2 F2400
M204 P800
;TYPE:Skirt/Brim
;WIDTH:0.42
G1 F1200
G1 X69.06 Y67.817 E.04278
G1 X70 Y67.623 E.03008
G1 X110 Y67.623 E1.25417
G1 X111.307 Y68.015 E.04278
G1 X112.183 Y69.06 E.04278
G1 X112.377 Y70 E.03008
G1 X112.377 Y110 E1.25417
G1 X111.985 Y111.307 E.04278
G1 X110.94 Y112.183 E.04278
G1 X110 Y112.377 E.03008
G1 X70 Y112.377 E1.25417
G1 X68.693 Y111.985 E.04278
G1 X67.817 Y110.94 E.04278
G1 X67.623 Y110 E.03008
G1 X67.623 Y70 E1.25417
G1 X67.997 Y68.75 E.0409
M204 P1000
; printing object divider_prototype_001.stl id:0 copy 0
M73 P3 R12
G1 E-2.24 F4200
;WIPE_START
G1 F7200
G1 X69.06 Y67.817 E-.78411
G1 X69.286 Y67.77 E-.12789
;WIPE_END
G1 E-.048 F4200
G1 Z.4 F720
G1 X96.332 Y103.763 F9000
G1 Z.2 F720
G1 E3.2 F2400
M204 P800
;TYPE:Perimeter
;WIDTH:0.376935
G1 F1200
G1 X95.812 Y104.151 E.01803
G1 X95.482 Y104.57 E.01481
G1 X95.606 Y104.226 E.01015
G1 X95.667 Y103.934 E.00829
G1 X95.482 Y103.757 E.00711
G1 X96.272 Y103.763 E.02194
M204 P1000
G1 E-2.24 F4200
;WIPE_START
G1 F7200
G1 X95.812 Y104.151 E-.33388
G1 X95.482 Y104.57 E-.29549
G1 X95.606 Y104.226 E-.20251
G1 X95.635 Y104.085 E-.08012
;WIPE_END
G1 E-.048 F4200
G1 Z.4 F720
G1 X92.149 Y104.599 F9000
G1 Z.2 F720
G1 E3.2 F2400
M204 P800
;WIDTH:0.419999
G1 F1200
G1 X91.853 Y103.78 E.02731
G1 X93.157 Y103.782 E.04088
G1 X92.862 Y104.599 E.02724
G1 X92.209 Y104.599 E.02046
M204 P1000
G1 E-2.24 F4200
;WIPE_START
G1 F7200
G1 X91.853 Y103.78 E-.49492
G1 X92.605 Y103.781 E-.41708
;WIPE_END
G1 E-.048 F4200
G1 Z.4 F720
G1 X93.754 Y109.238 F9000
G1 Z.2 F720
G1 E3.2 F2400
M204 P800
G1 F1200
G1 X94.146 Y108.341 E.03068
G1 X94.915 Y106.207 E.07111
G1 X94.885 Y106.631 E.01331
G1 X94.988 Y107.536 E.02856
G1 X95.296 Y108.342 E.02707
G1 X95.687 Y108.877 E.02077
G1 X96.125 Y109.221 E.01745
G1 X93.814 Y109.236 E.07247
M204 P1000
G1 E-2.24 F4200
;WIPE_START
G1 F7200
G1 X94.146 Y108.341 E-.52916
G1 X94.38 Y107.691 E-.38284
;WIPE_END
G1 E-.048 F4200
G1 Z.4 F720
G1 X89.859 Y105.389 F9000
G1 Z.2 F720
G1 E3.2 F2400
M204 P800
G1 F1200
G1 X89.911 Y105.645 E.00818
G1 X90.07 Y106.17 E.01721
G1 X90.875 Y108.378 E.07368
G1 X91.254 Y109.238 E.02947
G1 X89.504 Y109.213 E.05487
G1 X87.592 Y109.232 E.05996
G1 X87.64 Y108.835 E.01252
G1 X87.689 Y108.055 E.02452
G1 X87.692 Y105.723 E.07311
G1 X88.619 Y105.718 E.02904
G1 X89.19 Y105.643 E.01807
G1 X89.747 Y105.552 E.01768
G1 X89.825 Y105.439 E.00432
M204 P1000
G1 E-2.24 F4200
;WIPE_START
G1 F7200
G1 X89.911 Y105.645 E-.12377
G1 X90.07 Y106.17 E-.30417
G1 X90.369 Y106.991 E-.48405
;WIPE_END
G1 E-.048 F4200
G1 Z.4 F720
G1 X85.15 Y105.607 F9000
G1 Z.2 F720
G1 E3.2 F2400
M204 P800
G1 F1200
G1 X85.119 Y106.555 E.02975
G1 X85.124 Y108.023 E.04601
G1 X85.191 Y109.129 E.03475
G1 X85.303 Y109.241 E.00497
G1 X83.996 Y109.213 E.04099
G1 X83.041 Y109.233 E.02996
G1 X83.133 Y108.055 E.03704
G1 X83.136 Y105.724 E.07309
G1 X84.231 Y105.706 E.03435
G1 X85.091 Y105.613 E.0271
M204 P1000
G1 E-2.24 F4200
;WIPE_START
G1 F7200
G1 X85.119 Y106.555 E-.52217
G1 X85.121 Y107.259 E-.38983
;WIPE_END
G1 E-.048 F4200
G1 Z.4 F720
G1 X85.221 Y104.048 F9000
G1 Z.2 F720
G1 E3.2 F2400
M204 P800
;TYPE:External perimeter
;WIDTH:0.420069
G1 F1200
G1 X85.219 Y105.056 E.03159
;WIDTH:0.419713
G1 X85.212 Y105.112 E.00177
;WIDTH:0.419999
G1 X85.051 Y105.243 E.00651
G1 X84.078 Y105.342 E.03067
G1 X82.759 Y105.348 E.04136
G1 X82.756 Y108.057 E.08496
G1 X82.71 Y108.758 E.02201
G1 X82.671 Y109.172 E.01305
G1 X82.499 Y109.281 E.00638
;WIDTH:0.417422
G1 X82.481 Y109.282 E.00058
G1 X81.198 Y109.28 E.03995
;WIDTH:0.464114
G1 X81.101 Y109.255 E.00349
;WIDTH:0.513628
G1 X81.005 Y109.23 E.00389
G1 X81.005 Y109.162 E.00264
;WIDTH:0.470834
G1 X81.005 Y109.095 E.0024
;WIDTH:0.428039
G1 X81.001 Y104.008 E.16288
;WIDTH:0.457503
G1 X81.001 Y103.956 E.0018
;WIDTH:0.495037
G1 X81.001 Y103.904 E.00196
;WIDTH:0.53257
G1 X81.001 Y103.852 E.00213
G1 X81.09 Y103.829 E.00373
;WIDTH:0.488369
G1 X81.179 Y103.807 E.00339
;WIDTH:0.444167
G1 X81.784 Y103.783 E.02018
;WIDTH:0.428019
G1 X82.682 Y103.771 E.02877
;WIDTH:0.420106
G1 X82.686 Y103.771 E.00012
;WIDTH:0.422329
G1 X84.023 Y103.775 E.04218
;WIDTH:0.46535
G1 X85.054 Y103.838 E.0363
;WIDTH:0.50697
G1 X85.138 Y103.859 E.00331
;WIDTH:0.548589
G1 X85.221 Y103.88 E.0036
G1 X85.221 Y103.936 E.00236
;WIDTH:0.505749
G1 X85.221 Y103.988 E.00201
M204 P1000
G1 E-2.24 F4200
;WIPE_START
G1 F7200
G1 X85.219 Y105.056 E-.59151
G1 X85.212 Y105.112 E-.03128
G1 X85.051 Y105.243 E-.11512
G1 X84.739 Y105.275 E-.17409
;WIPE_END
G1 E-.048 F4200
G1 Z.4 F720
G1 X78.649 Y103.78 F9000
G1 Z.2 F720
G1 E3.2 F2400
M204 P800
;TYPE:Perimeter
;WIDTH:0.419999
G1 F1200
G1 X78.506 Y103.951 E.00699
G1 X78.501 Y106.899 E.09246
G1 X77.345 Y103.782 E.10425
G1 X78.589 Y103.781 E.03902
M204 P1000
G1 X79.069 Y103.772 F9000
M204 P800
;TYPE:External perimeter
;WIDTH:0.444131
G1 F1200
G1 X80.443 Y103.807 E.04585
;WIDTH:0.488351
G1 X80.534 Y103.83 E.00346
;WIDTH:0.53257
G1 X80.624 Y103.852 E.0038
G1 X80.624 Y103.904 E.00212
;WIDTH:0.495037
G1 X80.624 Y103.956 E.00196
;WIDTH:0.457503
G1 X80.624 Y104.008 E.0018
;WIDTH:0.428039
G1 X80.62 Y109.095 E.16289
;WIDTH:0.470834
G1 X80.62 Y109.162 E.0024
;WIDTH:0.513628
G1 X80.62 Y109.23 E.00264
G1 X80.52 Y109.255 E.00403
;WIDTH:0.46404
G1 X80.42 Y109.28 E.00361
;WIDTH:0.431902
G1 X79.6 Y109.257 E.02654
;WIDTH:0.471133
G1 X79.414 Y109.226 E.00671
;WIDTH:0.510363
G1 X79.228 Y109.195 E.00732
;WIDTH:0.549593
G1 X79.043 Y109.164 E.00794
G1 X79.04 Y109.083 E.00338
;WIDTH:0.502984
G1 X79.037 Y109.003 E.00307
;WIDTH:0.456375
G1 X79.035 Y108.923 E.00276
;WIDTH:0.450977
G1 X78.903 Y108.014 E.03115
M73 P4 R12
G1 X78.88 Y107.511 E.01709
;WIDTH:0.419999
G1 X78.883 Y103.957 E.11146
G1 X79.027 Y103.814 E.00634
M204 P1000
G1 X79.083 Y103.372 F9000
G1 E-2.24 F4200
;WIPE_START
G1 F7200
G1 X80.443 Y103.807 E-.78499
G1 X80.534 Y103.83 E-.05172
G1 X80.624 Y103.852 E-.05172
G1 X80.624 Y103.894 E-.02356
;WIPE_END
G1 E-.048 F4200
G1 Z.4 F720
G1 X75.593 Y109.232 F9000
G1 Z.2 F720
G1 E3.2 F2400
M204 P800
;TYPE:Perimeter
G1 F1200
G1 X75.801 Y108.722 E.01728
G1 X76.164 Y107.599 E.03702
G1 X76.518 Y108.734 E.0373
G1 X76.724 Y109.237 E.01703
G1 X76.124 Y109.22 E.01881
G1 X75.653 Y109.231 E.0148
M204 P1000
G1 E-2.24 F4200
;WIPE_START
G1 F7200
G1 X75.801 Y108.722 E-.29375
G1 X76.144 Y107.66 E-.61825
;WIPE_END
G1 E-.048 F4200
G1 Z.4 F720
G1 X89.655 Y103.942 F9000
G1 Z.2 F720
G1 E3.2 F2400
M204 P800
;TYPE:External perimeter
;WIDTH:0.572055
G1 F1200
G1 X89.661 Y104.088 E.00641
;WIDTH:0.533068
G1 X89.666 Y104.233 E.00594
;WIDTH:0.49408
G1 X89.672 Y104.379 E.00547
;WIDTH:0.455092
G1 X89.678 Y104.524 E.00499
;WIDTH:0.439819
G1 X89.755 Y105.014 E.01637
G1 X89.584 Y105.206 E.0085
;WIDTH:0.419999
G1 X88.752 Y105.324 E.02634
G1 X88.617 Y105.341 E.00426
G1 X87.316 Y105.348 E.04079
G1 X87.312 Y108.054 E.08486
G1 X87.264 Y108.811 E.02377
G1 X87.217 Y109.192 E.01203
;WIDTH:0.41956
G1 X87.056 Y109.281 E.00577
;WIDTH:0.419987
G1 X85.745 Y109.279 E.04111
G1 X85.568 Y109.106 E.00776
G1 X85.5 Y107.996 E.03485
G1 X85.496 Y106.554 E.04521
G1 X85.525 Y105.685 E.02726
G1 X85.589 Y105.127 E.01761
;WIDTH:0.41688
G1 X85.592 Y105.057 E.00219
;WIDTH:0.420069
G1 X85.598 Y104.05 E.03159
;WIDTH:0.462909
G1 X85.598 Y103.993 E.00198
;WIDTH:0.505749
G1 X85.598 Y103.936 E.00218
;WIDTH:0.548589
G1 X85.598 Y103.88 E.00238
G1 X85.842 Y103.851 E.01032
;WIDTH:0.510864
G1 X86.085 Y103.822 E.00955
;WIDTH:0.473138
G1 X86.329 Y103.793 E.00878
;WIDTH:0.435412
G1 X87.236 Y103.772 E.0296
;WIDTH:0.42024
G1 X87.243 Y103.772 E.00023
;WIDTH:0.424984
G1 X88.581 Y103.779 E.0425
;WIDTH:0.458247
G1 X89.083 Y103.821 E.0174
;WIDTH:0.496183
G1 X89.274 Y103.862 E.00734
;WIDTH:0.534119
G1 X89.465 Y103.902 E.00796
;WIDTH:0.572055
G1 X89.597 Y103.93 E.00593
M204 P1000
G1 X89.982 Y104.013 F9000
M204 P800
;WIDTH:0.525
G1 F1200
G1 X89.982 Y103.978 E.00138
;WIDTH:0.572055
G1 X89.982 Y103.944 E.00152
G1 X90.15 Y103.902 E.00759
;WIDTH:0.531791
G1 X90.317 Y103.86 E.00701
;WIDTH:0.491527
G1 X90.484 Y103.818 E.00643
;WIDTH:0.451263
G1 X91.012 Y103.788 E.01796
;WIDTH:0.431577
G1 X91.318 Y103.773 E.0099
;WIDTH:0.419999
G1 X91.494 Y103.896 E.00673
G1 X91.884 Y104.976 E.03601
G1 X93.127 Y104.976 E.03894
G1 X93.516 Y103.896 E.03601
G1 X93.694 Y103.773 E.00677
G1 X95.123 Y103.772 E.04483
G1 X95.312 Y103.951 E.00814
;WIDTH:0.461855
G1 X95.242 Y104.219 E.00965
;WIDTH:0.503711
G1 X95.173 Y104.488 E.01062
;WIDTH:0.545566
G1 X95.051 Y104.889 E.01753
;WIDTH:0.542023
G1 X94.815 Y105.552 E.02921
G1 X94.694 Y105.827 E.01247
;WIDTH:0.501349
G1 X94.573 Y106.102 E.01146
;WIDTH:0.460674
G1 X94.453 Y106.378 E.01044
;WIDTH:0.419999
G1 X93.791 Y108.213 E.06118
G1 X93.372 Y109.17 E.03276
G1 X93.199 Y109.28 E.00641
G1 X91.798 Y109.279 E.04392
G1 X91.636 Y109.17 E.00611
G1 X91.22 Y108.226 E.03237
G1 X90.424 Y106.041 E.0729
;WIDTH:0.439819
G1 X90.148 Y104.97 E.03651
G1 X90.043 Y104.473 E.01676
;WIDTH:0.430888
G1 X89.986 Y104.072 E.01304
M204 P1000
G1 E-2.24 F4200
;WIPE_START
G1 F7200
G1 X89.982 Y103.978 E-.05228
G1 X89.982 Y103.944 E-.01914
G1 X90.15 Y103.902 E-.09557
G1 X90.317 Y103.86 E-.09557
G1 X90.484 Y103.818 E-.09557
G1 X91.012 Y103.788 E-.29314
G1 X91.318 Y103.773 E-.16985
G1 X91.452 Y103.867 E-.0909
;WIPE_END
G1 E-.048 F4200
G1 Z.4 F720
G1 X101.04 Y103.777 F9000
G1 Z.2 F720
G1 E3.2 F2400
M204 P800
;TYPE:Perimeter
;WIDTH:0.406288
G1 F1200
G1 X100.888 Y103.958 E.00716
G1 X100.887 Y104.356 E.01202
G1 X100.575 Y104.086 E.01247
G1 X100.082 Y103.78 E.01752
G1 X100.98 Y103.777 E.02713
M204 P1000
G1 E-2.24 F4200
;WIPE_START
G1 F7200
G1 X100.888 Y103.958 E-.11268
G1 X100.887 Y104.356 E-.22043
G1 X100.575 Y104.086 E-.22881
G1 X100.082 Y103.78 E-.32133
G1 X100.134 Y103.779 E-.02876
;WIPE_END
G1 E-.048 F4200
G1 Z.4 F720
G1 X100.858 Y108.247 F9000
G1 Z.2 F720
G1 E3.2 F2400
M204 P800
;WIDTH:0.472506
G1 F1200
G1 X100.928 Y109.207 E.03437
G1 X100.155 Y109.193 E.02759
G1 X100.484 Y108.912 E.01543
G1 X100.828 Y108.299 E.02511
M204 P1000
G1 E-2.24 F4200
;WIPE_START
G1 F7200
G1 X100.928 Y109.207 E-.50588
G1 X100.195 Y109.193 E-.40612
;WIPE_END
G1 E-.048 F4200
G1 Z.4 F720
G1 X98.143 Y105.606 F9000
G1 Z.2 F720
G1 E3.2 F2400
M204 P800
;TYPE:External perimeter
;WIDTH:0.422971
G1 F1200
G1 X98.655 Y105.648 E.01624
G1 X99.035 Y105.587 E.01216
G1 X99.035 Y105.479 E.00342
G1 X98.699 Y105.27 E.01249
G1 X98.171 Y105.232 E.01672
;WIDTH:0.418282
G1 X97.796 Y105.305 E.01194
;WIDTH:0.419031
G1 X97.539 Y105.441 E.00908
;WIDTH:0.419999
G1 X97.347 Y105.629 E.00844
G1 X97.208 Y105.876 E.00886
G1 X97.113 Y106.285 E.01318
G1 X97.092 Y106.61 E.01021
G1 X97.17 Y107.148 E.01706
G1 X97.324 Y107.476 E.01134
G1 X97.539 Y107.681 E.00932
G1 X97.834 Y107.784 E.00981
G1 X98.198 Y107.804 E.01141
G1 X98.572 Y107.733 E.01195
G1 X98.935 Y107.538 E.01292
G1 X99.289 Y107.28 E.01374
;WIDTH:0.424613
G1 X99.472 Y107.293 E.00581
;WIDTH:0.453326
G1 X100.42 Y107.451 E.03278
;WIDTH:0.503026
G1 X100.509 Y107.457 E.00344
;WIDTH:0.552726
G1 X100.599 Y107.463 E.00381
;WIDTH:0.602426
G1 X100.688 Y107.47 E.00418
G1 X100.71 Y107.594 E.00585
;WIDTH:0.558478
G1 X100.732 Y107.717 E.00539
;WIDTH:0.514529
G1 X100.44 Y108.201 E.02214
;WIDTH:0.467264
G1 X100.149 Y108.685 E.01992
;WIDTH:0.419999
G1 X100.057 Y108.788 E.00435
;WIDTH:0.427744
G1 X99.251 Y109.223 E.02929
G1 X99.174 Y109.245 E.00254
G1 X98.131 Y109.316 E.03346
;WIDTH:0.416988
G1 X97.347 Y109.28 E.02441
;WIDTH:0.419999
G1 X96.64 Y109.106 E.02285
G1 X96.035 Y108.698 E.02285
G1 X95.6 Y108.12 E.02269
G1 X95.344 Y107.412 E.02361
G1 X95.26 Y106.595 E.02575
;WIDTH:0.457819
G1 X95.266 Y106.321 E.00943
;WIDTH:0.495639
G1 X95.272 Y106.048 E.01029
;WIDTH:0.533458
G1 X95.278 Y105.775 E.01115
;WIDTH:0.536371
G1 X95.516 Y105.052 E.03122
G1 X95.672 Y104.861 E.01012
;WIDTH:0.497581
G1 X95.828 Y104.67 E.00933
;WIDTH:0.45879
G1 X95.983 Y104.478 E.00853
;WIDTH:0.419999
G1 X96.558 Y104.038 E.02268
;WIDTH:0.430955
G1 X97.267 Y103.784 E.02431
G1 X98.012 Y103.741 E.02408
;WIDTH:0.440234
G1 X99.016 Y103.794 E.0332
G1 X99.517 Y103.938 E.01725
;WIDTH:0.419999
G1 X99.95 Y104.127 E.01479
G1 X100.345 Y104.377 E.01466
G1 X100.701 Y104.685 E.01475
;WIDTH:0.448105
G1 X100.748 Y104.756 E.00288
;WIDTH:0.47621
G1 X100.794 Y104.828 E.00308
;WIDTH:0.476508
G1 X100.791 Y105.808 E.03533
;WIDTH:0.476892
G1 X100.791 Y105.821 E.00046
;WIDTH:0.50778
G1 X100.741 Y106.857 E.04008
;WIDTH:0.555103
G1 X100.717 Y106.955 E.0043
;WIDTH:0.602426
G1 X100.693 Y107.053 E.0047
G1 X100.5 Y107.031 E.00907
;WIDTH:0.559608
G1 X100.306 Y107.009 E.00838
;WIDTH:0.516789
G1 X100.112 Y106.988 E.00769
;WIDTH:0.47397
G1 X99.918 Y106.966 E.00699
;WIDTH:0.431151
G1 X99.378 Y106.91 E.01752
;WIDTH:0.417511
G1 X99.022 Y106.936 E.01112
;WIDTH:0.419999
G1 X98.381 Y107.034 E.02033
G1 X98.018 Y107.049 E.01141
G1 X97.907 Y106.928 E.00515
G1 X97.895 Y106.316 E.01921
G1 X97.937 Y105.778 E.0169
G1 X98.009 Y105.648 E.00468
;WIDTH:0.418282
G1 X98.085 Y105.624 E.00248
M204 P1000
G1 X97.51 Y106.228 F9000
M204 P800
;TYPE:Perimeter
;WIDTH:0.449654
G1 F1200
G1 X97.507 Y106.878 E.02198
G1 X97.598 Y107.18 E.01067
;WIDTH:0.449476
G1 X97.743 Y107.341 E.00733
G1 X98.026 Y107.431 E.01005
;WIDTH:0.409868
G1 X98.418 Y107.4 E.01199
M204 P1000
G1 E-2.24 F4200
;WIPE_START
G1 F7200
G1 X98.026 Y107.431 E-.21781
G1 X97.743 Y107.341 E-.16479
G1 X97.598 Y107.18 E-.12011
G1 X97.507 Y106.878 E-.17483
G1 X97.509 Y106.455 E-.23447
;WIPE_END
G1 E-.048 F4200
G1 Z.4 F720
G1 X70.787 Y70.787 F9000
G1 Z.2 F720
G1 E3.2 F2400
M204 P800
;WIDTH:0.419999
G1 F1200
G1 X109.213 Y70.787 E1.20481
G1 X109.213 Y109.214 E1.20483
M73 P5 R12
G1 X106.096 Y109.231 E.09772
G1 X106.122 Y109.145 E.00282
G1 X106.173 Y108.576 E.01792
G1 X106.192 Y107.971 E.01897
G1 X106.14 Y107.714 E.00822
G1 X106.051 Y107.579 E.00507
G1 X105.847 Y107.486 E.00705
G1 X105.978 Y107.304 E.00705
G1 X105.99 Y107.035 E.00845
G1 X105.976 Y105.851 E.03713
G1 X105.889 Y105.691 E.00569
G1 X106.064 Y105.642 E.00569
G1 X106.245 Y105.465 E.00794
G1 X106.335 Y105.156 E.01007
G1 X106.319 Y103.953 E.03774
G1 X106.143 Y103.777 E.00779
G1 X107.373 Y103.766 E.03856
G1 X107.646 Y103.595 E.01012
G1 X107.779 Y103.319 E.00958
G1 X107.787 Y103.222 E.00308
G1 X107.787 Y76.779 E.8291
G1 X107.674 Y76.439 E.01122
G1 X107.439 Y76.256 E.00933
G1 X107.221 Y76.213 E.00696
G1 X72.779 Y76.213 E1.07993
G1 X72.561 Y76.256 E.00696
G1 X72.326 Y76.439 E.00933
G1 X72.213 Y76.779 E.01122
G1 X72.213 Y103.222 E.8291
G1 X72.304 Y103.529 E.01004
M73 P6 R12
G1 X72.505 Y103.717 E.00865
G1 X72.781 Y103.787 E.00893
G1 X74.972 Y103.776 E.06868
G1 X73.459 Y107.835 E.13581
