; generated by PrusaSlicer 2.5.0+win64 on 2023-02-17 at 23:13:12 UTC


;
;

;
;
; 

; external perimeters extrusion width = 0.45mm
; perimeters extrusion width = 0.45mm
; infill extrusion width = 0.45mm
; solid infill extrusion width = 0.45mm
; top infill extrusion width = 0.40mm
; first layer extrusion width = 0.42mm

M73 P0 R13
M201 X2500 Y2500 Z400 E5000 ; sets maximum accelerations, mm/sec^2
M203 X180 Y180 Z12 E80 ; sets maximum feedrates, mm / sec
M204 P1250 R1250 T2500 ; sets acceleration (P, T) and retract acceleration (R), mm/sec^2
M205 X8.00 Y8.00 Z2.00 E10.00 ; sets the jerk limits, mm/sec
M205 S0 T0 ; sets the minimum extruding and travel feed rate, mm/sec
M107
;TYPE:Custom
M862.3 P "MINI" ; printer model check
G90 ; use absolute coordinates
M83 ; extruder relative mode
M104 S170 ; set extruder temp for bed leveling
M140 S60 ; set bed temp
M109 R170 ; wait for bed leveling temp
M190 S60 ; wait for bed temp
M204 T1250 ; set travel acceleration
G28 ; home all without mesh bed level
G29 ; mesh bed leveling 
M204 T2500 ; restore travel acceleration
M104 S215 ; set extruder temp
G92 E0
G1 Y-2 X179 F2400
G1 Z3 F720
M109 S215 ; wait for extruder temp

; intro line
G1 X170 F1000
G1 Z0.2 F720
G1 X110 E8 F900
G1 X40 E10 F700
G92 E0

M221 S95 ; set flow
G21 ; set units to millimeters
G90 ; use absolute coordinates
M83 ; use relative distances for extrusion
M900 K0.2 ; Filament gcode LA 1.5
; ; Filament gcode LA 1.0
M107
;LAYER_CHANGE
;Z:0.2
;HEIGHT:0.2
;BEFORE_LAYER_CHANGE
G92 E0.0
;0.2


M73 P1 R13
G1 E-3.2 F4200
G1 Z.2 F720
;AFTER_LAYER_CHANGE
;0.2
G1 Z.4
G1 X42.06 Y53.817 F9000
G1 Z.2 F720
G1 E3.2 F2400
M204 P800
;TYPE:Skirt/Brim
;WIDTH:0.42
G1 F1200
G1 X43 Y53.623 E.03008
G1 X137 Y53.623 E2.9473
G1 X138.307 Y54.015 E.04278
M73 P2 R13
G1 X139.183 Y55.06 E.04278
G1 X139.377 Y56 E.03008
G1 X139.377 Y80 E.7525
G1 X139.142 Y81.03 E.03312
G1 X117.992 Y125.03 E1.53069
G1 X117.073 Y126.038 E.04278
M73 P3 R13
G1 X115.85 Y126.377 E.0398
G1 X64.15 Y126.377 E1.62102
G1 X62.843 Y125.985 E.04278
G1 X62.008 Y125.03 E.0398
G1 X40.858 Y81.03 E1.53069
G1 X40.623 Y80 E.03312
G1 X40.623 Y56 E.7525
G1 X41.015 Y54.693 E.04278
G1 X42.014 Y53.855 E.0409
M204 P1000
; printing object gold_silver_platinum_dividers.stl_4 id:0 copy 0
G1 E-2.24 F4200
;WIPE_START
G1 F7200
G1 X43 Y53.623 E-.56121
G1 X43.633 Y53.623 E-.35079
;WIPE_END
G1 E-.048 F4200
G1 Z.4 F720
G1 X84.215 Y117.703 F9000
G1 Z.2 F720
G1 E3.2 F2400
M204 P800
;TYPE:Perimeter
;WIDTH:0.546748
G1 F1200
G1 X84.13 Y117.585 E.0061
G1 X83.636 Y117.139 E.02786
G1 X83.043 Y116.852 E.02761
G1 X82.853 Y116.829 E.00801
;WIDTH:0.502332
G1 X82.663 Y116.807 E.0073
;WIDTH:0.457916
G1 X82.474 Y116.784 E.0066
G1 X82.714 Y116.806 E.00833
;WIDTH:0.502332
G1 X82.955 Y116.828 E.00923
;WIDTH:0.546748
G1 X83.195 Y116.85 E.01012
G1 X83.999 Y116.85 E.03366
G1 X84.247 Y116.831 E.01044
;WIDTH:0.508166
G1 X84.495 Y116.812 E.00964
;WIDTH:0.469583
G1 X84.744 Y116.793 E.00884
G1 X84.576 Y116.92 E.00748
;WIDTH:0.508166
G1 X84.408 Y117.047 E.00815
;WIDTH:0.546748
G1 X84.24 Y117.175 E.00883
G1 X84.218 Y117.643 E.01964
M204 P1000
G1 E-2.24 F4200
;WIPE_START
G1 F7200
G1 X84.13 Y117.585 E-.05839
G1 X83.636 Y117.139 E-.36853
G1 X83.043 Y116.852 E-.36517
G1 X82.853 Y116.829 E-.10595
G1 X82.828 Y116.826 E-.01395
;WIPE_END
G1 E-.048 F4200
G1 Z.4 F720
G1 X84.366 Y120.857 F9000
G1 Z.2 F720
G1 E3.2 F2400
M204 P800
;WIDTH:0.383356
G1 F1200
G1 X84.08 Y120.567 E.01153
;WIDTH:0.382123
G1 X83.743 Y120.516 E.00962
G1 X84.025 Y120.285 E.0103
M73 P4 R13
G1 X84.305 Y119.865 E.01424
G1 X84.307 Y120.331 E.01316
;WIDTH:0.383356
G1 X84.359 Y120.797 E.01327
M204 P1000
G1 X84.265 Y122.058 F9000
M204 P800
;WIDTH:0.62799
G1 F1200
G1 X84.253 Y122.192 E.00657
;WIDTH:0.610168
G1 X84.214 Y122.848 E.03099
;WIDTH:0.580693
G1 X84.509 Y123.133 E.01833
G1 X82.933 Y123.133 E.07051
G1 X83.421 Y122.926 E.02369
G1 X83.891 Y122.556 E.02679
;WIDTH:0.62799
G1 X84.229 Y122.106 E.02736
M204 P1000
G1 X84.881 Y121.8 F9000
M204 P800
;TYPE:External perimeter
;WIDTH:0.419999
G1 F1200
G1 X84.965 Y121.765 E.00286
;WIDTH:0.386028
G1 X85.049 Y121.73 E.0026
;WIDTH:0.352058
G1 X86.032 Y121.73 E.02527
;WIDTH:0.386029
G1 X86.109 Y121.754 E.00229
;WIDTH:0.419999
G1 X86.186 Y121.777 E.00252
;WIDTH:0.463331
G1 X86.38 Y122.233 E.01733
G1 X86.418 Y122.792 E.01959
;WIDTH:0.47904
G1 X86.417 Y122.848 E.00201
;WIDTH:0.520414
G1 X86.416 Y122.903 E.0022
;WIDTH:0.561788
G1 X86.415 Y122.959 E.00239
;WIDTH:0.603162
G1 X86.414 Y123.014 E.00259
G1 X86.339 Y123.033 E.00359
;WIDTH:0.566893
G1 X86.264 Y123.051 E.00336
;WIDTH:0.530623
G1 X85.546 Y123.064 E.02912
;WIDTH:0.527014
G1 X84.854 Y123.052 E.02785
G1 X84.793 Y122.966 E.00425
;WIDTH:0.491343
G1 X84.732 Y122.88 E.00394
;WIDTH:0.455671
G1 X84.672 Y122.793 E.00363
;WIDTH:0.419999
G1 X84.723 Y122.235 E.01757
G1 X84.86 Y121.857 E.01262
M204 P1000
G1 X84.863 Y121.711 F9000
G1 E-2.24 F4200
;WIPE_START
G1 F7200
G1 X84.965 Y121.765 E-.07705
G1 X85.049 Y121.73 E-.05057
G1 X86.032 Y121.73 E-.54481
G1 X86.109 Y121.754 E-.04452
G1 X86.186 Y121.777 E-.04452
G1 X86.292 Y122.027 E-.15053
;WIPE_END
G1 E-.048 F4200
G1 Z.4 F720
G1 X88.621 Y123.213 F9000
G1 Z.2 F720
G1 E3.2 F2400
M204 P800
;TYPE:Perimeter
G1 F1200
G1 X88.96 Y122.779 E.01726
G1 X88.861 Y121.846 E.02943
G1 X89.059 Y121.926 E.00671
G1 X89.605 Y121.993 E.01725
G1 X90.106 Y122.028 E.01575
G1 X90.434 Y121.924 E.01077
G1 X90.536 Y121.831 E.00433
G1 X90.65 Y121.62 E.00753
G1 X90.849 Y120.951 E.02188
G1 X91.043 Y121.624 E.02194
G1 X91.156 Y121.833 E.00744
G1 X91.257 Y121.926 E.00433
G1 X91.587 Y122.032 E.01085
G1 X93.061 Y122.032 E.04623
G1 X93.391 Y121.926 E.01084
G1 X93.53 Y121.783 E.00626
G1 X93.575 Y121.513 E.00857
G1 X93.852 Y121.733 E.0111
G1 X94.057 Y121.84 E.00725
G1 X94.629 Y122.038 E.01897
G1 X95.32 Y122.097 E.02173
G1 X96.02 Y121.99 E.02221
G1 X96.641 Y121.687 E.02168
G1 X97.013 Y121.348 E.01579
G1 X97.277 Y120.941 E.01517
G1 X97.266 Y121.437 E.01555
G1 X97.365 Y121.77 E.0109
G1 X97.448 Y121.866 E.00396
G1 X97.885 Y122.013 E.01445
G1 X98.647 Y121.933 E.02405
G1 X99.243 Y121.754 E.0195
G1 X99.503 Y121.887 E.00915
G1 X99.881 Y122.033 E.01272
G1 X100.446 Y121.948 E.01791
G1 X100.717 Y121.825 E.00932
G1 X100.869 Y121.626 E.00787
G1 X100.919 Y121.436 E.00615
G1 X100.963 Y120.871 E.01775
G1 X100.948 Y120.057 E.02553
G1 X100.802 Y119.802 E.00921
G1 X100.656 Y119.697 E.00565
G1 X100.239 Y119.659 E.01313
G1 X100.046 Y119.742 E.00658
G1 X99.88 Y119.744 E.00522
G1 X99.812 Y119.352 E.01246
G1 X99.812 Y117.355 E.06262
;WIDTH:0.42241
G1 X99.247 Y116.788 E.02527
G1 X100.38 Y116.787 E.03577
;WIDTH:0.419999
G1 X115.063 Y116.787 E.46036
G1 X115.063 Y123.213 E.20148
G1 X88.681 Y123.213 E.82717
M204 P1000
G1 E-2.24 F4200
;WIPE_START
G1 F7200
G1 X88.96 Y122.779 E-.28575
G1 X88.861 Y121.846 E-.52008
G1 X89.039 Y121.917 E-.10617
;WIPE_END
G1 E-.048 F4200
G1 Z.4 F720
G1 X80.994 Y116.777 F9000
G1 Z.2 F720
G1 E3.2 F2400
M204 P800
;WIDTH:0.402018
G1 F1200
G1 X80.967 Y116.78 E.00081
;WIDTH:0.419999
G1 X80.333 Y116.929 E.02042
G1 X79.769 Y117.21 E.01976
G1 X79.308 Y117.622 E.01937
G1 X78.983 Y118.141 E.01921
G1 X78.763 Y118.81 E.02209
G1 X78.734 Y118.998 E.00596
G1 X78.789 Y119.229 E.00744
G1 X78.923 Y119.409 E.00701
G1 X79.12 Y119.524 E.00717
G1 X79.7 Y119.596 E.01833
G1 X79.28 Y120.068 E.01982
G1 X79.176 Y120.271 E.00717
G1 X79.043 Y120.755 E.01572
G1 X79.024 Y120.951 E.00617
G1 X79.077 Y121.598 E.02037
G1 X79.133 Y121.802 E.00662
G1 X79.441 Y122.355 E.01986
G1 X79.899 Y122.766 E.01931
G1 X80.45 Y123.031 E.01915
;WIDTH:0.448759
G1 X80.704 Y123.107 E.00897
;WIDTH:0.477518
G1 X80.959 Y123.184 E.0096
G1 X80.694 Y123.199 E.0096
;WIDTH:0.448759
G1 X80.428 Y123.213 E.00897
;WIDTH:0.419999
G1 X64.937 Y123.213 E.48571
G1 X64.937 Y116.787 E.20148
G1 X80.934 Y116.778 E.50156
M204 P1000
G1 E-2.24 F4200
;WIPE_START
G1 F7200
G1 X80.967 Y116.78 E-.01829
G1 X80.333 Y116.929 E-.3609
G1 X79.769 Y117.21 E-.34917
G1 X79.522 Y117.431 E-.18364
;WIPE_END
G1 E-.048 F4200
G1 Z.4 F720
G1 X83.937 Y120.895 F9000
G1 Z.2 F720
G1 E3.2 F2400
M204 P800
;TYPE:External perimeter
G1 F1200
G1 X84.048 Y121.047 E.00592
G1 X83.872 Y121.755 E.02288
G1 X83.592 Y122.209 E.01673
G1 X83.234 Y122.508 E.01462
G1 X82.798 Y122.698 E.01491
G1 X82.308 Y122.8 E.01569
G1 X81.713 Y122.835 E.01869
G1 X81.087 Y122.795 E.01967
G1 X80.539 Y122.664 E.01765
G1 X80.071 Y122.431 E.0164
G1 X79.704 Y122.085 E.01582
M73 P5 R13
G1 X79.471 Y121.636 E.01586
G1 X79.4 Y120.92 E.02254
G1 X79.54 Y120.371 E.01775
G1 X79.859 Y119.949 E.01661
G1 X80.212 Y119.734 E.01295
G1 X80.739 Y119.588 E.01716
;WIDTH:0.446866
G1 X80.919 Y119.493 E.00684
;WIDTH:0.483537
G1 X81.099 Y119.398 E.00746
;WIDTH:0.520207
G1 X81.279 Y119.302 E.00808
;WIDTH:0.528677
G1 X82.274 Y118.933 E.04286
G1 X82.22 Y118.824 E.00491
G1 X82.118 Y118.775 E.00458
G1 X81.685 Y118.728 E.0176
G1 X81.235 Y118.797 E.01839
G1 X81.127 Y118.846 E.0048
;WIDTH:0.521515
G1 X80.932 Y119.014 E.01023
;WIDTH:0.477793
G1 X80.738 Y119.182 E.0093
;WIDTH:0.434071
G1 X80.588 Y119.246 E.0053
;WIDTH:0.419999
G1 X80.038 Y119.249 E.01725
G1 X79.281 Y119.175 E.02383
G1 X79.141 Y119.089 E.00517
G1 X79.121 Y118.928 E.00506
G1 X79.341 Y118.259 E.02209
G1 X79.62 Y117.833 E.01598
G1 X80.009 Y117.5 E.01604
G1 X80.49 Y117.271 E.0167
G1 X81.048 Y117.141 E.01796
G1 X81.608 Y117.103 E.0176
G1 X82.351 Y117.142 E.02332
G1 X82.939 Y117.282 E.01894
G1 X83.435 Y117.531 E.01741
G1 X83.821 Y117.899 E.01673
;WIDTH:0.450672
G1 X83.957 Y118.13 E.00909
;WIDTH:0.481344
G1 X84.092 Y118.362 E.00978
;WIDTH:0.520867
G1 X84.132 Y118.426 E.00299
G1 X84.182 Y118.943 E.02068
;WIDTH:0.4904
G1 X84.165 Y119.224 E.01044
G1 X84.088 Y119.442 E.00861
;WIDTH:0.4552
G1 X84.011 Y119.66 E.00793
;WIDTH:0.419999
G1 X83.77 Y120.033 E.01392
G1 X83.413 Y120.306 E.0141
;WIDTH:0.439767
G1 X82.983 Y120.455 E.01501
G1 X82.467 Y120.535 E.01723
;WIDTH:0.455783
G1 X82.188 Y120.668 E.01061
;WIDTH:0.496698
G1 X81.373 Y121.029 E.03361
G1 X81.249 Y121.158 E.00679
G1 X81.351 Y121.223 E.00457
G1 X81.716 Y121.266 E.01387
G1 X82.09 Y121.217 E.01425
G1 X82.279 Y121.113 E.00812
;WIDTH:0.495405
G1 X82.421 Y121.003 E.00678
;WIDTH:0.455136
G1 X82.564 Y120.892 E.00618
;WIDTH:0.439233
G1 X83.082 Y120.846 E.01716
G1 X83.673 Y120.872 E.01949
;WIDTH:0.419999
G1 X83.877 Y120.89 E.0064
M204 P1000
G1 E-2.24 F4200
;WIPE_START
G1 F7200
G1 X84.048 Y121.047 E-.12897
G1 X83.872 Y121.755 E-.40433
G1 X83.592 Y122.209 E-.29578
G1 X83.477 Y122.305 E-.08293
;WIPE_END
G1 E-.048 F4200
G1 Z.4 F720
G1 X80.994 Y116.777 F9000
G1 Z.2 F720
G1 E3.2 F2400
M204 P800
;TYPE:Perimeter
;WIDTH:0.400708
G1 F1200
G1 X81.586 Y116.757 E.01764
;WIDTH:0.398402
G1 X82.371 Y116.776 E.0232
;WIDTH:0.4135
G1 X82.474 Y116.784 E.00318
M204 P1000
G1 E-2.24 F4200
;WIPE_START
G1 F7200
G1 X82.371 Y116.776 E-.05714
G1 X81.586 Y116.757 E-.43489
G1 X80.994 Y116.777 E-.32857
;WIPE_END
G1 E-.1394 F4200
G1 Z.4 F720
G1 X82.377 Y123.192 F9000
G1 Z.2 F720
G1 E3.2 F2400
M204 P800
;WIDTH:0.4617
G1 F1200
G1 X81.734 Y123.212 E.02238
;WIDTH:0.46201
G1 X81.06 Y123.192 E.02351
;WIDTH:0.477518
G1 X80.959 Y123.184 E.00367
M204 P1000
G1 E-2.24 F4200
;WIPE_START
G1 F7200
G1 X81.06 Y123.192 E-.05622
G1 X81.734 Y123.212 E-.37384
G1 X82.377 Y123.192 E-.35618
;WIPE_END
G1 E-.17376 F4200
G1 Z.4 F720
G1 X97.237 Y117.684 F9000
G1 Z.2 F720
G1 E3.2 F2400
M204 P800
;WIDTH:0.517344
G1 F1200
G1 X97.084 Y117.411 E.01234
G1 X96.915 Y117.27 E.0087
G1 X96.363 Y116.904 E.0261
;WIDTH:0.506739
G1 X96.116 Y116.819 E.01008
G1 X96.386 Y116.83 E.01041
;WIDTH:0.517344
G1 X97.048 Y116.836 E.0261
G1 X97.4 Y116.814 E.01393
;WIDTH:0.474172
G1 X97.752 Y116.793 E.01266
G1 X97.512 Y116.972 E.01076
;WIDTH:0.517344
G1 X97.271 Y117.152 E.01184
G1 X97.241 Y117.624 E.01869
M204 P1000
G1 E-2.24 F4200
;WIPE_START
G1 F7200
G1 X97.084 Y117.411 E-.14651
G1 X96.915 Y117.27 E-.12227
G1 X96.363 Y116.904 E-.3667
G1 X96.116 Y116.819 E-.14491
G1 X96.353 Y116.829 E-.13161
;WIPE_END
G1 E-.048 F4200
G1 Z.4 F720
G1 X97.676 Y121.557 F9000
G1 Z.2 F720
G1 E3.2 F2400
M204 P800
;TYPE:External perimeter
;WIDTH:0.419999
G1 F1200
G1 X97.647 Y121.259 E.00939
G1 X97.662 Y120.57 E.02158
;WIDTH:0.457098
G1 X97.644 Y120 E.01964
;WIDTH:0.501216
G1 X97.622 Y119.424 E.02197
;WIDTH:0.547417
G1 X97.599 Y119.13 E.01237
;WIDTH:0.593617
G1 X97.576 Y118.836 E.0135
G1 X97.596 Y118.641 E.00899
;WIDTH:0.551759
G1 X97.617 Y118.446 E.00831
;WIDTH:0.509901
G1 X97.638 Y118.25 E.00762
;WIDTH:0.468043
G1 X97.659 Y118.055 E.00694
;WIDTH:0.426185
G1 X97.662 Y117.532 E.01667
;WIDTH:0.419999
G1 X97.673 Y117.293 E.00751
G1 X97.851 Y117.167 E.00684
G1 X99.247 Y117.167 E.04376
G1 X99.435 Y117.355 E.00836
G1 X99.435 Y119.364 E.06299
G1 X99.493 Y119.775 E.013
G1 X99.568 Y120.002 E.00751
G1 X99.691 Y120.117 E.00527
G1 X99.873 Y120.119 E.0057
G1 X99.934 Y120.208 E.00338
G1 X100.347 Y120.021 E.01424
G1 X100.535 Y120.068 E.00607
G1 X100.59 Y120.191 E.00422
G1 X100.586 Y120.869 E.02125
G1 X100.543 Y121.405 E.01686
G1 X100.476 Y121.535 E.00458
G1 X99.912 Y121.653 E.01807
G1 X99.749 Y121.602 E.00533
G1 X99.64 Y121.495 E.00481
G1 X99.381 Y121.4 E.00863
G1 X99.167 Y121.205 E.00908
G1 X99.102 Y121.401 E.00645
G1 X98.551 Y121.568 E.01805
G1 X97.849 Y121.637 E.02213
G1 X97.73 Y121.582 E.00411
M204 P1000
G1 X97.377 Y121.575 F9000
G1 E-2.24 F4200
;WIPE_START
G1 F7200
G1 X97.647 Y121.259 E-.18507
G1 X97.662 Y120.57 E-.38145
G1 X97.644 Y120 E-.3161
G1 X97.642 Y119.947 E-.02939
;WIPE_END
G1 E-.048 F4200
G1 Z.4 F720
G1 X97.752 Y116.793 F9000
G1 Z.2 F720
G1 E3.2 F2400
M204 P800
;TYPE:Perimeter
;WIDTH:0.431
G1 F1200
G1 X97.851 Y116.788 E.00319
;WIDTH:0.42241
G1 X99.247 Y116.788 E.04404
M204 P1000
G1 E-2.24 F4200
;WIPE_START
G1 F7200
G1 X97.851 Y116.788 E-.77345
G1 X97.752 Y116.793 E-.05474
;WIPE_END
G1 E-.13181 F4200
G1 Z.4 F720
G1 X86.768 Y72.304 F9000
G1 Z.2 F720
G1 E3.2 F2400
M204 P800
;WIDTH:0.419999
G1 F1200
G1 X86.787 Y72.221 E.00265
G1 X86.787 Y63.779 E.26472
G1 X86.777 Y63.674 E.00328
G1 X86.674 Y63.439 E.00805
G1 X86.439 Y63.256 E.00933
G1 X86.221 Y63.213 E.00696
G1 X43.787 Y63.213 E1.3305
G1 X43.787 Y56.787 E.20148
M73 P5 R12
G1 X136.213 Y56.787 E2.89794
G1 X136.213 Y63.213 E.20148
M73 P6 R12
G1 X93.779 Y63.213 E1.3305
G1 X93.681 Y63.221 E.00308
G1 X93.467 Y63.306 E.00721
G1 X93.286 Y63.501 E.00835
G1 X93.213 Y63.779 E.00899
G1 X93.213 Y72.221 E.26472
G1 X93.308 Y72.535 E.01028
G1 X93.526 Y72.727 E.0091
G1 X93.779 Y72.787 E.00815
G1 X136.213 Y72.787 E1.3305
G1 X136.213 Y76 E.10074
M73 P7 R12
G1 X136.213 Y79.213 E.10074
G1 X93.779 Y79.213 E1.3305
G1 X93.465 Y79.308 E.01028
G1 X93.273 Y79.526 E.0091
G1 X93.213 Y79.779 E.00815
G1 X93.213 Y116.221 E1.14264
G1 X93.298 Y116.521 E.00975
G1 X93.436 Y116.671 E.0064
G1 X93.742 Y116.786 E.01024
G1 X93.949 Y116.787 E.00649
;WIDTH:0.421914
G1 X94.578 Y116.788 E.01983
G1 X94.472 Y116.818 E.00346
;WIDTH:0.421376
G1 X93.838 Y117.091 E.02173
;WIDTH:0.420095
G1 X93.326 Y117.538 E.0213
G1 X92.976 Y118.112 E.02108
G1 X92.812 Y118.641 E.01737
G1 X92.766 Y119.029 E.01226
G1 X92.07 Y117.144 E.06302
G1 X91.88 Y116.898 E.00975
G1 X91.546 Y116.789 E.01101
G1 X90.096 Y116.789 E.04546
G1 X89.938 Y116.812 E.005
G1 X89.721 Y116.932 E.00779
G1 X89.563 Y117.165 E.00883
G1 X88.966 Y118.844 E.05588
G1 X88.971 Y117.357 E.04663
G1 X88.938 Y117.165 E.0061
G1 X88.781 Y116.932 E.00883
G1 X88.669 Y116.855 E.00426
G1 X88.405 Y116.789 E.00852
G1 X87.355 Y116.789 E.03293
G1 X86.861 Y116.809 E.01552
G1 X86.624 Y116.952 E.00867
G1 X86.554 Y116.886 E.00302
;WIDTH:0.422664
G1 X86.238 Y116.788 E.01044
G1 X86.551 Y116.681 E.01044
;WIDTH:0.419999
G1 X86.752 Y116.419 E.01035
G1 X86.787 Y116.221 E.00628
G1 X86.787 Y79.779 E1.14264
G1 X86.779 Y79.686 E.00293
M73 P8 R12
G1 X86.692 Y79.465 E.00744
G1 X86.474 Y79.273 E.0091
G1 X86.221 Y79.213 E.00815
G1 X43.787 Y79.213 E1.3305
G1 X43.787 Y72.787 E.20148
G1 X86.221 Y72.787 E1.3305
G1 X86.314 Y72.779 E.00293
G1 X86.535 Y72.692 E.00744
G1 X86.727 Y72.474 E.0091
G1 X86.754 Y72.362 E.00362
M204 P1000
G1 X86.41 Y72.221 F9000
M204 P800
;TYPE:External perimeter
G1 F1200
G1 X86.41 Y63.779 E.26472
G1 X86.351 Y63.642 E.00466
G1 X86.221 Y63.59 E.00439
G1 X43.41 Y63.59 E1.34232
G1 X43.41 Y56.41 E.22512
