; generated by PrusaSlicer 2.5.0+win64 on 2023-01-29 at 01:35:36 UTC


;
;

;
;
; 

; external perimeters extrusion width = 0.45mm
; perimeters extrusion width = 0.45mm
; infill extrusion width = 0.45mm
; solid infill extrusion width = 0.45mm
; top infill extrusion width = 0.40mm
; support material extrusion width = 0.35mm
; first layer extrusion width = 0.42mm

M73 P0 R94
M201 X2500 Y2500 Z400 E5000 ; sets maximum accelerations, mm/sec^2
M203 X180 Y180 Z12 E80 ; sets maximum feedrates, mm / sec
M204 P1250 R1250 T2500 ; sets acceleration (P, T) and retract acceleration (R), mm/sec^2
M205 X8.00 Y8.00 Z2.00 E10.00 ; sets the jerk limits, mm/sec
M205 S0 T0 ; sets the minimum extruding and travel feed rate, mm/sec
M107
;TYPE:Custom
M862.3 P "MINI" ; printer model check
G90 ; use absolute coordinates
M83 ; extruder relative mode
M104 S170 ; set extruder temp for bed leveling
M140 S60 ; set bed temp
M109 R170 ; wait for bed leveling temp
M190 S60 ; wait for bed temp
M204 T1250 ; set travel acceleration
G28 ; home all without mesh bed level
G29 ; mesh bed leveling 
M204 T2500 ; restore travel acceleration
M104 S215 ; set extruder temp
G92 E0
G1 Y-2 X179 F2400
G1 Z3 F720
M109 S215 ; wait for extruder temp

; intro line
G1 X170 F1000
G1 Z0.2 F720
G1 X110 E8 F900
G1 X40 E10 F700
G92 E0

M221 S95 ; set flow
G21 ; set units to millimeters
G90 ; use absolute coordinates
M83 ; use relative distances for extrusion
M900 K0.2 ; Filament gcode LA 1.5
; ; Filament gcode LA 1.0
M107
;LAYER_CHANGE
;Z:0.2
;HEIGHT:0.2
;BEFORE_LAYER_CHANGE
G92 E0.0
;0.2


M73 P0 R93
G1 E-3.2 F4200
G1 Z.2 F720
;AFTER_LAYER_CHANGE
;0.2
G1 Z.4
G1 X38.319 Y80.244 F9000
G1 Z.2 F720
G1 E3.2 F2400
M204 P800
;TYPE:Skirt/Brim
;WIDTH:0.42
G1 F1200
G1 X40 Y79.547 E.05704
G1 X140.001 Y79.547 E3.13546
G1 X141.681 Y80.244 E.05704
G1 X142.256 Y80.819 E.0255
G1 X142.953 Y82.5 E.05704
G1 X142.953 Y97.501 E.47035
G1 X142.256 Y99.181 E.05704
G1 X141.681 Y99.756 E.0255
G1 X140.001 Y100.453 E.05704
G1 X40 Y100.453 E3.13546
G1 X38.319 Y99.756 E.05704
G1 X37.744 Y99.181 E.0255
G1 X37.047 Y97.501 E.05704
G1 X37.047 Y82.5 E.47035
G1 X37.744 Y80.819 E.05704
G1 X38.276 Y80.286 E.02362
M204 P1000
; printing object set_box_mini_prototype_with_snap_fit_013.stl id:0 copy 0
G1 E-2.24 F4200
;WIPE_START
G1 F7200
G1 X39.789 Y79.638 E-.912
;WIPE_END
G1 E-.048 F4200
G1 Z.4 F720
G1 X40.687 Y83.187 F9000
G1 Z.2 F720
G1 E3.2 F2400
M204 P800
;TYPE:Perimeter
;WIDTH:0.419999
G1 F1200
G1 X139.313 Y83.187 E3.09237
G1 X139.313 Y96.813 E.42726
G1 X40.687 Y96.813 E3.09237
G1 X40.687 Y83.247 E.42538
M204 P1000
G1 X40.309 Y82.809 F9000
M204 P800
;TYPE:External perimeter
G1 F1200
G1 X139.691 Y82.809 E3.11602
G1 X139.691 Y97.191 E.45091
G1 X40.309 Y97.191 E3.11602
G1 X40.309 Y82.869 E.44902
M204 P1000
G1 X40.709 Y82.829 F9000
G1 E-2.24 F4200
;WIPE_START
G1 F7200
G1 X41.955 Y82.869 E-.912
;WIPE_END
G1 E-.048 F4200
G1 Z.4 F720
G1 X139.2 Y84.065 F9000
G1 Z.2 F720
G1 E3.2 F2400
M204 P800
;TYPE:Solid infill
;WIDTH:0.42143
G1 F1200
G1 X138.605 Y83.469 E.02651
G1 X138.069 Y83.469 E.01685
G1 X139.031 Y84.431 E.04278
G1 X139.031 Y84.966 E.01685
G1 X137.534 Y83.469 E.06661
G1 X136.999 Y83.469 E.01685
G1 X139.031 Y85.501 E.09044
G1 X139.031 Y86.036 E.01685
G1 X136.464 Y83.469 E.11426
G1 X135.928 Y83.469 E.01685
G1 X139.031 Y86.572 E.13809
G1 X139.031 Y87.107 E.01685
G1 X135.393 Y83.469 E.16191
G1 X134.858 Y83.469 E.01685
G1 X139.031 Y87.642 E.18574
G1 X139.031 Y88.178 E.01685
G1 X134.322 Y83.469 E.20957
G1 X133.787 Y83.469 E.01685
G1 X139.031 Y88.713 E.23339
G1 X139.031 Y89.248 E.01685
G1 X133.252 Y83.469 E.25722
G1 X132.716 Y83.469 E.01685
G1 X139.031 Y89.784 E.28104
G1 X139.031 Y90.319 E.01685
G1 X132.181 Y83.469 E.30487
G1 X131.646 Y83.469 E.01685
M73 P1 R93
G1 X139.031 Y90.854 E.32869
G1 X139.031 Y91.389 E.01685
G1 X131.111 Y83.469 E.35252
G1 X130.575 Y83.469 E.01685
G1 X139.031 Y91.925 E.37635
G1 X139.031 Y92.46 E.01685
G1 X130.04 Y83.469 E.40017
G1 X129.505 Y83.469 E.01685
G1 X139.031 Y92.995 E.424
G1 X139.031 Y93.531 E.01685
G1 X128.969 Y83.469 E.44782
G1 X128.434 Y83.469 E.01685
G1 X139.031 Y94.066 E.47165
G1 X139.031 Y94.601 E.01685
G1 X127.899 Y83.469 E.49548
G1 X127.364 Y83.469 E.01685
G1 X139.031 Y95.136 E.5193
G1 X139.031 Y95.672 E.01685
G1 X126.828 Y83.469 E.54313
G1 X126.293 Y83.469 E.01685
G1 X139.031 Y96.207 E.56695
G1 X139.031 Y96.531 E.01018
G1 X138.819 Y96.531 E.00666
G1 X125.758 Y83.469 E.58135
G1 X125.222 Y83.469 E.01685
G1 X138.284 Y96.531 E.58135
G1 X137.748 Y96.531 E.01685
G1 X124.687 Y83.469 E.58135
G1 X124.152 Y83.469 E.01685
G1 X137.213 Y96.531 E.58135
G1 X136.678 Y96.531 E.01685
G1 X123.616 Y83.469 E.58135
G1 X123.081 Y83.469 E.01685
M73 P1 R92
G1 X136.142 Y96.531 E.58135
G1 X135.607 Y96.531 E.01685
G1 X122.546 Y83.469 E.58135
G1 X122.011 Y83.469 E.01685
G1 X135.072 Y96.531 E.58135
G1 X134.537 Y96.531 E.01685
G1 X121.475 Y83.469 E.58135
G1 X120.94 Y83.469 E.01685
G1 X134.001 Y96.531 E.58135
G1 X133.466 Y96.531 E.01685
G1 X120.405 Y83.469 E.58135
G1 X119.869 Y83.469 E.01685
G1 X132.931 Y96.531 E.58135
G1 X132.395 Y96.531 E.01685
G1 X119.334 Y83.469 E.58135
G1 X118.799 Y83.469 E.01685
G1 X131.86 Y96.531 E.58135
G1 X131.325 Y96.531 E.01685
G1 X118.264 Y83.469 E.58135
G1 X117.728 Y83.469 E.01685
G1 X130.789 Y96.531 E.58135
G1 X130.254 Y96.531 E.01685
G1 X117.193 Y83.469 E.58135
G1 X116.658 Y83.469 E.01685
G1 X129.719 Y96.531 E.58135
G1 X129.184 Y96.531 E.01685
G1 X116.122 Y83.469 E.58135
G1 X115.587 Y83.469 E.01685
G1 X128.648 Y96.531 E.58135
G1 X128.113 Y96.531 E.01685
G1 X115.052 Y83.469 E.58135
G1 X114.516 Y83.469 E.01685
G1 X127.578 Y96.531 E.58135
G1 X127.042 Y96.531 E.01685
G1 X113.981 Y83.469 E.58135
G1 X113.446 Y83.469 E.01685
G1 X126.507 Y96.531 E.58135
G1 X125.972 Y96.531 E.01685
G1 X112.911 Y83.469 E.58135
G1 X112.375 Y83.469 E.01685
G1 X125.437 Y96.531 E.58135
G1 X124.901 Y96.531 E.01685
G1 X111.84 Y83.469 E.58135
G1 X111.305 Y83.469 E.01685
G1 X124.366 Y96.531 E.58135
G1 X123.831 Y96.531 E.01685
G1 X110.769 Y83.469 E.58135
G1 X110.234 Y83.469 E.01685
G1 X123.295 Y96.531 E.58135
G1 X122.76 Y96.531 E.01685
G1 X109.699 Y83.469 E.58135
G1 X109.164 Y83.469 E.01685
G1 X122.225 Y96.531 E.58135
G1 X121.689 Y96.531 E.01685
G1 X108.628 Y83.469 E.58135
G1 X108.093 Y83.469 E.01685
G1 X121.154 Y96.531 E.58135
G1 X120.619 Y96.531 E.01685
G1 X107.558 Y83.469 E.58135
G1 X107.022 Y83.469 E.01685
G1 X120.084 Y96.531 E.58135
G1 X119.548 Y96.531 E.01685
G1 X106.487 Y83.469 E.58135
G1 X105.952 Y83.469 E.01685
G1 X119.013 Y96.531 E.58135
G1 X118.478 Y96.531 E.01685
G1 X105.416 Y83.469 E.58135
G1 X104.881 Y83.469 E.01685
G1 X117.942 Y96.531 E.58135
G1 X117.407 Y96.531 E.01685
G1 X104.346 Y83.469 E.58135
G1 X103.811 Y83.469 E.01685
G1 X116.872 Y96.531 E.58135
G1 X116.337 Y96.531 E.01685
G1 X103.275 Y83.469 E.58135
G1 X102.74 Y83.469 E.01685
G1 X115.801 Y96.531 E.58135
G1 X115.266 Y96.531 E.01685
G1 X102.205 Y83.469 E.58135
G1 X101.669 Y83.469 E.01685
G1 X114.731 Y96.531 E.58135
G1 X114.195 Y96.531 E.01685
G1 X101.134 Y83.469 E.58135
G1 X100.599 Y83.469 E.01685
G1 X113.66 Y96.531 E.58135
G1 X113.125 Y96.531 E.01685
G1 X100.064 Y83.469 E.58135
G1 X99.528 Y83.469 E.01685
G1 X112.589 Y96.531 E.58135
G1 X112.054 Y96.531 E.01685
M73 P2 R92
G1 X98.993 Y83.469 E.58135
G1 X98.458 Y83.469 E.01685
G1 X111.519 Y96.531 E.58135
G1 X110.984 Y96.531 E.01685
G1 X97.922 Y83.469 E.58135
G1 X97.387 Y83.469 E.01685
G1 X110.448 Y96.531 E.58135
G1 X109.913 Y96.531 E.01685
G1 X96.852 Y83.469 E.58135
G1 X96.316 Y83.469 E.01685
G1 X109.378 Y96.531 E.58135
G1 X108.842 Y96.531 E.01685
G1 X95.781 Y83.469 E.58135
G1 X95.246 Y83.469 E.01685
G1 X108.307 Y96.531 E.58135
G1 X107.772 Y96.531 E.01685
G1 X94.711 Y83.469 E.58135
G1 X94.175 Y83.469 E.01685
G1 X107.237 Y96.531 E.58135
G1 X106.701 Y96.531 E.01685
G1 X93.64 Y83.469 E.58135
G1 X93.105 Y83.469 E.01685
G1 X106.166 Y96.531 E.58135
G1 X105.631 Y96.531 E.01685
G1 X92.569 Y83.469 E.58135
G1 X92.034 Y83.469 E.01685
G1 X105.095 Y96.531 E.58135
G1 X104.56 Y96.531 E.01685
G1 X91.499 Y83.469 E.58135
G1 X90.964 Y83.469 E.01685
G1 X104.025 Y96.531 E.58135
G1 X103.489 Y96.531 E.01685
G1 X90.428 Y83.469 E.58135
G1 X89.893 Y83.469 E.01685
M73 P2 R91
G1 X102.954 Y96.531 E.58135
G1 X102.419 Y96.531 E.01685
G1 X89.358 Y83.469 E.58135
G1 X88.822 Y83.469 E.01685
G1 X101.884 Y96.531 E.58135
G1 X101.348 Y96.531 E.01685
G1 X88.287 Y83.469 E.58135
G1 X87.752 Y83.469 E.01685
G1 X100.813 Y96.531 E.58135
G1 X100.278 Y96.531 E.01685
G1 X87.216 Y83.469 E.58135
G1 X86.681 Y83.469 E.01685
G1 X99.742 Y96.531 E.58135
G1 X99.207 Y96.531 E.01685
G1 X86.146 Y83.469 E.58135
G1 X85.611 Y83.469 E.01685
G1 X98.672 Y96.531 E.58135
G1 X98.137 Y96.531 E.01685
G1 X85.075 Y83.469 E.58135
G1 X84.54 Y83.469 E.01685
G1 X97.601 Y96.531 E.58135
G1 X97.066 Y96.531 E.01685
G1 X84.005 Y83.469 E.58135
G1 X83.469 Y83.469 E.01685
G1 X96.531 Y96.531 E.58135
G1 X95.995 Y96.531 E.01685
G1 X82.934 Y83.469 E.58135
G1 X82.399 Y83.469 E.01685
G1 X95.46 Y96.531 E.58135
G1 X94.925 Y96.531 E.01685
G1 X81.864 Y83.469 E.58135
G1 X81.328 Y83.469 E.01685
G1 X94.389 Y96.531 E.58135
G1 X93.854 Y96.531 E.01685
G1 X80.793 Y83.469 E.58135
G1 X80.258 Y83.469 E.01685
G1 X93.319 Y96.531 E.58135
G1 X92.784 Y96.531 E.01685
G1 X79.722 Y83.469 E.58135
G1 X79.187 Y83.469 E.01685
G1 X92.248 Y96.531 E.58135
G1 X91.713 Y96.531 E.01685
G1 X78.652 Y83.469 E.58135
G1 X78.116 Y83.469 E.01685
G1 X91.178 Y96.531 E.58135
G1 X90.642 Y96.531 E.01685
G1 X77.581 Y83.469 E.58135
G1 X77.046 Y83.469 E.01685
G1 X90.107 Y96.531 E.58135
G1 X89.572 Y96.531 E.01685
G1 X76.511 Y83.469 E.58135
G1 X75.975 Y83.469 E.01685
G1 X89.037 Y96.531 E.58135
G1 X88.501 Y96.531 E.01685
G1 X75.44 Y83.469 E.58135
G1 X74.905 Y83.469 E.01685
G1 X87.966 Y96.531 E.58135
G1 X87.431 Y96.531 E.01685
G1 X74.369 Y83.469 E.58135
G1 X73.834 Y83.469 E.01685
G1 X86.895 Y96.531 E.58135
G1 X86.36 Y96.531 E.01685
G1 X73.299 Y83.469 E.58135
G1 X72.764 Y83.469 E.01685
G1 X85.825 Y96.531 E.58135
G1 X85.289 Y96.531 E.01685
G1 X72.228 Y83.469 E.58135
G1 X71.693 Y83.469 E.01685
G1 X84.754 Y96.531 E.58135
G1 X84.219 Y96.531 E.01685
G1 X71.158 Y83.469 E.58135
G1 X70.622 Y83.469 E.01685
G1 X83.684 Y96.531 E.58135
G1 X83.148 Y96.531 E.01685
G1 X70.087 Y83.469 E.58135
G1 X69.552 Y83.469 E.01685
G1 X82.613 Y96.531 E.58135
G1 X82.078 Y96.531 E.01685
G1 X69.016 Y83.469 E.58135
G1 X68.481 Y83.469 E.01685
G1 X81.542 Y96.531 E.58135
G1 X81.007 Y96.531 E.01685
G1 X67.946 Y83.469 E.58135
G1 X67.411 Y83.469 E.01685
M73 P3 R91
G1 X80.472 Y96.531 E.58135
G1 X79.937 Y96.531 E.01685
G1 X66.875 Y83.469 E.58135
G1 X66.34 Y83.469 E.01685
G1 X79.401 Y96.531 E.58135
G1 X78.866 Y96.531 E.01685
G1 X65.805 Y83.469 E.58135
G1 X65.269 Y83.469 E.01685
G1 X78.331 Y96.531 E.58135
G1 X77.795 Y96.531 E.01685
G1 X64.734 Y83.469 E.58135
G1 X64.199 Y83.469 E.01685
G1 X77.26 Y96.531 E.58135
G1 X76.725 Y96.531 E.01685
G1 X63.664 Y83.469 E.58135
G1 X63.128 Y83.469 E.01685
G1 X76.189 Y96.531 E.58135
G1 X75.654 Y96.531 E.01685
G1 X62.593 Y83.469 E.58135
G1 X62.058 Y83.469 E.01685
G1 X75.119 Y96.531 E.58135
G1 X74.584 Y96.531 E.01685
G1 X61.522 Y83.469 E.58135
G1 X60.987 Y83.469 E.01685
G1 X74.048 Y96.531 E.58135
G1 X73.513 Y96.531 E.01685
G1 X60.452 Y83.469 E.58135
G1 X59.916 Y83.469 E.01685
G1 X72.978 Y96.531 E.58135
G1 X72.442 Y96.531 E.01685
G1 X59.381 Y83.469 E.58135
G1 X58.846 Y83.469 E.01685
G1 X71.907 Y96.531 E.58135
G1 X71.372 Y96.531 E.01685
G1 X58.311 Y83.469 E.58135
G1 X57.775 Y83.469 E.01685
G1 X70.837 Y96.531 E.58135
G1 X70.301 Y96.531 E.01685
G1 X57.24 Y83.469 E.58135
G1 X56.705 Y83.469 E.01685
M73 P3 R90
G1 X69.766 Y96.531 E.58135
G1 X69.231 Y96.531 E.01685
G1 X56.169 Y83.469 E.58135
G1 X55.634 Y83.469 E.01685
G1 X68.695 Y96.531 E.58135
G1 X68.16 Y96.531 E.01685
G1 X55.099 Y83.469 E.58135
G1 X54.564 Y83.469 E.01685
G1 X67.625 Y96.531 E.58135
G1 X67.089 Y96.531 E.01685
G1 X54.028 Y83.469 E.58135
G1 X53.493 Y83.469 E.01685
G1 X66.554 Y96.531 E.58135
G1 X66.019 Y96.531 E.01685
G1 X52.958 Y83.469 E.58135
G1 X52.422 Y83.469 E.01685
G1 X65.484 Y96.531 E.58135
G1 X64.948 Y96.531 E.01685
G1 X51.887 Y83.469 E.58135
G1 X51.352 Y83.469 E.01685
G1 X64.413 Y96.531 E.58135
G1 X63.878 Y96.531 E.01685
G1 X50.816 Y83.469 E.58135
G1 X50.281 Y83.469 E.01685
G1 X63.342 Y96.531 E.58135
G1 X62.807 Y96.531 E.01685
G1 X49.746 Y83.469 E.58135
G1 X49.211 Y83.469 E.01685
G1 X62.272 Y96.531 E.58135
G1 X61.737 Y96.531 E.01685
G1 X48.675 Y83.469 E.58135
G1 X48.14 Y83.469 E.01685
G1 X61.201 Y96.531 E.58135
G1 X60.666 Y96.531 E.01685
G1 X47.605 Y83.469 E.58135
G1 X47.069 Y83.469 E.01685
G1 X60.131 Y96.531 E.58135
G1 X59.595 Y96.531 E.01685
G1 X46.534 Y83.469 E.58135
G1 X45.999 Y83.469 E.01685
G1 X59.06 Y96.531 E.58135
G1 X58.525 Y96.531 E.01685
G1 X45.464 Y83.469 E.58135
G1 X44.928 Y83.469 E.01685
G1 X57.989 Y96.531 E.58135
G1 X57.454 Y96.531 E.01685
G1 X44.393 Y83.469 E.58135
G1 X43.858 Y83.469 E.01685
G1 X56.919 Y96.531 E.58135
G1 X56.384 Y96.531 E.01685
G1 X43.322 Y83.469 E.58135
G1 X42.787 Y83.469 E.01685
G1 X55.848 Y96.531 E.58135
G1 X55.313 Y96.531 E.01685
G1 X42.252 Y83.469 E.58135
G1 X41.716 Y83.469 E.01685
G1 X54.778 Y96.531 E.58135
G1 X54.242 Y96.531 E.01685
G1 X41.181 Y83.469 E.58135
G1 X40.969 Y83.469 E.00667
G1 X40.969 Y83.793 E.01018
G1 X53.707 Y96.531 E.56696
G1 X53.172 Y96.531 E.01685
G1 X40.969 Y84.328 E.54313
G1 X40.969 Y84.863 E.01685
G1 X52.637 Y96.531 E.5193
G1 X52.101 Y96.531 E.01685
G1 X40.969 Y85.399 E.49548
G1 X40.969 Y85.934 E.01685
G1 X51.566 Y96.531 E.47165
G1 X51.031 Y96.531 E.01685
G1 X40.969 Y86.469 E.44783
G1 X40.969 Y87.005 E.01685
G1 X50.495 Y96.531 E.424
G1 X49.96 Y96.531 E.01685
G1 X40.969 Y87.54 E.40018
G1 X40.969 Y88.075 E.01685
G1 X49.425 Y96.531 E.37635
G1 X48.889 Y96.531 E.01685
G1 X40.969 Y88.611 E.35252
G1 X40.969 Y89.146 E.01685
M73 P4 R90
G1 X48.354 Y96.531 E.3287
G1 X47.819 Y96.531 E.01685
G1 X40.969 Y89.681 E.30487
G1 X40.969 Y90.216 E.01685
G1 X47.284 Y96.531 E.28105
G1 X46.748 Y96.531 E.01685
G1 X40.969 Y90.752 E.25722
G1 X40.969 Y91.287 E.01685
G1 X46.213 Y96.531 E.23339
G1 X45.678 Y96.531 E.01685
G1 X40.969 Y91.822 E.20957
G1 X40.969 Y92.358 E.01685
G1 X45.142 Y96.531 E.18574
G1 X44.607 Y96.531 E.01685
G1 X40.969 Y92.893 E.16192
G1 X40.969 Y93.428 E.01685
G1 X44.072 Y96.531 E.13809
G1 X43.537 Y96.531 E.01685
G1 X40.969 Y93.963 E.11426
G1 X40.969 Y94.499 E.01685
G1 X43.001 Y96.531 E.09044
G1 X42.466 Y96.531 E.01685
G1 X40.969 Y95.034 E.06661
G1 X40.969 Y95.569 E.01685
G1 X41.931 Y96.531 E.04279
G1 X41.395 Y96.531 E.01685
G1 X40.8 Y95.935 E.02651
M204 P1000
; stop printing object set_box_mini_prototype_with_snap_fit_013.stl id:0 copy 0
M106 S84.15
;LAYER_CHANGE
;Z:0.45
;HEIGHT:0.25
;BEFORE_LAYER_CHANGE
G92 E0.0
;0.45


G1 E-2.24 F4200
;WIPE_START
G1 F7200
G1 X41.395 Y96.531 E-.46685
G1 X41.931 Y96.531 E-.29664
G1 X41.741 Y96.341 E-.14851
;WIPE_END
G1 E-.048 F4200
G1 Z.4 F720
G1 Z.45
;AFTER_LAYER_CHANGE
;0.45
G1 Z.65
G1 X41.741 Y100.453 F9000
G1 Z.45 F720
G1 E3.2 F2400
;TYPE:Skirt/Brim
;WIDTH:0.42
G1 X40 Y100.453 E.06632
G1 X38.319 Y99.756 E.06928
G1 X37.744 Y99.181 E.03096
G1 X37.047 Y97.501 E.06928
G1 X37.047 Y82.5 E.5712
G1 X37.744 Y80.819 E.06928
G1 X38.319 Y80.244 E.03096
G1 X40 Y79.547 E.06928
G1 X140.001 Y79.547 E3.8078
G1 X141.681 Y80.244 E.06928
G1 X142.256 Y80.819 E.03096
G1 X142.953 Y82.5 E.06928
G1 X142.953 Y97.501 E.5712
G1 X142.256 Y99.181 E.06928
G1 X141.681 Y99.756 E.03096
G1 X140.001 Y100.453 E.06928
G1 X41.801 Y100.453 E3.7392
; printing object set_box_mini_prototype_with_snap_fit_013.stl id:0 copy 0
G1 E-2.24 F4200
;WIPE_START
G1 F7200
G1 X40.155 Y100.453 E-.912
;WIPE_END
G1 E-.048 F4200
G1 Z.65 F720
G1 X40.296 Y82.796 F9000
G1 Z.45 F720
G1 E3.2 F2400
M204 P800
;TYPE:Perimeter
;WIDTH:0.449999
G1 F3300
G1 X139.704 Y82.796 E4.09519
G1 X139.704 Y97.204 E.59356
G1 X40.296 Y97.204 E4.09519
G1 X40.296 Y82.856 E.59109
M204 P1000
G1 X40.093 Y82.399 F9000
M204 P800
;TYPE:External perimeter
G1 F2400
G1 X139.907 Y82.399 E4.11193
G1 X140.101 Y82.593 E.01126
G1 X140.101 Y97.407 E.6103
G1 X139.907 Y97.601 E.01126
G1 X40.093 Y97.601 E4.11193
G1 X39.899 Y97.407 E.01126
G1 X39.899 Y82.593 E.6103
