; generated by PrusaSlicer 2.5.0+win64 on 2023-01-15 at 02:08:26 UTC


;
;

;
;
; 

; external perimeters extrusion width = 0.45mm
; perimeters extrusion width = 0.45mm
; infill extrusion width = 0.45mm
; solid infill extrusion width = 0.45mm
; top infill extrusion width = 0.40mm
; first layer extrusion width = 0.42mm

M73 P0 R14
M201 X2500 Y2500 Z400 E5000 ; sets maximum accelerations, mm/sec^2
M203 X180 Y180 Z12 E80 ; sets maximum feedrates, mm / sec
M204 P1250 R1250 T2500 ; sets acceleration (P, T) and retract acceleration (R), mm/sec^2
M205 X8.00 Y8.00 Z2.00 E10.00 ; sets the jerk limits, mm/sec
M205 S0 T0 ; sets the minimum extruding and travel feed rate, mm/sec
M107
;TYPE:Custom
M862.3 P "MINI" ; printer model check
G90 ; use absolute coordinates
M83 ; extruder relative mode
M104 S170 ; set extruder temp for bed leveling
M140 S60 ; set bed temp
M109 R170 ; wait for bed leveling temp
M190 S60 ; wait for bed temp
M204 T1250 ; set travel acceleration
G28 ; home all without mesh bed level
G29 ; mesh bed leveling 
M204 T2500 ; restore travel acceleration
M104 S215 ; set extruder temp
G92 E0
G1 Y-2 X179 F2400
G1 Z3 F720
M109 S215 ; wait for extruder temp

; intro line
M73 P0 R13
G1 X170 F1000
G1 Z0.2 F720
G1 X110 E8 F900
G1 X40 E10 F700
G92 E0

M221 S95 ; set flow
G21 ; set units to millimeters
G90 ; use absolute coordinates
M83 ; use relative distances for extrusion
M900 K0.2 ; Filament gcode LA 1.5
; ; Filament gcode LA 1.0
M107
;LAYER_CHANGE
;Z:0.2
;HEIGHT:0.2
;BEFORE_LAYER_CHANGE
G92 E0.0
;0.2


M73 P1 R13
G1 E-3.2 F4200
G1 Z.2 F720
;AFTER_LAYER_CHANGE
;0.2
G1 Z.4
G1 X76.44 Y127.027 F9000
G1 Z.2 F720
G1 E3.2 F2400
M204 P800
;TYPE:Skirt/Brim
;WIDTH:0.42
G1 F1200
G1 X77.735 Y126.704 E.04186
G1 X100.735 Y126.704 E.72115
G1 X102.152 Y127.096 E.04612
M73 P2 R13
G1 X103.166 Y128.163 E.04612
G1 X103.489 Y129.458 E.04186
G1 X103.489 Y142.458 E.40761
G1 X103.096 Y143.875 E.04612
G1 X102.03 Y144.888 E.04612
G1 X100.735 Y145.212 E.04186
G1 X77.735 Y145.212 E.72115
G1 X76.318 Y144.819 E.04612
G1 X75.304 Y143.753 E.04612
G1 X74.981 Y142.458 E.04186
G1 X74.981 Y129.458 E.40761
G1 X75.374 Y128.04 E.04612
G1 X76.396 Y127.069 E.04424
M204 P1000
G1 X76.662 Y127.386 F9000
M204 P800
G1 F1200
G1 X76.795 Y127.274 E.00544
G1 X77.735 Y127.081 E.03008
G1 X100.735 Y127.081 E.72115
G1 X102.042 Y127.472 E.04278
G1 X102.918 Y128.518 E.04278
G1 X103.112 Y129.458 E.03008
G1 X103.112 Y142.458 E.40761
G1 X102.721 Y143.765 E.04278
G1 X101.675 Y144.641 E.04278
G1 X100.735 Y144.835 E.03008
G1 X77.735 Y144.835 E.72115
G1 X76.428 Y144.443 E.04278
G1 X75.552 Y143.398 E.04278
G1 X75.358 Y142.458 E.03008
G1 X75.358 Y129.458 E.40761
G1 X75.75 Y128.151 E.04278
M73 P3 R13
G1 X76.616 Y127.424 E.03546
M204 P1000
; printing object set_box_mini_prototype_with_snap_fit_002.stl_2 id:0 copy 0
G1 E-2.24 F4200
;WIPE_START
G1 F7200
G1 X76.795 Y127.274 E-.12943
G1 X77.735 Y127.081 E-.53172
G1 X78.188 Y127.081 E-.25085
;WIPE_END
G1 E-.048 F4200
G1 Z.4 F720
G1 X78.522 Y130.245 F9000
G1 Z.2 F720
G1 E3.2 F2400
M204 P800
;TYPE:Perimeter
;WIDTH:0.419999
G1 F1200
G1 X99.948 Y130.245 E.67179
G1 X99.948 Y141.671 E.35825
G1 X78.522 Y141.671 E.67179
G1 X78.522 Y130.305 E.35637
M204 P1000
G1 X78.145 Y129.868 F9000
M204 P800
;TYPE:External perimeter
G1 F1200
G1 X100.325 Y129.868 E.69544
G1 X100.325 Y142.048 E.38189
G1 X78.145 Y142.048 E.69544
G1 X78.145 Y129.928 E.38001
M204 P1000
G1 X78.539 Y129.934 F9000
G1 E-2.24 F4200
;WIPE_START
G1 F7200
G1 X79.791 Y129.923 E-.912
;WIPE_END
G1 E-.048 F4200
G1 Z.4 F720
G1 X99.061 Y130.358 F9000
G1 Z.2 F720
G1 E3.2 F2400
M204 P800
;TYPE:Solid infill
;WIDTH:0.425637
G1 F1200
G1 X99.665 Y130.963 E.02721
G1 X99.665 Y131.504 E.01722
G1 X98.689 Y130.528 E.04393
G1 X98.148 Y130.528 E.01722
G1 X99.665 Y132.045 E.06829
G1 X99.665 Y132.586 E.01722
G1 X97.607 Y130.528 E.09265
G1 X97.065 Y130.528 E.01722
G1 X99.665 Y133.127 E.117
M73 P4 R13
G1 X99.665 Y133.669 E.01722
G1 X96.524 Y130.528 E.14136
G1 X95.983 Y130.528 E.01722
G1 X99.665 Y134.21 E.16572
G1 X99.665 Y134.751 E.01722
G1 X95.442 Y130.528 E.19008
G1 X94.9 Y130.528 E.01722
G1 X99.665 Y135.292 E.21444
G1 X99.665 Y135.834 E.01722
G1 X94.359 Y130.528 E.2388
G1 X93.818 Y130.528 E.01722
G1 X99.665 Y136.375 E.26316
G1 X99.665 Y136.916 E.01722
G1 X93.277 Y130.528 E.28751
G1 X92.735 Y130.528 E.01722
G1 X99.665 Y137.457 E.31187
G1 X99.665 Y137.999 E.01722
G1 X92.194 Y130.528 E.33623
G1 X91.653 Y130.528 E.01722
G1 X99.665 Y138.54 E.36059
G1 X99.665 Y139.081 E.01722
G1 X91.112 Y130.528 E.38495
G1 X90.57 Y130.528 E.01722
G1 X99.665 Y139.622 E.40931
G1 X99.665 Y140.164 E.01722
G1 X90.029 Y130.528 E.43366
G1 X89.488 Y130.528 E.01722
G1 X99.665 Y140.705 E.45802
G1 X99.665 Y141.246 E.01722
G1 X88.947 Y130.528 E.48238
G1 X88.405 Y130.528 E.01722
G1 X99.266 Y141.388 E.48876
G1 X98.724 Y141.388 E.01722
M73 P5 R13
G1 X87.864 Y130.528 E.48876
G1 X87.323 Y130.528 E.01722
G1 X98.183 Y141.388 E.48876
G1 X97.642 Y141.388 E.01722
G1 X86.782 Y130.528 E.48876
G1 X86.24 Y130.528 E.01722
G1 X97.101 Y141.388 E.48876
G1 X96.559 Y141.388 E.01722
G1 X85.699 Y130.528 E.48876
G1 X85.158 Y130.528 E.01722
G1 X96.018 Y141.388 E.48876
G1 X95.477 Y141.388 E.01722
G1 X84.617 Y130.528 E.48876
G1 X84.075 Y130.528 E.01722
G1 X94.936 Y141.388 E.48876
G1 X94.394 Y141.388 E.01722
G1 X83.534 Y130.528 E.48876
G1 X82.993 Y130.528 E.01722
G1 X93.853 Y141.388 E.48876
G1 X93.312 Y141.388 E.01722
M73 P6 R13
G1 X82.452 Y130.528 E.48876
G1 X81.911 Y130.528 E.01722
G1 X92.771 Y141.388 E.48876
G1 X92.23 Y141.388 E.01722
G1 X81.369 Y130.528 E.48876
G1 X80.828 Y130.528 E.01722
G1 X91.688 Y141.388 E.48876
G1 X91.147 Y141.388 E.01722
G1 X80.287 Y130.528 E.48876
G1 X79.746 Y130.528 E.01722
G1 X90.606 Y141.388 E.48876
G1 X90.065 Y141.388 E.01722
G1 X79.204 Y130.528 E.48876
G1 X78.805 Y130.528 E.01271
G1 X78.805 Y130.67 E.00451
G1 X89.523 Y141.388 E.48238
G1 X88.982 Y141.388 E.01722
G1 X78.805 Y131.211 E.45802
G1 X78.805 Y131.752 E.01722
G1 X88.441 Y141.388 E.43366
G1 X87.9 Y141.388 E.01722
G1 X78.805 Y132.293 E.4093
G1 X78.805 Y132.834 E.01722
M73 P7 R13
G1 X87.358 Y141.388 E.38494
G1 X86.817 Y141.388 E.01722
G1 X78.805 Y133.376 E.36058
G1 X78.805 Y133.917 E.01722
G1 X86.276 Y141.388 E.33623
G1 X85.735 Y141.388 E.01722
G1 X78.805 Y134.458 E.31187
G1 X78.805 Y134.999 E.01722
G1 X85.193 Y141.388 E.28751
G1 X84.652 Y141.388 E.01722
G1 X78.805 Y135.541 E.26315
G1 X78.805 Y136.082 E.01722
G1 X84.111 Y141.388 E.23879
G1 X83.57 Y141.388 E.01722
G1 X78.805 Y136.623 E.21443
G1 X78.805 Y137.164 E.01722
G1 X83.028 Y141.388 E.19008
G1 X82.487 Y141.388 E.01722
M73 P7 R12
G1 X78.805 Y137.706 E.16572
G1 X78.805 Y138.247 E.01722
G1 X81.946 Y141.388 E.14136
G1 X81.405 Y141.388 E.01722
G1 X78.805 Y138.788 E.117
G1 X78.805 Y139.329 E.01722
G1 X80.863 Y141.388 E.09264
G1 X80.322 Y141.388 E.01722
G1 X78.805 Y139.871 E.06828
G1 X78.805 Y140.412 E.01722
G1 X79.781 Y141.388 E.04392
G1 X79.24 Y141.388 E.01722
G1 X78.635 Y140.783 E.0272
M204 P1000
; stop printing object set_box_mini_prototype_with_snap_fit_002.stl_2 id:0 copy 0
M106 S84.15
;LAYER_CHANGE
;Z:0.35
;HEIGHT:0.15
;BEFORE_LAYER_CHANGE
G92 E0.0
;0.35


G1 E-2.24 F4200
;WIPE_START
G1 F7200
G1 X79.24 Y141.388 E-.47371
G1 X79.781 Y141.388 E-.29994
G1 X79.604 Y141.211 E-.13835
;WIPE_END
G1 E-.048 F4200
G1 Z.4 F720
;AFTER_LAYER_CHANGE
;0.35
G1 X79.604 Y145.212 F9000
G1 Z.35 F720
G1 E3.2 F2400
;TYPE:Skirt/Brim
;WIDTH:0.42
G1 X77.735 Y145.212 E.04521
G1 X76.318 Y144.819 E.03557
G1 X75.304 Y143.753 E.03557
G1 X74.981 Y142.458 E.03229
G1 X74.981 Y129.458 E.3144
G1 X75.374 Y128.04 E.03557
G1 X76.44 Y127.027 E.03557
G1 X77.735 Y126.704 E.03229
G1 X100.735 Y126.704 E.55625
G1 X102.152 Y127.096 E.03557
G1 X103.166 Y128.163 E.03557
G1 X103.489 Y129.458 E.03229
G1 X103.489 Y142.458 E.3144
G1 X103.096 Y143.875 E.03557
G1 X102.03 Y144.888 E.03557
G1 X100.735 Y145.212 E.03229
G1 X79.664 Y145.212 E.50959
G1 X79.664 Y144.835 F9000
M73 P8 R12
G1 F2400
G1 X77.735 Y144.835 E.04666
G1 X76.428 Y144.443 E.033
G1 X75.552 Y143.398 E.033
G1 X75.358 Y142.458 E.02321
G1 X75.358 Y129.458 E.3144
G1 X75.75 Y128.151 E.033
G1 X76.795 Y127.274 E.033
G1 X77.735 Y127.081 E.02321
G1 X100.735 Y127.081 E.55625
G1 X102.042 Y127.472 E.033
G1 X102.918 Y128.518 E.033
G1 X103.112 Y129.458 E.02321
G1 X103.112 Y142.458 E.3144
G1 X102.721 Y143.765 E.033
G1 X101.675 Y144.641 E.033
G1 X100.735 Y144.835 E.02321
G1 X79.724 Y144.835 E.50814
; printing object set_box_mini_prototype_with_snap_fit_002.stl_2 id:0 copy 0
G1 E-2.24 F4200
;WIPE_START
G1 F7200
G1 X78.079 Y144.835 E-.912
;WIPE_END
G1 E-.048 F4200
G1 Z.55 F720
G1 X78.378 Y130.101 F9000
G1 Z.35 F720
G1 E3.2 F2400
M204 P800
;TYPE:Perimeter
;WIDTH:0.449999
G1 X100.092 Y130.101 E.56578
G1 X100.092 Y141.815 E.30523
G1 X78.378 Y141.815 E.56578
G1 X78.378 Y130.161 E.30366
M204 P1000
G1 X77.96 Y129.683 F9000
M204 P800
;TYPE:External perimeter
G1 F1800
G1 X100.51 Y129.683 E.58756
G1 X100.51 Y142.233 E.327
G1 X77.96 Y142.233 E.58756
G1 X77.96 Y129.743 E.32544
M204 P1000
G1 X78.354 Y129.75 F9000
G1 E-2.24 F4200
;WIPE_START
G1 F7200
G1 X79.606 Y129.738 E-.912
;WIPE_END
G1 E-.048 F4200
G1 Z.55 F720
G1 X99.108 Y141.69 F9000
G1 Z.35 F720
G1 E3.2 F2400
;TYPE:Solid infill
;WIDTH:0.456595
G1 F4800
G1 X99.779 Y141.019 E.0251
G1 X99.779 Y140.419 E.01589
G1 X98.696 Y141.502 E.04053
G1 X98.096 Y141.502 E.01589
G1 X99.779 Y139.819 E.06299
G1 X99.779 Y139.218 E.01589
G1 X97.496 Y141.502 E.08546
G1 X96.896 Y141.502 E.01589
G1 X99.779 Y138.618 E.10792
M73 P9 R12
G1 X99.779 Y138.018 E.01589
G1 X96.295 Y141.502 E.13039
G1 X95.695 Y141.502 E.01589
G1 X99.779 Y137.418 E.15286
G1 X99.779 Y136.818 E.01589
G1 X95.095 Y141.502 E.17532
G1 X94.495 Y141.502 E.01589
G1 X99.779 Y136.217 E.19779
G1 X99.779 Y135.617 E.01589
G1 X93.895 Y141.502 E.22025
G1 X93.294 Y141.502 E.01589
G1 X99.779 Y135.017 E.24272
G1 X99.779 Y134.417 E.01589
G1 X92.694 Y141.502 E.26518
G1 X92.094 Y141.502 E.01589
G1 X99.779 Y133.817 E.28765
G1 X99.779 Y133.216 E.01589
G1 X91.494 Y141.502 E.31011
G1 X90.894 Y141.502 E.01589
G1 X99.779 Y132.616 E.33258
G1 X99.779 Y132.016 E.01589
G1 X90.293 Y141.502 E.35504
G1 X89.693 Y141.502 E.01589
G1 X99.779 Y131.416 E.37751
G1 X99.779 Y130.816 E.01589
G1 X89.093 Y141.502 E.39998
G1 X88.493 Y141.502 E.01589
G1 X99.58 Y130.414 E.41501
G1 X98.98 Y130.414 E.01589
G1 X87.893 Y141.502 E.41501
G1 X87.292 Y141.502 E.01589
G1 X98.38 Y130.414 E.41501
G1 X97.78 Y130.414 E.01589
G1 X86.692 Y141.502 E.41501
G1 X86.092 Y141.502 E.01589
G1 X97.18 Y130.414 E.41501
G1 X96.579 Y130.414 E.01589
G1 X85.492 Y141.502 E.41501
G1 X84.892 Y141.502 E.01589
G1 X95.979 Y130.414 E.41501
G1 X95.379 Y130.414 E.01589
G1 X84.291 Y141.502 E.41501
G1 X83.691 Y141.502 E.01589
G1 X94.779 Y130.414 E.41501
G1 X94.179 Y130.414 E.01589
G1 X83.091 Y141.502 E.41501
G1 X82.491 Y141.502 E.01589
G1 X93.578 Y130.414 E.41501
G1 X92.978 Y130.414 E.01589
G1 X81.891 Y141.502 E.41501
G1 X81.29 Y141.502 E.01589
G1 X92.378 Y130.414 E.41501
G1 X91.778 Y130.414 E.01589
G1 X80.69 Y141.502 E.41501
G1 X80.09 Y141.502 E.01589
G1 X91.178 Y130.414 E.41501
G1 X90.577 Y130.414 E.01589
G1 X79.49 Y141.502 E.41501
G1 X78.89 Y141.502 E.01589
G1 X89.977 Y130.414 E.41501
G1 X89.377 Y130.414 E.01589
G1 X78.691 Y141.1 E.39997
G1 X78.691 Y140.5 E.01589
G1 X88.777 Y130.414 E.37751
G1 X88.177 Y130.414 E.01589
M73 P10 R12
G1 X78.691 Y139.899 E.35504
G1 X78.691 Y139.299 E.01589
G1 X87.576 Y130.414 E.33257
G1 X86.976 Y130.414 E.01589
G1 X78.691 Y138.699 E.31011
G1 X78.691 Y138.099 E.01589
G1 X86.376 Y130.414 E.28764
G1 X85.776 Y130.414 E.01589
G1 X78.691 Y137.499 E.26518
G1 X78.691 Y136.898 E.01589
G1 X85.176 Y130.414 E.24271
G1 X84.575 Y130.414 E.01589
G1 X78.691 Y136.298 E.22025
G1 X78.691 Y135.698 E.01589
G1 X83.975 Y130.414 E.19778
G1 X83.375 Y130.414 E.01589
G1 X78.691 Y135.098 E.17532
G1 X78.691 Y134.498 E.01589
G1 X82.775 Y130.414 E.15285
G1 X82.175 Y130.414 E.01589
G1 X78.691 Y133.897 E.13038
G1 X78.691 Y133.297 E.01589
G1 X81.574 Y130.414 E.10792
G1 X80.974 Y130.414 E.01589
G1 X78.691 Y132.697 E.08545
G1 X78.691 Y132.097 E.01589
G1 X80.374 Y130.414 E.06299
G1 X79.774 Y130.414 E.01589
G1 X78.691 Y131.497 E.04052
G1 X78.691 Y130.896 E.01589
G1 X79.362 Y130.226 E.02509
; stop printing object set_box_mini_prototype_with_snap_fit_002.stl_2 id:0 copy 0
M106 S170.85
;LAYER_CHANGE
;Z:0.5
;HEIGHT:0.15
;BEFORE_LAYER_CHANGE
G92 E0.0
;0.5


G1 E-2.24 F4200
;WIPE_START
G1 F7200
G1 X78.691 Y130.896 E-.52543
G1 X78.691 Y131.497 E-.33261
G1 X78.76 Y131.428 E-.05396
;WIPE_END
G1 E-.048 F4200
G1 Z.55 F720
;AFTER_LAYER_CHANGE
;0.5
G1 X74.981 Y131.428 F9000
G1 Z.5 F720
G1 E3.2 F2400
;TYPE:Skirt/Brim
;WIDTH:0.42
G1 X74.981 Y129.458 E.04764
G1 X75.374 Y128.04 E.03557
G1 X76.44 Y127.027 E.03557
G1 X77.735 Y126.704 E.03229
G1 X100.735 Y126.704 E.55625
G1 X102.152 Y127.096 E.03557
G1 X103.166 Y128.163 E.03557
G1 X103.489 Y129.458 E.03229
G1 X103.489 Y142.458 E.3144
G1 X103.096 Y143.875 E.03557
G1 X102.03 Y144.888 E.03557
G1 X100.735 Y145.212 E.03229
G1 X77.735 Y145.212 E.55625
G1 X76.318 Y144.819 E.03557
G1 X75.304 Y143.753 E.03557
G1 X74.981 Y142.458 E.03229
G1 X74.981 Y131.488 E.26531
G1 X75.358 Y131.488 F9000
G1 F2400
G1 X75.358 Y129.458 E.04909
G1 X75.75 Y128.151 E.033
G1 X76.795 Y127.274 E.033
G1 X77.735 Y127.081 E.02321
G1 X100.735 Y127.081 E.55625
G1 X102.042 Y127.472 E.033
G1 X102.918 Y128.518 E.033
G1 X103.112 Y129.458 E.02321
G1 X103.112 Y142.458 E.3144
G1 X102.721 Y143.765 E.033
G1 X101.675 Y144.641 E.033
G1 X100.735 Y144.835 E.02321
G1 X77.735 Y144.835 E.55625
G1 X76.428 Y144.443 E.033
G1 X75.552 Y143.398 E.033
G1 X75.358 Y142.458 E.02321
G1 X75.358 Y131.548 E.26386
; printing object set_box_mini_prototype_with_snap_fit_002.stl_2 id:0 copy 0
G1 E-2.24 F4200
;WIPE_START
G1 F7200
G1 X75.358 Y129.902 E-.912
;WIPE_END
G1 E-.048 F4200
G1 Z.7 F720
G1 X78.378 Y130.101 F9000
G1 Z.5 F720
G1 E3.2 F2400
M204 P800
;TYPE:Perimeter
;WIDTH:0.449999
G1 X100.092 Y130.101 E.56578
G1 X100.092 Y141.815 E.30523
M73 P11 R12
G1 X78.378 Y141.815 E.56578
G1 X78.378 Y130.161 E.30366
M204 P1000
G1 X77.96 Y129.683 F9000
M204 P800
;TYPE:External perimeter
G1 F1800
G1 X100.51 Y129.683 E.58756
G1 X100.51 Y142.233 E.327
G1 X77.96 Y142.233 E.58756
G1 X77.96 Y129.743 E.32544
M204 P1000
G1 X78.354 Y129.75 F9000
G1 E-2.24 F4200
;WIPE_START
G1 F7200
G1 X79.606 Y129.738 E-.912
;WIPE_END
G1 E-.048 F4200
G1 Z.7 F720
G1 X99.108 Y130.226 F9000
G1 Z.5 F720
G1 E3.2 F2400
;TYPE:Solid infill
;WIDTH:0.456595
G1 F4800
G1 X99.779 Y130.896 E.0251
G1 X99.779 Y131.497 E.01589
G1 X98.696 Y130.414 E.04053
G1 X98.096 Y130.414 E.01589
G1 X99.779 Y132.097 E.06299
G1 X99.779 Y132.697 E.01589
G1 X97.496 Y130.414 E.08546
G1 X96.896 Y130.414 E.01589
G1 X99.779 Y133.297 E.10792
G1 X99.779 Y133.897 E.01589
G1 X96.295 Y130.414 E.13039
G1 X95.695 Y130.414 E.01589
G1 X99.779 Y134.498 E.15286
G1 X99.779 Y135.098 E.01589
G1 X95.095 Y130.414 E.17532
G1 X94.495 Y130.414 E.01589
G1 X99.779 Y135.698 E.19779
G1 X99.779 Y136.298 E.01589
G1 X93.895 Y130.414 E.22025
G1 X93.294 Y130.414 E.01589
G1 X99.779 Y136.898 E.24272
G1 X99.779 Y137.499 E.01589
G1 X92.694 Y130.414 E.26518
G1 X92.094 Y130.414 E.01589
G1 X99.779 Y138.099 E.28765
G1 X99.779 Y138.699 E.01589
G1 X91.494 Y130.414 E.31011
G1 X90.894 Y130.414 E.01589
G1 X99.779 Y139.299 E.33258
G1 X99.779 Y139.899 E.01589
G1 X90.293 Y130.414 E.35504
G1 X89.693 Y130.414 E.01589
G1 X99.779 Y140.5 E.37751
G1 X99.779 Y141.1 E.01589
G1 X89.093 Y130.414 E.39998
G1 X88.493 Y130.414 E.01589
G1 X99.58 Y141.502 E.41501
G1 X98.98 Y141.502 E.01589
G1 X87.893 Y130.414 E.41501
G1 X87.292 Y130.414 E.01589
M73 P12 R12
G1 X98.38 Y141.502 E.41501
G1 X97.78 Y141.502 E.01589
G1 X86.692 Y130.414 E.41501
G1 X86.092 Y130.414 E.01589
G1 X97.18 Y141.502 E.41501
G1 X96.579 Y141.502 E.01589
G1 X85.492 Y130.414 E.41501
G1 X84.892 Y130.414 E.01589
G1 X95.979 Y141.502 E.41501
G1 X95.379 Y141.502 E.01589
G1 X84.291 Y130.414 E.41501
G1 X83.691 Y130.414 E.01589
G1 X94.779 Y141.502 E.41501
G1 X94.179 Y141.502 E.01589
G1 X83.091 Y130.414 E.41501
G1 X82.491 Y130.414 E.01589
G1 X93.578 Y141.502 E.41501
G1 X92.978 Y141.502 E.01589
G1 X81.891 Y130.414 E.41501
