; generated by PrusaSlicer 2.5.0+win64 on 2023-01-18 at 05:22:36 UTC


;
;

;
;
; 

; external perimeters extrusion width = 0.45mm
; perimeters extrusion width = 0.45mm
; infill extrusion width = 0.45mm
; solid infill extrusion width = 0.45mm
; top infill extrusion width = 0.40mm
; support material extrusion width = 0.35mm
; first layer extrusion width = 0.42mm

; external perimeters extrusion width = 0.45mm
; perimeters extrusion width = 0.45mm
; infill extrusion width = 0.45mm
; solid infill extrusion width = 0.45mm
; top infill extrusion width = 0.40mm
; support material extrusion width = 0.35mm
; first layer extrusion width = 0.42mm

M73 P0 R42
M201 X2500 Y2500 Z400 E5000 ; sets maximum accelerations, mm/sec^2
M203 X180 Y180 Z12 E80 ; sets maximum feedrates, mm / sec
M204 P1250 R1250 T2500 ; sets acceleration (P, T) and retract acceleration (R), mm/sec^2
M205 X8.00 Y8.00 Z2.00 E10.00 ; sets the jerk limits, mm/sec
M205 S0 T0 ; sets the minimum extruding and travel feed rate, mm/sec
M107
;TYPE:Custom
M862.3 P "MINI" ; printer model check
G90 ; use absolute coordinates
M83 ; extruder relative mode
M104 S170 ; set extruder temp for bed leveling
M140 S60 ; set bed temp
M109 R170 ; wait for bed leveling temp
M190 S60 ; wait for bed temp
M204 T1250 ; set travel acceleration
G28 ; home all without mesh bed level
G29 ; mesh bed leveling 
M204 T2500 ; restore travel acceleration
M104 S215 ; set extruder temp
G92 E0
G1 Y-2 X179 F2400
G1 Z3 F720
M109 S215 ; wait for extruder temp

; intro line
G1 X170 F1000
G1 Z0.2 F720
G1 X110 E8 F900
G1 X40 E10 F700
G92 E0

M221 S95 ; set flow
G21 ; set units to millimeters
G90 ; use absolute coordinates
M83 ; use relative distances for extrusion
M900 K0.2 ; Filament gcode LA 1.5
; ; Filament gcode LA 1.0
M107
;LAYER_CHANGE
;Z:0.2
;HEIGHT:0.2
;BEFORE_LAYER_CHANGE
G92 E0.0
;0.2


G1 E-3.2 F4200
M73 P0 R41
G1 Z.2 F720
;AFTER_LAYER_CHANGE
;0.2
G1 Z.4
G1 X82.515 Y55.092 F9000
G1 Z.2 F720
G1 E3.2 F2400
M204 P800
;TYPE:Skirt/Brim
;WIDTH:0.42
G1 F1200
G1 X83.884 Y54.104 E.05294
G1 X92.739 Y51.725 E.28749
G1 X93.356 Y51.644 E.0195
G1 X99.865 Y51.644 E.2041
G1 X101.172 Y52.036 E.04278
G1 X102.192 Y53.534 E.05682
G1 X111.637 Y98.627 E1.44456
G1 X111.688 Y109.616 E.34454
G1 X111.296 Y110.923 E.04278
G1 X110.251 Y111.799 E.04278
G1 X109.311 Y111.993 E.03008
G1 X84.967 Y111.993 E.76327
G1 X83.66 Y111.601 E.04278
G1 X82.784 Y110.555 E.04278
G1 X82.591 Y109.654 E.02891
G1 X82.124 Y80.639 E.90986
G1 X82.123 Y56.4 E.76
G1 X82.498 Y55.15 E.0409
M204 P1000
; printing object set_box_mini_prototype_with_snap_fit_006.stl_1 id:0 copy 0
G1 E-2.24 F4200
;WIPE_START
G1 F7200
G1 X83.811 Y54.159 E-.912
;WIPE_END
G1 E-.048 F4200
G1 Z.4 F720
G1 X92.022 Y70.77 F9000
G1 Z.2 F720
G1 E3.2 F2400
M204 P800
;TYPE:Support material
G1 F1200
G1 X90.981 Y70.77 E.03261
G1 X90.981 Y66.229 E.14235
G1 X92.022 Y66.229 E.03261
M73 P1 R41
G1 X92.022 Y70.713 E.14058
M204 P1000
G1 X91.676 Y70.6 F9000
M204 P800
G1 F1200
G1 X91.676 Y66.399 E.13171
M204 P1000
G1 E-2.24 F4200
;WIPE_START
G1 F7200
G1 X91.676 Y68.045 E-.912
;WIPE_END
G1 E-.048 F4200
G1 Z.4 F720
G1 X99.865 Y82.979 F9000
G1 Z.2 F720
G1 E3.2 F2400
M204 P800
G1 F1200
G1 X93.356 Y82.979 E.2041
G1 X93.356 Y81.081 E.05952
G1 X95.699 Y81.081 E.07349
G1 X95.981 Y80.799 E.01247
G1 X95.981 Y56.201 E.77127
G1 X95.699 Y55.92 E.01247
G1 X93.356 Y55.92 E.07349
G1 X93.356 Y54.021 E.05952
G1 X99.865 Y54.021 E.2041
G1 X99.865 Y82.922 E.90617
M204 P1000
G1 X99.218 Y82.809 F9000
M204 P800
G1 F1200
G1 X99.218 Y54.361 E.89199
G1 X98.799 Y54.361 E.01314
G1 X98.799 Y82.639 E.88667
G1 X98.38 Y82.639 E.01314
G1 X98.38 Y54.361 E.88667
G1 X97.961 Y54.361 E.01314
G1 X97.961 Y82.639 E.88667
G1 X97.542 Y82.639 E.01314
G1 X97.542 Y54.361 E.88667
G1 X97.123 Y54.361 E.01314
G1 X97.123 Y82.639 E.88667
G1 X96.704 Y82.639 E.01314
G1 X96.704 Y54.361 E.88667
G1 X96.285 Y54.361 E.01314
G1 X96.285 Y82.639 E.88667
G1 X95.866 Y82.639 E.01314
G1 X95.866 Y81.394 E.03906
G1 X95.84 Y81.42 E.00117
G1 X95.447 Y81.42 E.01231
G1 X95.447 Y82.639 E.03824
G1 X95.028 Y82.639 E.01314
G1 X95.028 Y81.42 E.03824
G1 X94.609 Y81.42 E.01314
G1 X94.609 Y82.639 E.03824
G1 X94.19 Y82.639 E.01314
G1 X94.19 Y81.42 E.03824
G1 X93.771 Y81.42 E.01314
G1 X93.771 Y82.809 E.04356
M204 P1000
G1 E-2.24 F4200
;WIPE_START
G1 F7200
G1 X93.771 Y81.42 E-.7699
G1 X94.028 Y81.42 E-.1421
;WIPE_END
G1 E-.048 F4200
G1 Z.4 F720
G1 X95.866 Y55.846 F9000
G1 Z.2 F720
G1 E3.2 F2400
M204 P800
G1 F1200
G1 X95.866 Y54.361 E.04659
G1 X95.447 Y54.361 E.01314
G1 X95.447 Y55.58 E.03824
G1 X95.028 Y55.58 E.01314
G1 X95.028 Y54.361 E.03824
G1 X94.609 Y54.361 E.01314
G1 X94.609 Y55.58 E.03824
G1 X94.19 Y55.58 E.01314
G1 X94.19 Y54.361 E.03824
G1 X93.771 Y54.361 E.01314
G1 X93.771 Y55.75 E.04356
M204 P1000
G1 E-2.24 F4200
;WIPE_START
G1 F7200
G1 X93.771 Y54.361 E-.7699
G1 X94.028 Y54.361 E-.1421
;WIPE_END
G1 E-.048 F4200
G1 Z.4 F720
G1 X94.713 Y79.813 F9000
G1 Z.2 F720
G1 E3.2 F2400
M204 P800
;TYPE:Perimeter
;WIDTH:0.419999
G1 F1200
G1 X85.288 Y79.813 E.29554
G1 X85.288 Y57.187 E.70945
G1 X94.713 Y57.187 E.29554
G1 X94.713 Y79.753 E.70757
M204 P1000
G1 X95.091 Y80.191 F9000
M204 P800
;TYPE:External perimeter
G1 F1200
G1 X84.911 Y80.191 E.31919
G1 X84.911 Y56.81 E.73309
G1 X95.091 Y56.81 E.31919
G1 X95.091 Y80.131 E.73121
M204 P1000
G1 X94.72 Y80.04 F9000
M73 P2 R41
G1 E-2.24 F4200
;WIPE_START
G1 F7200
G1 X93.445 Y80.14 E-.912
;WIPE_END
G1 E-.048 F4200
G1 Z.4 F720
G1 X93.256 Y65.432 F9000
G1 Z.2 F720
G1 E3.2 F2400
M204 P800
;TYPE:Perimeter
G1 F1200
G1 X93.289 Y65.528 E.00318
G1 X93.289 Y71.471 E.18634
G1 X93.175 Y71.81 E.01122
G1 X92.941 Y71.993 E.00933
G1 X92.723 Y72.037 E.00696
G1 X90.28 Y72.037 E.0766
G1 X90.038 Y71.982 E.00779
G1 X89.817 Y71.796 E.00904
G1 X89.723 Y71.569 E.00772
G1 X89.714 Y71.471 E.00308
G1 X89.714 Y65.528 E.18634
G1 X89.742 Y65.354 E.00554
G1 X89.922 Y65.09 E.01001
G1 X90.182 Y64.971 E.00897
G1 X92.723 Y64.962 E.07966
G1 X92.941 Y65.006 E.00696
G1 X93.175 Y65.189 E.00933
G1 X93.238 Y65.375 E.00615
M204 P1000
G1 X92.911 Y65.528 F9000
M204 P800
;TYPE:External perimeter
G1 F1200
G1 X92.911 Y71.471 E.18634
G1 X92.874 Y71.584 E.00374
G1 X92.723 Y71.659 E.00529
G1 X90.28 Y71.659 E.0766
G1 X90.161 Y71.617 E.00397
G1 X90.092 Y71.471 E.00507
G1 X90.092 Y65.528 E.18634
G1 X90.161 Y65.382 E.00507
G1 X90.28 Y65.34 E.00397
G1 X92.723 Y65.34 E.0766
G1 X92.874 Y65.415 E.00529
G1 X92.893 Y65.471 E.00186
M204 P1000
G1 X93.298 Y65.632 F9000
G1 E-2.24 F4200
;WIPE_START
G1 F7200
G1 X92.898 Y67.117 E-.912
;WIPE_END
G1 E-.048 F4200
G1 Z.4 F720
G1 X94.6 Y58.067 F9000
G1 Z.2 F720
G1 E3.2 F2400
M204 P800
;TYPE:Solid infill
;WIDTH:0.422548
G1 F1200
G1 X94.002 Y57.469 E.0267
G1 X93.465 Y57.469 E.01695
G1 X94.431 Y58.435 E.04309
G1 X94.431 Y58.971 E.01695
G1 X92.929 Y57.469 E.06705
G1 X92.392 Y57.469 E.01695
G1 X94.431 Y59.508 E.09102
G1 X94.431 Y60.045 E.01695
G1 X91.855 Y57.469 E.11499
G1 X91.318 Y57.469 E.01695
G1 X94.431 Y60.582 E.13895
G1 X94.431 Y61.119 E.01695
G1 X90.781 Y57.469 E.16292
G1 X90.244 Y57.469 E.01695
G1 X94.431 Y61.656 E.18689
G1 X94.431 Y62.193 E.01695
G1 X89.707 Y57.469 E.21085
G1 X89.17 Y57.469 E.01695
G1 X94.431 Y62.73 E.23482
G1 X94.431 Y63.266 E.01695
G1 X88.634 Y57.469 E.25879
G1 X88.097 Y57.469 E.01695
G1 X94.431 Y63.803 E.28276
G1 X94.431 Y64.34 E.01695
G1 X87.56 Y57.469 E.30672
G1 X87.023 Y57.469 E.01695
G1 X94.431 Y64.877 E.33069
G1 X94.431 Y65.414 E.01695
G1 X86.486 Y57.469 E.35466
G1 X85.949 Y57.469 E.01695
G1 X94.431 Y65.951 E.37862
G1 X94.431 Y66.488 E.01695
G1 X93.571 Y65.628 E.03836
G1 X93.571 Y65.513 E.00365
G1 X93.407 Y65.019 E.01644
G1 X93.053 Y64.744 E.01413
G1 X92.732 Y64.68 E.01033
G1 X92.623 Y64.68 E.00346
G1 X85.57 Y57.627 E.31482
G1 X85.57 Y58.164 E.01695
G1 X92.086 Y64.68 E.29085
G1 X91.549 Y64.68 E.01695
G1 X85.57 Y58.701 E.26689
G1 X85.57 Y59.238 E.01695
G1 X91.012 Y64.68 E.24292
G1 X90.475 Y64.68 E.01695
G1 X85.57 Y59.775 E.21895
G1 X85.57 Y60.312 E.01695
G1 X89.993 Y64.734 E.19742
G1 X89.915 Y64.761 E.00259
G1 X89.742 Y64.871 E.00647
G1 X89.67 Y64.948 E.00334
G1 X85.57 Y60.849 E.18302
G1 X85.57 Y61.386 E.01695
G1 X89.469 Y65.284 E.17404
G1 X89.432 Y65.521 E.00756
G1 X89.432 Y65.784 E.0083
G1 X85.57 Y61.922 E.17237
G1 X85.57 Y62.459 E.01695
G1 X89.432 Y66.321 E.17237
G1 X89.432 Y66.857 E.01695
G1 X85.57 Y62.996 E.17237
G1 X85.57 Y63.533 E.01695
G1 X89.432 Y67.394 E.17237
G1 X89.432 Y67.931 E.01695
G1 X85.57 Y64.07 E.17237
G1 X85.57 Y64.607 E.01695
G1 X89.432 Y68.468 E.17237
G1 X89.432 Y69.005 E.01695
G1 X85.57 Y65.144 E.17237
G1 X85.57 Y65.681 E.01695
G1 X89.432 Y69.542 E.17237
G1 X89.432 Y70.079 E.01695
G1 X85.57 Y66.217 E.17237
G1 X85.57 Y66.754 E.01695
G1 X89.432 Y70.616 E.17237
G1 X89.432 Y71.152 E.01695
G1 X85.401 Y67.122 E.17995
M204 P1000
G1 E-2.24 F4200
;WIPE_START
G1 F7200
G1 X86.564 Y68.285 E-.912
;WIPE_END
G1 E-.048 F4200
G1 Z.4 F720
G1 X93.402 Y65.996 F9000
G1 Z.2 F720
G1 E3.2 F2400
M204 P800
G1 F1200
G1 X94.431 Y67.025 E.04593
G1 X94.431 Y67.561 E.01695
G1 X93.571 Y66.702 E.03836
G1 X93.571 Y67.239 E.01695
G1 X94.431 Y68.098 E.03836
G1 X94.431 Y68.635 E.01695
G1 X93.571 Y67.776 E.03836
G1 X93.571 Y68.313 E.01695
G1 X94.431 Y69.172 E.03836
G1 X94.431 Y69.709 E.01695
G1 X93.571 Y68.85 E.03836
G1 X93.571 Y69.387 E.01695
G1 X94.431 Y70.246 E.03836
G1 X94.431 Y70.783 E.01695
G1 X93.571 Y69.923 E.03836
G1 X93.571 Y70.46 E.01695
G1 X94.431 Y71.32 E.03836
G1 X94.431 Y71.856 E.01695
G1 X93.571 Y70.997 E.03836
G1 X93.567 Y71.529 E.0168
G1 X94.431 Y72.393 E.03857
G1 X94.431 Y72.93 E.01695
G1 X93.427 Y71.927 E.04478
G1 X93.403 Y71.983 E.00193
G1 X93.146 Y72.183 E.01027
G1 X94.431 Y73.467 E.05733
G1 X94.431 Y74.004 E.01695
G1 X92.744 Y72.317 E.0753
G1 X92.209 Y72.319 E.01687
G1 X94.431 Y74.541 E.09917
G1 X94.431 Y75.078 E.01695
G1 X91.672 Y72.319 E.12313
G1 X91.135 Y72.319 E.01695
G1 X94.431 Y75.615 E.1471
G1 X94.431 Y76.151 E.01695
G1 X90.429 Y72.15 E.17864
M204 P1000
G1 E-2.24 F4200
;WIPE_START
G1 F7200
G1 X91.593 Y73.313 E-.912
;WIPE_END
G1 E-.048 F4200
G1 Z.4 F720
G1 X94.6 Y76.858 F9000
G1 Z.2 F720
G1 E3.2 F2400
M204 P800
G1 F1200
G1 X85.57 Y67.828 E.40311
G1 X85.57 Y68.365 E.01695
G1 X94.431 Y77.225 E.39553
G1 X94.431 Y77.762 E.01695
G1 X85.57 Y68.902 E.39553
G1 X85.57 Y69.439 E.01695
G1 X94.431 Y78.299 E.39553
G1 X94.431 Y78.836 E.01695
M73 P2 R40
G1 X85.57 Y69.976 E.39553
G1 X85.57 Y70.512 E.01695
G1 X94.431 Y79.373 E.39553
G1 X94.431 Y79.531 E.00499
G1 X94.052 Y79.531 E.01196
G1 X85.57 Y71.049 E.37862
G1 X85.57 Y71.586 E.01695
G1 X93.515 Y79.531 E.35465
G1 X92.978 Y79.531 E.01695
G1 X85.57 Y72.123 E.33068
G1 X85.57 Y72.66 E.01695
G1 X92.441 Y79.531 E.30672
G1 X91.904 Y79.531 E.01695
G1 X85.57 Y73.197 E.28275
G1 X85.57 Y73.734 E.01695
M73 P3 R40
G1 X91.367 Y79.531 E.25878
G1 X90.83 Y79.531 E.01695
G1 X85.57 Y74.271 E.23482
G1 X85.57 Y74.807 E.01695
G1 X90.294 Y79.531 E.21085
G1 X89.757 Y79.531 E.01695
G1 X85.57 Y75.344 E.18688
G1 X85.57 Y75.881 E.01695
G1 X89.22 Y79.531 E.16292
G1 X88.683 Y79.531 E.01695
G1 X85.57 Y76.418 E.13895
G1 X85.57 Y76.955 E.01695
G1 X88.146 Y79.531 E.11498
G1 X87.609 Y79.531 E.01695
G1 X85.57 Y77.492 E.09102
G1 X85.57 Y78.029 E.01695
G1 X87.072 Y79.531 E.06705
G1 X86.535 Y79.531 E.01695
G1 X85.57 Y78.566 E.04308
G1 X85.57 Y79.102 E.01695
G1 X86.168 Y79.7 E.02669
M204 P1000
; stop printing object set_box_mini_prototype_with_snap_fit_006.stl_1 id:0 copy 0
; printing object set_box_mini_prototype_with_snap_fit_006.stl_2 id:1 copy 0
G1 E-2.24 F4200
;WIPE_START
G1 F7200
G1 X85.57 Y79.102 E-.46856
G1 X85.57 Y78.566 E-.29752
G1 X85.757 Y78.752 E-.14593
;WIPE_END
G1 E-.048 F4200
G1 Z.4 F720
G1 X89.559 Y100.768 F9000
G1 Z.2 F720
G1 E3.2 F2400
M204 P800
;TYPE:Support material
;WIDTH:0.42
G1 F1200
G1 X89.84 Y101.049 E.01247
G1 X104.439 Y101.049 E.45773
G1 X104.72 Y100.768 E.01247
G1 X104.72 Y98.049 E.08524
G1 X107.004 Y98.049 E.0716
G1 X107.004 Y99.115 E.0334
G1 X109.311 Y99.115 E.07234
G1 X109.311 Y109.616 E.32925
G1 X98.81 Y109.616 E.32925
G1 X98.81 Y105.001 E.14467
G1 X95.468 Y105.001 E.10477
G1 X95.468 Y109.616 E.14467
G1 X84.967 Y109.616 E.32925
G1 X84.967 Y99.115 E.32925
G1 X87.274 Y99.115 E.07234
G1 X87.274 Y98.049 E.0334
G1 X89.559 Y98.049 E.07163
G1 X89.559 Y100.712 E.08347
M204 P1000
G1 X108.87 Y109.446 F9000
M204 P800
G1 F1200
G1 X108.87 Y99.454 E.31329
G1 X108.451 Y99.454 E.01314
G1 X108.451 Y109.276 E.30797
G1 X108.033 Y109.276 E.01314
G1 X108.033 Y99.454 E.30797
G1 X107.614 Y99.454 E.01314
G1 X107.614 Y109.276 E.30797
G1 X107.195 Y109.276 E.01314
G1 X107.195 Y99.454 E.30797
G1 X106.776 Y99.454 E.01314
G1 X106.776 Y109.276 E.30797
G1 X106.357 Y109.276 E.01314
G1 X106.357 Y98.389 E.34137
G1 X105.938 Y98.389 E.01314
G1 X105.938 Y109.276 E.34137
G1 X105.519 Y109.276 E.01314
G1 X105.519 Y98.389 E.34137
G1 X105.1 Y98.389 E.01314
G1 X105.1 Y109.276 E.34137
G1 X104.681 Y109.276 E.01314
G1 X104.681 Y101.287 E.25048
G1 X104.58 Y101.389 E.00449
G1 X104.262 Y101.389 E.00996
G1 X104.262 Y109.276 E.24731
G1 X103.843 Y109.276 E.01314
G1 X103.843 Y101.389 E.24731
G1 X103.424 Y101.389 E.01314
G1 X103.424 Y109.276 E.24731
G1 X103.005 Y109.276 E.01314
G1 X103.005 Y101.389 E.24731
G1 X102.586 Y101.389 E.01314
G1 X102.586 Y109.276 E.24731
G1 X102.167 Y109.276 E.01314
G1 X102.167 Y101.389 E.24731
G1 X101.748 Y101.389 E.01314
G1 X101.748 Y109.276 E.24731
G1 X101.329 Y109.276 E.01314
G1 X101.329 Y101.389 E.24731
G1 X100.91 Y101.389 E.01314
G1 X100.91 Y109.276 E.24731
G1 X100.491 Y109.276 E.01314
G1 X100.491 Y101.389 E.24731
G1 X100.072 Y101.389 E.01314
G1 X100.072 Y109.276 E.24731
G1 X99.653 Y109.276 E.01314
G1 X99.653 Y101.389 E.24731
G1 X99.234 Y101.389 E.01314
G1 X99.234 Y109.276 E.24731
G1 X99.149 Y109.276 E.00266
G1 X99.149 Y104.662 E.14467
G1 X98.815 Y104.662 E.01048
G1 X98.815 Y101.389 E.10263
G1 X98.396 Y101.389 E.01314
G1 X98.396 Y104.662 E.10263
G1 X97.977 Y104.662 E.01314
G1 X97.977 Y101.389 E.10263
G1 X97.558 Y101.389 E.01314
G1 X97.558 Y104.662 E.10263
G1 X97.139 Y104.662 E.01314
G1 X97.139 Y101.389 E.10263
G1 X96.72 Y101.389 E.01314
G1 X96.72 Y104.662 E.10263
G1 X96.301 Y104.662 E.01314
G1 X96.301 Y101.389 E.10263
G1 X95.882 Y101.389 E.01314
G1 X95.882 Y104.662 E.10263
G1 X95.463 Y104.662 E.01314
G1 X95.463 Y101.389 E.10263
G1 X95.044 Y101.389 E.01314
G1 X95.044 Y109.276 E.24731
G1 X94.625 Y109.276 E.01314
G1 X94.625 Y101.389 E.24731
G1 X94.206 Y101.389 E.01314
G1 X94.206 Y109.276 E.24731
G1 X93.787 Y109.276 E.01314
G1 X93.787 Y101.389 E.24731
G1 X93.368 Y101.389 E.01314
G1 X93.368 Y109.276 E.24731
G1 X92.949 Y109.276 E.01314
G1 X92.949 Y101.389 E.24731
G1 X92.53 Y101.389 E.01314
G1 X92.53 Y109.276 E.24731
G1 X92.111 Y109.276 E.01314
G1 X92.111 Y101.389 E.24731
G1 X91.692 Y101.389 E.01314
M73 P4 R40
G1 X91.692 Y109.276 E.24731
G1 X91.273 Y109.276 E.01314
G1 X91.273 Y101.389 E.24731
G1 X90.854 Y101.389 E.01314
G1 X90.854 Y109.276 E.24731
G1 X90.435 Y109.276 E.01314
G1 X90.435 Y101.389 E.24731
G1 X90.017 Y101.389 E.01314
G1 X90.017 Y109.276 E.24731
G1 X89.598 Y109.276 E.01314
G1 X89.598 Y101.286 E.25051
G1 X89.22 Y100.909 E.01675
G1 X89.22 Y98.389 E.07901
G1 X89.179 Y98.389 E.00129
G1 X89.179 Y109.276 E.34137
G1 X88.76 Y109.276 E.01314
G1 X88.76 Y98.389 E.34137
G1 X88.341 Y98.389 E.01314
G1 X88.341 Y109.276 E.34137
G1 X87.922 Y109.276 E.01314
G1 X87.922 Y98.389 E.34137
G1 X87.614 Y98.389 E.00965
G1 X87.614 Y99.454 E.0334
G1 X87.503 Y99.454 E.00349
G1 X87.503 Y109.276 E.30797
G1 X87.084 Y109.276 E.01314
G1 X87.084 Y99.454 E.30797
G1 X86.665 Y99.454 E.01314
G1 X86.665 Y109.276 E.30797
G1 X86.246 Y109.276 E.01314
G1 X86.246 Y99.454 E.30797
G1 X85.827 Y99.454 E.01314
G1 X85.827 Y109.276 E.30797
G1 X85.408 Y109.276 E.01314
G1 X85.408 Y99.284 E.31329
M204 P1000
G1 E-2.24 F4200
;WIPE_START
G1 F7200
G1 X85.408 Y100.93 E-.912
;WIPE_END
G1 E-.048 F4200
G1 Z.4 F720
G1 X90.826 Y90.356 F9000
G1 Z.2 F720
G1 E3.2 F2400
M204 P800
;TYPE:Perimeter
;WIDTH:0.419999
G1 F1200
G1 X103.453 Y90.356 E.39591
G1 X103.453 Y99.782 E.29554
G1 X90.826 Y99.782 E.39591
G1 X90.826 Y90.416 E.29366
M204 P1000
G1 X90.449 Y89.979 F9000
M204 P800
;TYPE:External perimeter
G1 F1200
G1 X103.83 Y89.979 E.41955
