; generated by PrusaSlicer 2.5.0+win64 on 2023-01-15 at 04:11:57 UTC


;
;

;
;
; 

; external perimeters extrusion width = 0.45mm
; perimeters extrusion width = 0.45mm
; infill extrusion width = 0.45mm
; solid infill extrusion width = 0.45mm
; top infill extrusion width = 0.40mm
; support material extrusion width = 0.35mm
; first layer extrusion width = 0.42mm

; external perimeters extrusion width = 0.45mm
; perimeters extrusion width = 0.45mm
; infill extrusion width = 0.45mm
; solid infill extrusion width = 0.45mm
; top infill extrusion width = 0.40mm
; support material extrusion width = 0.35mm
; first layer extrusion width = 0.42mm

M73 P0 R29
M201 X2500 Y2500 Z400 E5000 ; sets maximum accelerations, mm/sec^2
M203 X180 Y180 Z12 E80 ; sets maximum feedrates, mm / sec
M204 P1250 R1250 T2500 ; sets acceleration (P, T) and retract acceleration (R), mm/sec^2
M205 X8.00 Y8.00 Z2.00 E10.00 ; sets the jerk limits, mm/sec
M205 S0 T0 ; sets the minimum extruding and travel feed rate, mm/sec
M107
;TYPE:Custom
M862.3 P "MINI" ; printer model check
G90 ; use absolute coordinates
M83 ; extruder relative mode
M104 S170 ; set extruder temp for bed leveling
M140 S60 ; set bed temp
M109 R170 ; wait for bed leveling temp
M190 S60 ; wait for bed temp
M204 T1250 ; set travel acceleration
G28 ; home all without mesh bed level
G29 ; mesh bed leveling 
M204 T2500 ; restore travel acceleration
M104 S215 ; set extruder temp
G92 E0
G1 Y-2 X179 F2400
G1 Z3 F720
M109 S215 ; wait for extruder temp

; intro line
M73 P0 R28
G1 X170 F1000
G1 Z0.2 F720
G1 X110 E8 F900
G1 X40 E10 F700
G92 E0

M221 S95 ; set flow
G21 ; set units to millimeters
G90 ; use absolute coordinates
M83 ; use relative distances for extrusion
M900 K0.2 ; Filament gcode LA 1.5
; ; Filament gcode LA 1.0
M107
;LAYER_CHANGE
;Z:0.2
;HEIGHT:0.2
;BEFORE_LAYER_CHANGE
G92 E0.0
;0.2


G1 E-3.2 F4200
G1 Z.2 F720
;AFTER_LAYER_CHANGE
;0.2
G1 Z.4
G1 X81.625 Y56.188 F9000
G1 Z.2 F720
G1 E3.2 F2400
M204 P800
;TYPE:Skirt/Brim
;WIDTH:0.42
G1 F1200
G1 X82.504 Y55.391 E.03721
G1 X89.714 Y51.6 E.25541
G1 X90.821 Y51.327 E.03573
G1 X98.401 Y51.327 E.23767
G1 X99.507 Y51.6 E.03573
G1 X106.717 Y55.391 E.25541
G1 X107.691 Y56.346 E.04278
M73 P1 R28
G1 X107.987 Y57.426 E.03509
G1 X110.295 Y136.252 E2.47261
G1 X110.296 Y148.322 E.37843
G1 X109.905 Y149.629 E.04278
G1 X108.859 Y150.505 E.04278
G1 X107.919 Y150.699 E.03008
G1 X85.919 Y150.699 E.68979
G1 X84.612 Y150.307 E.04278
G1 X83.736 Y149.261 E.04278
G1 X83.543 Y148.391 E.02794
G1 X81.235 Y69.565 E2.47261
G1 X81.233 Y57.495 E.37843
G1 X81.608 Y56.246 E.0409
M204 P1000
; printing object set_box_mini_prototype_with_snap_fit_003.stl_2 id:0 copy 0
G1 E-2.24 F4200
;WIPE_START
G1 F7200
G1 X82.504 Y55.391 E-.68628
G1 X82.865 Y55.202 E-.22572
;WIPE_END
G1 E-.048 F4200
G1 Z.4 F720
G1 X98.401 Y53.704 F9000
G1 Z.2 F720
G1 E3.2 F2400
M204 P800
;TYPE:Support material
G1 F1200
G1 X98.401 Y57.015 E.10381
G1 X90.821 Y57.015 E.23767
G1 X90.821 Y53.704 E.10381
G1 X98.344 Y53.704 E.23589
M204 P1000
G1 X97.962 Y56.845 F9000
M204 P800
G1 F1200
G1 X97.962 Y54.043 E.08785
G1 X97.543 Y54.043 E.01314
G1 X97.543 Y56.676 E.08253
G1 X97.124 Y56.676 E.01314
G1 X97.124 Y54.043 E.08253
G1 X96.705 Y54.043 E.01314
G1 X96.705 Y56.676 E.08253
G1 X96.286 Y56.676 E.01314
G1 X96.286 Y54.043 E.08253
G1 X95.867 Y54.043 E.01314
G1 X95.867 Y56.676 E.08253
G1 X95.449 Y56.676 E.01314
G1 X95.449 Y54.043 E.08253
G1 X95.03 Y54.043 E.01314
G1 X95.03 Y56.676 E.08253
G1 X94.611 Y56.676 E.01314
G1 X94.611 Y54.043 E.08253
G1 X94.192 Y54.043 E.01314
G1 X94.192 Y56.676 E.08253
G1 X93.773 Y56.676 E.01314
G1 X93.773 Y54.043 E.08253
G1 X93.354 Y54.043 E.01314
G1 X93.354 Y56.676 E.08253
G1 X92.935 Y56.676 E.01314
G1 X92.935 Y54.043 E.08253
G1 X92.516 Y54.043 E.01314
G1 X92.516 Y56.676 E.08253
G1 X92.097 Y56.676 E.01314
G1 X92.097 Y54.043 E.08253
G1 X91.678 Y54.043 E.01314
G1 X91.678 Y56.676 E.08253
G1 X91.259 Y56.676 E.01314
G1 X91.259 Y53.874 E.08785
M204 P1000
G1 E-2.24 F4200
;WIPE_START
G1 F7200
G1 X91.259 Y55.52 E-.912
;WIPE_END
G1 E-.048 F4200
G1 Z.4 F720
G1 X98.401 Y73.286 F9000
G1 Z.2 F720
G1 E3.2 F2400
M204 P800
G1 F1200
G1 X90.821 Y73.286 E.23767
G1 X90.821 Y69.975 E.10381
G1 X98.401 Y69.975 E.23767
G1 X98.401 Y73.23 E.10204
M204 P1000
G1 X97.962 Y73.116 F9000
M204 P800
G1 F1200
G1 X97.962 Y70.314 E.08785
G1 X97.543 Y70.314 E.01314
G1 X97.543 Y72.947 E.08253
G1 X97.124 Y72.947 E.01314
M73 P2 R28
G1 X97.124 Y70.314 E.08253
G1 X96.705 Y70.314 E.01314
G1 X96.705 Y72.947 E.08253
G1 X96.286 Y72.947 E.01314
G1 X96.286 Y70.314 E.08253
G1 X95.867 Y70.314 E.01314
G1 X95.867 Y72.947 E.08253
G1 X95.449 Y72.947 E.01314
G1 X95.449 Y70.314 E.08253
G1 X95.03 Y70.314 E.01314
G1 X95.03 Y72.947 E.08253
G1 X94.611 Y72.947 E.01314
G1 X94.611 Y70.314 E.08253
G1 X94.192 Y70.314 E.01314
G1 X94.192 Y72.947 E.08253
G1 X93.773 Y72.947 E.01314
G1 X93.773 Y70.314 E.08253
G1 X93.354 Y70.314 E.01314
G1 X93.354 Y72.947 E.08253
G1 X92.935 Y72.947 E.01314
G1 X92.935 Y70.314 E.08253
G1 X92.516 Y70.314 E.01314
G1 X92.516 Y72.947 E.08253
G1 X92.097 Y72.947 E.01314
G1 X92.097 Y70.314 E.08253
G1 X91.678 Y70.314 E.01314
G1 X91.678 Y72.947 E.08253
G1 X91.259 Y72.947 E.01314
G1 X91.259 Y70.145 E.08785
M204 P1000
G1 E-2.24 F4200
;WIPE_START
G1 F7200
G1 X91.259 Y71.791 E-.912
;WIPE_END
G1 E-.048 F4200
G1 Z.4 F720
G1 X84.398 Y58.282 F9000
G1 Z.2 F720
G1 E3.2 F2400
M204 P800
;TYPE:Perimeter
;WIDTH:0.419999
G1 F1200
G1 X104.823 Y58.282 E.64044
G1 X104.823 Y68.708 E.32689
G1 X84.398 Y68.708 E.64044
G1 X84.398 Y58.342 E.32501
M204 P1000
G1 X84.021 Y57.905 F9000
M204 P800
;TYPE:External perimeter
G1 F1200
G1 X105.201 Y57.905 E.66408
G1 X105.201 Y69.085 E.35054
G1 X84.021 Y69.085 E.66408
G1 X84.021 Y57.965 E.34866
M204 P1000
G1 X84.415 Y57.97 F9000
G1 E-2.24 F4200
;WIPE_START
G1 F7200
G1 X85.666 Y57.96 E-.912
;WIPE_END
G1 E-.048 F4200
G1 Z.4 F720
G1 X103.946 Y58.395 F9000
G1 Z.2 F720
G1 E3.2 F2400
M204 P800
;TYPE:Solid infill
;WIDTH:0.420969
G1 F1200
G1 X104.541 Y58.99 E.02644
G1 X104.541 Y59.525 E.01681
G1 X103.581 Y58.565 E.04266
G1 X103.046 Y58.565 E.01681
G1 X104.541 Y60.059 E.06643
G1 X104.541 Y60.594 E.01681
G1 X102.512 Y58.565 E.0902
G1 X101.977 Y58.565 E.01681
G1 X104.541 Y61.129 E.11396
G1 X104.541 Y61.663 E.01681
G1 X101.443 Y58.565 E.13773
G1 X100.908 Y58.565 E.01681
G1 X104.541 Y62.198 E.1615
G1 X104.541 Y62.732 E.01681
G1 X100.373 Y58.565 E.18527
G1 X99.839 Y58.565 E.01681
G1 X104.541 Y63.267 E.20903
G1 X104.541 Y63.802 E.01681
G1 X99.304 Y58.565 E.2328
G1 X98.769 Y58.565 E.01681
G1 X104.541 Y64.336 E.25657
G1 X104.541 Y64.871 E.01681
G1 X98.235 Y58.565 E.28034
G1 X97.7 Y58.565 E.01681
G1 X104.541 Y65.406 E.30411
G1 X104.541 Y65.94 E.01681
G1 X97.165 Y58.565 E.32787
G1 X96.631 Y58.565 E.01681
G1 X104.541 Y66.475 E.35164
G1 X104.541 Y67.01 E.01681
G1 X96.096 Y58.565 E.37541
G1 X95.561 Y58.565 E.01681
G1 X104.541 Y67.544 E.39918
G1 X104.541 Y68.079 E.01681
G1 X95.027 Y58.565 E.42295
G1 X94.492 Y58.565 E.01681
G1 X104.352 Y68.425 E.43834
G1 X103.818 Y68.425 E.01681
M73 P3 R28
G1 X93.958 Y58.565 E.43834
G1 X93.423 Y58.565 E.01681
G1 X103.283 Y68.425 E.43834
G1 X102.749 Y68.425 E.01681
G1 X92.888 Y58.565 E.43834
G1 X92.354 Y58.565 E.01681
G1 X102.214 Y68.425 E.43834
G1 X101.679 Y68.425 E.01681
G1 X91.819 Y58.565 E.43834
G1 X91.284 Y58.565 E.01681
G1 X101.145 Y68.425 E.43834
G1 X100.61 Y68.425 E.01681
G1 X90.75 Y58.565 E.43834
G1 X90.215 Y58.565 E.01681
G1 X100.075 Y68.425 E.43834
G1 X99.541 Y68.425 E.01681
G1 X89.68 Y58.565 E.43834
G1 X89.146 Y58.565 E.01681
G1 X99.006 Y68.425 E.43834
G1 X98.471 Y68.425 E.01681
G1 X88.611 Y58.565 E.43834
G1 X88.076 Y58.565 E.01681
G1 X97.937 Y68.425 E.43834
G1 X97.402 Y68.425 E.01681
G1 X87.542 Y58.565 E.43834
G1 X87.007 Y58.565 E.01681
M73 P3 R27
G1 X96.867 Y68.425 E.43834
G1 X96.333 Y68.425 E.01681
G1 X86.473 Y58.565 E.43834
G1 X85.938 Y58.565 E.01681
G1 X95.798 Y68.425 E.43834
G1 X95.264 Y68.425 E.01681
G1 X85.403 Y58.565 E.43834
G1 X84.869 Y58.565 E.01681
G1 X94.729 Y68.425 E.43834
G1 X94.194 Y68.425 E.01681
G1 X84.68 Y58.911 E.42294
G1 X84.68 Y59.446 E.01681
G1 X93.66 Y68.425 E.39917
G1 X93.125 Y68.425 E.01681
G1 X84.68 Y59.981 E.37541
G1 X84.68 Y60.515 E.01681
G1 X92.59 Y68.425 E.35164
G1 X92.056 Y68.425 E.01681
G1 X84.68 Y61.05 E.32787
G1 X84.68 Y61.585 E.01681
G1 X91.521 Y68.425 E.3041
G1 X90.986 Y68.425 E.01681
G1 X84.68 Y62.119 E.28033
G1 X84.68 Y62.654 E.01681
M73 P4 R27
G1 X90.452 Y68.425 E.25657
G1 X89.917 Y68.425 E.01681
G1 X84.68 Y63.189 E.2328
G1 X84.68 Y63.723 E.01681
G1 X89.382 Y68.425 E.20903
G1 X88.848 Y68.425 E.01681
G1 X84.68 Y64.258 E.18526
G1 X84.68 Y64.793 E.01681
G1 X88.313 Y68.425 E.1615
G1 X87.779 Y68.425 E.01681
G1 X84.68 Y65.327 E.13773
G1 X84.68 Y65.862 E.01681
G1 X87.244 Y68.425 E.11396
G1 X86.709 Y68.425 E.01681
G1 X84.68 Y66.396 E.09019
G1 X84.68 Y66.931 E.01681
G1 X86.175 Y68.425 E.06642
G1 X85.64 Y68.425 E.01681
G1 X84.68 Y67.466 E.04266
G1 X84.68 Y68 E.01681
G1 X85.275 Y68.595 E.02643
M204 P1000
; stop printing object set_box_mini_prototype_with_snap_fit_003.stl_2 id:0 copy 0
M106 S84.15
;LAYER_CHANGE
;Z:0.35
;HEIGHT:0.15
;BEFORE_LAYER_CHANGE
G92 E0.0
;0.35


G1 E-2.24 F4200
;WIPE_START
G1 F7200
G1 X84.68 Y68 E-.46596
G1 X84.68 Y67.466 E-.29628
G1 X84.872 Y67.657 E-.14976
;WIPE_END
G1 E-.048 F4200
G1 Z.4 F720
;AFTER_LAYER_CHANGE
;0.35
G1 X81.234 Y67.657 F9000
G1 Z.35 F720
G1 E3.2 F2400
;TYPE:Skirt/Brim
;WIDTH:0.42
G1 X81.233 Y57.495 E.24577
G1 X81.625 Y56.188 E.033
G1 X82.504 Y55.391 E.0287
G1 X89.714 Y51.6 E.19701
G1 X90.821 Y51.327 E.02756
G1 X98.401 Y51.327 E.18332
G1 X99.507 Y51.6 E.02756
G1 X106.717 Y55.391 E.19701
G1 X107.691 Y56.346 E.033
G1 X107.987 Y57.426 E.02707
G1 X110.295 Y136.252 E1.90723
G1 X110.296 Y148.322 E.2919
G1 X109.905 Y149.629 E.033
G1 X108.859 Y150.505 E.033
G1 X107.919 Y150.699 E.02321
G1 X85.919 Y150.699 E.53207
G1 X84.612 Y150.307 E.033
G1 X83.736 Y149.261 E.033
G1 X83.543 Y148.391 E.02155
G1 X81.235 Y69.565 E1.90723
G1 X81.234 Y67.717 E.04468
; printing object set_box_mini_prototype_with_snap_fit_003.stl_2 id:0 copy 0
G1 E-2.24 F4200
;WIPE_START
G1 F7200
G1 X81.234 Y66.071 E-.912
;WIPE_END
G1 E-.048 F4200
G1 Z.55 F720
G1 X84.253 Y58.138 F9000
G1 Z.35 F720
G1 E3.2 F2400
M204 P800
;TYPE:Perimeter
;WIDTH:0.449999
G1 X104.968 Y58.138 E.53973
G1 X104.968 Y68.852 E.27917
G1 X84.253 Y68.852 E.53973
G1 X84.253 Y58.198 E.27761
M204 P1000
G1 X83.836 Y57.72 F9000
M204 P800
;TYPE:External perimeter
G1 F1800
G1 X105.386 Y57.72 E.5615
G1 X105.386 Y69.27 E.30094
G1 X83.836 Y69.27 E.5615
G1 X83.836 Y57.78 E.29938
M204 P1000
G1 X84.23 Y57.785 F9000
G1 E-2.24 F4200
;WIPE_START
G1 F7200
G1 X85.481 Y57.776 E-.912
;WIPE_END
G1 E-.048 F4200
G1 Z.55 F720
G1 X103.99 Y68.727 F9000
G1 Z.35 F720
G1 E3.2 F2400
;TYPE:Solid infill
;WIDTH:0.453883
G1 F4800
G1 X104.654 Y68.062 E.02473
G1 X104.654 Y67.466 E.01568
G1 X103.581 Y68.539 E.03991
G1 X102.985 Y68.539 E.01568
G1 X104.654 Y66.869 E.06209
G1 X104.654 Y66.273 E.01568
G1 X102.389 Y68.539 E.08427
G1 X101.792 Y68.539 E.01568
G1 X104.654 Y65.677 E.10645
G1 X104.654 Y65.08 E.01568
G1 X101.196 Y68.539 E.12863
G1 X100.599 Y68.539 E.01568
G1 X104.654 Y64.484 E.15081
G1 X104.654 Y63.888 E.01568
G1 X100.003 Y68.539 E.17299
G1 X99.407 Y68.539 E.01568
G1 X104.654 Y63.291 E.19517
G1 X104.654 Y62.695 E.01568
G1 X98.81 Y68.539 E.21735
G1 X98.214 Y68.539 E.01568
G1 X104.654 Y62.098 E.23953
G1 X104.654 Y61.502 E.01568
G1 X97.618 Y68.539 E.26171
G1 X97.021 Y68.539 E.01568
G1 X104.654 Y60.906 E.28388
G1 X104.654 Y60.309 E.01568
G1 X96.425 Y68.539 E.30606
G1 X95.828 Y68.539 E.01568
G1 X104.654 Y59.713 E.32824
G1 X104.654 Y59.117 E.01568
G1 X95.232 Y68.539 E.35042
G1 X94.636 Y68.539 E.01568
M73 P5 R27
G1 X104.654 Y58.52 E.3726
G1 X104.654 Y58.451 E.00182
G1 X104.127 Y58.451 E.01387
G1 X94.039 Y68.539 E.37517
G1 X93.443 Y68.539 E.01568
G1 X103.531 Y58.451 E.37517
G1 X102.934 Y58.451 E.01568
G1 X92.847 Y68.539 E.37517
G1 X92.25 Y68.539 E.01568
G1 X102.338 Y58.451 E.37517
G1 X101.742 Y58.451 E.01568
G1 X91.654 Y68.539 E.37517
G1 X91.058 Y68.539 E.01568
G1 X101.145 Y58.451 E.37517
G1 X100.549 Y58.451 E.01568
G1 X90.461 Y68.539 E.37517
G1 X89.865 Y68.539 E.01568
G1 X99.953 Y58.451 E.37517
G1 X99.356 Y58.451 E.01568
G1 X89.268 Y68.539 E.37517
G1 X88.672 Y68.539 E.01568
G1 X98.76 Y58.451 E.37517
G1 X98.163 Y58.451 E.01568
G1 X88.076 Y68.539 E.37517
G1 X87.479 Y68.539 E.01568
G1 X97.567 Y58.451 E.37517
G1 X96.971 Y58.451 E.01568
G1 X86.883 Y68.539 E.37517
G1 X86.287 Y68.539 E.01568
G1 X96.374 Y58.451 E.37517
G1 X95.778 Y58.451 E.01568
G1 X85.69 Y68.539 E.37517
G1 X85.094 Y68.539 E.01568
G1 X95.182 Y58.451 E.37517
G1 X94.585 Y58.451 E.01568
G1 X84.567 Y68.47 E.3726
G1 X84.567 Y67.873 E.01568
G1 X93.989 Y58.451 E.35042
G1 X93.393 Y58.451 E.01568
G1 X84.567 Y67.277 E.32824
G1 X84.567 Y66.681 E.01568
G1 X92.796 Y58.451 E.30606
G1 X92.2 Y58.451 E.01568
G1 X84.567 Y66.084 E.28388
G1 X84.567 Y65.488 E.01568
G1 X91.603 Y58.451 E.2617
G1 X91.007 Y58.451 E.01568
G1 X84.567 Y64.892 E.23952
G1 X84.567 Y64.295 E.01568
G1 X90.411 Y58.451 E.21734
G1 X89.814 Y58.451 E.01568
G1 X84.567 Y63.699 E.19516
G1 X84.567 Y63.103 E.01568
G1 X89.218 Y58.451 E.17298
G1 X88.622 Y58.451 E.01568
G1 X84.567 Y62.506 E.1508
G1 X84.567 Y61.91 E.01568
G1 X88.025 Y58.451 E.12863
G1 X87.429 Y58.451 E.01568
G1 X84.567 Y61.313 E.10645
G1 X84.567 Y60.717 E.01568
G1 X86.833 Y58.451 E.08427
G1 X86.236 Y58.451 E.01568
G1 X84.567 Y60.121 E.06209
G1 X84.567 Y59.524 E.01568
G1 X85.64 Y58.451 E.03991
G1 X85.043 Y58.451 E.01568
G1 X84.379 Y59.116 E.02472
; stop printing object set_box_mini_prototype_with_snap_fit_003.stl_2 id:0 copy 0
M106 S170.85
;LAYER_CHANGE
;Z:0.448113
;HEIGHT:0.0981132
;BEFORE_LAYER_CHANGE
G92 E0.0
;0.448113


G1 E-2.24 F4200
;WIPE_START
G1 F7200
G1 X85.043 Y58.451 E-.52095
G1 X85.64 Y58.451 E-.33049
G1 X85.563 Y58.529 E-.06057
;WIPE_END
G1 E-.048 F4200
G1 Z.55 F720
;AFTER_LAYER_CHANGE
;0.448113
; printing object set_box_mini_prototype_with_snap_fit_003.stl_2 id:0 copy 0
G1 X93.769 Y57.066 F9000
G1 Z.448 F720
G1 E3.2 F2400
;TYPE:Support material
;WIDTH:0.35
;HEIGHT:0.248113
G1 X93.769 Y56.653 E.01265
G1 X95.452 Y56.653 E.0515
G1 X95.452 Y57.066 E.01265
G1 X93.817 Y57.066 E.05004
G1 E-2.24 F4200
;WIPE_START
G1 F7200
G1 X95.452 Y57.066 E-.9059
G1 X95.452 Y57.055 E-.0061
;WIPE_END
G1 E-.048 F4200
G1 Z.648 F720
G1 X93.817 Y70.337 F9000
G1 Z.448 F720
G1 E3.2 F2400
G1 X95.452 Y70.337 E.05004
G1 X95.452 Y69.924 E.01265
G1 X93.769 Y69.924 E.0515
G1 X93.769 Y70.337 E.01265
; stop printing object set_box_mini_prototype_with_snap_fit_003.stl_2 id:0 copy 0
;LAYER_CHANGE
;Z:0.5
;HEIGHT:0.0518868
;BEFORE_LAYER_CHANGE
G92 E0.0
;0.5


G1 E-2.24 F4200
;WIPE_START
G1 F7200
G1 X93.769 Y69.924 E-.22903
G1 X95.002 Y69.924 E-.68297
;WIPE_END
G1 E-.048 F4200
G1 Z.648 F720
;AFTER_LAYER_CHANGE
;0.5
G1 X108.341 Y69.533 F9000
G1 Z.5 F720
G1 E3.2 F2400
;TYPE:Skirt/Brim
;WIDTH:0.42
;HEIGHT:0.15
G1 X110.295 Y136.252 E1.61427
G1 X110.296 Y148.322 E.2919
G1 X109.905 Y149.629 E.033
G1 X108.859 Y150.505 E.033
G1 X107.919 Y150.699 E.02321
G1 X85.919 Y150.699 E.53207
G1 X84.612 Y150.307 E.033
G1 X83.736 Y149.261 E.033
G1 X83.543 Y148.391 E.02155
G1 X81.235 Y69.565 E1.90723
G1 X81.233 Y57.495 E.2919
G1 X81.625 Y56.188 E.033
G1 X82.504 Y55.391 E.0287
G1 X89.714 Y51.6 E.19701
G1 X90.821 Y51.327 E.02756
G1 X98.401 Y51.327 E.18332
G1 X99.507 Y51.6 E.02756
G1 X106.717 Y55.391 E.19701
G1 X107.691 Y56.346 E.033
G1 X107.987 Y57.426 E.02707
G1 X108.339 Y69.473 E.2915
; printing object set_box_mini_prototype_with_snap_fit_003.stl_2 id:0 copy 0
G1 E-2.24 F4200
;WIPE_START
G1 F7200
G1 X108.388 Y71.118 E-.912
;WIPE_END
G1 E-.048 F4200
G1 Z.7 F720
G1 X84.253 Y58.138 F9000
G1 Z.5 F720
G1 E3.2 F2400
M204 P800
;TYPE:Perimeter
;WIDTH:0.449999
G1 X104.968 Y58.138 E.53973
G1 X104.968 Y68.852 E.27917
G1 X84.253 Y68.852 E.53973
G1 X84.253 Y58.198 E.27761
M204 P1000
M73 P6 R27
G1 X83.836 Y57.72 F9000
M204 P800
;TYPE:External perimeter
G1 F1800
G1 X105.386 Y57.72 E.5615
G1 X105.386 Y69.27 E.30094
G1 X83.836 Y69.27 E.5615
G1 X83.836 Y57.78 E.29938
M204 P1000
G1 X84.23 Y57.785 F9000
G1 E-2.24 F4200
