; generated by PrusaSlicer 2.5.0+win64 on 2023-01-19 at 00:28:39 UTC


;
;

;
;
; 

; external perimeters extrusion width = 0.45mm
; perimeters extrusion width = 0.45mm
; infill extrusion width = 0.45mm
; solid infill extrusion width = 0.45mm
; top infill extrusion width = 0.40mm
; first layer extrusion width = 0.42mm

; external perimeters extrusion width = 0.45mm
; perimeters extrusion width = 0.45mm
; infill extrusion width = 0.45mm
; solid infill extrusion width = 0.45mm
; top infill extrusion width = 0.40mm
; first layer extrusion width = 0.42mm

M73 P0 R18
M201 X2500 Y2500 Z400 E5000 ; sets maximum accelerations, mm/sec^2
M203 X180 Y180 Z12 E80 ; sets maximum feedrates, mm / sec
M204 P1250 R1250 T2500 ; sets acceleration (P, T) and retract acceleration (R), mm/sec^2
M205 X8.00 Y8.00 Z2.00 E10.00 ; sets the jerk limits, mm/sec
M205 S0 T0 ; sets the minimum extruding and travel feed rate, mm/sec
M107
;TYPE:Custom
M862.3 P "MINI" ; printer model check
G90 ; use absolute coordinates
M83 ; extruder relative mode
M104 S170 ; set extruder temp for bed leveling
M140 S60 ; set bed temp
M109 R170 ; wait for bed leveling temp
M190 S60 ; wait for bed temp
M204 T1250 ; set travel acceleration
G28 ; home all without mesh bed level
G29 ; mesh bed leveling 
M204 T2500 ; restore travel acceleration
M104 S215 ; set extruder temp
G92 E0
G1 Y-2 X179 F2400
G1 Z3 F720
M109 S215 ; wait for extruder temp

; intro line
G1 X170 F1000
G1 Z0.2 F720
G1 X110 E8 F900
G1 X40 E10 F700
G92 E0

M221 S95 ; set flow
G21 ; set units to millimeters
G90 ; use absolute coordinates
M83 ; use relative distances for extrusion
M900 K0.2 ; Filament gcode LA 1.5
; ; Filament gcode LA 1.0
M107
;LAYER_CHANGE
;Z:0.2
;HEIGHT:0.2
;BEFORE_LAYER_CHANGE
G92 E0.0
;0.2


G1 E-3.2 F4200
M73 P1 R18
G1 Z.2 F720
;AFTER_LAYER_CHANGE
;0.2
G1 Z.4
G1 X82.373 Y65.453 F9000
G1 Z.2 F720
G1 E3.2 F2400
M204 P800
;TYPE:Skirt/Brim
;WIDTH:0.42
G1 F1200
G1 X82.873 Y64.953 E.02217
G1 X84.82 Y64.146 E.06609
G1 X95.181 Y64.146 E.32486
G1 X97.128 Y64.953 E.06609
G1 X97.628 Y65.453 E.02217
G1 X98.435 Y67.4 E.06609
G1 X98.435 Y88.096 E.6489
G1 X98.042 Y89.513 E.04612
G1 X96.976 Y90.526 E.04612
G1 X95.681 Y90.85 E.04186
G1 X84.32 Y90.85 E.35622
G1 X82.903 Y90.457 E.04612
G1 X81.889 Y89.391 E.04612
G1 X81.566 Y88.096 E.04186
G1 X81.566 Y67.4 E.6489
G1 X82.35 Y65.508 E.06421
M204 P1000
G1 X82.639 Y65.719 F9000
M204 P800
G1 F1200
G1 X83.139 Y65.219 E.02217
G1 X84.82 Y64.523 E.05704
G1 X95.181 Y64.523 E.32486
G1 X96.862 Y65.219 E.05704
G1 X97.362 Y65.719 E.02217
G1 X98.058 Y67.4 E.05704
G1 X98.058 Y88.096 E.6489
G1 X97.666 Y89.403 E.04278
G1 X96.621 Y90.279 E.04278
G1 X95.681 Y90.473 E.03008
M73 P2 R18
G1 X84.32 Y90.473 E.35622
G1 X83.013 Y90.081 E.04278
G1 X82.137 Y89.035 E.04278
G1 X81.943 Y88.096 E.03008
G1 X81.943 Y67.4 E.6489
G1 X82.616 Y65.775 E.05516
M204 P1000
; printing object set_box_mini_prototype_with_snap_fit_008.stl_1 id:0 copy 0
G1 E-2.24 F4200
;WIPE_START
G1 F7200
G1 X83.139 Y65.219 E-.42277
G1 X83.955 Y64.881 E-.48924
;WIPE_END
G1 E-.048 F4200
G1 Z.4 F720
G1 X94.494 Y71.913 F9000
G1 Z.2 F720
G1 E3.2 F2400
M204 P800
;TYPE:Perimeter
;WIDTH:0.419999
G1 F1200
G1 X85.507 Y71.913 E.28178
G1 X85.507 Y68.087 E.11996
G1 X94.494 Y68.087 E.28178
G1 X94.494 Y71.853 E.11808
M204 P1000
G1 X94.871 Y72.29 F9000
M204 P800
;TYPE:External perimeter
G1 F1200
G1 X85.13 Y72.29 E.30542
G1 X85.13 Y67.71 E.1436
G1 X94.871 Y67.71 E.30542
G1 X94.871 Y72.23 E.14172
M204 P1000
G1 X94.475 Y72.232 F9000
G1 E-2.24 F4200
;WIPE_START
G1 F7200
G1 X93.225 Y72.24 E-.912
;WIPE_END
G1 E-.048 F4200
G1 Z.4 F720
G1 X93.607 Y68.2 F9000
G1 Z.2 F720
G1 E3.2 F2400
M204 P800
;TYPE:Solid infill
;WIDTH:0.425238
G1 F1200
G1 X94.211 Y68.804 E.02714
G1 X94.211 Y69.345 E.01719
G1 X93.236 Y68.37 E.04382
G1 X92.696 Y68.37 E.01719
G1 X94.211 Y69.885 E.06813
G1 X94.211 Y70.426 E.01719
G1 X92.155 Y68.37 E.09244
G1 X91.614 Y68.37 E.01719
G1 X94.211 Y70.967 E.11674
G1 X94.211 Y71.507 E.01719
G1 X91.074 Y68.37 E.14105
G1 X90.533 Y68.37 E.01719
G1 X93.793 Y71.63 E.14657
G1 X93.253 Y71.63 E.01719
G1 X89.992 Y68.37 E.14657
G1 X89.452 Y68.37 E.01719
G1 X92.712 Y71.63 E.14657
G1 X92.171 Y71.63 E.01719
G1 X88.911 Y68.37 E.14657
G1 X88.37 Y68.37 E.01719
G1 X91.631 Y71.63 E.14657
G1 X91.09 Y71.63 E.01719
G1 X87.83 Y68.37 E.14657
G1 X87.289 Y68.37 E.01719
G1 X90.549 Y71.63 E.14657
G1 X90.009 Y71.63 E.01719
G1 X86.748 Y68.37 E.14657
G1 X86.208 Y68.37 E.01719
G1 X89.468 Y71.63 E.14657
G1 X88.927 Y71.63 E.01719
G1 X85.79 Y68.493 E.14105
G1 X85.79 Y69.034 E.01719
G1 X88.386 Y71.63 E.11674
G1 X87.846 Y71.63 E.01719
G1 X85.79 Y69.574 E.09243
G1 X85.79 Y70.115 E.01719
G1 X87.305 Y71.63 E.06812
G1 X86.764 Y71.63 E.01719
G1 X85.79 Y70.656 E.04381
G1 X85.79 Y71.196 E.01719
G1 X86.393 Y71.8 E.02714
M204 P1000
; stop printing object set_box_mini_prototype_with_snap_fit_008.stl_1 id:0 copy 0
; printing object set_box_mini_prototype_with_snap_fit_008.stl_2 id:1 copy 0
G1 E-2.24 F4200
;WIPE_START
G1 F7200
G1 X85.79 Y71.196 E-.47303
G1 X85.79 Y70.656 E-.29963
G1 X85.968 Y70.833 E-.13934
;WIPE_END
G1 E-.048 F4200
G1 Z.4 F720
G1 X94.494 Y87.309 F9000
G1 Z.2 F720
G1 E3.2 F2400
M204 P800
;TYPE:Perimeter
;WIDTH:0.419999
G1 F1200
G1 X85.507 Y87.309 E.28178
G1 X85.507 Y83.483 E.11996
G1 X94.494 Y83.483 E.28178
G1 X94.494 Y87.249 E.11808
M204 P1000
M73 P3 R18
G1 X94.871 Y87.686 F9000
M204 P800
;TYPE:External perimeter
G1 F1200
G1 X85.13 Y87.686 E.30542
G1 X85.13 Y83.106 E.1436
G1 X94.871 Y83.106 E.30542
G1 X94.871 Y87.626 E.14172
M204 P1000
G1 X94.475 Y87.627 F9000
G1 E-2.24 F4200
;WIPE_START
G1 F7200
G1 X93.225 Y87.636 E-.912
;WIPE_END
G1 E-.048 F4200
G1 Z.4 F720
G1 X94.381 Y84.369 F9000
G1 Z.2 F720
G1 E3.2 F2400
M204 P800
;TYPE:Solid infill
;WIDTH:0.425238
G1 F1200
G1 X93.777 Y83.766 E.02714
G1 X93.236 Y83.766 E.01719
G1 X94.211 Y84.74 E.04382
G1 X94.211 Y85.281 E.01719
G1 X92.696 Y83.766 E.06813
G1 X92.155 Y83.766 E.01719
G1 X94.211 Y85.822 E.09244
G1 X94.211 Y86.362 E.01719
G1 X91.614 Y83.766 E.11674
G1 X91.074 Y83.766 E.01719
G1 X94.211 Y86.903 E.14105
G1 X94.211 Y87.026 E.0039
G1 X93.793 Y87.026 E.01328
G1 X90.533 Y83.766 E.14657
G1 X89.992 Y83.766 E.01719
G1 X93.253 Y87.026 E.14657
G1 X92.712 Y87.026 E.01719
G1 X89.452 Y83.766 E.14657
G1 X88.911 Y83.766 E.01719
G1 X92.171 Y87.026 E.14657
G1 X91.631 Y87.026 E.01719
G1 X88.37 Y83.766 E.14657
G1 X87.83 Y83.766 E.01719
G1 X91.09 Y87.026 E.14657
G1 X90.549 Y87.026 E.01719
G1 X87.289 Y83.766 E.14657
G1 X86.748 Y83.766 E.01719
G1 X90.009 Y87.026 E.14657
G1 X89.468 Y87.026 E.01719
G1 X86.208 Y83.766 E.14657
G1 X85.79 Y83.766 E.01328
G1 X85.79 Y83.889 E.00391
G1 X88.927 Y87.026 E.14105
G1 X88.386 Y87.026 E.01719
G1 X85.79 Y84.429 E.11674
G1 X85.79 Y84.97 E.01719
G1 X87.846 Y87.026 E.09243
G1 X87.305 Y87.026 E.01719
G1 X85.79 Y85.511 E.06812
G1 X85.79 Y86.051 E.01719
G1 X86.764 Y87.026 E.04381
G1 X86.224 Y87.026 E.01719
G1 X85.62 Y86.422 E.02714
M204 P1000
; stop printing object set_box_mini_prototype_with_snap_fit_008.stl_2 id:1 copy 0
M106 S84.15
;LAYER_CHANGE
;Z:0.4
;HEIGHT:0.2
;BEFORE_LAYER_CHANGE
G92 E0.0
;0.4


G1 E-2.24 F4200
;WIPE_START
G1 F7200
G1 X86.224 Y87.026 E-.47303
G1 X86.764 Y87.026 E-.29963
G1 X86.587 Y86.848 E-.13934
;WIPE_END
G1 E-.048 F4200
G1 Z.4 F720
;AFTER_LAYER_CHANGE
;0.4
G1 Z.6
G1 X86.587 Y90.85 F9000
G1 Z.4 F720
G1 E3.2 F2400
;TYPE:Skirt/Brim
;WIDTH:0.42
G1 F2306
G1 X84.32 Y90.85 E.07107
G1 X82.903 Y90.457 E.04612
G1 X81.889 Y89.391 E.04612
G1 X81.566 Y88.096 E.04186
G1 X81.566 Y67.4 E.6489
G1 X82.373 Y65.453 E.06609
G1 X82.873 Y64.953 E.02217
G1 X84.82 Y64.146 E.06609
G1 X95.181 Y64.146 E.32486
G1 X97.128 Y64.953 E.06609
G1 X97.628 Y65.453 E.02217
G1 X98.435 Y67.4 E.06609
G1 X98.435 Y88.096 E.6489
G1 X98.042 Y89.513 E.04612
G1 X96.976 Y90.526 E.04612
G1 X95.681 Y90.85 E.04186
G1 X86.647 Y90.85 E.28327
G1 X86.647 Y90.473 F9000
G1 F2306
G1 X84.32 Y90.473 E.07295
G1 X83.013 Y90.081 E.04278
G1 X82.137 Y89.035 E.04278
G1 X81.943 Y88.096 E.03008
G1 X81.943 Y67.4 E.6489
G1 X82.639 Y65.719 E.05704
M73 P3 R17
G1 X83.139 Y65.219 E.02217
G1 X84.82 Y64.523 E.05704
G1 X95.181 Y64.523 E.32486
G1 X96.862 Y65.219 E.05704
G1 X97.362 Y65.719 E.02217
G1 X98.058 Y67.4 E.05704
G1 X98.058 Y88.096 E.6489
G1 X97.666 Y89.403 E.04278
M73 P4 R17
G1 X96.621 Y90.279 E.04278
G1 X95.681 Y90.473 E.03008
G1 X86.707 Y90.473 E.28138
; printing object set_box_mini_prototype_with_snap_fit_008.stl_1 id:0 copy 0
G1 E-2.24 F4200
;WIPE_START
G1 F7200
G1 X85.061 Y90.473 E-.912
;WIPE_END
G1 E-.048 F4200
G1 Z.6 F720
G1 X94.849 Y72.068 F9000
G1 Z.4 F720
G1 E3.2 F2400
M204 P800
;TYPE:Perimeter
;WIDTH:0.449999
G1 F1500
G1 X85.152 Y72.068 E.32823
G1 X85.152 Y67.732 E.14676
G1 X94.849 Y67.732 E.32823
G1 X94.849 Y72.008 E.14473
M204 P1000
G1 X95.256 Y72.475 F9000
M204 P800
;TYPE:External perimeter
G1 F1500
G1 X84.745 Y72.475 E.35578
G1 X84.745 Y67.493 E.16863
G1 X84.913 Y67.325 E.00805
G1 X95.088 Y67.325 E.3444
G1 X95.256 Y67.493 E.00805
G1 X95.256 Y72.415 E.1666
M204 P1000
G1 X94.907 Y72.279 F9000
G1 X93.879 Y71.946
;TYPE:Solid infill
;WIDTH:0.461822
G1 F2306
G1 X94.544 Y71.281 E.03275
G1 X94.544 Y70.689 E.02063
G1 X93.47 Y71.763 E.05291
G1 X92.877 Y71.763 E.02063
G1 X94.544 Y70.096 E.08209
G1 X94.544 Y69.504 E.02063
G1 X92.285 Y71.763 E.11127
G1 X91.692 Y71.763 E.02063
G1 X94.544 Y68.911 E.14045
G1 X94.544 Y68.319 E.02063
G1 X91.1 Y71.763 E.16964
G1 X90.507 Y71.763 E.02063
G1 X94.233 Y68.037 E.1835
G1 X93.64 Y68.037 E.02063
G1 X89.915 Y71.763 E.1835
G1 X89.323 Y71.763 E.02063
G1 X93.048 Y68.037 E.1835
G1 X92.455 Y68.037 E.02063
G1 X88.73 Y71.763 E.1835
G1 X88.138 Y71.763 E.02063
G1 X91.863 Y68.037 E.1835
G1 X91.271 Y68.037 E.02063
G1 X87.545 Y71.763 E.1835
G1 X86.953 Y71.763 E.02063
G1 X90.678 Y68.037 E.1835
G1 X90.086 Y68.037 E.02063
G1 X86.361 Y71.763 E.1835
G1 X85.768 Y71.763 E.02063
G1 X89.493 Y68.037 E.1835
G1 X88.901 Y68.037 E.02063
G1 X85.457 Y71.481 E.16963
G1 X85.457 Y70.889 E.02063
G1 X88.309 Y68.037 E.14045
G1 X87.716 Y68.037 E.02063
G1 X85.457 Y70.296 E.11127
G1 X85.457 Y69.704 E.02063
G1 X87.124 Y68.037 E.08208
G1 X86.531 Y68.037 E.02063
G1 X85.457 Y69.111 E.0529
G1 X85.457 Y68.519 E.02063
G1 X86.122 Y67.854 E.03274
; stop printing object set_box_mini_prototype_with_snap_fit_008.stl_1 id:0 copy 0
; printing object set_box_mini_prototype_with_snap_fit_008.stl_2 id:1 copy 0
G1 E-2.24 F4200
;WIPE_START
G1 F7200
G1 X85.457 Y68.519 E-.52092
G1 X85.457 Y69.111 E-.3283
G1 X85.537 Y69.031 E-.06278
;WIPE_END
G1 E-.048 F4200
G1 Z.6 F720
G1 X94.849 Y87.464 F9000
G1 Z.4 F720
G1 E3.2 F2400
M204 P800
;TYPE:Perimeter
;WIDTH:0.449999
G1 F1500
G1 X85.152 Y87.464 E.32823
G1 X85.152 Y83.128 E.14676
G1 X94.849 Y83.128 E.32823
G1 X94.849 Y87.404 E.14473
M204 P1000
G1 X95.256 Y87.871 F9000
M204 P800
;TYPE:External perimeter
G1 F1500
G1 X84.745 Y87.871 E.35578
G1 X84.745 Y82.889 E.16863
G1 X84.913 Y82.721 E.00805
G1 X95.088 Y82.721 E.3444
G1 X95.256 Y82.889 E.00805
G1 X95.256 Y87.811 E.1666
M204 P1000
G1 X94.907 Y87.674 F9000
G1 X94.727 Y86.494
;TYPE:Solid infill
;WIDTH:0.461822
G1 F2306
G1 X94.062 Y87.158 E.03275
G1 X93.47 Y87.158 E.02063
G1 X94.544 Y86.084 E.05291
G1 X94.544 Y85.492 E.02063
G1 X92.877 Y87.158 E.08209
G1 X92.285 Y87.158 E.02063
G1 X94.544 Y84.899 E.11127
G1 X94.544 Y84.307 E.02063
G1 X91.692 Y87.158 E.14045
G1 X91.1 Y87.158 E.02063
G1 X94.544 Y83.715 E.16964
G1 X94.544 Y83.433 E.00981
G1 X94.233 Y83.433 E.01083
G1 X90.507 Y87.158 E.1835
G1 X89.915 Y87.158 E.02063
G1 X93.64 Y83.433 E.1835
G1 X93.048 Y83.433 E.02063
G1 X89.323 Y87.158 E.1835
G1 X88.73 Y87.158 E.02063
G1 X92.455 Y83.433 E.1835
M73 P5 R17
G1 X91.863 Y83.433 E.02063
G1 X88.138 Y87.158 E.1835
G1 X87.545 Y87.158 E.02063
G1 X91.271 Y83.433 E.1835
G1 X90.678 Y83.433 E.02063
G1 X86.953 Y87.158 E.1835
G1 X86.361 Y87.158 E.02063
G1 X90.086 Y83.433 E.1835
G1 X89.493 Y83.433 E.02064
G1 X85.768 Y87.158 E.1835
G1 X85.457 Y87.158 E.01082
G1 X85.457 Y86.877 E.00981
G1 X88.901 Y83.433 E.16963
G1 X88.309 Y83.433 E.02063
G1 X85.457 Y86.284 E.14045
G1 X85.457 Y85.692 E.02063
G1 X87.716 Y83.433 E.11127
G1 X87.124 Y83.433 E.02063
G1 X85.457 Y85.099 E.08208
G1 X85.457 Y84.507 E.02063
G1 X86.531 Y83.433 E.0529
G1 X85.939 Y83.433 E.02063
G1 X85.274 Y84.098 E.03274
; stop printing object set_box_mini_prototype_with_snap_fit_008.stl_2 id:1 copy 0
M106 S170.85
;LAYER_CHANGE
;Z:0.6
;HEIGHT:0.2
;BEFORE_LAYER_CHANGE
G92 E0.0
;0.6


G1 E-2.24 F4200
;WIPE_START
G1 F7200
G1 X85.939 Y83.433 E-.52092
G1 X86.531 Y83.433 E-.3283
G1 X86.451 Y83.513 E-.06278
;WIPE_END
G1 E-.048 F4200
G1 Z.6 F720
;AFTER_LAYER_CHANGE
;0.6
G1 Z.8
G1 X81.566 Y83.513 F9000
G1 Z.6 F720
G1 E3.2 F2400
;TYPE:Skirt/Brim
;WIDTH:0.42
G1 X81.566 Y67.4 E.50522
G1 X82.373 Y65.453 E.06609
G1 X82.873 Y64.953 E.02217
G1 X84.82 Y64.146 E.06609
G1 X95.181 Y64.146 E.32486
G1 X97.128 Y64.953 E.06609
G1 X97.628 Y65.453 E.02217
G1 X98.435 Y67.4 E.06609
G1 X98.435 Y88.096 E.6489
G1 X98.042 Y89.513 E.04612
G1 X96.976 Y90.526 E.04612
G1 X95.681 Y90.85 E.04186
G1 X84.32 Y90.85 E.35622
G1 X82.903 Y90.457 E.04612
G1 X81.889 Y89.391 E.04612
G1 X81.566 Y88.096 E.04186
G1 X81.566 Y83.573 E.1418
G1 X81.943 Y83.573 F9000
G1 F2400
G1 X81.943 Y67.4 E.5071
G1 X82.639 Y65.719 E.05704
G1 X83.139 Y65.219 E.02217
G1 X84.82 Y64.523 E.05704
G1 X95.181 Y64.523 E.32486
G1 X96.862 Y65.219 E.05704
G1 X97.362 Y65.719 E.02217
G1 X98.058 Y67.4 E.05704
G1 X98.058 Y88.096 E.6489
G1 X97.666 Y89.403 E.04278
G1 X96.621 Y90.279 E.04278
G1 X95.681 Y90.473 E.03008
G1 X84.32 Y90.473 E.35622
G1 X83.013 Y90.081 E.04278
G1 X82.137 Y89.035 E.04278
G1 X81.943 Y88.096 E.03008
G1 X81.943 Y83.633 E.13992
; printing object set_box_mini_prototype_with_snap_fit_008.stl_1 id:0 copy 0
G1 E-2.24 F4200
;WIPE_START
G1 F7200
G1 X81.943 Y81.988 E-.912
;WIPE_END
G1 E-.048 F4200
G1 Z.8 F720
G1 X95.049 Y72.068 F9000
G1 Z.6 F720
G1 E3.2 F2400
M204 P800
;TYPE:Perimeter
;WIDTH:0.449999
G1 F1500
G1 X84.952 Y72.068 E.34177
G1 X84.952 Y67.662 E.14914
G1 X85.082 Y67.532 E.00621
G1 X94.919 Y67.532 E.33298
G1 X95.049 Y67.662 E.00621
G1 X95.049 Y72.008 E.14711
M204 P1000
G1 X95.456 Y72.475 F9000
M204 P800
;TYPE:External perimeter
G1 F1500
G1 X84.545 Y72.475 E.36932
G1 X84.545 Y67.493 E.16863
G1 X84.913 Y67.125 E.01763
G1 X95.088 Y67.125 E.3444
G1 X95.456 Y67.493 E.01763
G1 X95.456 Y72.415 E.1666
M204 P1000
G1 X95.105 Y72.283 F9000
G1 E-2.24 F4200
;WIPE_START
G1 F7200
G1 X93.81 Y72.424 E-.912
;WIPE_END
G1 E-.048 F4200
G1 Z.8 F720
G1 X94.923 Y68.508 F9000
G1 Z.6 F720
G1 E3.2 F2400
;TYPE:Solid infill
;WIDTH:0.461738
G1 F2795
G1 X94.256 Y67.842 E.03281
G1 X93.664 Y67.842 E.02064
G1 X94.74 Y68.918 E.053
G1 X94.741 Y69.511 E.02065
G1 X93.071 Y67.842 E.08222
G1 X92.479 Y67.841 E.02064
G1 X94.741 Y70.104 E.11144
G1 X94.742 Y70.697 E.02065
G1 X91.886 Y67.841 E.14067
G1 X91.293 Y67.841 E.02064
G1 X94.743 Y71.29 E.16989
G1 X94.743 Y71.763 E.01645
G1 X94.623 Y71.763 E.0042
G1 X90.701 Y67.84 E.19317
G1 X90.108 Y67.84 E.02064
G1 X94.031 Y71.763 E.19318
G1 X93.438 Y71.763 E.02063
G1 X89.515 Y67.84 E.1932
G1 X88.923 Y67.839 E.02064
M73 P6 R17
G1 X92.846 Y71.763 E.19322
G1 X92.254 Y71.763 E.02063
G1 X88.33 Y67.839 E.19323
G1 X87.738 Y67.839 E.02064
G1 X91.661 Y71.763 E.19325
G1 X91.069 Y71.763 E.02063
G1 X87.145 Y67.838 E.19326
G1 X86.552 Y67.838 E.02064
G1 X90.477 Y71.763 E.19328
G1 X89.885 Y71.763 E.02063
G1 X85.96 Y67.838 E.1933
G1 X85.367 Y67.837 E.02064
G1 X89.292 Y71.763 E.19331
G1 X88.7 Y71.763 E.02063
G1 X85.266 Y68.329 E.1691
G1 X85.265 Y68.92 E.02057
G1 X88.108 Y71.763 E.14001
G1 X87.515 Y71.763 E.02063
G1 X85.263 Y69.511 E.11091
G1 X85.262 Y70.101 E.02057
G1 X86.923 Y71.763 E.08181
G1 X86.331 Y71.763 E.02063
G1 X85.26 Y70.692 E.05272
G1 X85.259 Y71.283 E.02057
G1 X85.922 Y71.946 E.03264
; stop printing object set_box_mini_prototype_with_snap_fit_008.stl_1 id:0 copy 0
; printing object set_box_mini_prototype_with_snap_fit_008.stl_2 id:1 copy 0
G1 E-2.24 F4200
;WIPE_START
G1 F7200
G1 X85.259 Y71.283 E-.51941
G1 X85.26 Y70.692 E-.3274
G1 X85.344 Y70.775 E-.06519
;WIPE_END
G1 E-.048 F4200
G1 Z.8 F720
G1 X95.049 Y87.464 F9000
G1 Z.6 F720
G1 E3.2 F2400
M204 P800
;TYPE:Perimeter
;WIDTH:0.449999
