; generated by PrusaSlicer 2.5.0+win64 on 2023-02-23 at 00:35:32 UTC


;
;

;
;
; 

; external perimeters extrusion width = 0.45mm
; perimeters extrusion width = 0.45mm
; infill extrusion width = 0.45mm
; solid infill extrusion width = 0.45mm
; top infill extrusion width = 0.40mm
; first layer extrusion width = 0.42mm

; external perimeters extrusion width = 0.45mm
; perimeters extrusion width = 0.45mm
; infill extrusion width = 0.45mm
; solid infill extrusion width = 0.45mm
; top infill extrusion width = 0.40mm
; first layer extrusion width = 0.42mm

M73 P0 R25
M201 X2500 Y2500 Z400 E5000 ; sets maximum accelerations, mm/sec^2
M203 X180 Y180 Z12 E80 ; sets maximum feedrates, mm / sec
M204 P1250 R1250 T2500 ; sets acceleration (P, T) and retract acceleration (R), mm/sec^2
M205 X8.00 Y8.00 Z2.00 E10.00 ; sets the jerk limits, mm/sec
M205 S0 T0 ; sets the minimum extruding and travel feed rate, mm/sec
M107
;TYPE:Custom
M862.3 P "MINI" ; printer model check
G90 ; use absolute coordinates
M83 ; extruder relative mode
M104 S170 ; set extruder temp for bed leveling
M140 S60 ; set bed temp
M109 R170 ; wait for bed leveling temp
M190 S60 ; wait for bed temp
M204 T1250 ; set travel acceleration
G28 ; home all without mesh bed level
G29 ; mesh bed leveling 
M204 T2500 ; restore travel acceleration
M104 S215 ; set extruder temp
G92 E0
G1 Y-2 X179 F2400
G1 Z3 F720
M109 S215 ; wait for extruder temp

; intro line
G1 X170 F1000
G1 Z0.2 F720
G1 X110 E8 F900
G1 X40 E10 F700
G92 E0

M221 S95 ; set flow
G21 ; set units to millimeters
G90 ; use absolute coordinates
M83 ; use relative distances for extrusion
M900 K0.2 ; Filament gcode LA 1.5
; ; Filament gcode LA 1.0
M107
;LAYER_CHANGE
;Z:0.2
;HEIGHT:0.2
;BEFORE_LAYER_CHANGE
G92 E0.0
;0.2


G1 E-3.2 F4200
M73 P1 R24
G1 Z.2 F720
;AFTER_LAYER_CHANGE
;0.2
G1 Z.4
G1 X41.153 Y53.289 F9000
G1 Z.2 F720
G1 E3.2 F2400
M204 P800
;TYPE:Skirt/Brim
;WIDTH:0.42
G1 F1200
G1 X41.85 Y52.867 E.02553
G1 X42.598 Y52.552 E.02545
G1 X43.323 Y52.363 E.0235
G1 X103.253 Y41.221 E1.91125
G1 X118.601 Y41.181 E.48123
G1 X119.185 Y41.233 E.01839
G1 X119.89 Y41.426 E.02293
G1 X120.474 Y41.727 E.02058
G1 X120.941 Y42.098 E.01869
G1 X121.328 Y42.546 E.01856
G1 X121.696 Y43.217 E.02401
G1 X121.868 Y43.774 E.01828
G1 X121.95 Y44.482 E.02236
G1 X120.733 Y62.752 E.5741
G1 X120.554 Y63.548 E.0256
G1 X120.258 Y64.237 E.02349
G1 X119.773 Y64.977 E.02776
G1 X119.224 Y65.58 E.02557
G1 X112.076 Y71.202 E.28512
G1 X75.65 Y99.166 E1.43986
G1 X73.815 Y100.405 E.06944
G1 X72.375 Y101.204 E.05163
G1 X70.663 Y101.971 E.05879
G1 X53.216 Y108.444 E.58351
G1 X52.036 Y108.625 E.03742
G1 X51.056 Y108.512 E.03093
G1 X50.24 Y108.188 E.02752
G1 X49.302 Y107.466 E.03713
G1 X48.784 Y106.843 E.0254
G1 X48.349 Y106.154 E.02556
G1 X47.744 Y104.724 E.04868
G1 X40.542 Y76.285 E.91983
G1 X40.203 Y74.627 E.05306
G1 X39.994 Y72.944 E.05316
G1 X38.647 Y57.492 E.48631
G1 X38.784 Y56.563 E.02945
G1 X39.185 Y55.521 E.035
G1 X39.718 Y54.676 E.03134
G1 X40.42 Y53.889 E.03306
G1 X41.107 Y53.327 E.02783
M204 P1000
; printing object TwoBunnys2.stl id:0 copy 0
G1 E-2.24 F4200
;WIPE_START
G1 F7200
G1 X41.85 Y52.867 E-.48421
G1 X42.561 Y52.567 E-.42779
;WIPE_END
G1 E-.048 F4200
G1 Z.4 F720
G1 X110.371 Y63.604 F9000
G1 Z.2 F720
G1 E3.2 F2400
M204 P800
;TYPE:Perimeter
;WIDTH:0.419999
G1 F1200
G1 X110.468 Y63.669 E.00368
G1 X110.938 Y63.843 E.01571
G1 X111.468 Y63.89 E.01669
G1 X112.064 Y63.79 E.01896
G1 X112.51 Y63.589 E.01535
G1 X112.964 Y63.341 E.01621
G1 X113.384 Y63.003 E.0169
G1 X113.875 Y62.492 E.02221
G1 X114.467 Y61.743 E.02993
G1 X114.869 Y61.326 E.01817
G1 X115.294 Y61.081 E.01538
G1 X115.816 Y60.986 E.01662
G1 X116.328 Y61.034 E.01615
G1 X116.719 Y61.156 E.01282
G1 X117.156 Y61.418 E.01598
G1 X117.339 Y61.634 E.00888
G1 X117.507 Y61.898 E.00981
G1 X117.594 Y62.234 E.0109
G1 X117.495 Y62.669 E.01398
G1 X117.192 Y63.128 E.01724
G1 X116.674 Y63.604 E.02205
G1 X116.004 Y64.07 E.02561
G1 X114.635 Y64.914 E.05043
G1 X114.048 Y65.311 E.02222
G1 X113.556 Y65.69 E.01947
G1 X113.045 Y66.131 E.02115
G1 X111.762 Y67.359 E.05568
G1 X111 Y68.017 E.03156
G1 X109.552 Y69.145 E.05755
G1 X107.483 Y70.689 E.08095
M73 P2 R24
G1 X107.008 Y71.015 E.01806
G1 X106.407 Y71.33 E.02128
G1 X105.6 Y71.597 E.02666
G1 X105.021 Y71.728 E.01859
G1 X104.11 Y71.837 E.02877
G1 X103.133 Y71.79 E.03067
G1 X102.403 Y71.633 E.02342
G1 X101.84 Y71.436 E.01869
G1 X101.386 Y71.215 E.01585
G1 X101.067 Y70.999 E.01205
G1 X100.709 Y70.584 E.0172
G1 X100.395 Y70.099 E.0181
G1 X100.093 Y69.526 E.02031
G1 X99.809 Y68.788 E.02479
G1 X99.658 Y68.255 E.01739
G1 X99.56 Y67.611 E.02043
G1 X99.595 Y66.983 E.01969
G1 X99.69 Y66.421 E.01787
G1 X99.832 Y65.833 E.01898
G1 X100.043 Y65.326 E.01722
G1 X100.468 Y64.625 E.02572
G1 X101.069 Y63.86 E.0305
G1 X101.943 Y62.895 E.04083
G1 X102.749 Y62.073 E.03608
G1 X104.474 Y60.426 E.07479
G1 X105.256 Y59.581 E.03611
G1 X105.836 Y58.732 E.03221
G1 X106.046 Y58.27 E.01594
G1 X106.201 Y57.767 E.01649
G1 X106.314 Y57.087 E.02162
G1 X106.27 Y56.151 E.02936
G1 X106.113 Y55.66 E.01618
G1 X105.979 Y55.424 E.00849
G1 X105.673 Y54.987 E.01672
G1 X105.28 Y54.633 E.01659
G1 X104.829 Y54.329 E.01707
G1 X103.848 Y53.756 E.03559
G1 X103.318 Y53.39 E.0202
G1 X102.679 Y52.852 E.02622
G1 X102.239 Y52.358 E.02075
G1 X101.877 Y51.829 E.02009
G1 X101.681 Y51.43 E.01393
G1 X101.552 Y50.966 E.01509
G1 X101.519 Y50.503 E.01456
G1 X101.576 Y50.023 E.01514
G1 X101.754 Y49.392 E.02056
G1 X101.976 Y48.917 E.01646
G1 X102.29 Y48.427 E.01823
G1 X102.684 Y48.032 E.0175
G1 X103.816 Y47.374 E.04105
G1 X104.225 Y47.042 E.01651
G1 X104.348 Y46.903 E.00585
G1 X104.639 Y46.438 E.01718
G1 X104.822 Y45.868 E.01877
G1 X104.883 Y45.281 E.01852
G1 X104.861 Y44.727 E.01738
G1 X104.781 Y44.294 E.01381
G1 X105.159 Y44.334 E.01193
G1 X105.667 Y44.344 E.01592
G1 X118.505 Y44.347 E.40252
G1 X118.743 Y44.399 E.00766
G1 X118.757 Y44.664 E.00829
G1 X118.578 Y45.015 E.01239
G1 X118.149 Y45.508 E.02049
G1 X117.681 Y45.788 E.01708
G1 X117.25 Y46.192 E.01851
G1 X117.128 Y46.372 E.00685
G1 X116.968 Y46.847 E.01569
G1 X116.972 Y47.522 E.02117
G1 X117.127 Y48.041 E.01699
G1 X117.624 Y48.996 E.03373
G1 X117.816 Y49.548 E.01832
G1 X117.864 Y49.988 E.0139
G1 X117.812 Y50.845 E.02691
G1 X117.67 Y51.571 E.02319
G1 X117.473 Y52.15 E.01919
G1 X117.089 Y52.923 E.02707
G1 X116.643 Y53.691 E.02785
G1 X116.19 Y54.392 E.02616
G1 X115.896 Y54.828 E.01649
G1 X115.369 Y55.529 E.02749
G1 X115.025 Y55.92 E.01635
G1 X114.644 Y56.28 E.01643
G1 X114.178 Y56.624 E.01817
G1 X113.267 Y57.144 E.03288
G1 X112.5 Y57.658 E.02896
G1 X112.098 Y57.967 E.01589
G1 X111.193 Y58.803 E.03863
G1 X110.374 Y59.663 E.03725
G1 X109.834 Y60.344 E.02724
G1 X109.482 Y60.979 E.02277
G1 X109.333 Y61.541 E.01821
G1 X109.33 Y62.052 E.01602
G1 X109.446 Y62.515 E.01497
G1 X109.689 Y62.983 E.01654
G1 X110.059 Y63.392 E.0173
G1 X110.321 Y63.57 E.00993
M204 P1000
G1 X110.661 Y63.337 F9000
M204 P800
;TYPE:External perimeter
G1 F1200
G1 X110.944 Y63.457 E.00964
G1 X111.405 Y63.518 E.01458
G1 X112.057 Y63.399 E.02078
G1 X112.7 Y63.065 E.02271
G1 X113.113 Y62.74 E.01649
G1 X113.579 Y62.259 E.02101
G1 X114.182 Y61.495 E.03052
G1 X114.621 Y61.04 E.01982
G1 X115.162 Y60.726 E.01959
G1 X115.551 Y60.624 E.01263
G1 X115.989 Y60.598 E.01375
G1 X116.575 Y60.692 E.01861
G1 X117.021 Y60.871 E.01506
G1 X117.41 Y61.135 E.01475
G1 X117.775 Y61.564 E.01768
G1 X117.936 Y61.946 E.01299
G1 X117.975 Y62.237 E.0092
G1 X117.914 Y62.649 E.01306
G1 X117.782 Y62.956 E.01049
G1 X117.476 Y63.38 E.01639
G1 X116.911 Y63.899 E.02405
G1 X116.211 Y64.386 E.02674
G1 X114.832 Y65.235 E.05076
G1 X114.267 Y65.618 E.02139
G1 X113.802 Y65.976 E.01842
G1 X113.306 Y66.404 E.02054
G1 X112.016 Y67.638 E.05598
G1 X111.24 Y68.308 E.03216
G1 X109.781 Y69.445 E.05797
G1 X107.78 Y70.941 E.07836
G1 X107.251 Y71.312 E.02025
G1 X106.622 Y71.655 E.02247
G1 X105.735 Y71.953 E.02935
G1 X105.12 Y72.095 E.01977
G1 X104.218 Y72.217 E.02853
G1 X103.345 Y72.194 E.0274
G1 X102.825 Y72.121 E.01646
G1 X102.295 Y71.994 E.01708
G1 X101.583 Y71.746 E.02366
G1 X100.98 Y71.427 E.02137
G1 X100.816 Y71.28 E.0069
G1 X100.403 Y70.805 E.01976
G1 X100.07 Y70.29 E.01923
G1 X99.749 Y69.682 E.02154
G1 X99.457 Y68.923 E.02549
G1 X99.288 Y68.33 E.01935
G1 X99.181 Y67.629 E.02224
G1 X99.219 Y66.941 E.02158
G1 X99.337 Y66.247 E.02207
G1 X99.476 Y65.707 E.01749
G1 X99.706 Y65.155 E.01876
G1 X100.158 Y64.41 E.02732
G1 X100.781 Y63.617 E.03163
G1 X101.669 Y62.636 E.04148
G1 X102.484 Y61.805 E.03651
G1 X103.859 Y60.491 E.05962
G1 X104.947 Y59.365 E.04909
G1 X105.477 Y58.602 E.02915
G1 X105.678 Y58.175 E.01479
G1 X105.829 Y57.705 E.01548
G1 X105.942 Y57.025 E.02162
G1 X105.896 Y56.216 E.0254
G1 X105.73 Y55.726 E.01623
G1 X105.422 Y55.283 E.0169
G1 X105.069 Y54.946 E.01533
G1 X104.64 Y54.655 E.01624
G1 X103.727 Y54.126 E.03307
G1 X103.281 Y53.839 E.01664
G1 X102.65 Y53.347 E.02508
G1 X102.276 Y52.988 E.01626
G1 X101.788 Y52.407 E.0238
G1 X101.421 Y51.805 E.02211
G1 X101.226 Y51.294 E.01714
G1 X101.134 Y50.763 E.0169
G1 X101.15 Y50.205 E.01752
G1 X101.247 Y49.762 E.01421
G1 X101.43 Y49.185 E.01898
G1 X101.649 Y48.729 E.01587
G1 X101.995 Y48.192 E.02001
G1 X102.46 Y47.725 E.02066
G1 X103.578 Y47.081 E.04047
G1 X104.029 Y46.703 E.01843
G1 X104.319 Y46.238 E.01718
G1 X104.447 Y45.829 E.01343
G1 X104.508 Y45.242 E.01852
G1 X104.481 Y44.72 E.01639
G1 X104.377 Y44.198 E.01666
G1 X104.226 Y43.787 E.01376
G1 X104.652 Y43.9 E.01383
G1 X105.167 Y43.957 E.01624
G1 X105.667 Y43.967 E.01568
G1 X118.505 Y43.97 E.40252
G1 X118.933 Y44.057 E.0137
G1 X119.066 Y44.182 E.00571
G1 X119.145 Y44.383 E.00677
G1 X119.131 Y44.755 E.0117
G1 X118.928 Y45.18 E.01475
G1 X118.597 Y45.598 E.01673
G1 X118.368 Y45.817 E.00993
G1 X117.875 Y46.112 E.01801
G1 X117.516 Y46.46 E.01569
G1 X117.345 Y46.858 E.01359
G1 X117.329 Y47.367 E.01595
G1 X117.462 Y47.868 E.01626
G1 X117.971 Y48.846 E.03456
G1 X118.186 Y49.464 E.02052
G1 X118.242 Y49.979 E.01625
G1 X118.186 Y50.892 E.02869
G1 X118.036 Y51.668 E.02477
G1 X117.822 Y52.296 E.02078
G1 X117.421 Y53.102 E.02824
G1 X116.964 Y53.888 E.02851
G1 X116.318 Y54.891 E.03741
G1 X115.787 Y55.617 E.0282
G1 X115.43 Y56.044 E.01746
G1 X115.081 Y56.405 E.01574
G1 X114.657 Y56.762 E.01739
G1 X114.049 Y57.14 E.02245
G1 X113.469 Y57.462 E.02079
G1 X112.926 Y57.808 E.02018
G1 X112.35 Y58.248 E.02275
G1 X111.463 Y59.066 E.03781
G1 X110.665 Y59.903 E.03627
G1 X110.158 Y60.536 E.02544
G1 X109.846 Y61.076 E.01953
G1 X109.716 Y61.569 E.01601
G1 X109.707 Y62.035 E.01461
G1 X109.809 Y62.411 E.0122
G1 X109.993 Y62.757 E.0123
G1 X110.177 Y62.975 E.00893
G1 X110.606 Y63.313 E.01714
M204 P1000
G1 X110.666 Y63.644 F9000
G1 E-2.24 F4200
;WIPE_START
G1 F7200
G1 X110.944 Y63.457 E-.20364
G1 X111.405 Y63.518 E-.25778
G1 X112.057 Y63.399 E-.3673
G1 X112.191 Y63.33 E-.08329
;WIPE_END
G1 E-.048 F4200
G1 Z.4 F720
G1 X105.012 Y70.355 F9000
G1 Z.2 F720
G1 E3.2 F2400
M204 P800
;TYPE:Perimeter
G1 F1200
G1 X104.906 Y70.383 E.00344
G1 X104.388 Y70.261 E.01668
G1 X104.062 Y70.052 E.01214
G1 X103.873 Y69.828 E.00919
G1 X103.739 Y69.511 E.0108
G1 X103.718 Y69.131 E.01194
G1 X103.849 Y68.527 E.01937
G1 X104.145 Y67.916 E.0213
G1 X104.647 Y67.351 E.02368
G1 X105.248 Y66.958 E.02252
G1 X105.756 Y66.747 E.01726
G1 X106.633 Y66.524 E.02837
G1 X107.143 Y66.451 E.01616
G1 X107.711 Y66.421 E.01783
G1 X108.205 Y66.435 E.01549
G1 X108.772 Y66.533 E.01804
G1 X108.978 Y66.613 E.00694
G1 X109.291 Y66.852 E.01233
G1 X109.502 Y67.227 E.01349
G1 X109.564 Y67.561 E.01066
G1 X109.514 Y68.019 E.01445
G1 X109.428 Y68.215 E.0067
G1 X109.24 Y68.447 E.00936
G1 X108.914 Y68.632 E.01176
G1 X108.586 Y68.685 E.01043
G1 X107.871 Y68.63 E.02248
G1 X107.02 Y68.729 E.02686
G1 X106.382 Y68.908 E.02079
G1 X106.074 Y69.08 E.01104
G1 X105.944 Y69.333 E.00891
G1 X105.806 Y69.808 E.01553
G1 X105.59 Y70.098 E.01133
G1 X105.237 Y70.295 E.01268
G1 X105.07 Y70.34 E.00541
M204 P1000
G1 X104.97 Y69.982 F9000
M204 P800
;TYPE:External perimeter
G1 F1200
G1 X104.886 Y70.007 E.00272
G1 X104.476 Y69.894 E.01333
G1 X104.214 Y69.665 E.01092
G1 X104.112 Y69.453 E.00738
G1 X104.087 Y69.211 E.00763
G1 X104.218 Y68.607 E.01937
G1 X104.479 Y68.089 E.01819
G1 X104.921 Y67.609 E.02046
G1 X105.445 Y67.28 E.01941
G1 X105.986 Y67.063 E.01827
G1 X106.718 Y66.891 E.02358
G1 X107.379 Y66.814 E.02085
G1 X107.989 Y66.785 E.01916
G1 X108.666 Y66.898 E.02153
G1 X108.952 Y67.044 E.01007
G1 X109.136 Y67.314 E.01023
G1 X109.187 Y67.556 E.00776
G1 X109.168 Y67.868 E.0098
G1 X109.02 Y68.141 E.00974
G1 X108.822 Y68.266 E.00734
G1 X108.614 Y68.309 E.00666
G1 X107.872 Y68.252 E.02334
G1 X106.971 Y68.355 E.02844
G1 X106.124 Y68.593 E.02759
G1 X105.8 Y68.81 E.01222
G1 X105.615 Y69.093 E.01061
G1 X105.494 Y69.581 E.01577
G1 X105.308 Y69.848 E.0102
G1 X105.025 Y69.96 E.00952
M204 P1000
G1 X104.96 Y70.068 F9000
G1 E-2.24 F4200
;WIPE_START
G1 F7200
G1 X104.886 Y70.007 E-.08123
G1 X104.476 Y69.894 E-.23562
G1 X104.214 Y69.665 E-.19303
G1 X104.112 Y69.453 E-.13047
G1 X104.087 Y69.211 E-.1349
G1 X104.139 Y68.97 E-.13676
;WIPE_END
G1 E-.048 F4200
G1 Z.4 F720
G1 X118.466 Y44.974 F9000
G1 Z.2 F720
G1 E3.2 F2400
M204 P800
;TYPE:Solid infill
;WIDTH:0.423268
G1 F1200
G1 X118.134 Y44.641 E.01487
G1 X117.595 Y44.641 E.01703
G1 X118.108 Y45.153 E.02291
G1 X117.984 Y45.277 E.00554
G1 X117.803 Y45.386 E.00669
G1 X117.057 Y44.64 E.03337
G1 X116.518 Y44.639 E.01703
G1 X117.473 Y45.594 E.04269
G1 X117.193 Y45.851 E.01204
G1 X115.98 Y44.639 E.05424
G1 X115.441 Y44.638 E.01703
G1 X116.946 Y46.143 E.0673
G1 X116.871 Y46.253 E.00422
G1 X116.766 Y46.5 E.0085
G1 X114.903 Y44.637 E.08332
G1 X114.364 Y44.637 E.01703
G1 X116.683 Y46.956 E.10373
G1 X116.677 Y47.487 E.01681
G1 X113.826 Y44.636 E.12752
G1 X113.287 Y44.636 E.01703
G1 X116.934 Y48.282 E.1631
G1 X117.363 Y49.108 E.02943
G1 X117.439 Y49.325 E.00726
G1 X112.749 Y44.635 E.20976
G1 X112.21 Y44.634 E.01703
G1 X117.579 Y50.003 E.24014
G1 X117.549 Y50.51 E.01607
G1 X111.672 Y44.634 E.26284
G1 X111.133 Y44.633 E.01703
G1 X117.494 Y50.994 E.28451
G1 X117.407 Y51.445 E.01451
G1 X110.595 Y44.632 E.30468
G1 X110.056 Y44.632 E.01703
M73 P3 R24
G1 X117.276 Y51.852 E.32292
G1 X117.212 Y52.041 E.00633
G1 X117.117 Y52.231 E.0067
G1 X109.518 Y44.631 E.3399
G1 X108.979 Y44.631 E.01703
G1 X116.939 Y52.59 E.356
G1 X116.752 Y52.941 E.01257
G1 X108.441 Y44.63 E.37171
G1 X107.902 Y44.629 E.01703
G1 X116.554 Y53.281 E.38695
G1 X116.353 Y53.618 E.01241
G1 X107.364 Y44.629 E.40206
G1 X106.825 Y44.628 E.01703
G1 X116.142 Y53.945 E.41671
G1 X115.931 Y54.272 E.01231
G1 X106.287 Y44.627 E.43137
G1 X105.748 Y44.627 E.01703
G1 X115.716 Y54.595 E.44583
G1 X115.489 Y54.906 E.01217
G1 X105.198 Y44.615 E.46027
G1 X105.128 Y44.613 E.00223
G1 X105.164 Y45.119 E.01604
G1 X115.262 Y55.216 E.4516
G1 X115.017 Y55.509 E.01208
G1 X105.128 Y45.621 E.44227
G1 X105.103 Y45.904 E.009
G1 X105.053 Y46.084 E.00588
G1 X114.759 Y55.789 E.43408
G1 X114.48 Y56.048 E.01204
G1 X104.923 Y46.492 E.42744
G1 X104.726 Y46.832 E.01244
G1 X114.18 Y56.286 E.42283
G1 X113.851 Y56.495 E.01232
G1 X104.508 Y47.152 E.41789
G1 X104.435 Y47.235 E.00352
G1 X104.223 Y47.405 E.00857
G1 X113.505 Y56.687 E.41514
G1 X113.16 Y56.879 E.01251
G1 X103.924 Y47.644 E.41307
G1 X103.583 Y47.84 E.01246
G1 X112.829 Y57.087 E.41357
G1 X112.506 Y57.301 E.01227
G1 X103.241 Y48.037 E.41436
G1 X102.9 Y48.234 E.01246
G1 X112.2 Y57.533 E.41594
G1 X111.898 Y57.77 E.01212
G1 X102.61 Y48.482 E.41541
G1 X102.377 Y48.787 E.01214
M73 P4 R24
G1 X111.614 Y58.023 E.41313
G1 X111.33 Y58.277 E.01205
G1 X102.181 Y49.128 E.40921
G1 X102.119 Y49.236 E.00392
G1 X102.015 Y49.5 E.00899
G1 X111.055 Y58.54 E.4043
G1 X110.79 Y58.813 E.01203
G1 X101.89 Y49.913 E.39806
G1 X101.808 Y50.285 E.01207
G1 X101.806 Y50.366 E.00257
G1 X110.525 Y59.086 E.38999
G1 X110.26 Y59.359 E.01203
G1 X101.833 Y50.931 E.37693
G1 X101.865 Y51.119 E.00602
G1 X102.016 Y51.513 E.01334
G1 X102.233 Y51.869 E.0132
G1 X104.194 Y53.831 E.08773
M204 P1000
G1 E-2.24 F4200
;WIPE_START
G1 F7200
G1 X103.031 Y52.667 E-.912
;WIPE_END
G1 E-.048 F4200
G1 Z.4 F720
G1 X106.331 Y55.968 F9000
G1 Z.2 F720
G1 E3.2 F2400
M204 P800
G1 F1200
G1 X110.016 Y59.653 E.16483
