; generated by PrusaSlicer 2.5.0+win64 on 2023-04-30 at 15:04:14 UTC


;
;

;
;
; 

; external perimeters extrusion width = 0.45mm
; perimeters extrusion width = 0.45mm
; infill extrusion width = 0.45mm
; solid infill extrusion width = 0.45mm
; top infill extrusion width = 0.40mm
; first layer extrusion width = 0.42mm

; external perimeters extrusion width = 0.45mm
; perimeters extrusion width = 0.45mm
; infill extrusion width = 0.45mm
; solid infill extrusion width = 0.45mm
; top infill extrusion width = 0.40mm
; first layer extrusion width = 0.42mm

M73 P0 R41
M201 X2500 Y2500 Z400 E5000 ; sets maximum accelerations, mm/sec^2
M203 X180 Y180 Z12 E80 ; sets maximum feedrates, mm / sec
M204 P1250 R1250 T2500 ; sets acceleration (P, T) and retract acceleration (R), mm/sec^2
M205 X8.00 Y8.00 Z2.00 E10.00 ; sets the jerk limits, mm/sec
M205 S0 T0 ; sets the minimum extruding and travel feed rate, mm/sec
M107
;TYPE:Custom
M862.3 P "MINI" ; printer model check
G90 ; use absolute coordinates
M83 ; extruder relative mode
M104 S170 ; set extruder temp for bed leveling
M140 S60 ; set bed temp
M109 R170 ; wait for bed leveling temp
M190 S60 ; wait for bed temp
M204 T1250 ; set travel acceleration
G28 ; home all without mesh bed level
G29 ; mesh bed leveling 
M204 T2500 ; restore travel acceleration
M104 S215 ; set extruder temp
G92 E0
G1 Y-2 X179 F2400
G1 Z3 F720
M109 S215 ; wait for extruder temp

; intro line
G1 X170 F1000
G1 Z0.2 F720
G1 X110 E8 F900
G1 X40 E10 F700
G92 E0

M221 S95 ; set flow
G21 ; set units to millimeters
G90 ; use absolute coordinates
M83 ; use relative distances for extrusion
M900 K0.2 ; Filament gcode LA 1.5
; ; Filament gcode LA 1.0
M107
;LAYER_CHANGE
;Z:0.2
;HEIGHT:0.2
;BEFORE_LAYER_CHANGE
G92 E0.0
;0.2


G1 E-3.2 F4200
G1 Z.2 F720
;AFTER_LAYER_CHANGE
;0.2
G1 Z.4
G1 X6.112 Y3.927 F9000
G1 Z.2 F720
G1 E3.2 F2400
M204 P800
;TYPE:Skirt/Brim
;WIDTH:0.42
G1 F1200
G1 X7.158 Y3.051 E.04278
G1 X8.098 Y2.857 E.03008
G1 X102.098 Y2.857 E2.9473
G1 X103.149 Y3.102 E.03385
G1 X159.044 Y30.665 E1.95403
G1 X160.043 Y31.594 E.04278
G1 X160.37 Y32.797 E.03908
G1 X160.37 Y56.797 E.7525
G1 X160.179 Y57.73 E.02989
M73 P1 R41
G1 X141.379 Y101.73 E1.50024
G1 X141.065 Y102.261 E.01933
G1 X85.17 Y173.699 E2.84401
G1 X84.056 Y174.487 E.04278
G1 X83.298 Y174.611 E.02409
G1 X26.898 Y174.611 E1.76838
G1 X25.591 Y174.219 E.04278
G1 X24.712 Y173.168 E.04297
G1 X5.912 Y129.168 E1.50024
G1 X5.721 Y128.234 E.02989
G1 X5.721 Y5.234 E3.85658
G1 X6.095 Y3.984 E.0409
M204 P1000
; printing object intrigue_2nd_div_20_21.stl id:0 copy 0
G1 E-2.24 F4200
;WIPE_START
G1 F7200
G1 X7.158 Y3.051 E-.78411
G1 X7.384 Y3.004 E-.12789
;WIPE_END
G1 E-.048 F4200
G1 Z.4 F720
G1 X58.805 Y165.007 F9000
G1 Z.2 F720
G1 E3.2 F2400
M204 P800
;TYPE:Perimeter
;WIDTH:0.419999
G1 F1200
G1 X58.876 Y165.021 E.00229
G1 X82.511 Y165.021 E.74104
G1 X82.511 Y171.447 E.20148
G1 X27.685 Y171.447 E1.71902
G1 X27.685 Y165.021 E.20148
G1 X51.319 Y165.021 E.74104
G1 X51.417 Y165.013 E.00308
M73 P2 R41
G1 X51.631 Y164.928 E.00721
G1 X51.812 Y164.733 E.00835
G1 X51.885 Y164.455 E.00899
G1 X51.885 Y128.012 E1.14264
G1 X51.877 Y127.92 E.00293
G1 X51.79 Y127.699 E.00744
G1 X51.572 Y127.507 E.0091
G1 X51.319 Y127.447 E.00815
G1 X8.885 Y127.447 E1.3305
G1 X8.885 Y121.021 E.20148
M73 P2 R40
G1 X51.412 Y121.013 E1.33341
G1 X51.633 Y120.926 E.00744
G1 X51.825 Y120.708 E.0091
G1 X51.885 Y120.455 E.00815
G1 X51.885 Y112.012 E.26472
G1 X51.875 Y111.908 E.00328
G1 X51.772 Y111.673 E.00805
G1 X51.537 Y111.49 E.00933
G1 X51.319 Y111.447 E.00696
G1 X8.885 Y111.447 E1.3305
G1 X8.885 Y105.021 E.20148
G1 X101.311 Y105.021 E2.89794
G1 X101.311 Y111.447 E.20148
G1 X58.876 Y111.447 E1.3305
G1 X58.779 Y111.455 E.00308
G1 X58.565 Y111.54 E.00721
G1 X58.384 Y111.735 E.00835
G1 X58.311 Y112.012 E.00899
G1 X58.313 Y120.505 E.26627
G1 X58.406 Y120.769 E.00879
G1 X58.624 Y120.961 E.0091
G1 X58.876 Y121.021 E.00815
G1 X101.311 Y121.021 E1.3305
G1 X101.311 Y127.447 E.20148
G1 X58.876 Y127.447 E1.3305
G1 X58.563 Y127.542 E.01028
G1 X58.371 Y127.76 E.0091
G1 X58.311 Y128.012 E.00815
G1 X58.311 Y164.455 E1.14264
G1 X58.321 Y164.56 E.00328
G1 X58.424 Y164.795 E.00805
G1 X58.659 Y164.978 E.00933
G1 X58.746 Y164.995 E.00279
M204 P1000
G1 X58.876 Y164.644 F9000
M204 P800
;TYPE:External perimeter
G1 F1200
G1 X82.888 Y164.644 E.75286
G1 X82.888 Y171.824 E.22512
M73 P3 R40
G1 X27.308 Y171.824 E1.74267
G1 X27.308 Y164.644 E.22512
G1 X51.319 Y164.644 E.75286
G1 X51.449 Y164.592 E.00439
G1 X51.508 Y164.455 E.00466
G1 X51.508 Y128.012 E1.14264
G1 X51.464 Y127.892 E.00402
G1 X51.319 Y127.824 E.00501
G1 X8.508 Y127.824 E1.34232
G1 X8.508 Y120.644 E.22512
G1 X51.319 Y120.644 E1.34232
G1 X51.44 Y120.6 E.00402
G1 X51.508 Y120.455 E.00501
G1 X51.508 Y112.012 E.26472
G1 X51.449 Y111.876 E.00466
G1 X51.319 Y111.824 E.00439
G1 X8.508 Y111.824 E1.34232
G1 X8.508 Y104.644 E.22512
G1 X101.688 Y104.644 E2.92159
G1 X101.688 Y111.824 E.22512
G1 X58.876 Y111.824 E1.34232
G1 X58.746 Y111.876 E.00439
G1 X58.688 Y112.012 E.00466
G1 X58.688 Y120.455 E.26472
G1 X58.732 Y120.576 E.00402
G1 X58.876 Y120.644 E.00501
G1 X101.688 Y120.644 E1.34232
G1 X101.688 Y127.824 E.22512
G1 X58.876 Y127.824 E1.34232
G1 X58.756 Y127.868 E.00402
M73 P4 R40
G1 X58.688 Y128.012 E.00501
G1 X58.688 Y164.455 E1.14264
G1 X58.746 Y164.592 E.00466
G1 X58.821 Y164.622 E.00251
M204 P1000
G1 X58.98 Y165.03 F9000
G1 E-2.24 F4200
;WIPE_START
G1 F7200
G1 X60.466 Y164.623 E-.912
;WIPE_END
G1 E-.048 F4200
G1 Z.4 F720
G1 X101.198 Y121.954 F9000
G1 Z.2 F720
G1 E3.2 F2400
M204 P800
;TYPE:Solid infill
;WIDTH:0.421329
G1 F1200
G1 X100.548 Y121.304 E.02893
G1 X100.012 Y121.304 E.01684
G1 X101.028 Y122.319 E.0452
G1 X101.028 Y122.854 E.01684
G1 X99.477 Y121.303 E.06901
G1 X98.942 Y121.303 E.01684
G1 X101.028 Y123.39 E.09283
G1 X101.028 Y123.925 E.01684
G1 X98.407 Y121.303 E.11665
G1 X97.871 Y121.303 E.01684
G1 X101.028 Y124.46 E.14047
G1 X101.028 Y124.995 E.01684
G1 X97.336 Y121.303 E.16429
G1 X96.801 Y121.303 E.01684
G1 X101.028 Y125.53 E.18811
G1 X101.028 Y126.065 E.01684
G1 X96.265 Y121.303 E.21193
G1 X95.73 Y121.303 E.01684
G1 X101.028 Y126.6 E.23575
G1 X101.028 Y127.136 E.01684
G1 X95.195 Y121.302 E.25957
G1 X94.66 Y121.302 E.01684
G1 X100.521 Y127.164 E.26084
G1 X99.986 Y127.164 E.01684
G1 X94.124 Y121.302 E.26085
G1 X93.589 Y121.302 E.01684
G1 X99.451 Y127.164 E.26085
G1 X98.916 Y127.164 E.01684
G1 X93.054 Y121.302 E.26086
G1 X92.518 Y121.302 E.01684
G1 X98.381 Y127.164 E.26086
G1 X97.846 Y127.164 E.01684
G1 X91.983 Y121.302 E.26087
G1 X91.448 Y121.301 E.01684
G1 X97.311 Y127.164 E.26087
G1 X96.775 Y127.164 E.01684
G1 X90.913 Y121.301 E.26088
G1 X90.377 Y121.301 E.01684
G1 X96.24 Y127.164 E.26089
G1 X95.705 Y127.164 E.01684
G1 X89.842 Y121.301 E.26089
G1 X89.307 Y121.301 E.01684
G1 X95.17 Y127.164 E.2609
G1 X94.635 Y127.164 E.01684
G1 X88.772 Y121.301 E.2609
G1 X88.236 Y121.301 E.01684
G1 X94.1 Y127.164 E.26091
G1 X93.564 Y127.164 E.01684
G1 X87.701 Y121.301 E.26091
G1 X87.166 Y121.3 E.01684
G1 X93.029 Y127.164 E.26092
M73 P4 R39
G1 X92.494 Y127.164 E.01684
G1 X86.63 Y121.3 E.26093
G1 X86.095 Y121.3 E.01684
G1 X91.959 Y127.164 E.26093
G1 X91.424 Y127.164 E.01684
G1 X85.56 Y121.3 E.26094
G1 X85.025 Y121.3 E.01684
G1 X90.889 Y127.164 E.26094
G1 X90.354 Y127.164 E.01684
G1 X84.489 Y121.3 E.26095
G1 X83.954 Y121.3 E.01684
G1 X89.818 Y127.164 E.26096
G1 X89.283 Y127.164 E.01684
G1 X83.419 Y121.3 E.26096
G1 X82.883 Y121.299 E.01684
G1 X88.748 Y127.164 E.26097
G1 X88.213 Y127.164 E.01684
G1 X82.348 Y121.299 E.26097
G1 X81.813 Y121.299 E.01684
G1 X87.678 Y127.164 E.26098
G1 X87.143 Y127.164 E.01684
G1 X81.278 Y121.299 E.26098
G1 X80.742 Y121.299 E.01684
G1 X86.608 Y127.164 E.26099
G1 X86.072 Y127.164 E.01684
G1 X80.207 Y121.299 E.261
G1 X79.672 Y121.299 E.01684
G1 X85.537 Y127.164 E.261
G1 X85.002 Y127.164 E.01684
G1 X79.136 Y121.298 E.26101
G1 X78.601 Y121.298 E.01684
G1 X84.467 Y127.164 E.26101
G1 X83.932 Y127.164 E.01684
G1 X78.066 Y121.298 E.26102
G1 X77.531 Y121.298 E.01684
G1 X83.397 Y127.164 E.26102
G1 X82.861 Y127.164 E.01684
G1 X76.995 Y121.298 E.26103
G1 X76.46 Y121.298 E.01684
G1 X82.326 Y127.164 E.26104
G1 X81.791 Y127.164 E.01684
G1 X75.925 Y121.298 E.26104
G1 X75.389 Y121.298 E.01684
G1 X81.256 Y127.164 E.26105
G1 X80.721 Y127.164 E.01684
G1 X74.854 Y121.297 E.26105
G1 X74.319 Y121.297 E.01684
G1 X80.186 Y127.164 E.26106
G1 X79.651 Y127.164 E.01684
M73 P5 R39
G1 X73.784 Y121.297 E.26106
G1 X73.248 Y121.297 E.01684
G1 X79.115 Y127.164 E.26107
G1 X78.58 Y127.164 E.01684
G1 X72.713 Y121.297 E.26108
G1 X72.178 Y121.297 E.01684
G1 X78.045 Y127.164 E.26108
G1 X77.51 Y127.164 E.01684
G1 X71.643 Y121.297 E.26109
G1 X71.107 Y121.297 E.01684
G1 X76.975 Y127.164 E.26109
G1 X76.44 Y127.164 E.01684
G1 X70.572 Y121.296 E.2611
G1 X70.037 Y121.296 E.01684
G1 X75.904 Y127.164 E.26111
G1 X75.369 Y127.164 E.01684
G1 X69.501 Y121.296 E.26111
G1 X68.966 Y121.296 E.01684
G1 X74.834 Y127.164 E.26112
G1 X74.299 Y127.164 E.01684
G1 X68.431 Y121.296 E.26112
G1 X67.896 Y121.296 E.01684
G1 X73.764 Y127.164 E.26113
G1 X73.229 Y127.164 E.01684
G1 X67.36 Y121.296 E.26113
G1 X66.825 Y121.296 E.01684
G1 X72.694 Y127.164 E.26114
G1 X72.158 Y127.164 E.01684
G1 X66.29 Y121.295 E.26115
G1 X65.754 Y121.295 E.01684
G1 X71.623 Y127.164 E.26115
G1 X71.088 Y127.164 E.01684
G1 X65.219 Y121.295 E.26116
G1 X64.684 Y121.295 E.01684
G1 X70.553 Y127.164 E.26116
G1 X70.018 Y127.164 E.01684
G1 X64.149 Y121.295 E.26117
G1 X63.613 Y121.295 E.01684
G1 X69.483 Y127.164 E.26117
G1 X68.948 Y127.164 E.01684
G1 X63.078 Y121.295 E.26118
G1 X62.543 Y121.294 E.01684
G1 X68.412 Y127.164 E.26119
G1 X67.877 Y127.164 E.01684
G1 X62.007 Y121.294 E.26119
G1 X61.472 Y121.294 E.01684
G1 X67.342 Y127.164 E.2612
G1 X66.807 Y127.164 E.01684
G1 X60.937 Y121.294 E.2612
G1 X60.402 Y121.294 E.01684
G1 X66.272 Y127.164 E.26121
G1 X65.737 Y127.164 E.01684
G1 X59.866 Y121.294 E.26121
G1 X59.331 Y121.294 E.01684
G1 X65.371 Y127.334 E.26877
M204 P1000
G1 E-2.24 F4200
;WIPE_START
G1 F7200
G1 X64.207 Y126.17 E-.912
;WIPE_END
G1 E-.048 F4200
G1 Z.4 F720
G1 X100.433 Y105.134 F9000
G1 Z.2 F720
G1 E3.2 F2400
M204 P800
G1 F1200
G1 X101.028 Y105.73 E.02649
G1 X101.028 Y106.265 E.01684
G1 X100.067 Y105.304 E.04276
G1 X99.532 Y105.304 E.01684
G1 X101.028 Y106.8 E.06657
G1 X101.028 Y107.335 E.01684
G1 X98.997 Y105.304 E.09038
G1 X98.462 Y105.304 E.01684
G1 X101.028 Y107.87 E.1142
G1 X101.028 Y108.405 E.01684
G1 X97.927 Y105.304 E.13801
G1 X97.391 Y105.304 E.01684
G1 X101.028 Y108.94 E.16182
G1 X101.028 Y109.476 E.01684
G1 X96.856 Y105.304 E.18564
G1 X96.321 Y105.304 E.01684
G1 X101.028 Y110.011 E.20945
G1 X101.028 Y110.546 E.01684
G1 X95.786 Y105.304 E.23326
G1 X95.251 Y105.304 E.01684
G1 X101.028 Y111.081 E.25708
G1 X101.028 Y111.164 E.00261
G1 X100.576 Y111.164 E.01423
G1 X94.716 Y105.304 E.26077
G1 X94.181 Y105.304 E.01684
G1 X100.041 Y111.164 E.26077
G1 X99.506 Y111.164 E.01684
G1 X93.645 Y105.304 E.26077
G1 X93.11 Y105.304 E.01684
G1 X98.971 Y111.164 E.26077
G1 X98.435 Y111.164 E.01684
G1 X92.575 Y105.304 E.26077
G1 X92.04 Y105.304 E.01684
G1 X97.9 Y111.164 E.26077
G1 X97.365 Y111.164 E.01684
G1 X91.505 Y105.304 E.26077
G1 X90.97 Y105.304 E.01684
G1 X96.83 Y111.164 E.26077
G1 X96.295 Y111.164 E.01684
G1 X90.434 Y105.304 E.26077
G1 X89.899 Y105.304 E.01684
G1 X95.76 Y111.164 E.26077
G1 X95.224 Y111.164 E.01684
G1 X89.364 Y105.304 E.26077
G1 X88.829 Y105.304 E.01684
G1 X94.689 Y111.164 E.26077
G1 X94.154 Y111.164 E.01684
G1 X88.294 Y105.304 E.26077
G1 X87.759 Y105.304 E.01684
G1 X93.619 Y111.164 E.26077
G1 X93.084 Y111.164 E.01684
G1 X87.224 Y105.304 E.26077
G1 X86.688 Y105.304 E.01684
G1 X92.549 Y111.164 E.26077
G1 X92.014 Y111.164 E.01684
G1 X86.153 Y105.304 E.26077
G1 X85.618 Y105.304 E.01684
G1 X91.478 Y111.164 E.26077
G1 X90.943 Y111.164 E.01684
G1 X85.083 Y105.304 E.26077
G1 X84.548 Y105.304 E.01684
G1 X90.408 Y111.164 E.26077
G1 X89.873 Y111.164 E.01684
M73 P6 R39
G1 X84.013 Y105.304 E.26077
G1 X83.478 Y105.304 E.01684
G1 X89.338 Y111.164 E.26077
G1 X88.803 Y111.164 E.01684
G1 X82.942 Y105.304 E.26077
G1 X82.407 Y105.304 E.01684
G1 X88.267 Y111.164 E.26077
G1 X87.732 Y111.164 E.01684
G1 X81.872 Y105.304 E.26077
G1 X81.337 Y105.304 E.01684
G1 X87.197 Y111.164 E.26077
G1 X86.662 Y111.164 E.01684
G1 X80.802 Y105.304 E.26077
G1 X80.267 Y105.304 E.01684
G1 X86.127 Y111.164 E.26077
G1 X85.592 Y111.164 E.01684
G1 X79.731 Y105.304 E.26077
G1 X79.196 Y105.304 E.01684
G1 X85.057 Y111.164 E.26077
G1 X84.521 Y111.164 E.01684
G1 X78.661 Y105.304 E.26077
G1 X78.126 Y105.304 E.01684
G1 X83.986 Y111.164 E.26077
G1 X83.451 Y111.164 E.01684
G1 X77.591 Y105.304 E.26077
G1 X77.056 Y105.304 E.01684
G1 X82.916 Y111.164 E.26077
G1 X82.381 Y111.164 E.01684
G1 X76.521 Y105.304 E.26077
G1 X75.985 Y105.304 E.01684
G1 X81.846 Y111.164 E.26077
G1 X81.311 Y111.164 E.01684
G1 X75.45 Y105.304 E.26077
G1 X74.915 Y105.304 E.01684
G1 X80.775 Y111.164 E.26077
G1 X80.24 Y111.164 E.01684
G1 X74.38 Y105.304 E.26077
G1 X73.845 Y105.304 E.01684
G1 X79.705 Y111.164 E.26077
G1 X79.17 Y111.164 E.01684
G1 X73.31 Y105.304 E.26077
G1 X72.775 Y105.304 E.01684
G1 X78.635 Y111.164 E.26077
G1 X78.1 Y111.164 E.01684
G1 X72.239 Y105.304 E.26077
G1 X71.704 Y105.304 E.01684
G1 X77.564 Y111.164 E.26077
G1 X77.029 Y111.164 E.01684
G1 X71.169 Y105.304 E.26077
G1 X70.634 Y105.304 E.01684
G1 X76.494 Y111.164 E.26077
G1 X75.959 Y111.164 E.01684
G1 X70.099 Y105.304 E.26077
G1 X69.564 Y105.304 E.01684
G1 X75.424 Y111.164 E.26077
G1 X74.889 Y111.164 E.01684
G1 X69.028 Y105.304 E.26077
G1 X68.493 Y105.304 E.01684
G1 X74.354 Y111.164 E.26077
G1 X73.818 Y111.164 E.01684
G1 X67.958 Y105.304 E.26077
G1 X67.423 Y105.304 E.01684
G1 X73.283 Y111.164 E.26077
G1 X72.748 Y111.164 E.01684
G1 X66.888 Y105.304 E.26077
G1 X66.353 Y105.304 E.01684
G1 X72.213 Y111.164 E.26077
G1 X71.678 Y111.164 E.01684
G1 X65.818 Y105.304 E.26077
G1 X65.282 Y105.304 E.01684
G1 X71.143 Y111.164 E.26077
G1 X70.608 Y111.164 E.01684
G1 X64.747 Y105.304 E.26077
G1 X64.212 Y105.304 E.01684
G1 X70.072 Y111.164 E.26077
G1 X69.537 Y111.164 E.01684
G1 X63.677 Y105.304 E.26077
G1 X63.142 Y105.304 E.01684
G1 X69.002 Y111.164 E.26077
G1 X68.467 Y111.164 E.01684
G1 X62.607 Y105.304 E.26077
G1 X62.071 Y105.304 E.01684
G1 X67.932 Y111.164 E.26077
G1 X67.397 Y111.164 E.01684
G1 X61.536 Y105.304 E.26077
G1 X61.001 Y105.304 E.01684
G1 X66.861 Y111.164 E.26077
G1 X66.326 Y111.164 E.01684
G1 X60.466 Y105.304 E.26077
G1 X59.931 Y105.304 E.01684
G1 X65.791 Y111.164 E.26077
G1 X65.256 Y111.164 E.01684
G1 X59.396 Y105.304 E.26077
G1 X58.861 Y105.304 E.01684
G1 X64.721 Y111.164 E.26077
G1 X64.186 Y111.164 E.01684
G1 X58.325 Y105.304 E.26077
G1 X57.79 Y105.304 E.01684
G1 X63.651 Y111.164 E.26077
G1 X63.115 Y111.164 E.01684
G1 X57.255 Y105.304 E.26077
G1 X56.72 Y105.304 E.01684
G1 X62.58 Y111.164 E.26077
G1 X62.045 Y111.164 E.01684
M73 P6 R38
G1 X56.185 Y105.304 E.26077
G1 X55.65 Y105.304 E.01684
G1 X61.51 Y111.164 E.26077
G1 X60.975 Y111.164 E.01684
G1 X55.115 Y105.304 E.26077
G1 X54.579 Y105.304 E.01684
M73 P7 R38
G1 X60.44 Y111.164 E.26077
G1 X59.904 Y111.164 E.01684
G1 X54.044 Y105.304 E.26077
G1 X53.509 Y105.304 E.01684
G1 X59.369 Y111.164 E.26077
G1 X58.838 Y111.168 E.01673
G1 X52.974 Y105.304 E.26092
G1 X52.439 Y105.304 E.01684
G1 X58.429 Y111.294 E.26653
G1 X58.198 Y111.502 E.00978
G1 X58.164 Y111.564 E.00223
G1 X51.904 Y105.304 E.27856
G1 X51.368 Y105.304 E.01684
G1 X58.034 Y111.97 E.29662
G1 X58.028 Y112.499 E.01665
G1 X50.833 Y105.304 E.32016
G1 X50.298 Y105.304 E.01684
G1 X58.028 Y113.034 E.34398
G1 X58.029 Y113.569 E.01684
G1 X49.763 Y105.304 E.3678
G1 X49.228 Y105.304 E.01684
G1 X58.029 Y114.105 E.39162
G1 X58.029 Y114.64 E.01684
G1 X48.693 Y105.304 E.41545
G1 X48.158 Y105.304 E.01684
G1 X58.029 Y115.175 E.43927
G1 X58.029 Y115.711 E.01684
G1 X47.622 Y105.304 E.46309
G1 X47.087 Y105.304 E.01684
G1 X58.03 Y116.246 E.48691
G1 X58.03 Y116.781 E.01684
G1 X46.552 Y105.304 E.51073
G1 X46.017 Y105.304 E.01684
G1 X58.03 Y117.317 E.53455
G1 X58.03 Y117.852 E.01684
G1 X52.165 Y111.987 E.261
G1 X52.116 Y111.716 E.00866
