; generated by PrusaSlicer 2.5.0+win64 on 2023-04-29 at 13:48:15 UTC


;
;

;
;
; 

; external perimeters extrusion width = 0.45mm
; perimeters extrusion width = 0.45mm
; infill extrusion width = 0.45mm
; solid infill extrusion width = 0.45mm
; top infill extrusion width = 0.40mm
; first layer extrusion width = 0.42mm

; external perimeters extrusion width = 0.45mm
; perimeters extrusion width = 0.45mm
; infill extrusion width = 0.45mm
; solid infill extrusion width = 0.45mm
; top infill extrusion width = 0.40mm
; first layer extrusion width = 0.42mm

; external perimeters extrusion width = 0.45mm
; perimeters extrusion width = 0.45mm
; infill extrusion width = 0.45mm
; solid infill extrusion width = 0.45mm
; top infill extrusion width = 0.40mm
; first layer extrusion width = 0.42mm

; external perimeters extrusion width = 0.45mm
; perimeters extrusion width = 0.45mm
; infill extrusion width = 0.45mm
; solid infill extrusion width = 0.45mm
; top infill extrusion width = 0.40mm
; first layer extrusion width = 0.42mm

M73 P0 R54
M201 X2500 Y2500 Z400 E5000 ; sets maximum accelerations, mm/sec^2
M203 X180 Y180 Z12 E80 ; sets maximum feedrates, mm / sec
M204 P1250 R1250 T2500 ; sets acceleration (P, T) and retract acceleration (R), mm/sec^2
M205 X8.00 Y8.00 Z2.00 E10.00 ; sets the jerk limits, mm/sec
M205 S0 T0 ; sets the minimum extruding and travel feed rate, mm/sec
M107
;TYPE:Custom
M862.3 P "MINI" ; printer model check
G90 ; use absolute coordinates
M83 ; extruder relative mode
M104 S170 ; set extruder temp for bed leveling
M140 S60 ; set bed temp
M109 R170 ; wait for bed leveling temp
M190 S60 ; wait for bed temp
M204 T1250 ; set travel acceleration
G28 ; home all without mesh bed level
G29 ; mesh bed leveling 
M204 T2500 ; restore travel acceleration
M104 S215 ; set extruder temp
G92 E0
G1 Y-2 X179 F2400
G1 Z3 F720
M109 S215 ; wait for extruder temp

; intro line
G1 X170 F1000
G1 Z0.2 F720
G1 X110 E8 F900
G1 X40 E10 F700
G92 E0

M221 S95 ; set flow
G21 ; set units to millimeters
G90 ; use absolute coordinates
M83 ; use relative distances for extrusion
M900 K0.2 ; Filament gcode LA 1.5
; ; Filament gcode LA 1.0
M107
;LAYER_CHANGE
;Z:0.2
;HEIGHT:0.2
;BEFORE_LAYER_CHANGE
G92 E0.0
;0.2


G1 E-3.2 F4200
G1 Z.2 F720
;AFTER_LAYER_CHANGE
;0.2
G1 Z.4
G1 X26.205 Y11.197 F9000
G1 Z.2 F720
G1 E3.2 F2400
M204 P800
;TYPE:Skirt/Brim
;WIDTH:0.42
G1 F1200
G1 X28.767 Y5.2 E.20447
G1 X29.641 Y4.152 E.04278
G1 X30.953 Y3.757 E.04297
G1 X87.729 Y3.787 E1.78018
G1 X165.001 Y16.177 E2.45373
G1 X166.229 Y16.771 E.04278
G1 X167.001 Y18.524 E.06007
G1 X167.001 Y42.524 E.7525
G1 X166.518 Y159.763 E3.67597
G1 X166.121 Y161.069 E.04278
G1 X164.543 Y162.096 E.05904
G1 X89.209 Y175.03 E2.39662
G1 X32.407 Y175.065 E1.78099
M73 P1 R54
G1 X31.1 Y174.673 E.04278
G1 X30.221 Y173.622 E.04297
G1 X11.421 Y129.622 E1.50024
G1 X11.23 Y128.751 E.02794
G1 X9.777 Y74.197 E1.7111
G1 X9.776 Y50.134 E.75449
G1 X9.967 Y49.2 E.02989
G1 X26.181 Y11.252 E1.29389
M204 P1000
; printing object intrigue_2nd_div_8_11.stl_1 id:0 copy 0
G1 E-2.24 F4200
;WIPE_START
G1 F7200
G1 X26.828 Y9.738 E-.912
;WIPE_END
G1 E-.048 F4200
G1 Z.4 F720
G1 X55.417 Y50.917 F9000
G1 Z.2 F720
G1 E3.2 F2400
M204 P800
;TYPE:Perimeter
;WIDTH:0.419999
G1 F1200
G1 X55.688 Y50.826 E.00897
G1 X55.88 Y50.608 E.0091
G1 X55.94 Y50.355 E.00815
G1 X55.94 Y13.912 E1.14264
G1 X55.93 Y13.808 E.00328
G1 X55.827 Y13.573 E.00805
G1 X55.592 Y13.39 E.00933
G1 X55.375 Y13.347 E.00696
G1 X31.74 Y13.347 E.74104
G1 X31.74 Y6.921 E.20148
G1 X86.566 Y6.921 E1.71902
G1 X86.566 Y13.347 E.20148
G1 X62.932 Y13.347 E.74104
G1 X62.834 Y13.355 E.00308
M73 P1 R53
G1 X62.62 Y13.44 E.00721
G1 X62.439 Y13.635 E.00835
G1 X62.366 Y13.912 E.00899
G1 X62.366 Y50.355 E1.14264
G1 X62.461 Y50.669 E.01028
G1 X62.679 Y50.861 E.0091
G1 X62.932 Y50.921 E.00815
G1 X105.366 Y50.921 E1.3305
G1 X105.366 Y57.347 E.20148
G1 X62.882 Y57.349 E1.33204
G1 X62.618 Y57.442 E.00879
G1 X62.426 Y57.659 E.0091
G1 X62.366 Y57.912 E.00815
G1 X62.376 Y66.459 E.26799
G1 X62.479 Y66.695 E.00805
G1 X62.714 Y66.877 E.00933
G1 X62.932 Y66.921 E.00696
G1 X105.366 Y66.921 E1.3305
G1 X105.366 Y73.347 E.20148
G1 X12.94 Y73.347 E2.89794
G1 X12.94 Y66.921 E.20148
M73 P2 R53
G1 X55.375 Y66.921 E1.3305
G1 X55.472 Y66.912 E.00308
G1 X55.686 Y66.827 E.00721
G1 X55.868 Y66.633 E.00835
G1 X55.94 Y66.355 E.00899
G1 X55.94 Y57.912 E.26472
G1 X55.932 Y57.819 E.00293
G1 X55.845 Y57.599 E.00744
G1 X55.627 Y57.406 E.0091
G1 X55.375 Y57.347 E.00815
G1 X12.94 Y57.347 E1.3305
G1 X12.94 Y50.921 E.20148
G1 X55.357 Y50.921 E1.32996
M204 P1000
G1 X55.375 Y50.544 F9000
M204 P800
;TYPE:External perimeter
G1 F1200
G1 X55.495 Y50.5 E.00402
G1 X55.563 Y50.355 E.00501
G1 X55.563 Y13.912 E1.14264
G1 X55.505 Y13.776 E.00466
G1 X55.375 Y13.724 E.00439
G1 X31.363 Y13.724 E.75286
G1 X31.363 Y6.544 E.22512
G1 X86.943 Y6.544 E1.74267
G1 X86.943 Y13.724 E.22512
G1 X62.932 Y13.724 E.75286
G1 X62.802 Y13.776 E.00439
G1 X62.743 Y13.912 E.00466
G1 X62.743 Y50.355 E1.14264
G1 X62.787 Y50.476 E.00402
G1 X62.932 Y50.544 E.00501
G1 X105.743 Y50.544 E1.34232
G1 X105.743 Y57.724 E.22512
G1 X62.932 Y57.724 E1.34232
G1 X62.811 Y57.767 E.00402
G1 X62.743 Y57.912 E.00501
G1 X62.743 Y66.355 E.26472
G1 X62.802 Y66.492 E.00466
G1 X62.932 Y66.544 E.00439
G1 X105.743 Y66.544 E1.34232
G1 X105.743 Y73.724 E.22512
G1 X12.563 Y73.724 E2.92159
G1 X12.563 Y66.544 E.22512
G1 X55.375 Y66.544 E1.34232
G1 X55.505 Y66.492 E.00439
M73 P3 R53
G1 X55.563 Y66.355 E.00466
G1 X55.563 Y57.912 E.26472
G1 X55.519 Y57.792 E.00402
G1 X55.375 Y57.724 E.00501
G1 X12.563 Y57.724 E1.34232
G1 X12.563 Y50.544 E.22512
G1 X55.315 Y50.544 E1.34044
M204 P1000
G1 X55.468 Y50.632 F9000
G1 E-2.24 F4200
;WIPE_START
G1 F7200
G1 X55.495 Y50.5 E-.10302
G1 X55.563 Y50.355 E-.08863
G1 X55.563 Y49.055 E-.72034
;WIPE_END
G1 E-.048 F4200
G1 Z.4 F720
G1 X105.253 Y67.806 F9000
G1 Z.2 F720
G1 E3.2 F2400
M204 P800
;TYPE:Solid infill
;WIDTH:0.421329
G1 F1200
G1 X104.651 Y67.204 E.02679
G1 X104.116 Y67.204 E.01684
G1 X105.083 Y68.171 E.04305
G1 X105.083 Y68.706 E.01684
G1 X103.581 Y67.204 E.06687
G1 X103.045 Y67.204 E.01684
G1 X105.083 Y69.241 E.09068
G1 X105.083 Y69.777 E.01684
G1 X102.51 Y67.204 E.11449
G1 X101.975 Y67.204 E.01684
G1 X105.083 Y70.312 E.1383
G1 X105.083 Y70.847 E.01684
G1 X101.44 Y67.204 E.16212
G1 X100.905 Y67.204 E.01684
G1 X105.083 Y71.382 E.18593
G1 X105.083 Y71.917 E.01684
G1 X100.37 Y67.204 E.20974
G1 X99.834 Y67.204 E.01684
G1 X105.083 Y72.452 E.23356
G1 X105.083 Y72.988 E.01684
G1 X99.299 Y67.204 E.25737
G1 X98.764 Y67.204 E.01684
G1 X104.624 Y73.064 E.26077
G1 X104.089 Y73.064 E.01684
G1 X98.229 Y67.204 E.26077
G1 X97.694 Y67.204 E.01684
G1 X103.554 Y73.064 E.26077
G1 X103.019 Y73.064 E.01684
G1 X97.159 Y67.204 E.26077
G1 X96.624 Y67.204 E.01684
G1 X102.484 Y73.064 E.26077
G1 X101.949 Y73.064 E.01684
G1 X96.088 Y67.204 E.26077
G1 X95.553 Y67.204 E.01684
G1 X101.414 Y73.064 E.26077
G1 X100.878 Y73.064 E.01684
G1 X95.018 Y67.204 E.26077
G1 X94.483 Y67.204 E.01684
G1 X100.343 Y73.064 E.26077
G1 X99.808 Y73.064 E.01684
G1 X93.948 Y67.204 E.26077
G1 X93.413 Y67.204 E.01684
G1 X99.273 Y73.064 E.26077
M73 P3 R52
G1 X98.738 Y73.064 E.01684
G1 X92.878 Y67.204 E.26077
G1 X92.342 Y67.204 E.01684
G1 X98.203 Y73.064 E.26077
G1 X97.667 Y73.064 E.01684
G1 X91.807 Y67.204 E.26077
G1 X91.272 Y67.204 E.01684
G1 X97.132 Y73.064 E.26077
G1 X96.597 Y73.064 E.01684
G1 X90.737 Y67.204 E.26077
G1 X90.202 Y67.204 E.01684
G1 X96.062 Y73.064 E.26077
G1 X95.527 Y73.064 E.01684
G1 X89.667 Y67.204 E.26077
G1 X89.131 Y67.204 E.01684
G1 X94.992 Y73.064 E.26077
G1 X94.457 Y73.064 E.01684
G1 X88.596 Y67.204 E.26077
G1 X88.061 Y67.204 E.01684
G1 X93.921 Y73.064 E.26077
G1 X93.386 Y73.064 E.01684
G1 X87.526 Y67.204 E.26077
G1 X86.991 Y67.204 E.01684
G1 X92.851 Y73.064 E.26077
G1 X92.316 Y73.064 E.01684
G1 X86.456 Y67.204 E.26077
G1 X85.921 Y67.204 E.01684
G1 X91.781 Y73.064 E.26077
G1 X91.246 Y73.064 E.01684
G1 X85.385 Y67.204 E.26077
G1 X84.85 Y67.204 E.01684
G1 X90.71 Y73.064 E.26077
G1 X90.175 Y73.064 E.01684
G1 X84.315 Y67.204 E.26077
G1 X83.78 Y67.204 E.01684
G1 X89.64 Y73.064 E.26077
G1 X89.105 Y73.064 E.01684
G1 X83.245 Y67.204 E.26077
G1 X82.71 Y67.204 E.01684
G1 X88.57 Y73.064 E.26077
G1 X88.035 Y73.064 E.01684
G1 X82.174 Y67.204 E.26077
G1 X81.639 Y67.204 E.01684
G1 X87.5 Y73.064 E.26077
G1 X86.964 Y73.064 E.01684
G1 X81.104 Y67.204 E.26077
G1 X80.569 Y67.204 E.01684
G1 X86.429 Y73.064 E.26077
G1 X85.894 Y73.064 E.01684
G1 X80.034 Y67.204 E.26077
G1 X79.499 Y67.204 E.01684
G1 X85.359 Y73.064 E.26077
G1 X84.824 Y73.064 E.01684
G1 X78.964 Y67.204 E.26077
G1 X78.428 Y67.204 E.01684
G1 X84.289 Y73.064 E.26077
G1 X83.754 Y73.064 E.01684
G1 X77.893 Y67.204 E.26077
G1 X77.358 Y67.204 E.01684
G1 X83.218 Y73.064 E.26077
G1 X82.683 Y73.064 E.01684
G1 X76.823 Y67.204 E.26077
G1 X76.288 Y67.204 E.01684
G1 X82.148 Y73.064 E.26077
G1 X81.613 Y73.064 E.01684
G1 X75.753 Y67.204 E.26077
G1 X75.218 Y67.204 E.01684
G1 X81.078 Y73.064 E.26077
G1 X80.543 Y73.064 E.01684
G1 X74.682 Y67.204 E.26077
G1 X74.147 Y67.204 E.01684
G1 X80.007 Y73.064 E.26077
G1 X79.472 Y73.064 E.01684
G1 X73.612 Y67.204 E.26077
G1 X73.077 Y67.204 E.01684
G1 X78.937 Y73.064 E.26077
G1 X78.402 Y73.064 E.01684
G1 X72.542 Y67.204 E.26077
G1 X72.007 Y67.204 E.01684
M73 P4 R52
G1 X77.867 Y73.064 E.26077
G1 X77.332 Y73.064 E.01684
G1 X71.471 Y67.204 E.26077
G1 X70.936 Y67.204 E.01684
G1 X76.797 Y73.064 E.26077
G1 X76.261 Y73.064 E.01684
G1 X70.401 Y67.204 E.26077
G1 X69.866 Y67.204 E.01684
G1 X75.726 Y73.064 E.26077
G1 X75.191 Y73.064 E.01684
G1 X69.331 Y67.204 E.26077
G1 X68.796 Y67.204 E.01684
G1 X74.656 Y73.064 E.26077
G1 X74.121 Y73.064 E.01684
G1 X68.261 Y67.204 E.26077
G1 X67.725 Y67.204 E.01684
G1 X73.586 Y73.064 E.26077
G1 X73.051 Y73.064 E.01684
G1 X67.19 Y67.204 E.26077
G1 X66.655 Y67.204 E.01684
G1 X72.515 Y73.064 E.26077
G1 X71.98 Y73.064 E.01684
G1 X66.12 Y67.204 E.26077
G1 X65.585 Y67.204 E.01684
G1 X71.445 Y73.064 E.26077
G1 X70.91 Y73.064 E.01684
G1 X65.05 Y67.204 E.26077
G1 X64.515 Y67.204 E.01684
G1 X70.375 Y73.064 E.26077
G1 X69.84 Y73.064 E.01684
G1 X63.979 Y67.204 E.26077
G1 X63.444 Y67.204 E.01684
G1 X69.474 Y73.234 E.26832
M204 P1000
G1 E-2.24 F4200
;WIPE_START
G1 F7200
G1 X68.31 Y72.07 E-.912
;WIPE_END
G1 E-.048 F4200
G1 Z.4 F720
G1 X104.536 Y51.034 F9000
G1 Z.2 F720
G1 E3.2 F2400
M204 P800
G1 F1200
G1 X105.083 Y51.582 E.02436
G1 X105.083 Y52.117 E.01684
G1 X104.17 Y51.204 E.04063
G1 X103.635 Y51.204 E.01684
G1 X105.083 Y52.652 E.06444
G1 X105.083 Y53.187 E.01684
G1 X103.1 Y51.204 E.08825
G1 X102.565 Y51.204 E.01684
G1 X105.083 Y53.722 E.11207
G1 X105.083 Y54.257 E.01684
G1 X102.03 Y51.204 E.13588
G1 X101.494 Y51.204 E.01684
G1 X105.083 Y54.792 E.15969
G1 X105.083 Y55.328 E.01684
G1 X100.959 Y51.204 E.1835
G1 X100.424 Y51.204 E.01684
G1 X105.083 Y55.863 E.20732
G1 X105.083 Y56.398 E.01684
G1 X99.889 Y51.204 E.23113
G1 X99.354 Y51.204 E.01684
G1 X105.083 Y56.933 E.25494
G1 X105.083 Y57.064 E.00412
G1 X104.679 Y57.064 E.01272
G1 X98.819 Y51.204 E.26077
G1 X98.284 Y51.204 E.01684
G1 X104.144 Y57.064 E.26078
G1 X103.609 Y57.064 E.01683
G1 X97.748 Y51.204 E.26079
G1 X97.213 Y51.204 E.01684
G1 X103.074 Y57.064 E.26079
G1 X102.539 Y57.065 E.01683
G1 X96.678 Y51.204 E.2608
G1 X96.143 Y51.204 E.01684
G1 X102.004 Y57.065 E.2608
G1 X101.469 Y57.065 E.01683
G1 X95.608 Y51.204 E.26081
G1 X95.073 Y51.204 E.01684
G1 X100.934 Y57.065 E.26081
G1 X100.399 Y57.065 E.01683
G1 X94.538 Y51.204 E.26082
G1 X94.002 Y51.204 E.01684
G1 X99.864 Y57.065 E.26083
G1 X99.329 Y57.065 E.01683
G1 X93.467 Y51.204 E.26083
G1 X92.932 Y51.204 E.01684
G1 X98.794 Y57.065 E.26084
G1 X98.259 Y57.066 E.01683
G1 X92.397 Y51.204 E.26084
G1 X91.862 Y51.204 E.01684
G1 X97.724 Y57.066 E.26085
G1 X97.189 Y57.066 E.01683
G1 X91.327 Y51.204 E.26086
G1 X90.791 Y51.204 E.01684
G1 X96.654 Y57.066 E.26086
G1 X96.119 Y57.066 E.01683
G1 X90.256 Y51.204 E.26087
G1 X89.721 Y51.204 E.01684
G1 X95.584 Y57.066 E.26087
G1 X95.049 Y57.066 E.01683
G1 X89.186 Y51.204 E.26088
G1 X88.651 Y51.204 E.01684
G1 X94.514 Y57.067 E.26088
G1 X93.979 Y57.067 E.01683
G1 X88.116 Y51.204 E.26089
G1 X87.581 Y51.204 E.01684
G1 X93.444 Y57.067 E.2609
G1 X92.909 Y57.067 E.01683
G1 X87.045 Y51.204 E.2609
G1 X86.51 Y51.204 E.01684
G1 X92.374 Y57.067 E.26091
G1 X91.839 Y57.067 E.01683
G1 X85.975 Y51.204 E.26091
G1 X85.44 Y51.204 E.01684
G1 X91.304 Y57.067 E.26092
G1 X90.769 Y57.067 E.01683
G1 X84.905 Y51.204 E.26092
G1 X84.37 Y51.204 E.01684
G1 X90.233 Y57.068 E.26093
G1 X89.698 Y57.068 E.01683
G1 X83.834 Y51.204 E.26094
G1 X83.299 Y51.204 E.01684
G1 X89.163 Y57.068 E.26094
G1 X88.628 Y57.068 E.01683
G1 X82.764 Y51.204 E.26095
G1 X82.229 Y51.204 E.01684
G1 X88.093 Y57.068 E.26095
G1 X87.558 Y57.068 E.01683
G1 X81.694 Y51.204 E.26096
G1 X81.159 Y51.204 E.01684
G1 X87.023 Y57.068 E.26096
G1 X86.488 Y57.068 E.01683
G1 X80.624 Y51.204 E.26097
G1 X80.088 Y51.204 E.01684
G1 X85.953 Y57.069 E.26098
G1 X85.418 Y57.069 E.01683
G1 X79.553 Y51.204 E.26098
G1 X79.018 Y51.204 E.01684
G1 X84.883 Y57.069 E.26099
G1 X84.348 Y57.069 E.01683
G1 X78.483 Y51.204 E.26099
G1 X77.948 Y51.204 E.01684
G1 X83.813 Y57.069 E.261
G1 X83.278 Y57.069 E.01683
G1 X77.413 Y51.204 E.26101
G1 X76.878 Y51.204 E.01684
G1 X82.743 Y57.069 E.26101
G1 X82.208 Y57.069 E.01683
G1 X76.342 Y51.204 E.26102
G1 X75.807 Y51.204 E.01684
G1 X81.673 Y57.07 E.26102
G1 X81.138 Y57.07 E.01683
G1 X75.272 Y51.204 E.26103
G1 X74.737 Y51.204 E.01684
G1 X80.603 Y57.07 E.26103
G1 X80.068 Y57.07 E.01683
G1 X74.202 Y51.204 E.26104
G1 X73.667 Y51.204 E.01684
G1 X79.533 Y57.07 E.26105
G1 X78.998 Y57.07 E.01683
M73 P5 R52
G1 X73.131 Y51.204 E.26105
G1 X72.596 Y51.204 E.01684
G1 X78.463 Y57.07 E.26106
G1 X77.928 Y57.071 E.01683
G1 X72.061 Y51.204 E.26106
G1 X71.526 Y51.204 E.01684
G1 X77.393 Y57.071 E.26107
G1 X76.858 Y57.071 E.01683
G1 X70.991 Y51.204 E.26107
G1 X70.456 Y51.204 E.01684
G1 X76.323 Y57.071 E.26108
G1 X75.788 Y57.071 E.01683
G1 X69.921 Y51.204 E.26109
G1 X69.385 Y51.204 E.01684
G1 X75.253 Y57.071 E.26109
G1 X74.718 Y57.071 E.01683
G1 X68.85 Y51.204 E.2611
G1 X68.315 Y51.204 E.01684
G1 X74.183 Y57.071 E.2611
G1 X73.648 Y57.072 E.01683
G1 X67.78 Y51.204 E.26111
G1 X67.245 Y51.204 E.01684
G1 X73.113 Y57.072 E.26111
G1 X72.578 Y57.072 E.01683
G1 X66.71 Y51.204 E.26112
G1 X66.174 Y51.204 E.01684
G1 X72.043 Y57.072 E.26113
G1 X71.508 Y57.072 E.01683
G1 X65.639 Y51.204 E.26113
G1 X65.104 Y51.204 E.01684
G1 X70.973 Y57.072 E.26114
G1 X70.438 Y57.072 E.01683
G1 X64.569 Y51.204 E.26114
G1 X64.034 Y51.204 E.01684
G1 X69.903 Y57.072 E.26115
G1 X69.368 Y57.073 E.01683
G1 X63.329 Y51.034 E.26871
M204 P1000
G1 E-2.24 F4200
;WIPE_START
G1 F7200
G1 X64.493 Y52.198 E-.912
;WIPE_END
G1 E-.048 F4200
G1 Z.4 F720
G1 X86.453 Y7.799 F9000
M73 P5 R51
G1 Z.2 F720
G1 E3.2 F2400
M204 P800
G1 F1200
G1 X85.857 Y7.204 E.02649
G1 X85.322 Y7.204 E.01684
G1 X86.283 Y8.165 E.04276
G1 X86.283 Y8.7 E.01684
G1 X84.787 Y7.204 E.06657
G1 X84.252 Y7.204 E.01684
G1 X86.283 Y9.235 E.09038
G1 X86.283 Y9.77 E.01684
G1 X83.717 Y7.204 E.1142
G1 X83.182 Y7.204 E.01684
G1 X86.283 Y10.305 E.13801
G1 X86.283 Y10.84 E.01684
G1 X82.647 Y7.204 E.16182
G1 X82.111 Y7.204 E.01684
G1 X86.283 Y11.375 E.18564
G1 X86.283 Y11.911 E.01684
G1 X81.576 Y7.204 E.20945
G1 X81.041 Y7.204 E.01684
G1 X86.283 Y12.446 E.23326
G1 X86.283 Y12.981 E.01684
G1 X80.506 Y7.204 E.25708
G1 X79.971 Y7.204 E.01684
G1 X85.831 Y13.064 E.26077
G1 X85.296 Y13.064 E.01684
G1 X79.436 Y7.204 E.26077
G1 X78.901 Y7.204 E.01684
G1 X84.761 Y13.064 E.26077
G1 X84.226 Y13.064 E.01684
G1 X78.365 Y7.204 E.26077
G1 X77.83 Y7.204 E.01684
G1 X83.69 Y13.064 E.26077
G1 X83.155 Y13.064 E.01684
G1 X77.295 Y7.204 E.26077
G1 X76.76 Y7.204 E.01684
G1 X82.62 Y13.064 E.26077
G1 X82.085 Y13.064 E.01684
G1 X76.225 Y7.204 E.26077
G1 X75.69 Y7.204 E.01684
G1 X81.55 Y13.064 E.26077
G1 X81.015 Y13.064 E.01684
G1 X75.154 Y7.204 E.26077
G1 X74.619 Y7.204 E.01684
G1 X80.48 Y13.064 E.26077
G1 X79.944 Y13.064 E.01684
G1 X74.084 Y7.204 E.26077
G1 X73.549 Y7.204 E.01684
G1 X79.409 Y13.064 E.26077
G1 X78.874 Y13.064 E.01684
