; generated by PrusaSlicer 2.5.0+win64 on 2023-04-29 at 15:45:34 UTC


;
;

;
;
; 

; external perimeters extrusion width = 0.45mm
; perimeters extrusion width = 0.45mm
; infill extrusion width = 0.45mm
; solid infill extrusion width = 0.45mm
; top infill extrusion width = 0.40mm
; first layer extrusion width = 0.42mm

; external perimeters extrusion width = 0.45mm
; perimeters extrusion width = 0.45mm
; infill extrusion width = 0.45mm
; solid infill extrusion width = 0.45mm
; top infill extrusion width = 0.40mm
; first layer extrusion width = 0.42mm

; external perimeters extrusion width = 0.45mm
; perimeters extrusion width = 0.45mm
; infill extrusion width = 0.45mm
; solid infill extrusion width = 0.45mm
; top infill extrusion width = 0.40mm
; first layer extrusion width = 0.42mm

; external perimeters extrusion width = 0.45mm
; perimeters extrusion width = 0.45mm
; infill extrusion width = 0.45mm
; solid infill extrusion width = 0.45mm
; top infill extrusion width = 0.40mm
; first layer extrusion width = 0.42mm

M73 P0 R54
M201 X2500 Y2500 Z400 E5000 ; sets maximum accelerations, mm/sec^2
M203 X180 Y180 Z12 E80 ; sets maximum feedrates, mm / sec
M204 P1250 R1250 T2500 ; sets acceleration (P, T) and retract acceleration (R), mm/sec^2
M205 X8.00 Y8.00 Z2.00 E10.00 ; sets the jerk limits, mm/sec
M205 S0 T0 ; sets the minimum extruding and travel feed rate, mm/sec
M107
;TYPE:Custom
M862.3 P "MINI" ; printer model check
G90 ; use absolute coordinates
M83 ; extruder relative mode
M104 S170 ; set extruder temp for bed leveling
M140 S60 ; set bed temp
M109 R170 ; wait for bed leveling temp
M190 S60 ; wait for bed temp
M204 T1250 ; set travel acceleration
G28 ; home all without mesh bed level
G29 ; mesh bed leveling 
M204 T2500 ; restore travel acceleration
M104 S215 ; set extruder temp
G92 E0
G1 Y-2 X179 F2400
G1 Z3 F720
M109 S215 ; wait for extruder temp

; intro line
G1 X170 F1000
G1 Z0.2 F720
G1 X110 E8 F900
G1 X40 E10 F700
G92 E0

M221 S95 ; set flow
G21 ; set units to millimeters
G90 ; use absolute coordinates
M83 ; use relative distances for extrusion
M900 K0.2 ; Filament gcode LA 1.5
; ; Filament gcode LA 1.0
M107
;LAYER_CHANGE
;Z:0.2
;HEIGHT:0.2
;BEFORE_LAYER_CHANGE
G92 E0.0
;0.2


G1 E-3.2 F4200
G1 Z.2 F720
;AFTER_LAYER_CHANGE
;0.2
G1 Z.4
G1 X11.898 Y18.267 F9000
G1 Z.2 F720
G1 E3.2 F2400
M204 P800
;TYPE:Skirt/Brim
;WIDTH:0.42
G1 F1200
G1 X88.327 Y5.101 E2.43165
G1 X145.13 Y5.067 E1.78104
G1 X146.437 Y5.458 E.04278
G1 X147.316 Y6.51 E.04297
G1 X166.116 Y50.51 E1.50024
G1 X166.283 Y51.108 E.01948
G1 X178.571 Y137.256 E2.72845
G1 X178.595 Y161.592 E.76303
G1 X178.203 Y162.899 E.04278
G1 X176.614 Y163.936 E.0595
G1 X93.912 Y177.909 E2.62981
G1 X37.116 Y177.943 E1.7808
M73 P1 R54
G1 X35.809 Y177.551 E.04278
G1 X34.93 Y176.499 E.04297
G1 X16.13 Y132.499 E1.50024
G1 X15.945 Y131.729 E.02483
G1 X9.931 Y44.774 E2.73294
G1 X9.925 Y20.61 E.75765
G1 X10.316 Y19.303 E.04278
G1 X11.848 Y18.3 E.0574
M204 P1000
; printing object intrigue_2nd_div_12_15.stl_3 id:2 copy 0
G1 E-2.24 F4200
;WIPE_START
G1 F7200
G1 X13.47 Y18.02 E-.912
;WIPE_END
G1 E-.048 F4200
G1 Z.4 F720
G1 X69.012 Y124.333 F9000
G1 Z.2 F720
G1 E3.2 F2400
M204 P800
;TYPE:Perimeter
;WIDTH:0.419999
G1 F1200
G1 X69.095 Y124.353 E.00265
G1 X111.529 Y124.353 E1.3305
G1 X111.529 Y130.778 E.20148
G1 X69.095 Y130.778 E1.3305
G1 X68.781 Y130.873 E.01028
G1 X68.589 Y131.091 E.0091
G1 X68.529 Y131.344 E.00815
G1 X68.529 Y167.787 E1.14264
G1 X68.539 Y167.891 E.00328
M73 P1 R53
G1 X68.642 Y168.126 E.00805
G1 X68.877 Y168.309 E.00933
G1 X69.095 Y168.353 E.00696
G1 X92.729 Y168.353 E.74104
G1 X92.729 Y174.778 E.20148
G1 X37.903 Y174.778 E1.71902
G1 X37.903 Y168.353 E.20148
G1 X61.538 Y168.353 E.74104
G1 X61.635 Y168.344 E.00308
G1 X61.849 Y168.259 E.00721
G1 X62.031 Y168.064 E.00835
G1 X62.103 Y167.787 E.00899
G1 X62.095 Y131.251 E1.14556
G1 X62.008 Y131.03 E.00744
G1 X61.791 Y130.838 E.0091
G1 X61.538 Y130.778 E.00815
G1 X19.103 Y130.778 E1.3305
G1 X19.103 Y124.353 E.20148
G1 X61.538 Y124.353 E1.3305
G1 X61.791 Y124.293 E.00815
M73 P2 R53
G1 X62.008 Y124.101 E.0091
G1 X62.043 Y124.04 E.0022
G1 X62.103 Y123.787 E.00815
G1 X62.093 Y115.24 E.26799
G1 X61.99 Y115.005 E.00805
G1 X61.755 Y114.822 E.00933
G1 X61.538 Y114.778 E.00696
G1 X19.103 Y114.778 E1.3305
G1 X19.103 Y108.353 E.20148
G1 X111.529 Y108.353 E2.89794
G1 X111.529 Y114.778 E.20148
G1 X68.997 Y114.787 E1.33356
G1 X68.783 Y114.872 E.00721
G1 X68.602 Y115.067 E.00835
G1 X68.529 Y115.344 E.00899
G1 X68.531 Y123.836 E.26627
G1 X68.624 Y124.101 E.00879
G1 X68.842 Y124.293 E.0091
G1 X68.954 Y124.319 E.00361
M204 P1000
G1 X69.095 Y123.975 F9000
M204 P800
;TYPE:External perimeter
G1 F1200
G1 X111.906 Y123.975 E1.34232
G1 X111.906 Y131.155 E.22512
G1 X69.095 Y131.155 E1.34232
G1 X68.974 Y131.199 E.00402
G1 X68.906 Y131.344 E.00501
G1 X68.906 Y167.787 E1.14264
G1 X68.965 Y167.923 E.00466
G1 X69.095 Y167.975 E.00439
G1 X93.106 Y167.975 E.75286
G1 X93.106 Y175.155 E.22512
G1 X37.526 Y175.155 E1.74267
G1 X37.526 Y167.975 E.22512
G1 X61.538 Y167.975 E.75286
G1 X61.668 Y167.923 E.00439
G1 X61.726 Y167.787 E.00466
G1 X61.726 Y131.344 E1.14264
G1 X61.682 Y131.223 E.00402
G1 X61.538 Y131.155 E.00501
G1 X18.726 Y131.155 E1.34232
G1 X18.726 Y123.975 E.22512
G1 X61.569 Y123.973 E1.34329
G1 X61.694 Y123.891 E.0047
G1 X61.726 Y123.787 E.00343
G1 X61.726 Y115.344 E.26472
G1 X61.668 Y115.207 E.00466
G1 X61.538 Y115.155 E.00439
G1 X18.726 Y115.155 E1.34232
G1 X18.726 Y107.975 E.22512
G1 X111.906 Y107.975 E2.92159
M73 P3 R53
G1 X111.906 Y115.155 E.22512
G1 X69.095 Y115.155 E1.34232
G1 X68.965 Y115.207 E.00439
G1 X68.906 Y115.344 E.00466
G1 X68.906 Y123.787 E.26472
G1 X68.95 Y123.908 E.00402
G1 X69.04 Y123.95 E.00313
M204 P1000
G1 X69.198 Y124.362 F9000
G1 E-2.24 F4200
;WIPE_START
G1 F7200
G1 X70.686 Y123.951 E-.912
;WIPE_END
G1 E-.048 F4200
G1 Z.4 F720
G1 X111.416 Y125.285 F9000
G1 Z.2 F720
G1 E3.2 F2400
M204 P800
;TYPE:Solid infill
;WIDTH:0.421329
G1 F1200
G1 X110.766 Y124.635 E.02893
G1 X110.231 Y124.635 E.01684
G1 X111.246 Y125.651 E.0452
G1 X111.246 Y126.186 E.01684
G1 X109.695 Y124.635 E.06901
G1 X109.16 Y124.635 E.01684
G1 X111.246 Y126.721 E.09283
G1 X111.246 Y127.256 E.01684
G1 X108.625 Y124.635 E.11665
G1 X108.089 Y124.635 E.01684
G1 X111.246 Y127.791 E.14047
G1 X111.246 Y128.326 E.01684
G1 X107.554 Y124.634 E.16429
G1 X107.019 Y124.634 E.01684
G1 X111.246 Y128.862 E.18811
G1 X111.246 Y129.397 E.01684
G1 X106.484 Y124.634 E.21193
G1 X105.948 Y124.634 E.01684
G1 X111.246 Y129.932 E.23575
G1 X111.246 Y130.467 E.01684
G1 X105.413 Y124.634 E.25957
G1 X104.878 Y124.634 E.01684
G1 X110.74 Y130.496 E.26084
G1 X110.204 Y130.496 E.01684
G1 X104.342 Y124.634 E.26084
G1 X103.807 Y124.634 E.01684
G1 X109.669 Y130.496 E.26085
G1 X109.134 Y130.496 E.01684
G1 X103.272 Y124.633 E.26086
G1 X102.737 Y124.633 E.01684
G1 X108.599 Y130.496 E.26086
G1 X108.064 Y130.496 E.01684
G1 X102.201 Y124.633 E.26087
G1 X101.666 Y124.633 E.01684
M73 P3 R52
G1 X107.529 Y130.496 E.26087
G1 X106.994 Y130.496 E.01684
G1 X101.131 Y124.633 E.26088
G1 X100.596 Y124.633 E.01684
G1 X106.458 Y130.496 E.26089
G1 X105.923 Y130.496 E.01684
G1 X100.06 Y124.633 E.26089
G1 X99.525 Y124.632 E.01684
G1 X105.388 Y130.496 E.2609
G1 X104.853 Y130.496 E.01684
G1 X98.99 Y124.632 E.2609
G1 X98.454 Y124.632 E.01684
G1 X104.318 Y130.496 E.26091
G1 X103.783 Y130.496 E.01684
G1 X97.919 Y124.632 E.26091
G1 X97.384 Y124.632 E.01684
G1 X103.247 Y130.496 E.26092
G1 X102.712 Y130.496 E.01684
G1 X96.849 Y124.632 E.26093
G1 X96.313 Y124.632 E.01684
G1 X102.177 Y130.496 E.26093
G1 X101.642 Y130.496 E.01684
G1 X95.778 Y124.632 E.26094
G1 X95.243 Y124.631 E.01684
G1 X101.107 Y130.496 E.26094
G1 X100.572 Y130.496 E.01684
G1 X94.707 Y124.631 E.26095
G1 X94.172 Y124.631 E.01684
G1 X100.037 Y130.496 E.26095
G1 X99.501 Y130.496 E.01684
G1 X93.637 Y124.631 E.26096
G1 X93.102 Y124.631 E.01684
G1 X98.966 Y130.496 E.26097
G1 X98.431 Y130.496 E.01684
G1 X92.566 Y124.631 E.26097
G1 X92.031 Y124.631 E.01684
G1 X97.896 Y130.496 E.26098
G1 X97.361 Y130.496 E.01684
G1 X91.496 Y124.631 E.26098
G1 X90.96 Y124.63 E.01684
G1 X96.826 Y130.496 E.26099
G1 X96.29 Y130.496 E.01684
G1 X90.425 Y124.63 E.26099
G1 X89.89 Y124.63 E.01684
G1 X95.755 Y130.496 E.261
G1 X95.22 Y130.496 E.01684
G1 X89.355 Y124.63 E.26101
G1 X88.819 Y124.63 E.01684
G1 X94.685 Y130.496 E.26101
G1 X94.15 Y130.496 E.01684
G1 X88.284 Y124.63 E.26102
G1 X87.749 Y124.63 E.01684
G1 X93.615 Y130.496 E.26102
G1 X93.08 Y130.496 E.01684
G1 X87.213 Y124.629 E.26103
G1 X86.678 Y124.629 E.01684
G1 X92.544 Y130.496 E.26103
G1 X92.009 Y130.496 E.01684
G1 X86.143 Y124.629 E.26104
G1 X85.608 Y124.629 E.01684
G1 X91.474 Y130.496 E.26105
G1 X90.939 Y130.496 E.01684
G1 X85.072 Y124.629 E.26105
G1 X84.537 Y124.629 E.01684
G1 X90.404 Y130.496 E.26106
G1 X89.869 Y130.496 E.01684
G1 X84.002 Y124.629 E.26106
G1 X83.467 Y124.629 E.01684
G1 X89.334 Y130.496 E.26107
G1 X88.798 Y130.496 E.01684
G1 X82.931 Y124.628 E.26108
G1 X82.396 Y124.628 E.01684
G1 X88.263 Y130.496 E.26108
G1 X87.728 Y130.496 E.01684
G1 X81.861 Y124.628 E.26109
G1 X81.325 Y124.628 E.01684
G1 X87.193 Y130.496 E.26109
G1 X86.658 Y130.496 E.01684
G1 X80.79 Y124.628 E.2611
G1 X80.255 Y124.628 E.01684
G1 X86.123 Y130.496 E.2611
G1 X85.587 Y130.496 E.01684
G1 X79.72 Y124.628 E.26111
G1 X79.184 Y124.628 E.01684
M73 P4 R52
G1 X85.052 Y130.496 E.26112
G1 X84.517 Y130.496 E.01684
G1 X78.649 Y124.627 E.26112
G1 X78.114 Y124.627 E.01684
G1 X83.982 Y130.496 E.26113
G1 X83.447 Y130.496 E.01684
G1 X77.578 Y124.627 E.26113
G1 X77.043 Y124.627 E.01684
G1 X82.912 Y130.496 E.26114
G1 X82.377 Y130.496 E.01684
G1 X76.508 Y124.627 E.26114
G1 X75.973 Y124.627 E.01684
G1 X81.841 Y130.496 E.26115
G1 X81.306 Y130.496 E.01684
G1 X75.437 Y124.627 E.26116
G1 X74.902 Y124.627 E.01684
G1 X80.771 Y130.496 E.26116
G1 X80.236 Y130.496 E.01684
G1 X74.367 Y124.626 E.26117
G1 X73.831 Y124.626 E.01684
G1 X79.701 Y130.496 E.26117
G1 X79.166 Y130.496 E.01684
G1 X73.296 Y124.626 E.26118
G1 X72.761 Y124.626 E.01684
G1 X78.63 Y130.496 E.26118
G1 X78.095 Y130.496 E.01684
G1 X72.226 Y124.626 E.26119
G1 X71.69 Y124.626 E.01684
G1 X77.56 Y130.496 E.2612
G1 X77.025 Y130.496 E.01684
G1 X71.155 Y124.626 E.2612
G1 X70.62 Y124.625 E.01684
G1 X76.49 Y130.496 E.26121
G1 X75.955 Y130.496 E.01684
G1 X70.084 Y124.625 E.26121
G1 X69.549 Y124.625 E.01684
G1 X75.589 Y130.665 E.26877
M204 P1000
G1 E-2.24 F4200
;WIPE_START
G1 F7200
G1 X74.426 Y129.502 E-.912
;WIPE_END
G1 E-.048 F4200
G1 Z.4 F720
G1 X110.651 Y108.466 F9000
G1 Z.2 F720
G1 E3.2 F2400
M204 P800
G1 F1200
G1 X111.246 Y109.061 E.02649
G1 X111.246 Y109.596 E.01684
G1 X110.285 Y108.635 E.04276
G1 X109.75 Y108.635 E.01684
G1 X111.246 Y110.131 E.06657
G1 X111.246 Y110.666 E.01684
G1 X109.215 Y108.635 E.09038
G1 X108.68 Y108.635 E.01684
G1 X111.246 Y111.202 E.1142
G1 X111.246 Y111.737 E.01684
G1 X108.145 Y108.635 E.13801
G1 X107.61 Y108.635 E.01684
G1 X111.246 Y112.272 E.16182
G1 X111.246 Y112.807 E.01684
G1 X107.074 Y108.635 E.18564
G1 X106.539 Y108.635 E.01684
G1 X111.246 Y113.342 E.20945
G1 X111.246 Y113.877 E.01684
G1 X106.004 Y108.635 E.23326
G1 X105.469 Y108.635 E.01684
G1 X111.246 Y114.413 E.25708
G1 X111.246 Y114.496 E.00261
G1 X110.794 Y114.496 E.01423
G1 X104.934 Y108.635 E.26077
G1 X104.399 Y108.635 E.01684
G1 X110.259 Y114.496 E.26077
G1 X109.724 Y114.496 E.01684
G1 X103.864 Y108.635 E.26077
G1 X103.328 Y108.635 E.01684
G1 X109.189 Y114.496 E.26077
G1 X108.653 Y114.496 E.01684
G1 X102.793 Y108.635 E.26077
G1 X102.258 Y108.635 E.01684
G1 X108.118 Y114.496 E.26077
G1 X107.583 Y114.496 E.01684
G1 X101.723 Y108.635 E.26077
G1 X101.188 Y108.635 E.01684
G1 X107.048 Y114.496 E.26077
G1 X106.513 Y114.496 E.01684
G1 X100.653 Y108.635 E.26077
G1 X100.117 Y108.635 E.01684
G1 X105.978 Y114.496 E.26077
G1 X105.443 Y114.496 E.01684
G1 X99.582 Y108.635 E.26077
G1 X99.047 Y108.635 E.01684
G1 X104.907 Y114.496 E.26077
G1 X104.372 Y114.496 E.01684
G1 X98.512 Y108.635 E.26077
G1 X97.977 Y108.635 E.01684
G1 X103.837 Y114.496 E.26077
G1 X103.302 Y114.496 E.01684
G1 X97.442 Y108.635 E.26077
G1 X96.907 Y108.635 E.01684
G1 X102.767 Y114.496 E.26077
G1 X102.232 Y114.496 E.01684
G1 X96.371 Y108.635 E.26077
G1 X95.836 Y108.635 E.01684
G1 X101.697 Y114.496 E.26077
G1 X101.161 Y114.496 E.01684
G1 X95.301 Y108.635 E.26077
G1 X94.766 Y108.635 E.01684
G1 X100.626 Y114.496 E.26077
G1 X100.091 Y114.496 E.01684
G1 X94.231 Y108.635 E.26077
G1 X93.696 Y108.635 E.01684
G1 X99.556 Y114.496 E.26077
G1 X99.021 Y114.496 E.01684
G1 X93.161 Y108.635 E.26077
G1 X92.625 Y108.635 E.01684
G1 X98.486 Y114.496 E.26077
G1 X97.95 Y114.496 E.01684
G1 X92.09 Y108.635 E.26077
G1 X91.555 Y108.635 E.01684
G1 X97.415 Y114.496 E.26077
G1 X96.88 Y114.496 E.01684
G1 X91.02 Y108.635 E.26077
G1 X90.485 Y108.635 E.01684
G1 X96.345 Y114.496 E.26077
G1 X95.81 Y114.496 E.01684
G1 X89.95 Y108.635 E.26077
G1 X89.414 Y108.635 E.01684
G1 X95.275 Y114.496 E.26077
G1 X94.74 Y114.496 E.01684
G1 X88.879 Y108.635 E.26077
G1 X88.344 Y108.635 E.01684
G1 X94.204 Y114.496 E.26077
G1 X93.669 Y114.496 E.01684
G1 X87.809 Y108.635 E.26077
G1 X87.274 Y108.635 E.01684
G1 X93.134 Y114.496 E.26077
G1 X92.599 Y114.496 E.01684
G1 X86.739 Y108.635 E.26077
G1 X86.204 Y108.635 E.01684
G1 X92.064 Y114.496 E.26077
G1 X91.529 Y114.496 E.01684
G1 X85.668 Y108.635 E.26077
G1 X85.133 Y108.635 E.01684
G1 X90.994 Y114.496 E.26077
G1 X90.458 Y114.496 E.01684
G1 X84.598 Y108.635 E.26077
G1 X84.063 Y108.635 E.01684
G1 X89.923 Y114.496 E.26077
G1 X89.388 Y114.496 E.01684
G1 X83.528 Y108.635 E.26077
G1 X82.993 Y108.635 E.01684
G1 X88.853 Y114.496 E.26077
G1 X88.318 Y114.496 E.01684
G1 X82.457 Y108.635 E.26077
G1 X81.922 Y108.635 E.01684
G1 X87.783 Y114.496 E.26077
G1 X87.247 Y114.496 E.01684
G1 X81.387 Y108.635 E.26077
G1 X80.852 Y108.635 E.01684
G1 X86.712 Y114.496 E.26077
G1 X86.177 Y114.496 E.01684
M73 P5 R52
G1 X80.317 Y108.635 E.26077
G1 X79.782 Y108.635 E.01684
G1 X85.642 Y114.496 E.26077
G1 X85.107 Y114.496 E.01684
G1 X79.247 Y108.635 E.26077
G1 X78.711 Y108.635 E.01684
G1 X84.572 Y114.496 E.26077
G1 X84.037 Y114.496 E.01684
G1 X78.176 Y108.635 E.26077
G1 X77.641 Y108.635 E.01684
G1 X83.501 Y114.496 E.26077
G1 X82.966 Y114.496 E.01684
G1 X77.106 Y108.635 E.26077
G1 X76.571 Y108.635 E.01684
G1 X82.431 Y114.496 E.26077
G1 X81.896 Y114.496 E.01684
G1 X76.036 Y108.635 E.26077
G1 X75.501 Y108.635 E.01684
G1 X81.361 Y114.496 E.26077
G1 X80.826 Y114.496 E.01684
G1 X74.965 Y108.635 E.26077
G1 X74.43 Y108.635 E.01684
G1 X80.29 Y114.496 E.26077
G1 X79.755 Y114.496 E.01684
G1 X73.895 Y108.635 E.26077
G1 X73.36 Y108.635 E.01684
G1 X79.22 Y114.496 E.26077
G1 X78.685 Y114.496 E.01684
G1 X72.825 Y108.635 E.26077
G1 X72.29 Y108.635 E.01684
G1 X78.15 Y114.496 E.26077
G1 X77.615 Y114.496 E.01684
G1 X71.754 Y108.635 E.26077
G1 X71.219 Y108.635 E.01684
M73 P5 R51
G1 X77.08 Y114.496 E.26077
G1 X76.544 Y114.496 E.01684
G1 X70.684 Y108.635 E.26077
G1 X70.149 Y108.635 E.01684
G1 X76.009 Y114.496 E.26077
G1 X75.474 Y114.496 E.01684
G1 X69.614 Y108.635 E.26077
G1 X69.079 Y108.635 E.01684
G1 X74.939 Y114.496 E.26077
G1 X74.404 Y114.496 E.01684
G1 X68.544 Y108.635 E.26077
G1 X68.008 Y108.635 E.01684
G1 X73.869 Y114.496 E.26077
G1 X73.334 Y114.496 E.01684
G1 X67.473 Y108.635 E.26077
G1 X66.938 Y108.635 E.01684
G1 X72.798 Y114.496 E.26077
G1 X72.263 Y114.496 E.01684
G1 X66.403 Y108.635 E.26077
G1 X65.868 Y108.635 E.01684
G1 X71.728 Y114.496 E.26077
G1 X71.193 Y114.496 E.01684
G1 X65.333 Y108.635 E.26077
G1 X64.798 Y108.635 E.01684
G1 X70.658 Y114.496 E.26077
G1 X70.123 Y114.496 E.01684
G1 X64.262 Y108.635 E.26077
G1 X63.727 Y108.635 E.01684
G1 X69.587 Y114.496 E.26077
G1 X69.056 Y114.499 E.01673
G1 X63.192 Y108.635 E.26092
G1 X62.657 Y108.635 E.01684
G1 X68.647 Y114.625 E.26653
G1 X68.416 Y114.833 E.00978
G1 X68.382 Y114.895 E.00223
G1 X62.122 Y108.635 E.27856
G1 X61.587 Y108.635 E.01684
G1 X68.252 Y115.301 E.29662
G1 X68.246 Y115.83 E.01665
G1 X61.051 Y108.635 E.32016
G1 X60.516 Y108.635 E.01684
G1 X68.247 Y116.366 E.34398
G1 X68.247 Y116.901 E.01684
G1 X59.981 Y108.635 E.3678
G1 X59.446 Y108.635 E.01684
