; generated by PrusaSlicer 2.5.0+win64 on 2023-03-24 at 00:56:47 UTC


;
;

;
;
; 

; external perimeters extrusion width = 0.45mm
; perimeters extrusion width = 0.45mm
; infill extrusion width = 0.45mm
; solid infill extrusion width = 0.45mm
; top infill extrusion width = 0.40mm
; support material extrusion width = 0.35mm
; first layer extrusion width = 0.42mm

M73 P0 R228
M201 X2500 Y2500 Z400 E5000 ; sets maximum accelerations, mm/sec^2
M203 X180 Y180 Z12 E80 ; sets maximum feedrates, mm / sec
M204 P1250 R1250 T2500 ; sets acceleration (P, T) and retract acceleration (R), mm/sec^2
M205 X8.00 Y8.00 Z2.00 E10.00 ; sets the jerk limits, mm/sec
M205 S0 T0 ; sets the minimum extruding and travel feed rate, mm/sec
M107
;TYPE:Custom
M862.3 P "MINI" ; printer model check
G90 ; use absolute coordinates
M83 ; extruder relative mode
M104 S170 ; set extruder temp for bed leveling
M140 S60 ; set bed temp
M109 R170 ; wait for bed leveling temp
M190 S60 ; wait for bed temp
M204 T1250 ; set travel acceleration
G28 ; home all without mesh bed level
G29 ; mesh bed leveling 
M204 T2500 ; restore travel acceleration
M104 S215 ; set extruder temp
G92 E0
G1 Y-2 X179 F2400
G1 Z3 F720
M109 S215 ; wait for extruder temp

; intro line
G1 X170 F1000
G1 Z0.2 F720
G1 X110 E8 F900
G1 X40 E10 F700
G92 E0

M221 S95 ; set flow
G21 ; set units to millimeters
G90 ; use absolute coordinates
M83 ; use relative distances for extrusion
M900 K0.2 ; Filament gcode LA 1.5
; ; Filament gcode LA 1.0
M107
;LAYER_CHANGE
;Z:0.2
;HEIGHT:0.2
;BEFORE_LAYER_CHANGE
G92 E0.0
;0.2


G1 E-3.2 F4200
G1 Z.2 F720
;AFTER_LAYER_CHANGE
;0.2
G1 Z.4
G1 X32.565 Y25.676 F9000
G1 Z.2 F720
G1 E3.2 F2400
M204 P800
;TYPE:Skirt/Brim
;WIDTH:0.42
G1 F1200
G1 X34.861 Y23.38 E.10182
G1 X36.542 Y22.683 E.05704
G1 X143.458 Y22.683 E3.35226
G1 X145.139 Y23.38 E.05704
G1 X147.435 Y25.676 E.10182
G1 X148.131 Y27.357 E.05704
M73 P0 R227
G1 X148.131 Y152.643 E3.92827
G1 X147.435 Y154.324 E.05704
G1 X145.139 Y156.62 E.10182
G1 X143.458 Y157.317 E.05704
G1 X36.542 Y157.317 E3.35226
G1 X34.861 Y156.62 E.05704
G1 X32.565 Y154.324 E.10182
G1 X31.869 Y152.643 E.05704
G1 X31.869 Y27.357 E3.92827
G1 X32.542 Y25.731 E.05516
M204 P1000
; printing object intrigue_2nd_box_lid.stl id:0 copy 0
G1 E-2.24 F4200
;WIPE_START
G1 F7200
G1 X33.698 Y24.56 E-.912
;WIPE_END
G1 E-.048 F4200
G1 Z.4 F720
G1 X143.458 Y27.357 F9000
G1 Z.2 F720
G1 E3.2 F2400
M204 P800
;TYPE:Support material
G1 F1200
G1 X145.754 Y27.357 E.072
G1 X145.754 Y152.643 E3.92827
G1 X143.458 Y152.643 E.072
G1 X143.458 Y154.94 E.072
G1 X36.542 Y154.94 E3.35226
G1 X36.542 Y152.643 E.072
G1 X34.246 Y152.643 E.072
G1 X34.246 Y27.357 E3.92827
G1 X36.542 Y27.357 E.072
G1 X36.542 Y25.06 E.072
G1 X143.458 Y25.06 E3.35226
G1 X143.458 Y27.3 E.07023
M204 P1000
G1 X40.14 Y30.945 F9000
M204 P800
G1 F1200
G1 X39.964 Y31.018 E.00599
G1 X39.729 Y31.253 E.01042
G1 X39.656 Y31.429 E.00599
G1 X39.656 Y148.571 E3.6729
G1 X39.729 Y148.747 E.00599
G1 X39.964 Y148.982 E.01042
G1 X40.14 Y149.056 E.00599
G1 X139.832 Y149.056 E3.12577
G1 X140.008 Y148.982 E.00599
G1 X140.243 Y148.747 E.01042
G1 X140.317 Y148.571 E.00599
G1 X140.317 Y31.429 E3.6729
G1 X140.243 Y31.253 E.00599
M73 P0 R226
G1 X140.008 Y31.018 E.01042
G1 X139.832 Y30.945 E.00599
G1 X40.197 Y30.945 E3.124
M204 P1000
G1 E-2.24 F4200
;WIPE_START
G1 F7200
G1 X41.842 Y30.945 E-.912
;WIPE_END
G1 E-.048 F4200
G1 Z.4 F720
G1 X145.305 Y152.474 F9000
G1 Z.2 F720
G1 E3.2 F2400
M204 P800
G1 F1200
G1 X145.305 Y27.696 E3.9123
G1 X144.886 Y27.696 E.01314
G1 X144.886 Y152.304 E3.90698
G1 X144.467 Y152.304 E.01314
G1 X144.467 Y27.696 E3.90698
G1 X144.048 Y27.696 E.01314
G1 X144.048 Y152.304 E3.90698
G1 X143.629 Y152.304 E.01314
G1 X143.629 Y27.696 E3.90698
G1 X143.21 Y27.696 E.01314
G1 X143.21 Y152.304 E3.90698
G1 X143.118 Y152.304 E.00287
G1 X143.118 Y154.6 E.072
G1 X142.791 Y154.6 E.01026
G1 X142.791 Y25.4 E4.05098
G1 X142.372 Y25.4 E.01314
G1 X142.372 Y154.6 E4.05098
G1 X141.953 Y154.6 E.01314
M73 P1 R226
G1 X141.953 Y25.4 E4.05098
G1 X141.534 Y25.4 E.01314
M73 P1 R225
G1 X141.534 Y154.6 E4.05098
G1 X141.115 Y154.6 E.01314
G1 X141.115 Y25.4 E4.05098
G1 X140.696 Y25.4 E.01314
G1 X140.696 Y154.6 E4.05098
G1 X140.277 Y154.6 E.01314
G1 X140.277 Y149.194 E.16952
G1 X140.201 Y149.27 E.0034
G1 X139.899 Y149.395 E.01022
G1 X139.858 Y149.395 E.00129
G1 X139.858 Y154.6 E.16321
G1 X139.439 Y154.6 E.01314
G1 X139.439 Y149.395 E.16321
G1 X139.02 Y149.395 E.01314
G1 X139.02 Y154.6 E.16321
G1 X138.601 Y154.6 E.01314
G1 X138.601 Y149.395 E.16321
G1 X138.182 Y149.395 E.01314
G1 X138.182 Y154.6 E.16321
G1 X137.763 Y154.6 E.01314
G1 X137.763 Y149.395 E.16321
G1 X137.344 Y149.395 E.01314
G1 X137.344 Y154.6 E.16321
G1 X136.925 Y154.6 E.01314
G1 X136.925 Y149.395 E.16321
G1 X136.506 Y149.395 E.01314
G1 X136.506 Y154.6 E.16321
G1 X136.087 Y154.6 E.01314
G1 X136.087 Y149.395 E.16321
G1 X135.668 Y149.395 E.01314
G1 X135.668 Y154.6 E.16321
G1 X135.25 Y154.6 E.01314
G1 X135.25 Y149.395 E.16321
G1 X134.831 Y149.395 E.01314
G1 X134.831 Y154.6 E.16321
G1 X134.412 Y154.6 E.01314
G1 X134.412 Y149.395 E.16321
G1 X133.993 Y149.395 E.01314
G1 X133.993 Y154.6 E.16321
G1 X133.574 Y154.6 E.01314
G1 X133.574 Y149.395 E.16321
G1 X133.155 Y149.395 E.01314
G1 X133.155 Y154.6 E.16321
G1 X132.736 Y154.6 E.01314
G1 X132.736 Y149.395 E.16321
G1 X132.317 Y149.395 E.01314
G1 X132.317 Y154.6 E.16321
G1 X131.898 Y154.6 E.01314
G1 X131.898 Y149.395 E.16321
G1 X131.479 Y149.395 E.01314
G1 X131.479 Y154.6 E.16321
G1 X131.06 Y154.6 E.01314
G1 X131.06 Y149.395 E.16321
G1 X130.641 Y149.395 E.01314
G1 X130.641 Y154.6 E.16321
G1 X130.222 Y154.6 E.01314
G1 X130.222 Y149.395 E.16321
G1 X129.803 Y149.395 E.01314
G1 X129.803 Y154.6 E.16321
G1 X129.384 Y154.6 E.01314
G1 X129.384 Y149.395 E.16321
G1 X128.965 Y149.395 E.01314
G1 X128.965 Y154.6 E.16321
G1 X128.546 Y154.6 E.01314
G1 X128.546 Y149.395 E.16321
G1 X128.127 Y149.395 E.01314
G1 X128.127 Y154.6 E.16321
G1 X127.708 Y154.6 E.01314
G1 X127.708 Y149.395 E.16321
G1 X127.289 Y149.395 E.01314
G1 X127.289 Y154.6 E.16321
G1 X126.87 Y154.6 E.01314
G1 X126.87 Y149.395 E.16321
G1 X126.451 Y149.395 E.01314
G1 X126.451 Y154.6 E.16321
G1 X126.032 Y154.6 E.01314
G1 X126.032 Y149.395 E.16321
G1 X125.613 Y149.395 E.01314
G1 X125.613 Y154.6 E.16321
G1 X125.194 Y154.6 E.01314
G1 X125.194 Y149.395 E.16321
G1 X124.775 Y149.395 E.01314
G1 X124.775 Y154.6 E.16321
G1 X124.356 Y154.6 E.01314
G1 X124.356 Y149.395 E.16321
G1 X123.937 Y149.395 E.01314
G1 X123.937 Y154.6 E.16321
G1 X123.518 Y154.6 E.01314
G1 X123.518 Y149.395 E.16321
G1 X123.099 Y149.395 E.01314
G1 X123.099 Y154.6 E.16321
G1 X122.68 Y154.6 E.01314
G1 X122.68 Y149.395 E.16321
G1 X122.261 Y149.395 E.01314
G1 X122.261 Y154.6 E.16321
G1 X121.842 Y154.6 E.01314
G1 X121.842 Y149.395 E.16321
G1 X121.423 Y149.395 E.01314
G1 X121.423 Y154.6 E.16321
G1 X121.004 Y154.6 E.01314
G1 X121.004 Y149.395 E.16321
G1 X120.585 Y149.395 E.01314
G1 X120.585 Y154.6 E.16321
G1 X120.166 Y154.6 E.01314
G1 X120.166 Y149.395 E.16321
G1 X119.747 Y149.395 E.01314
G1 X119.747 Y154.6 E.16321
G1 X119.328 Y154.6 E.01314
G1 X119.328 Y149.395 E.16321
G1 X118.909 Y149.395 E.01314
G1 X118.909 Y154.6 E.16321
G1 X118.49 Y154.6 E.01314
G1 X118.49 Y149.395 E.16321
G1 X118.071 Y149.395 E.01314
G1 X118.071 Y154.6 E.16321
G1 X117.652 Y154.6 E.01314
G1 X117.652 Y149.395 E.16321
G1 X117.233 Y149.395 E.01314
G1 X117.233 Y154.6 E.16321
G1 X116.815 Y154.6 E.01314
G1 X116.815 Y149.395 E.16321
G1 X116.396 Y149.395 E.01314
G1 X116.396 Y154.6 E.16321
G1 X115.977 Y154.6 E.01314
G1 X115.977 Y149.395 E.16321
G1 X115.558 Y149.395 E.01314
G1 X115.558 Y154.6 E.16321
G1 X115.139 Y154.6 E.01314
G1 X115.139 Y149.395 E.16321
G1 X114.72 Y149.395 E.01314
G1 X114.72 Y154.6 E.16321
G1 X114.301 Y154.6 E.01314
G1 X114.301 Y149.395 E.16321
G1 X113.882 Y149.395 E.01314
G1 X113.882 Y154.6 E.16321
G1 X113.463 Y154.6 E.01314
G1 X113.463 Y149.395 E.16321
G1 X113.044 Y149.395 E.01314
G1 X113.044 Y154.6 E.16321
G1 X112.625 Y154.6 E.01314
G1 X112.625 Y149.395 E.16321
G1 X112.206 Y149.395 E.01314
G1 X112.206 Y154.6 E.16321
G1 X111.787 Y154.6 E.01314
G1 X111.787 Y149.395 E.16321
G1 X111.368 Y149.395 E.01314
G1 X111.368 Y154.6 E.16321
G1 X110.949 Y154.6 E.01314
G1 X110.949 Y149.395 E.16321
G1 X110.53 Y149.395 E.01314
G1 X110.53 Y154.6 E.16321
G1 X110.111 Y154.6 E.01314
G1 X110.111 Y149.395 E.16321
G1 X109.692 Y149.395 E.01314
G1 X109.692 Y154.6 E.16321
G1 X109.273 Y154.6 E.01314
G1 X109.273 Y149.395 E.16321
G1 X108.854 Y149.395 E.01314
G1 X108.854 Y154.6 E.16321
G1 X108.435 Y154.6 E.01314
G1 X108.435 Y149.395 E.16321
G1 X108.016 Y149.395 E.01314
G1 X108.016 Y154.6 E.16321
G1 X107.597 Y154.6 E.01314
G1 X107.597 Y149.395 E.16321
G1 X107.178 Y149.395 E.01314
G1 X107.178 Y154.6 E.16321
G1 X106.759 Y154.6 E.01314
G1 X106.759 Y149.395 E.16321
G1 X106.34 Y149.395 E.01314
G1 X106.34 Y154.6 E.16321
G1 X105.921 Y154.6 E.01314
G1 X105.921 Y149.395 E.16321
G1 X105.502 Y149.395 E.01314
G1 X105.502 Y154.6 E.16321
G1 X105.083 Y154.6 E.01314
G1 X105.083 Y149.395 E.16321
G1 X104.664 Y149.395 E.01314
G1 X104.664 Y154.6 E.16321
G1 X104.245 Y154.6 E.01314
G1 X104.245 Y149.395 E.16321
G1 X103.826 Y149.395 E.01314
G1 X103.826 Y154.6 E.16321
G1 X103.407 Y154.6 E.01314
G1 X103.407 Y149.395 E.16321
G1 X102.988 Y149.395 E.01314
G1 X102.988 Y154.6 E.16321
G1 X102.569 Y154.6 E.01314
G1 X102.569 Y149.395 E.16321
G1 X102.15 Y149.395 E.01314
G1 X102.15 Y154.6 E.16321
G1 X101.731 Y154.6 E.01314
G1 X101.731 Y149.395 E.16321
G1 X101.312 Y149.395 E.01314
G1 X101.312 Y154.6 E.16321
G1 X100.893 Y154.6 E.01314
G1 X100.893 Y149.395 E.16321
G1 X100.474 Y149.395 E.01314
G1 X100.474 Y154.6 E.16321
G1 X100.055 Y154.6 E.01314
G1 X100.055 Y149.395 E.16321
G1 X99.636 Y149.395 E.01314
G1 X99.636 Y154.6 E.16321
G1 X99.217 Y154.6 E.01314
G1 X99.217 Y149.395 E.16321
G1 X98.799 Y149.395 E.01314
G1 X98.799 Y154.6 E.16321
G1 X98.38 Y154.6 E.01314
G1 X98.38 Y149.395 E.16321
G1 X97.961 Y149.395 E.01314
G1 X97.961 Y154.6 E.16321
G1 X97.542 Y154.6 E.01314
G1 X97.542 Y149.395 E.16321
G1 X97.123 Y149.395 E.01314
G1 X97.123 Y154.6 E.16321
G1 X96.704 Y154.6 E.01314
G1 X96.704 Y149.395 E.16321
G1 X96.285 Y149.395 E.01314
G1 X96.285 Y154.6 E.16321
G1 X95.866 Y154.6 E.01314
G1 X95.866 Y149.395 E.16321
G1 X95.447 Y149.395 E.01314
G1 X95.447 Y154.6 E.16321
G1 X95.028 Y154.6 E.01314
G1 X95.028 Y149.395 E.16321
G1 X94.609 Y149.395 E.01314
G1 X94.609 Y154.6 E.16321
G1 X94.19 Y154.6 E.01314
G1 X94.19 Y149.395 E.16321
G1 X93.771 Y149.395 E.01314
G1 X93.771 Y154.6 E.16321
G1 X93.352 Y154.6 E.01314
G1 X93.352 Y149.395 E.16321
G1 X92.933 Y149.395 E.01314
G1 X92.933 Y154.6 E.16321
G1 X92.514 Y154.6 E.01314
G1 X92.514 Y149.395 E.16321
G1 X92.095 Y149.395 E.01314
G1 X92.095 Y154.6 E.16321
G1 X91.676 Y154.6 E.01314
G1 X91.676 Y149.395 E.16321
G1 X91.257 Y149.395 E.01314
G1 X91.257 Y154.6 E.16321
G1 X90.838 Y154.6 E.01314
M73 P1 R224
G1 X90.838 Y149.395 E.16321
G1 X90.419 Y149.395 E.01314
G1 X90.419 Y154.6 E.16321
G1 X90 Y154.6 E.01314
G1 X90 Y149.395 E.16321
G1 X89.581 Y149.395 E.01314
G1 X89.581 Y154.6 E.16321
G1 X89.162 Y154.6 E.01314
G1 X89.162 Y149.395 E.16321
G1 X88.743 Y149.395 E.01314
G1 X88.743 Y154.6 E.16321
G1 X88.324 Y154.6 E.01314
G1 X88.324 Y149.395 E.16321
G1 X87.905 Y149.395 E.01314
G1 X87.905 Y154.6 E.16321
G1 X87.486 Y154.6 E.01314
G1 X87.486 Y149.395 E.16321
G1 X87.067 Y149.395 E.01314
G1 X87.067 Y154.6 E.16321
G1 X86.648 Y154.6 E.01314
G1 X86.648 Y149.395 E.16321
G1 X86.229 Y149.395 E.01314
G1 X86.229 Y154.6 E.16321
G1 X85.81 Y154.6 E.01314
G1 X85.81 Y149.395 E.16321
G1 X85.391 Y149.395 E.01314
G1 X85.391 Y154.6 E.16321
G1 X84.972 Y154.6 E.01314
G1 X84.972 Y149.395 E.16321
G1 X84.553 Y149.395 E.01314
G1 X84.553 Y154.6 E.16321
G1 X84.134 Y154.6 E.01314
G1 X84.134 Y149.395 E.16321
G1 X83.715 Y149.395 E.01314
G1 X83.715 Y154.6 E.16321
G1 X83.296 Y154.6 E.01314
G1 X83.296 Y149.395 E.16321
G1 X82.877 Y149.395 E.01314
G1 X82.877 Y154.6 E.16321
G1 X82.458 Y154.6 E.01314
G1 X82.458 Y149.395 E.16321
G1 X82.039 Y149.395 E.01314
G1 X82.039 Y154.6 E.16321
G1 X81.62 Y154.6 E.01314
G1 X81.62 Y149.395 E.16321
G1 X81.201 Y149.395 E.01314
G1 X81.201 Y154.6 E.16321
G1 X80.783 Y154.6 E.01314
G1 X80.783 Y149.395 E.16321
G1 X80.364 Y149.395 E.01314
G1 X80.364 Y154.6 E.16321
G1 X79.945 Y154.6 E.01314
G1 X79.945 Y149.395 E.16321
G1 X79.526 Y149.395 E.01314
G1 X79.526 Y154.6 E.16321
G1 X79.107 Y154.6 E.01314
G1 X79.107 Y149.395 E.16321
G1 X78.688 Y149.395 E.01314
G1 X78.688 Y154.6 E.16321
G1 X78.269 Y154.6 E.01314
G1 X78.269 Y149.395 E.16321
G1 X77.85 Y149.395 E.01314
G1 X77.85 Y154.6 E.16321
G1 X77.431 Y154.6 E.01314
G1 X77.431 Y149.395 E.16321
G1 X77.012 Y149.395 E.01314
G1 X77.012 Y154.6 E.16321
G1 X76.593 Y154.6 E.01314
G1 X76.593 Y149.395 E.16321
G1 X76.174 Y149.395 E.01314
G1 X76.174 Y154.6 E.16321
G1 X75.755 Y154.6 E.01314
G1 X75.755 Y149.395 E.16321
G1 X75.336 Y149.395 E.01314
G1 X75.336 Y154.6 E.16321
G1 X74.917 Y154.6 E.01314
G1 X74.917 Y149.395 E.16321
G1 X74.498 Y149.395 E.01314
G1 X74.498 Y154.6 E.16321
G1 X74.079 Y154.6 E.01314
G1 X74.079 Y149.395 E.16321
G1 X73.66 Y149.395 E.01314
G1 X73.66 Y154.6 E.16321
G1 X73.241 Y154.6 E.01314
G1 X73.241 Y149.395 E.16321
G1 X72.822 Y149.395 E.01314
G1 X72.822 Y154.6 E.16321
G1 X72.403 Y154.6 E.01314
G1 X72.403 Y149.395 E.16321
G1 X71.984 Y149.395 E.01314
G1 X71.984 Y154.6 E.16321
G1 X71.565 Y154.6 E.01314
G1 X71.565 Y149.395 E.16321
G1 X71.146 Y149.395 E.01314
G1 X71.146 Y154.6 E.16321
G1 X70.727 Y154.6 E.01314
G1 X70.727 Y149.395 E.16321
G1 X70.308 Y149.395 E.01314
G1 X70.308 Y154.6 E.16321
G1 X69.889 Y154.6 E.01314
G1 X69.889 Y149.395 E.16321
G1 X69.47 Y149.395 E.01314
G1 X69.47 Y154.6 E.16321
G1 X69.051 Y154.6 E.01314
G1 X69.051 Y149.395 E.16321
G1 X68.632 Y149.395 E.01314
G1 X68.632 Y154.6 E.16321
G1 X68.213 Y154.6 E.01314
G1 X68.213 Y149.395 E.16321
G1 X67.794 Y149.395 E.01314
G1 X67.794 Y154.6 E.16321
G1 X67.375 Y154.6 E.01314
G1 X67.375 Y149.395 E.16321
G1 X66.956 Y149.395 E.01314
G1 X66.956 Y154.6 E.16321
G1 X66.537 Y154.6 E.01314
G1 X66.537 Y149.395 E.16321
G1 X66.118 Y149.395 E.01314
G1 X66.118 Y154.6 E.16321
G1 X65.699 Y154.6 E.01314
G1 X65.699 Y149.395 E.16321
G1 X65.28 Y149.395 E.01314
G1 X65.28 Y154.6 E.16321
G1 X64.861 Y154.6 E.01314
G1 X64.861 Y149.395 E.16321
G1 X64.442 Y149.395 E.01314
G1 X64.442 Y154.6 E.16321
G1 X64.023 Y154.6 E.01314
G1 X64.023 Y149.395 E.16321
G1 X63.604 Y149.395 E.01314
G1 X63.604 Y154.6 E.16321
G1 X63.185 Y154.6 E.01314
G1 X63.185 Y149.395 E.16321
G1 X62.766 Y149.395 E.01314
G1 X62.766 Y154.6 E.16321
G1 X62.348 Y154.6 E.01314
G1 X62.348 Y149.395 E.16321
G1 X61.929 Y149.395 E.01314
G1 X61.929 Y154.6 E.16321
G1 X61.51 Y154.6 E.01314
G1 X61.51 Y149.395 E.16321
G1 X61.091 Y149.395 E.01314
G1 X61.091 Y154.6 E.16321
G1 X60.672 Y154.6 E.01314
G1 X60.672 Y149.395 E.16321
G1 X60.253 Y149.395 E.01314
G1 X60.253 Y154.6 E.16321
G1 X59.834 Y154.6 E.01314
G1 X59.834 Y149.395 E.16321
G1 X59.415 Y149.395 E.01314
G1 X59.415 Y154.6 E.16321
G1 X58.996 Y154.6 E.01314
G1 X58.996 Y149.395 E.16321
G1 X58.577 Y149.395 E.01314
G1 X58.577 Y154.6 E.16321
G1 X58.158 Y154.6 E.01314
G1 X58.158 Y149.395 E.16321
G1 X57.739 Y149.395 E.01314
G1 X57.739 Y154.6 E.16321
G1 X57.32 Y154.6 E.01314
G1 X57.32 Y149.395 E.16321
G1 X56.901 Y149.395 E.01314
G1 X56.901 Y154.6 E.16321
G1 X56.482 Y154.6 E.01314
G1 X56.482 Y149.395 E.16321
G1 X56.063 Y149.395 E.01314
G1 X56.063 Y154.6 E.16321
G1 X55.644 Y154.6 E.01314
G1 X55.644 Y149.395 E.16321
G1 X55.225 Y149.395 E.01314
G1 X55.225 Y154.6 E.16321
G1 X54.806 Y154.6 E.01314
G1 X54.806 Y149.395 E.16321
G1 X54.387 Y149.395 E.01314
G1 X54.387 Y154.6 E.16321
G1 X53.968 Y154.6 E.01314
G1 X53.968 Y149.395 E.16321
G1 X53.549 Y149.395 E.01314
G1 X53.549 Y154.6 E.16321
G1 X53.13 Y154.6 E.01314
G1 X53.13 Y149.395 E.16321
G1 X52.711 Y149.395 E.01314
G1 X52.711 Y154.6 E.16321
G1 X52.292 Y154.6 E.01314
G1 X52.292 Y149.395 E.16321
G1 X51.873 Y149.395 E.01314
G1 X51.873 Y154.6 E.16321
G1 X51.454 Y154.6 E.01314
G1 X51.454 Y149.395 E.16321
G1 X51.035 Y149.395 E.01314
G1 X51.035 Y154.6 E.16321
G1 X50.616 Y154.6 E.01314
G1 X50.616 Y149.395 E.16321
