; generated by PrusaSlicer 2.5.0+win64 on 2023-04-02 at 23:23:20 UTC


;
;

;
;
; 

; external perimeters extrusion width = 0.45mm
; perimeters extrusion width = 0.45mm
; infill extrusion width = 0.45mm
; solid infill extrusion width = 0.45mm
; top infill extrusion width = 0.40mm
; first layer extrusion width = 0.42mm

; external perimeters extrusion width = 0.45mm
; perimeters extrusion width = 0.45mm
; infill extrusion width = 0.45mm
; solid infill extrusion width = 0.45mm
; top infill extrusion width = 0.40mm
; first layer extrusion width = 0.42mm

; external perimeters extrusion width = 0.45mm
; perimeters extrusion width = 0.45mm
; infill extrusion width = 0.45mm
; solid infill extrusion width = 0.45mm
; top infill extrusion width = 0.40mm
; first layer extrusion width = 0.42mm

; external perimeters extrusion width = 0.45mm
; perimeters extrusion width = 0.45mm
; infill extrusion width = 0.45mm
; solid infill extrusion width = 0.45mm
; top infill extrusion width = 0.40mm
; first layer extrusion width = 0.42mm

M73 P0 R54
M201 X2500 Y2500 Z400 E5000 ; sets maximum accelerations, mm/sec^2
M203 X180 Y180 Z12 E80 ; sets maximum feedrates, mm / sec
M204 P1250 R1250 T2500 ; sets acceleration (P, T) and retract acceleration (R), mm/sec^2
M205 X8.00 Y8.00 Z2.00 E10.00 ; sets the jerk limits, mm/sec
M205 S0 T0 ; sets the minimum extruding and travel feed rate, mm/sec
M107
;TYPE:Custom
M862.3 P "MINI" ; printer model check
G90 ; use absolute coordinates
M83 ; extruder relative mode
M104 S170 ; set extruder temp for bed leveling
M140 S60 ; set bed temp
M109 R170 ; wait for bed leveling temp
M190 S60 ; wait for bed temp
M204 T1250 ; set travel acceleration
G28 ; home all without mesh bed level
G29 ; mesh bed leveling 
M204 T2500 ; restore travel acceleration
M104 S215 ; set extruder temp
G92 E0
G1 Y-2 X179 F2400
G1 Z3 F720
M109 S215 ; wait for extruder temp

; intro line
G1 X170 F1000
G1 Z0.2 F720
G1 X110 E8 F900
G1 X40 E10 F700
G92 E0

M221 S95 ; set flow
G21 ; set units to millimeters
G90 ; use absolute coordinates
M83 ; use relative distances for extrusion
M900 K0.2 ; Filament gcode LA 1.5
; ; Filament gcode LA 1.0
M107
;LAYER_CHANGE
;Z:0.2
;HEIGHT:0.2
;BEFORE_LAYER_CHANGE
G92 E0.0
;0.2


G1 E-3.2 F4200
G1 Z.2 F720
;AFTER_LAYER_CHANGE
;0.2
G1 Z.4
G1 X25.316 Y10.817 F9000
G1 Z.2 F720
G1 E3.2 F2400
M204 P800
;TYPE:Skirt/Brim
;WIDTH:0.42
G1 F1200
G1 X27.751 Y5.12 E.19426
G1 X28.624 Y4.072 E.04278
G1 X29.937 Y3.677 E.04297
G1 X86.704 Y3.705 E1.77991
G1 X170.669 Y16.854 E2.66475
G1 X171.9 Y17.443 E.04278
G1 X172.679 Y19.202 E.06032
G1 X172.67 Y43.406 E.75888
G1 X165.232 Y129.999 E2.72508
G1 X165.049 Y130.73 E.02361
G1 X146.249 Y174.73 E1.50024
G1 X145.376 Y175.778 E.04278
G1 X144.063 Y176.173 E.04297
G1 X87.304 Y176.145 E1.77966
G1 X10.981 Y164.466 E2.42091
M73 P1 R54
G1 X9.748 Y163.881 E.04278
G1 X8.963 Y162.122 E.0604
G1 X8.76 Y50.054 E3.51382
G1 X8.951 Y49.12 E.02989
G1 X25.293 Y10.872 E1.3041
M204 P1000
; printing object intrigue_2nd_div_0_3.stl_1 id:0 copy 0
G1 E-2.24 F4200
;WIPE_START
M73 P1 R53
G1 F7200
G1 X25.939 Y9.359 E-.912
;WIPE_END
G1 E-.048 F4200
G1 Z.4 F720
G1 X54.401 Y50.837 F9000
G1 Z.2 F720
G1 E3.2 F2400
M204 P800
;TYPE:Perimeter
;WIDTH:0.419999
G1 F1200
G1 X54.672 Y50.746 E.00897
G1 X54.864 Y50.528 E.0091
G1 X54.924 Y50.275 E.00815
G1 X54.924 Y13.832 E1.14264
G1 X54.914 Y13.728 E.00328
G1 X54.811 Y13.493 E.00805
G1 X54.576 Y13.31 E.00933
G1 X54.358 Y13.267 E.00696
G1 X30.724 Y13.267 E.74104
G1 X30.724 Y6.841 E.20148
G1 X85.55 Y6.841 E1.71902
G1 X85.55 Y13.267 E.20148
G1 X61.915 Y13.267 E.74104
G1 X61.817 Y13.275 E.00308
G1 X61.604 Y13.36 E.00721
G1 X61.422 Y13.555 E.00835
G1 X61.35 Y13.832 E.00899
G1 X61.35 Y50.275 E1.14264
G1 X61.445 Y50.589 E.01028
G1 X61.662 Y50.781 E.0091
G1 X61.915 Y50.841 E.00815
G1 X104.35 Y50.841 E1.3305
G1 X104.35 Y57.267 E.20148
G1 X61.866 Y57.269 E1.33204
G1 X61.601 Y57.362 E.00879
G1 X61.409 Y57.579 E.0091
G1 X61.35 Y57.832 E.00815
G1 X61.359 Y66.379 E.26799
G1 X61.463 Y66.615 E.00805
G1 X61.698 Y66.797 E.00933
G1 X61.915 Y66.841 E.00696
G1 X104.35 Y66.841 E1.3305
G1 X104.35 Y73.267 E.20148
G1 X11.924 Y73.267 E2.89794
G1 X11.924 Y66.841 E.20148
M73 P2 R53
G1 X54.358 Y66.841 E1.3305
G1 X54.456 Y66.832 E.00308
G1 X54.669 Y66.747 E.00721
G1 X54.851 Y66.552 E.00835
G1 X54.924 Y66.275 E.00899
G1 X54.924 Y57.832 E.26472
G1 X54.916 Y57.739 E.00293
G1 X54.829 Y57.518 E.00744
G1 X54.611 Y57.326 E.0091
G1 X54.358 Y57.267 E.00815
G1 X11.924 Y57.267 E1.3305
G1 X11.924 Y50.841 E.20148
G1 X54.341 Y50.841 E1.32996
M204 P1000
G1 X54.358 Y50.464 F9000
M204 P800
;TYPE:External perimeter
G1 F1200
G1 X54.479 Y50.42 E.00402
G1 X54.547 Y50.275 E.00501
G1 X54.547 Y13.832 E1.14264
G1 X54.488 Y13.696 E.00466
G1 X54.358 Y13.644 E.00439
G1 X30.347 Y13.644 E.75286
G1 X30.347 Y6.464 E.22512
G1 X85.927 Y6.464 E1.74267
G1 X85.927 Y13.644 E.22512
G1 X61.915 Y13.644 E.75286
G1 X61.785 Y13.696 E.00439
G1 X61.727 Y13.832 E.00466
G1 X61.727 Y50.275 E1.14264
G1 X61.77 Y50.396 E.00402
G1 X61.915 Y50.464 E.00501
G1 X104.727 Y50.464 E1.34232
G1 X104.727 Y57.644 E.22512
G1 X61.915 Y57.644 E1.34232
G1 X61.794 Y57.687 E.00402
G1 X61.727 Y57.832 E.00501
G1 X61.727 Y66.275 E.26472
G1 X61.785 Y66.412 E.00466
G1 X61.915 Y66.464 E.00439
G1 X104.727 Y66.464 E1.34232
G1 X104.727 Y73.644 E.22512
G1 X11.547 Y73.644 E2.92159
G1 X11.547 Y66.464 E.22512
G1 X54.358 Y66.464 E1.34232
M73 P3 R53
G1 X54.488 Y66.412 E.00439
G1 X54.547 Y66.275 E.00466
G1 X54.547 Y57.832 E.26472
G1 X54.503 Y57.712 E.00402
G1 X54.358 Y57.644 E.00501
G1 X11.547 Y57.644 E1.34232
G1 X11.547 Y50.464 E.22512
G1 X54.298 Y50.464 E1.34044
M204 P1000
G1 X54.451 Y50.552 F9000
M73 P3 R52
G1 E-2.24 F4200
;WIPE_START
G1 F7200
G1 X54.479 Y50.42 E-.10302
G1 X54.547 Y50.275 E-.08863
G1 X54.547 Y48.975 E-.72034
;WIPE_END
G1 E-.048 F4200
G1 Z.4 F720
G1 X104.236 Y67.726 F9000
G1 Z.2 F720
G1 E3.2 F2400
M204 P800
;TYPE:Solid infill
;WIDTH:0.421329
G1 F1200
G1 X103.634 Y67.124 E.02679
G1 X103.099 Y67.124 E.01684
G1 X104.067 Y68.091 E.04305
G1 X104.067 Y68.626 E.01684
G1 X102.564 Y67.124 E.06687
G1 X102.029 Y67.124 E.01684
G1 X104.067 Y69.161 E.09068
G1 X104.067 Y69.697 E.01684
G1 X101.494 Y67.124 E.11449
G1 X100.959 Y67.124 E.01684
G1 X104.067 Y70.232 E.1383
G1 X104.067 Y70.767 E.01684
G1 X100.423 Y67.124 E.16212
G1 X99.888 Y67.124 E.01684
G1 X104.067 Y71.302 E.18593
G1 X104.067 Y71.837 E.01684
G1 X99.353 Y67.124 E.20974
G1 X98.818 Y67.124 E.01684
G1 X104.067 Y72.372 E.23356
G1 X104.067 Y72.907 E.01684
G1 X98.283 Y67.124 E.25737
G1 X97.748 Y67.124 E.01684
G1 X103.608 Y72.984 E.26077
G1 X103.073 Y72.984 E.01684
G1 X97.213 Y67.124 E.26077
G1 X96.677 Y67.124 E.01684
G1 X102.538 Y72.984 E.26077
G1 X102.003 Y72.984 E.01684
G1 X96.142 Y67.124 E.26077
G1 X95.607 Y67.124 E.01684
G1 X101.467 Y72.984 E.26077
G1 X100.932 Y72.984 E.01684
G1 X95.072 Y67.124 E.26077
G1 X94.537 Y67.124 E.01684
G1 X100.397 Y72.984 E.26077
G1 X99.862 Y72.984 E.01684
G1 X94.002 Y67.124 E.26077
G1 X93.467 Y67.124 E.01684
G1 X99.327 Y72.984 E.26077
G1 X98.792 Y72.984 E.01684
G1 X92.931 Y67.124 E.26077
G1 X92.396 Y67.124 E.01684
G1 X98.256 Y72.984 E.26077
G1 X97.721 Y72.984 E.01684
G1 X91.861 Y67.124 E.26077
G1 X91.326 Y67.124 E.01684
G1 X97.186 Y72.984 E.26077
G1 X96.651 Y72.984 E.01684
G1 X90.791 Y67.124 E.26077
G1 X90.256 Y67.124 E.01684
G1 X96.116 Y72.984 E.26077
G1 X95.581 Y72.984 E.01684
G1 X89.72 Y67.124 E.26077
G1 X89.185 Y67.124 E.01684
G1 X95.046 Y72.984 E.26077
G1 X94.51 Y72.984 E.01684
G1 X88.65 Y67.124 E.26077
G1 X88.115 Y67.124 E.01684
G1 X93.975 Y72.984 E.26077
G1 X93.44 Y72.984 E.01684
G1 X87.58 Y67.124 E.26077
G1 X87.045 Y67.124 E.01684
G1 X92.905 Y72.984 E.26077
G1 X92.37 Y72.984 E.01684
G1 X86.51 Y67.124 E.26077
G1 X85.974 Y67.124 E.01684
G1 X91.835 Y72.984 E.26077
G1 X91.299 Y72.984 E.01684
G1 X85.439 Y67.124 E.26077
G1 X84.904 Y67.124 E.01684
G1 X90.764 Y72.984 E.26077
G1 X90.229 Y72.984 E.01684
G1 X84.369 Y67.124 E.26077
G1 X83.834 Y67.124 E.01684
G1 X89.694 Y72.984 E.26077
G1 X89.159 Y72.984 E.01684
G1 X83.299 Y67.124 E.26077
G1 X82.763 Y67.124 E.01684
G1 X88.624 Y72.984 E.26077
G1 X88.089 Y72.984 E.01684
G1 X82.228 Y67.124 E.26077
G1 X81.693 Y67.124 E.01684
G1 X87.553 Y72.984 E.26077
G1 X87.018 Y72.984 E.01684
G1 X81.158 Y67.124 E.26077
G1 X80.623 Y67.124 E.01684
G1 X86.483 Y72.984 E.26077
G1 X85.948 Y72.984 E.01684
G1 X80.088 Y67.124 E.26077
G1 X79.553 Y67.124 E.01684
G1 X85.413 Y72.984 E.26077
G1 X84.878 Y72.984 E.01684
G1 X79.017 Y67.124 E.26077
G1 X78.482 Y67.124 E.01684
G1 X84.343 Y72.984 E.26077
G1 X83.807 Y72.984 E.01684
G1 X77.947 Y67.124 E.26077
G1 X77.412 Y67.124 E.01684
G1 X83.272 Y72.984 E.26077
G1 X82.737 Y72.984 E.01684
G1 X76.877 Y67.124 E.26077
G1 X76.342 Y67.124 E.01684
G1 X82.202 Y72.984 E.26077
G1 X81.667 Y72.984 E.01684
G1 X75.807 Y67.124 E.26077
G1 X75.271 Y67.124 E.01684
G1 X81.132 Y72.984 E.26077
G1 X80.596 Y72.984 E.01684
G1 X74.736 Y67.124 E.26077
G1 X74.201 Y67.124 E.01684
G1 X80.061 Y72.984 E.26077
G1 X79.526 Y72.984 E.01684
G1 X73.666 Y67.124 E.26077
G1 X73.131 Y67.124 E.01684
G1 X78.991 Y72.984 E.26077
G1 X78.456 Y72.984 E.01684
G1 X72.596 Y67.124 E.26077
G1 X72.06 Y67.124 E.01684
G1 X77.921 Y72.984 E.26077
M73 P4 R52
G1 X77.386 Y72.984 E.01684
G1 X71.525 Y67.124 E.26077
G1 X70.99 Y67.124 E.01684
G1 X76.85 Y72.984 E.26077
G1 X76.315 Y72.984 E.01684
G1 X70.455 Y67.124 E.26077
G1 X69.92 Y67.124 E.01684
G1 X75.78 Y72.984 E.26077
G1 X75.245 Y72.984 E.01684
G1 X69.385 Y67.124 E.26077
G1 X68.85 Y67.124 E.01684
G1 X74.71 Y72.984 E.26077
G1 X74.175 Y72.984 E.01684
G1 X68.314 Y67.124 E.26077
G1 X67.779 Y67.124 E.01684
G1 X73.64 Y72.984 E.26077
G1 X73.104 Y72.984 E.01684
G1 X67.244 Y67.124 E.26077
G1 X66.709 Y67.124 E.01684
G1 X72.569 Y72.984 E.26077
G1 X72.034 Y72.984 E.01684
G1 X66.174 Y67.124 E.26077
G1 X65.639 Y67.124 E.01684
G1 X71.499 Y72.984 E.26077
G1 X70.964 Y72.984 E.01684
G1 X65.104 Y67.124 E.26077
G1 X64.568 Y67.124 E.01684
G1 X70.429 Y72.984 E.26077
G1 X69.893 Y72.984 E.01684
G1 X64.033 Y67.124 E.26077
G1 X63.498 Y67.124 E.01684
G1 X69.358 Y72.984 E.26077
G1 X68.823 Y72.984 E.01684
G1 X62.963 Y67.124 E.26077
G1 X62.428 Y67.124 E.01684
G1 X68.458 Y73.153 E.26832
M204 P1000
G1 E-2.24 F4200
;WIPE_START
G1 F7200
G1 X67.294 Y71.99 E-.912
;WIPE_END
G1 E-.048 F4200
G1 Z.4 F720
G1 X103.519 Y50.954 F9000
G1 Z.2 F720
G1 E3.2 F2400
M204 P800
G1 F1200
G1 X104.067 Y51.501 E.02436
G1 X104.067 Y52.037 E.01684
G1 X103.154 Y51.124 E.04063
G1 X102.619 Y51.124 E.01684
G1 X104.067 Y52.572 E.06444
G1 X104.067 Y53.107 E.01684
G1 X102.083 Y51.124 E.08825
G1 X101.548 Y51.124 E.01684
G1 X104.067 Y53.642 E.11207
G1 X104.067 Y54.177 E.01684
G1 X101.013 Y51.124 E.13588
G1 X100.478 Y51.124 E.01684
G1 X104.067 Y54.712 E.15969
G1 X104.067 Y55.247 E.01684
G1 X99.943 Y51.124 E.1835
G1 X99.408 Y51.124 E.01684
G1 X104.067 Y55.783 E.20732
G1 X104.067 Y56.318 E.01684
G1 X98.873 Y51.124 E.23113
G1 X98.337 Y51.124 E.01684
G1 X104.067 Y56.853 E.25494
G1 X104.067 Y56.984 E.00412
G1 X103.663 Y56.984 E.01272
G1 X97.802 Y51.124 E.26077
G1 X97.267 Y51.124 E.01684
G1 X103.128 Y56.984 E.26078
G1 X102.593 Y56.984 E.01683
G1 X96.732 Y51.124 E.26079
G1 X96.197 Y51.124 E.01684
G1 X102.058 Y56.984 E.26079
G1 X101.523 Y56.984 E.01683
G1 X95.662 Y51.124 E.2608
G1 X95.127 Y51.124 E.01684
G1 X100.988 Y56.985 E.2608
G1 X100.452 Y56.985 E.01683
G1 X94.591 Y51.124 E.26081
G1 X94.056 Y51.124 E.01684
G1 X99.917 Y56.985 E.26081
G1 X99.382 Y56.985 E.01683
G1 X93.521 Y51.124 E.26082
G1 X92.986 Y51.124 E.01684
G1 X98.847 Y56.985 E.26083
G1 X98.312 Y56.985 E.01683
G1 X92.451 Y51.124 E.26083
G1 X91.916 Y51.124 E.01684
G1 X97.777 Y56.985 E.26084
G1 X97.242 Y56.985 E.01683
G1 X91.38 Y51.124 E.26084
G1 X90.845 Y51.124 E.01684
G1 X96.707 Y56.986 E.26085
G1 X96.172 Y56.986 E.01683
G1 X90.31 Y51.124 E.26086
G1 X89.775 Y51.124 E.01684
G1 X95.637 Y56.986 E.26086
G1 X95.102 Y56.986 E.01683
G1 X89.24 Y51.124 E.26087
G1 X88.705 Y51.124 E.01684
G1 X94.567 Y56.986 E.26087
G1 X94.032 Y56.986 E.01683
G1 X88.17 Y51.124 E.26088
G1 X87.634 Y51.124 E.01684
G1 X93.497 Y56.986 E.26088
G1 X92.962 Y56.987 E.01683
G1 X87.099 Y51.124 E.26089
G1 X86.564 Y51.124 E.01684
G1 X92.427 Y56.987 E.2609
G1 X91.892 Y56.987 E.01683
G1 X86.029 Y51.124 E.2609
G1 X85.494 Y51.124 E.01684
G1 X91.357 Y56.987 E.26091
G1 X90.822 Y56.987 E.01683
G1 X84.959 Y51.124 E.26091
G1 X84.423 Y51.124 E.01684
G1 X90.287 Y56.987 E.26092
G1 X89.752 Y56.987 E.01683
G1 X83.888 Y51.124 E.26092
G1 X83.353 Y51.124 E.01684
G1 X89.217 Y56.987 E.26093
G1 X88.682 Y56.988 E.01683
G1 X82.818 Y51.124 E.26094
G1 X82.283 Y51.124 E.01684
G1 X88.147 Y56.988 E.26094
G1 X87.612 Y56.988 E.01683
G1 X81.748 Y51.124 E.26095
G1 X81.213 Y51.124 E.01684
G1 X87.077 Y56.988 E.26095
G1 X86.542 Y56.988 E.01683
G1 X80.677 Y51.124 E.26096
G1 X80.142 Y51.124 E.01684
G1 X86.007 Y56.988 E.26096
G1 X85.472 Y56.988 E.01683
G1 X79.607 Y51.124 E.26097
G1 X79.072 Y51.124 E.01684
G1 X84.937 Y56.988 E.26098
G1 X84.402 Y56.989 E.01683
G1 X78.537 Y51.124 E.26098
G1 X78.002 Y51.124 E.01684
G1 X83.867 Y56.989 E.26099
G1 X83.332 Y56.989 E.01683
G1 X77.467 Y51.124 E.26099
G1 X76.931 Y51.124 E.01684
G1 X82.797 Y56.989 E.261
G1 X82.262 Y56.989 E.01683
G1 X76.396 Y51.124 E.26101
G1 X75.861 Y51.124 E.01684
G1 X81.727 Y56.989 E.26101
G1 X81.192 Y56.989 E.01683
G1 X75.326 Y51.124 E.26102
G1 X74.791 Y51.124 E.01684
G1 X80.657 Y56.989 E.26102
G1 X80.122 Y56.99 E.01683
G1 X74.256 Y51.124 E.26103
G1 X73.72 Y51.124 E.01684
G1 X79.587 Y56.99 E.26103
G1 X79.052 Y56.99 E.01683
M73 P5 R52
G1 X73.185 Y51.124 E.26104
G1 X72.65 Y51.124 E.01684
G1 X78.517 Y56.99 E.26105
G1 X77.982 Y56.99 E.01683
G1 X72.115 Y51.124 E.26105
G1 X71.58 Y51.124 E.01684
G1 X77.447 Y56.99 E.26106
G1 X76.912 Y56.99 E.01683
M73 P5 R51
G1 X71.045 Y51.124 E.26106
G1 X70.51 Y51.124 E.01684
G1 X76.377 Y56.991 E.26107
G1 X75.842 Y56.991 E.01683
G1 X69.974 Y51.124 E.26107
G1 X69.439 Y51.124 E.01684
G1 X75.306 Y56.991 E.26108
G1 X74.771 Y56.991 E.01683
G1 X68.904 Y51.124 E.26109
G1 X68.369 Y51.124 E.01684
G1 X74.236 Y56.991 E.26109
G1 X73.701 Y56.991 E.01683
G1 X67.834 Y51.124 E.2611
G1 X67.299 Y51.124 E.01684
G1 X73.166 Y56.991 E.2611
G1 X72.631 Y56.991 E.01683
G1 X66.763 Y51.124 E.26111
G1 X66.228 Y51.124 E.01684
G1 X72.096 Y56.992 E.26111
G1 X71.561 Y56.992 E.01683
G1 X65.693 Y51.124 E.26112
G1 X65.158 Y51.124 E.01684
G1 X71.026 Y56.992 E.26113
G1 X70.491 Y56.992 E.01683
G1 X64.623 Y51.124 E.26113
G1 X64.088 Y51.124 E.01684
G1 X69.956 Y56.992 E.26114
G1 X69.421 Y56.992 E.01683
G1 X63.553 Y51.124 E.26114
G1 X63.017 Y51.124 E.01684
G1 X68.886 Y56.992 E.26115
G1 X68.351 Y56.992 E.01683
G1 X62.313 Y50.954 E.26871
M204 P1000
G1 E-2.24 F4200
;WIPE_START
G1 F7200
G1 X63.476 Y52.118 E-.912
;WIPE_END
G1 E-.048 F4200
G1 Z.4 F720
G1 X85.436 Y7.719 F9000
G1 Z.2 F720
G1 E3.2 F2400
M204 P800
G1 F1200
G1 X84.841 Y7.124 E.02649
G1 X84.306 Y7.124 E.01684
G1 X85.267 Y8.084 E.04276
G1 X85.267 Y8.62 E.01684
G1 X83.771 Y7.124 E.06657
G1 X83.236 Y7.124 E.01684
G1 X85.267 Y9.155 E.09038
G1 X85.267 Y9.69 E.01684
G1 X82.7 Y7.124 E.1142
G1 X82.165 Y7.124 E.01684
G1 X85.267 Y10.225 E.13801
G1 X85.267 Y10.76 E.01684
G1 X81.63 Y7.124 E.16182
G1 X81.095 Y7.124 E.01684
G1 X85.267 Y11.295 E.18564
G1 X85.267 Y11.83 E.01684
G1 X80.56 Y7.124 E.20945
G1 X80.025 Y7.124 E.01684
G1 X85.267 Y12.366 E.23326
G1 X85.267 Y12.901 E.01684
G1 X79.49 Y7.124 E.25708
G1 X78.954 Y7.124 E.01684
G1 X84.815 Y12.984 E.26077
G1 X84.279 Y12.984 E.01684
G1 X78.419 Y7.124 E.26077
G1 X77.884 Y7.124 E.01684
G1 X83.744 Y12.984 E.26077
G1 X83.209 Y12.984 E.01684
G1 X77.349 Y7.124 E.26077
G1 X76.814 Y7.124 E.01684
G1 X82.674 Y12.984 E.26077
G1 X82.139 Y12.984 E.01684
G1 X76.279 Y7.124 E.26077
G1 X75.743 Y7.124 E.01684
G1 X81.604 Y12.984 E.26077
G1 X81.069 Y12.984 E.01684
G1 X75.208 Y7.124 E.26077
G1 X74.673 Y7.124 E.01684
G1 X80.533 Y12.984 E.26077
G1 X79.998 Y12.984 E.01684
G1 X74.138 Y7.124 E.26077
G1 X73.603 Y7.124 E.01684
G1 X79.463 Y12.984 E.26077
G1 X78.928 Y12.984 E.01684
G1 X73.068 Y7.124 E.26077
G1 X72.533 Y7.124 E.01684
G1 X78.393 Y12.984 E.26077
G1 X77.858 Y12.984 E.01684
G1 X71.997 Y7.124 E.26077
