; generated by PrusaSlicer 2.5.0+win64 on 2023-04-30 at 14:59:17 UTC


;
;

;
;
; 

; external perimeters extrusion width = 0.45mm
; perimeters extrusion width = 0.45mm
; infill extrusion width = 0.45mm
; solid infill extrusion width = 0.45mm
; top infill extrusion width = 0.40mm
; first layer extrusion width = 0.42mm

; external perimeters extrusion width = 0.45mm
; perimeters extrusion width = 0.45mm
; infill extrusion width = 0.45mm
; solid infill extrusion width = 0.45mm
; top infill extrusion width = 0.40mm
; first layer extrusion width = 0.42mm

; external perimeters extrusion width = 0.45mm
; perimeters extrusion width = 0.45mm
; infill extrusion width = 0.45mm
; solid infill extrusion width = 0.45mm
; top infill extrusion width = 0.40mm
; first layer extrusion width = 0.42mm

; external perimeters extrusion width = 0.45mm
; perimeters extrusion width = 0.45mm
; infill extrusion width = 0.45mm
; solid infill extrusion width = 0.45mm
; top infill extrusion width = 0.40mm
; first layer extrusion width = 0.42mm

M73 P0 R55
M201 X2500 Y2500 Z400 E5000 ; sets maximum accelerations, mm/sec^2
M203 X180 Y180 Z12 E80 ; sets maximum feedrates, mm / sec
M204 P1250 R1250 T2500 ; sets acceleration (P, T) and retract acceleration (R), mm/sec^2
M205 X8.00 Y8.00 Z2.00 E10.00 ; sets the jerk limits, mm/sec
M205 S0 T0 ; sets the minimum extruding and travel feed rate, mm/sec
M107
;TYPE:Custom
M862.3 P "MINI" ; printer model check
G90 ; use absolute coordinates
M83 ; extruder relative mode
M104 S170 ; set extruder temp for bed leveling
M140 S60 ; set bed temp
M109 R170 ; wait for bed leveling temp
M190 S60 ; wait for bed temp
M204 T1250 ; set travel acceleration
G28 ; home all without mesh bed level
G29 ; mesh bed leveling 
M204 T2500 ; restore travel acceleration
M104 S215 ; set extruder temp
G92 E0
G1 Y-2 X179 F2400
G1 Z3 F720
M109 S215 ; wait for extruder temp

; intro line
G1 X170 F1000
G1 Z0.2 F720
G1 X110 E8 F900
G1 X40 E10 F700
G92 E0

M221 S95 ; set flow
G21 ; set units to millimeters
G90 ; use absolute coordinates
M83 ; use relative distances for extrusion
M900 K0.2 ; Filament gcode LA 1.5
; ; Filament gcode LA 1.0
M107
;LAYER_CHANGE
;Z:0.2
;HEIGHT:0.2
;BEFORE_LAYER_CHANGE
G92 E0.0
;0.2


G1 E-3.2 F4200
G1 Z.2 F720
;AFTER_LAYER_CHANGE
;0.2
G1 Z.4
G1 X4.039 Y17.401 F9000
G1 Z.2 F720
G1 E3.2 F2400
M204 P800
;TYPE:Skirt/Brim
;WIDTH:0.42
G1 F1200
G1 X84.205 Y6.409 E2.53706
G1 X140.928 Y6.386 E1.77851
G1 X142.235 Y6.778 E.04278
M73 P0 R54
G1 X143.114 Y7.83 E.04297
G1 X161.914 Y51.83 E1.50024
G1 X162.103 Y52.673 E.02709
G1 X165.382 Y138.335 E2.68784
G1 X165.384 Y162.426 E.75535
G1 X164.993 Y163.733 E.04278
G1 X163.361 Y164.776 E.06073
G1 X83.062 Y176.858 E2.54605
G1 X26.308 Y176.885 E1.77947
M73 P1 R54
G1 X25.001 Y176.493 E.04278
G1 X24.122 Y175.442 E.04297
G1 X5.322 Y131.442 E1.50024
G1 X5.133 Y130.594 E.02724
G1 X1.987 Y43.842 E2.72183
G1 X1.985 Y19.756 E.7552
G1 X2.377 Y18.449 E.04278
G1 X3.989 Y17.433 E.05974
M204 P1000
; printing object intrigue_2nd_div_16_19.stl_3 id:2 copy 0
G1 E-2.24 F4200
;WIPE_START
G1 F7200
G1 X5.619 Y17.209 E-.912
;WIPE_END
G1 E-.048 F4200
G1 Z.4 F720
G1 X57.913 Y167.13 F9000
G1 Z.2 F720
G1 E3.2 F2400
M204 P800
;TYPE:Perimeter
;WIDTH:0.419999
G1 F1200
G1 X58.069 Y167.251 E.00622
G1 X58.287 Y167.295 E.00696
G1 X81.921 Y167.295 E.74104
G1 X81.921 Y173.721 E.20148
G1 X27.095 Y173.721 E1.71902
G1 X27.095 Y167.295 E.20148
G1 X50.73 Y167.295 E.74104
G1 X50.828 Y167.286 E.00308
G1 X51.041 Y167.202 E.00721
G1 X51.223 Y167.007 E.00835
G1 X51.295 Y166.729 E.00899
G1 X51.295 Y130.286 E1.14264
G1 X51.288 Y130.193 E.00293
G1 X51.2 Y129.973 E.00744
G1 X50.983 Y129.781 E.0091
G1 X50.73 Y129.721 E.00815
G1 X8.295 Y129.721 E1.3305
G1 X8.295 Y123.295 E.20148
G1 X50.823 Y123.287 E1.33341
G1 X51.044 Y123.2 E.00744
G1 X51.236 Y122.982 E.0091
G1 X51.295 Y122.729 E.00815
G1 X51.295 Y114.286 E.26472
G1 X51.286 Y114.182 E.00328
G1 X51.182 Y113.947 E.00805
G1 X50.947 Y113.764 E.00933
G1 X50.73 Y113.721 E.00696
G1 X8.295 Y113.721 E1.3305
G1 X8.295 Y107.295 E.20148
G1 X100.721 Y107.295 E2.89794
G1 X100.721 Y113.721 E.20148
M73 P2 R54
G1 X58.287 Y113.721 E1.3305
G1 X58.189 Y113.729 E.00308
G1 X57.976 Y113.814 E.00721
G1 X57.794 Y114.009 E.00835
G1 X57.721 Y114.286 E.00899
G1 X57.723 Y122.779 E.26627
G1 X57.816 Y123.043 E.00879
G1 X58.034 Y123.235 E.0091
G1 X58.287 Y123.295 E.00815
G1 X100.721 Y123.295 E1.3305
G1 X100.721 Y129.721 E.20148
G1 X58.287 Y129.721 E1.3305
G1 X57.973 Y129.816 E.01028
G1 X57.781 Y130.033 E.0091
G1 X57.721 Y130.286 E.00815
G1 X57.721 Y166.729 E1.14264
G1 X57.731 Y166.834 E.00328
G1 X57.834 Y167.069 E.00805
G1 X57.865 Y167.093 E.00123
M204 P1000
G1 X58.157 Y166.866 F9000
M204 P800
;TYPE:External perimeter
G1 F1200
G1 X58.287 Y166.918 E.00439
G1 X82.298 Y166.918 E.75286
G1 X82.298 Y174.098 E.22512
G1 X26.718 Y174.098 E1.74267
G1 X26.718 Y166.918 E.22512
M73 P2 R53
G1 X50.73 Y166.918 E.75286
G1 X50.86 Y166.866 E.00439
G1 X50.918 Y166.729 E.00466
G1 X50.918 Y130.286 E1.14264
G1 X50.875 Y130.166 E.00402
G1 X50.73 Y130.098 E.00501
G1 X7.918 Y130.098 E1.34232
G1 X7.918 Y122.918 E.22512
G1 X50.73 Y122.918 E1.34232
G1 X50.85 Y122.874 E.00402
G1 X50.918 Y122.729 E.00501
G1 X50.918 Y114.286 E.26472
G1 X50.86 Y114.15 E.00466
G1 X50.73 Y114.098 E.00439
G1 X7.918 Y114.098 E1.34232
G1 X7.918 Y106.918 E.22512
G1 X101.098 Y106.918 E2.92159
G1 X101.098 Y114.098 E.22512
G1 X58.287 Y114.098 E1.34232
G1 X58.157 Y114.15 E.00439
M73 P3 R53
G1 X58.098 Y114.286 E.00466
G1 X58.098 Y122.729 E.26472
G1 X58.142 Y122.85 E.00402
G1 X58.287 Y122.918 E.00501
G1 X101.098 Y122.918 E1.34232
G1 X101.098 Y130.098 E.22512
G1 X58.287 Y130.098 E1.34232
G1 X58.166 Y130.142 E.00402
G1 X58.098 Y130.286 E.00501
G1 X58.098 Y166.729 E1.14264
G1 X58.133 Y166.811 E.00278
M204 P1000
G1 X58.122 Y167.001 F9000
G1 E-2.24 F4200
;WIPE_START
G1 F7200
G1 X58.287 Y166.918 E-.10382
G1 X59.745 Y166.918 E-.80818
;WIPE_END
G1 E-.048 F4200
G1 Z.4 F720
G1 X100.608 Y124.228 F9000
G1 Z.2 F720
G1 E3.2 F2400
M204 P800
;TYPE:Solid infill
;WIDTH:0.421329
G1 F1200
G1 X99.958 Y123.578 E.02893
G1 X99.423 Y123.577 E.01684
G1 X100.438 Y124.593 E.0452
G1 X100.438 Y125.128 E.01684
G1 X98.887 Y123.577 E.06901
G1 X98.352 Y123.577 E.01684
G1 X100.438 Y125.663 E.09283
G1 X100.438 Y126.199 E.01684
G1 X97.817 Y123.577 E.11665
G1 X97.282 Y123.577 E.01684
G1 X100.438 Y126.734 E.14047
G1 X100.438 Y127.269 E.01684
G1 X96.746 Y123.577 E.16429
G1 X96.211 Y123.577 E.01684
G1 X100.438 Y127.804 E.18811
G1 X100.438 Y128.339 E.01684
G1 X95.676 Y123.577 E.21193
G1 X95.141 Y123.576 E.01684
G1 X100.438 Y128.874 E.23575
G1 X100.438 Y129.41 E.01684
G1 X94.605 Y123.576 E.25957
G1 X94.07 Y123.576 E.01684
G1 X99.932 Y129.438 E.26084
G1 X99.397 Y129.438 E.01684
G1 X93.535 Y123.576 E.26084
G1 X92.999 Y123.576 E.01684
G1 X98.861 Y129.438 E.26085
G1 X98.326 Y129.438 E.01684
G1 X92.464 Y123.576 E.26086
G1 X91.929 Y123.576 E.01684
G1 X97.791 Y129.438 E.26086
G1 X97.256 Y129.438 E.01684
G1 X91.394 Y123.576 E.26087
G1 X90.858 Y123.575 E.01684
G1 X96.721 Y129.438 E.26087
G1 X96.186 Y129.438 E.01684
G1 X90.323 Y123.575 E.26088
G1 X89.788 Y123.575 E.01684
G1 X95.651 Y129.438 E.26089
G1 X95.115 Y129.438 E.01684
G1 X89.252 Y123.575 E.26089
G1 X88.717 Y123.575 E.01684
G1 X94.58 Y129.438 E.2609
G1 X94.045 Y129.438 E.01684
G1 X88.182 Y123.575 E.2609
G1 X87.647 Y123.575 E.01684
G1 X93.51 Y129.438 E.26091
G1 X92.975 Y129.438 E.01684
G1 X87.111 Y123.575 E.26091
G1 X86.576 Y123.574 E.01684
G1 X92.44 Y129.438 E.26092
G1 X91.905 Y129.438 E.01684
G1 X86.041 Y123.574 E.26093
G1 X85.505 Y123.574 E.01684
G1 X91.369 Y129.438 E.26093
G1 X90.834 Y129.438 E.01684
G1 X84.97 Y123.574 E.26094
G1 X84.435 Y123.574 E.01684
G1 X90.299 Y129.438 E.26094
G1 X89.764 Y129.438 E.01684
G1 X83.9 Y123.574 E.26095
G1 X83.364 Y123.574 E.01684
G1 X89.229 Y129.438 E.26095
G1 X88.694 Y129.438 E.01684
G1 X82.829 Y123.573 E.26096
G1 X82.294 Y123.573 E.01684
G1 X88.158 Y129.438 E.26097
G1 X87.623 Y129.438 E.01684
G1 X81.759 Y123.573 E.26097
G1 X81.223 Y123.573 E.01684
G1 X87.088 Y129.438 E.26098
G1 X86.553 Y129.438 E.01684
G1 X80.688 Y123.573 E.26098
G1 X80.153 Y123.573 E.01684
G1 X86.018 Y129.438 E.26099
G1 X85.483 Y129.438 E.01684
G1 X79.617 Y123.573 E.26099
G1 X79.082 Y123.573 E.01684
G1 X84.948 Y129.438 E.261
G1 X84.412 Y129.438 E.01684
G1 X78.547 Y123.572 E.26101
G1 X78.012 Y123.572 E.01684
G1 X83.877 Y129.438 E.26101
G1 X83.342 Y129.438 E.01684
G1 X77.476 Y123.572 E.26102
G1 X76.941 Y123.572 E.01684
G1 X82.807 Y129.438 E.26102
G1 X82.272 Y129.438 E.01684
G1 X76.406 Y123.572 E.26103
G1 X75.87 Y123.572 E.01684
G1 X81.737 Y129.438 E.26103
G1 X81.201 Y129.438 E.01684
G1 X75.335 Y123.572 E.26104
G1 X74.8 Y123.572 E.01684
G1 X80.666 Y129.438 E.26105
G1 X80.131 Y129.438 E.01684
G1 X74.265 Y123.571 E.26105
G1 X73.729 Y123.571 E.01684
G1 X79.596 Y129.438 E.26106
G1 X79.061 Y129.438 E.01684
G1 X73.194 Y123.571 E.26106
G1 X72.659 Y123.571 E.01684
G1 X78.526 Y129.438 E.26107
G1 X77.991 Y129.438 E.01684
G1 X72.123 Y123.571 E.26108
G1 X71.588 Y123.571 E.01684
G1 X77.455 Y129.438 E.26108
G1 X76.92 Y129.438 E.01684
G1 X71.053 Y123.571 E.26109
G1 X70.518 Y123.57 E.01684
G1 X76.385 Y129.438 E.26109
G1 X75.85 Y129.438 E.01684
G1 X69.982 Y123.57 E.2611
G1 X69.447 Y123.57 E.01684
G1 X75.315 Y129.438 E.2611
G1 X74.78 Y129.438 E.01684
G1 X68.912 Y123.57 E.26111
G1 X68.376 Y123.57 E.01684
G1 X74.245 Y129.438 E.26112
G1 X73.709 Y129.438 E.01684
G1 X67.841 Y123.57 E.26112
G1 X67.306 Y123.57 E.01684
M73 P4 R53
G1 X73.174 Y129.438 E.26113
G1 X72.639 Y129.438 E.01684
G1 X66.771 Y123.57 E.26113
G1 X66.235 Y123.569 E.01684
G1 X72.104 Y129.438 E.26114
G1 X71.569 Y129.438 E.01684
G1 X65.7 Y123.569 E.26114
G1 X65.165 Y123.569 E.01684
G1 X71.034 Y129.438 E.26115
G1 X70.498 Y129.438 E.01684
G1 X64.63 Y123.569 E.26116
G1 X64.094 Y123.569 E.01684
G1 X69.963 Y129.438 E.26116
G1 X69.428 Y129.438 E.01684
G1 X63.559 Y123.569 E.26117
G1 X63.024 Y123.569 E.01684
G1 X68.893 Y129.438 E.26117
G1 X68.358 Y129.438 E.01684
G1 X62.488 Y123.569 E.26118
G1 X61.953 Y123.568 E.01684
G1 X67.823 Y129.438 E.26118
G1 X67.288 Y129.438 E.01684
G1 X61.418 Y123.568 E.26119
G1 X60.883 Y123.568 E.01684
G1 X66.752 Y129.438 E.2612
G1 X66.217 Y129.438 E.01684
G1 X60.347 Y123.568 E.2612
G1 X59.812 Y123.568 E.01684
G1 X65.682 Y129.438 E.26121
G1 X65.147 Y129.438 E.01684
G1 X59.277 Y123.568 E.26121
G1 X58.741 Y123.568 E.01684
G1 X64.781 Y129.608 E.26877
M204 P1000
G1 E-2.24 F4200
;WIPE_START
G1 F7200
G1 X63.618 Y128.444 E-.912
;WIPE_END
G1 E-.048 F4200
M73 P4 R52
G1 Z.4 F720
G1 X99.843 Y107.408 F9000
G1 Z.2 F720
G1 E3.2 F2400
M204 P800
G1 F1200
G1 X100.438 Y108.003 E.02649
G1 X100.438 Y108.539 E.01684
G1 X99.478 Y107.578 E.04276
G1 X98.942 Y107.578 E.01684
G1 X100.438 Y109.074 E.06657
G1 X100.438 Y109.609 E.01684
G1 X98.407 Y107.578 E.09038
G1 X97.872 Y107.578 E.01684
G1 X100.438 Y110.144 E.1142
G1 X100.438 Y110.679 E.01684
G1 X97.337 Y107.578 E.13801
G1 X96.802 Y107.578 E.01684
G1 X100.438 Y111.214 E.16182
G1 X100.438 Y111.75 E.01684
G1 X96.267 Y107.578 E.18564
G1 X95.732 Y107.578 E.01684
G1 X100.438 Y112.285 E.20945
G1 X100.438 Y112.82 E.01684
G1 X95.196 Y107.578 E.23326
G1 X94.661 Y107.578 E.01684
G1 X100.438 Y113.355 E.25708
G1 X100.438 Y113.438 E.00261
G1 X99.986 Y113.438 E.01423
G1 X94.126 Y107.578 E.26077
G1 X93.591 Y107.578 E.01684
G1 X99.451 Y113.438 E.26077
G1 X98.916 Y113.438 E.01684
G1 X93.056 Y107.578 E.26077
G1 X92.521 Y107.578 E.01684
G1 X98.381 Y113.438 E.26077
G1 X97.846 Y113.438 E.01684
G1 X91.985 Y107.578 E.26077
G1 X91.45 Y107.578 E.01684
G1 X97.311 Y113.438 E.26077
G1 X96.775 Y113.438 E.01684
G1 X90.915 Y107.578 E.26077
G1 X90.38 Y107.578 E.01684
G1 X96.24 Y113.438 E.26077
G1 X95.705 Y113.438 E.01684
G1 X89.845 Y107.578 E.26077
G1 X89.31 Y107.578 E.01684
G1 X95.17 Y113.438 E.26077
G1 X94.635 Y113.438 E.01684
G1 X88.775 Y107.578 E.26077
G1 X88.239 Y107.578 E.01684
G1 X94.1 Y113.438 E.26077
G1 X93.565 Y113.438 E.01684
G1 X87.704 Y107.578 E.26077
G1 X87.169 Y107.578 E.01684
G1 X93.029 Y113.438 E.26077
G1 X92.494 Y113.438 E.01684
G1 X86.634 Y107.578 E.26077
G1 X86.099 Y107.578 E.01684
G1 X91.959 Y113.438 E.26077
G1 X91.424 Y113.438 E.01684
G1 X85.564 Y107.578 E.26077
G1 X85.028 Y107.578 E.01684
G1 X90.889 Y113.438 E.26077
G1 X90.354 Y113.438 E.01684
G1 X84.493 Y107.578 E.26077
G1 X83.958 Y107.578 E.01684
G1 X89.818 Y113.438 E.26077
G1 X89.283 Y113.438 E.01684
G1 X83.423 Y107.578 E.26077
G1 X82.888 Y107.578 E.01684
G1 X88.748 Y113.438 E.26077
G1 X88.213 Y113.438 E.01684
G1 X82.353 Y107.578 E.26077
G1 X81.818 Y107.578 E.01684
G1 X87.678 Y113.438 E.26077
G1 X87.143 Y113.438 E.01684
G1 X81.282 Y107.578 E.26077
G1 X80.747 Y107.578 E.01684
G1 X86.608 Y113.438 E.26077
G1 X86.072 Y113.438 E.01684
G1 X80.212 Y107.578 E.26077
G1 X79.677 Y107.578 E.01684
G1 X85.537 Y113.438 E.26077
G1 X85.002 Y113.438 E.01684
G1 X79.142 Y107.578 E.26077
G1 X78.607 Y107.578 E.01684
G1 X84.467 Y113.438 E.26077
G1 X83.932 Y113.438 E.01684
G1 X78.072 Y107.578 E.26077
G1 X77.536 Y107.578 E.01684
G1 X83.397 Y113.438 E.26077
G1 X82.861 Y113.438 E.01684
G1 X77.001 Y107.578 E.26077
G1 X76.466 Y107.578 E.01684
G1 X82.326 Y113.438 E.26077
G1 X81.791 Y113.438 E.01684
G1 X75.931 Y107.578 E.26077
G1 X75.396 Y107.578 E.01684
G1 X81.256 Y113.438 E.26077
G1 X80.721 Y113.438 E.01684
G1 X74.861 Y107.578 E.26077
G1 X74.325 Y107.578 E.01684
G1 X80.186 Y113.438 E.26077
G1 X79.651 Y113.438 E.01684
G1 X73.79 Y107.578 E.26077
G1 X73.255 Y107.578 E.01684
G1 X79.115 Y113.438 E.26077
G1 X78.58 Y113.438 E.01684
G1 X72.72 Y107.578 E.26077
G1 X72.185 Y107.578 E.01684
G1 X78.045 Y113.438 E.26077
G1 X77.51 Y113.438 E.01684
G1 X71.65 Y107.578 E.26077
G1 X71.115 Y107.578 E.01684
G1 X76.975 Y113.438 E.26077
G1 X76.44 Y113.438 E.01684
G1 X70.579 Y107.578 E.26077
G1 X70.044 Y107.578 E.01684
G1 X75.905 Y113.438 E.26077
G1 X75.369 Y113.438 E.01684
G1 X69.509 Y107.578 E.26077
G1 X68.974 Y107.578 E.01684
G1 X74.834 Y113.438 E.26077
G1 X74.299 Y113.438 E.01684
M73 P5 R52
G1 X68.439 Y107.578 E.26077
G1 X67.904 Y107.578 E.01684
G1 X73.764 Y113.438 E.26077
G1 X73.229 Y113.438 E.01684
G1 X67.369 Y107.578 E.26077
G1 X66.833 Y107.578 E.01684
G1 X72.694 Y113.438 E.26077
G1 X72.158 Y113.438 E.01684
G1 X66.298 Y107.578 E.26077
G1 X65.763 Y107.578 E.01684
G1 X71.623 Y113.438 E.26077
G1 X71.088 Y113.438 E.01684
G1 X65.228 Y107.578 E.26077
G1 X64.693 Y107.578 E.01684
G1 X70.553 Y113.438 E.26077
G1 X70.018 Y113.438 E.01684
G1 X64.158 Y107.578 E.26077
G1 X63.622 Y107.578 E.01684
G1 X69.483 Y113.438 E.26077
G1 X68.948 Y113.438 E.01684
G1 X63.087 Y107.578 E.26077
G1 X62.552 Y107.578 E.01684
G1 X68.412 Y113.438 E.26077
G1 X67.877 Y113.438 E.01684
G1 X62.017 Y107.578 E.26077
G1 X61.482 Y107.578 E.01684
G1 X67.342 Y113.438 E.26077
G1 X66.807 Y113.438 E.01684
G1 X60.947 Y107.578 E.26077
G1 X60.412 Y107.578 E.01684
G1 X66.272 Y113.438 E.26077
G1 X65.737 Y113.438 E.01684
G1 X59.876 Y107.578 E.26077
G1 X59.341 Y107.578 E.01684
G1 X65.201 Y113.438 E.26077
G1 X64.666 Y113.438 E.01684
G1 X58.806 Y107.578 E.26077
G1 X58.271 Y107.578 E.01684
G1 X64.131 Y113.438 E.26077
G1 X63.596 Y113.438 E.01684
G1 X57.736 Y107.578 E.26077
G1 X57.201 Y107.578 E.01684
G1 X63.061 Y113.438 E.26077
G1 X62.526 Y113.438 E.01684
G1 X56.665 Y107.578 E.26077
G1 X56.13 Y107.578 E.01684
G1 X61.991 Y113.438 E.26077
G1 X61.455 Y113.438 E.01684
G1 X55.595 Y107.578 E.26077
G1 X55.06 Y107.578 E.01684
G1 X60.92 Y113.438 E.26077
G1 X60.385 Y113.438 E.01684
G1 X54.525 Y107.578 E.26077
G1 X53.99 Y107.578 E.01684
G1 X59.85 Y113.438 E.26077
G1 X59.315 Y113.438 E.01684
G1 X53.455 Y107.578 E.26077
G1 X52.919 Y107.578 E.01684
G1 X58.78 Y113.438 E.26077
G1 X58.248 Y113.441 E.01673
G1 X52.384 Y107.578 E.26092
G1 X51.849 Y107.578 E.01684
G1 X57.839 Y113.568 E.26653
G1 X57.608 Y113.776 E.00978
G1 X57.574 Y113.838 E.00223
G1 X51.314 Y107.578 E.27856
G1 X50.779 Y107.578 E.01684
G1 X57.445 Y114.244 E.29662
G1 X57.439 Y114.773 E.01665
G1 X50.244 Y107.578 E.32016
G1 X49.709 Y107.578 E.01684
G1 X57.439 Y115.308 E.34398
G1 X57.439 Y115.843 E.01684
G1 X49.173 Y107.578 E.3678
G1 X48.638 Y107.578 E.01684
