; generated by PrusaSlicer 2.5.0+win64 on 2023-04-29 at 02:08:50 UTC


;
;

;
;
; 

; external perimeters extrusion width = 0.45mm
; perimeters extrusion width = 0.45mm
; infill extrusion width = 0.45mm
; solid infill extrusion width = 0.45mm
; top infill extrusion width = 0.40mm
; first layer extrusion width = 0.42mm

; external perimeters extrusion width = 0.45mm
; perimeters extrusion width = 0.45mm
; infill extrusion width = 0.45mm
; solid infill extrusion width = 0.45mm
; top infill extrusion width = 0.40mm
; first layer extrusion width = 0.42mm

; external perimeters extrusion width = 0.45mm
; perimeters extrusion width = 0.45mm
; infill extrusion width = 0.45mm
; solid infill extrusion width = 0.45mm
; top infill extrusion width = 0.40mm
; first layer extrusion width = 0.42mm

; external perimeters extrusion width = 0.45mm
; perimeters extrusion width = 0.45mm
; infill extrusion width = 0.45mm
; solid infill extrusion width = 0.45mm
; top infill extrusion width = 0.40mm
; first layer extrusion width = 0.42mm

M73 P0 R54
M201 X2500 Y2500 Z400 E5000 ; sets maximum accelerations, mm/sec^2
M203 X180 Y180 Z12 E80 ; sets maximum feedrates, mm / sec
M204 P1250 R1250 T2500 ; sets acceleration (P, T) and retract acceleration (R), mm/sec^2
M205 X8.00 Y8.00 Z2.00 E10.00 ; sets the jerk limits, mm/sec
M205 S0 T0 ; sets the minimum extruding and travel feed rate, mm/sec
M107
;TYPE:Custom
M862.3 P "MINI" ; printer model check
G90 ; use absolute coordinates
M83 ; extruder relative mode
M104 S170 ; set extruder temp for bed leveling
M140 S60 ; set bed temp
M109 R170 ; wait for bed leveling temp
M190 S60 ; wait for bed temp
M204 T1250 ; set travel acceleration
G28 ; home all without mesh bed level
G29 ; mesh bed leveling 
M204 T2500 ; restore travel acceleration
M104 S215 ; set extruder temp
G92 E0
G1 Y-2 X179 F2400
G1 Z3 F720
M109 S215 ; wait for extruder temp

; intro line
G1 X170 F1000
G1 Z0.2 F720
G1 X110 E8 F900
G1 X40 E10 F700
G92 E0

M221 S95 ; set flow
G21 ; set units to millimeters
G90 ; use absolute coordinates
M83 ; use relative distances for extrusion
M900 K0.2 ; Filament gcode LA 1.5
; ; Filament gcode LA 1.0
M107
;LAYER_CHANGE
;Z:0.2
;HEIGHT:0.2
;BEFORE_LAYER_CHANGE
G92 E0.0
;0.2


G1 E-3.2 F4200
G1 Z.2 F720
;AFTER_LAYER_CHANGE
;0.2
G1 Z.4
G1 X19.892 Y8.499 F9000
G1 Z.2 F720
G1 E3.2 F2400
M204 P800
;TYPE:Skirt/Brim
;WIDTH:0.42
G1 F1200
G1 X20.013 Y8.217 E.00964
G1 X20.887 Y7.169 E.04278
G1 X22.199 Y6.774 E.04297
G1 X78.747 Y6.778 E1.77301
G1 X176.602 Y12.87 E3.07412
G1 X177.882 Y13.342 E.04278
G1 X178.692 Y14.441 E.04278
G1 X178.831 Y15.243 E.02553
G1 X178.828 Y39.373 E.75659
G1 X173.726 Y132.305 E2.91819
G1 X173.539 Y133.108 E.02588
M73 P0 R53
G1 X154.739 Y177.108 E1.50024
G1 X153.865 Y178.156 E.04278
G1 X152.553 Y178.551 E.04297
G1 X95.734 Y178.514 E1.7815
G1 X13.606 Y163.829 E2.61593
M73 P1 R53
G1 X12.388 Y163.214 E.04278
G1 X11.666 Y161.787 E.05016
G1 X1.04 Y77.448 E2.66529
G1 X1.022 Y53.151 E.76182
G1 X1.213 Y52.217 E.02989
G1 X19.869 Y8.555 E1.48872
M204 P1000
; printing object intrigue_2nd_div_4_7.stl_2 id:1 copy 0
G1 E-2.24 F4200
;WIPE_START
G1 F7200
G1 X20.013 Y8.217 E-.20361
G1 X20.831 Y7.235 E-.70839
;WIPE_END
G1 E-.048 F4200
G1 Z.4 F720
G1 X133.161 Y76.016 F9000
G1 Z.2 F720
G1 E3.2 F2400
M204 P800
;TYPE:Perimeter
;WIDTH:0.419999
G1 F1200
G1 X133.233 Y76.03 E.00229
G1 X156.867 Y76.03 E.74104
G1 X156.867 Y82.456 E.20148
G1 X102.041 Y82.456 E1.71902
G1 X102.041 Y76.03 E.20148
G1 X125.676 Y76.03 E.74104
G1 X125.773 Y76.021 E.00308
G1 X125.987 Y75.936 E.00721
G1 X126.169 Y75.742 E.00835
G1 X126.241 Y75.464 E.00899
G1 X126.241 Y39.021 E1.14264
G1 X126.233 Y38.928 E.00293
G1 X126.146 Y38.708 E.00744
G1 X125.929 Y38.515 E.0091
G1 X125.676 Y38.456 E.00815
G1 X83.241 Y38.456 E1.3305
G1 X83.241 Y32.03 E.20148
G1 X125.769 Y32.022 E1.33341
G1 X125.989 Y31.935 E.00744
G1 X126.181 Y31.717 E.0091
G1 X126.241 Y31.464 E.00815
G1 X126.241 Y23.021 E.26472
G1 X126.231 Y22.917 E.00328
G1 X126.128 Y22.682 E.00805
G1 X125.893 Y22.499 E.00933
G1 X125.676 Y22.456 E.00696
G1 X83.241 Y22.456 E1.3305
G1 X83.241 Y16.03 E.20148
G1 X175.667 Y16.03 E2.89794
G1 X175.667 Y22.456 E.20148
M73 P2 R53
G1 X133.233 Y22.456 E1.3305
G1 X133.135 Y22.464 E.00308
G1 X132.921 Y22.549 E.00721
G1 X132.74 Y22.744 E.00835
G1 X132.667 Y23.021 E.00899
G1 X132.669 Y31.514 E.26627
G1 X132.762 Y31.778 E.00879
G1 X132.98 Y31.97 E.0091
G1 X133.233 Y32.03 E.00815
G1 X175.667 Y32.03 E1.3305
G1 X175.667 Y38.456 E.20148
G1 X133.233 Y38.456 E1.3305
G1 X132.919 Y38.551 E.01028
G1 X132.727 Y38.768 E.0091
G1 X132.667 Y39.021 E.00815
G1 X132.667 Y75.464 E1.14264
G1 X132.677 Y75.569 E.00328
G1 X132.78 Y75.804 E.00805
G1 X133.015 Y75.986 E.00933
G1 X133.102 Y76.004 E.00279
M204 P1000
G1 X133.233 Y75.653 F9000
M204 P800
;TYPE:External perimeter
G1 F1200
G1 X157.244 Y75.653 E.75286
G1 X157.244 Y82.833 E.22512
G1 X101.664 Y82.833 E1.74267
G1 X101.664 Y75.653 E.22512
G1 X125.676 Y75.653 E.75286
G1 X125.806 Y75.601 E.00439
G1 X125.864 Y75.464 E.00466
G1 X125.864 Y39.021 E1.14264
G1 X125.82 Y38.901 E.00402
G1 X125.676 Y38.833 E.00501
G1 X82.864 Y38.833 E1.34232
G1 X82.864 Y31.653 E.22512
G1 X125.676 Y31.653 E1.34232
G1 X125.796 Y31.609 E.00402
M73 P2 R52
G1 X125.864 Y31.464 E.00501
G1 X125.864 Y23.021 E.26472
G1 X125.806 Y22.885 E.00466
G1 X125.676 Y22.833 E.00439
G1 X82.864 Y22.833 E1.34232
G1 X82.864 Y15.653 E.22512
G1 X176.044 Y15.653 E2.92159
G1 X176.044 Y22.833 E.22512
M73 P3 R52
G1 X133.233 Y22.833 E1.34232
G1 X133.103 Y22.885 E.00439
G1 X133.044 Y23.021 E.00466
G1 X133.044 Y31.464 E.26472
G1 X133.088 Y31.585 E.00402
G1 X133.233 Y31.653 E.00501
G1 X176.044 Y31.653 E1.34232
G1 X176.044 Y38.833 E.22512
G1 X133.233 Y38.833 E1.34232
G1 X133.112 Y38.877 E.00402
G1 X133.044 Y39.021 E.00501
G1 X133.044 Y75.464 E1.14264
G1 X133.103 Y75.601 E.00466
G1 X133.177 Y75.631 E.00251
M204 P1000
G1 X133.336 Y76.039 F9000
G1 E-2.24 F4200
;WIPE_START
G1 F7200
G1 X134.823 Y75.632 E-.912
;WIPE_END
G1 E-.048 F4200
G1 Z.4 F720
G1 X175.554 Y32.963 F9000
G1 Z.2 F720
G1 E3.2 F2400
M204 P800
;TYPE:Solid infill
;WIDTH:0.421329
G1 F1200
G1 X174.904 Y32.313 E.02893
G1 X174.369 Y32.312 E.01684
G1 X175.384 Y33.328 E.0452
G1 X175.384 Y33.863 E.01684
G1 X173.833 Y32.312 E.06901
G1 X173.298 Y32.312 E.01684
G1 X175.384 Y34.398 E.09283
G1 X175.384 Y34.934 E.01684
G1 X172.763 Y32.312 E.11665
G1 X172.227 Y32.312 E.01684
G1 X175.384 Y35.469 E.14047
G1 X175.384 Y36.004 E.01684
G1 X171.692 Y32.312 E.16429
G1 X171.157 Y32.312 E.01684
G1 X175.384 Y36.539 E.18811
G1 X175.384 Y37.074 E.01684
G1 X170.622 Y32.312 E.21193
G1 X170.086 Y32.311 E.01684
G1 X175.384 Y37.609 E.23575
G1 X175.384 Y38.144 E.01684
G1 X169.551 Y32.311 E.25957
G1 X169.016 Y32.311 E.01684
G1 X174.878 Y38.173 E.26084
G1 X174.342 Y38.173 E.01684
G1 X168.48 Y32.311 E.26084
G1 X167.945 Y32.311 E.01684
G1 X173.807 Y38.173 E.26085
G1 X173.272 Y38.173 E.01684
G1 X167.41 Y32.311 E.26086
G1 X166.875 Y32.311 E.01684
G1 X172.737 Y38.173 E.26086
G1 X172.202 Y38.173 E.01684
G1 X166.339 Y32.31 E.26087
G1 X165.804 Y32.31 E.01684
G1 X171.667 Y38.173 E.26087
G1 X171.131 Y38.173 E.01684
G1 X165.269 Y32.31 E.26088
G1 X164.733 Y32.31 E.01684
G1 X170.596 Y38.173 E.26089
G1 X170.061 Y38.173 E.01684
G1 X164.198 Y32.31 E.26089
G1 X163.663 Y32.31 E.01684
G1 X169.526 Y38.173 E.2609
G1 X168.991 Y38.173 E.01684
G1 X163.128 Y32.31 E.2609
G1 X162.592 Y32.31 E.01684
G1 X168.456 Y38.173 E.26091
G1 X167.921 Y38.173 E.01684
G1 X162.057 Y32.309 E.26091
G1 X161.522 Y32.309 E.01684
G1 X167.385 Y38.173 E.26092
G1 X166.85 Y38.173 E.01684
G1 X160.987 Y32.309 E.26093
G1 X160.451 Y32.309 E.01684
G1 X166.315 Y38.173 E.26093
G1 X165.78 Y38.173 E.01684
G1 X159.916 Y32.309 E.26094
G1 X159.381 Y32.309 E.01684
G1 X165.245 Y38.173 E.26094
G1 X164.71 Y38.173 E.01684
G1 X158.845 Y32.309 E.26095
G1 X158.31 Y32.309 E.01684
G1 X164.175 Y38.173 E.26095
G1 X163.639 Y38.173 E.01684
G1 X157.775 Y32.308 E.26096
G1 X157.24 Y32.308 E.01684
G1 X163.104 Y38.173 E.26097
G1 X162.569 Y38.173 E.01684
G1 X156.704 Y32.308 E.26097
G1 X156.169 Y32.308 E.01684
G1 X162.034 Y38.173 E.26098
G1 X161.499 Y38.173 E.01684
G1 X155.634 Y32.308 E.26098
G1 X155.098 Y32.308 E.01684
G1 X160.964 Y38.173 E.26099
G1 X160.428 Y38.173 E.01684
G1 X154.563 Y32.308 E.26099
G1 X154.028 Y32.307 E.01684
G1 X159.893 Y38.173 E.261
G1 X159.358 Y38.173 E.01684
G1 X153.493 Y32.307 E.26101
G1 X152.957 Y32.307 E.01684
G1 X158.823 Y38.173 E.26101
G1 X158.288 Y38.173 E.01684
G1 X152.422 Y32.307 E.26102
G1 X151.887 Y32.307 E.01684
G1 X157.753 Y38.173 E.26102
G1 X157.218 Y38.173 E.01684
G1 X151.351 Y32.307 E.26103
G1 X150.816 Y32.307 E.01684
G1 X156.682 Y38.173 E.26103
G1 X156.147 Y38.173 E.01684
G1 X150.281 Y32.307 E.26104
G1 X149.746 Y32.306 E.01684
G1 X155.612 Y38.173 E.26105
G1 X155.077 Y38.173 E.01684
G1 X149.21 Y32.306 E.26105
G1 X148.675 Y32.306 E.01684
G1 X154.542 Y38.173 E.26106
G1 X154.007 Y38.173 E.01684
G1 X148.14 Y32.306 E.26106
G1 X147.605 Y32.306 E.01684
G1 X153.472 Y38.173 E.26107
G1 X152.936 Y38.173 E.01684
G1 X147.069 Y32.306 E.26108
G1 X146.534 Y32.306 E.01684
G1 X152.401 Y38.173 E.26108
G1 X151.866 Y38.173 E.01684
M73 P4 R52
G1 X145.999 Y32.306 E.26109
G1 X145.463 Y32.305 E.01684
G1 X151.331 Y38.173 E.26109
G1 X150.796 Y38.173 E.01684
G1 X144.928 Y32.305 E.2611
G1 X144.393 Y32.305 E.01684
G1 X150.261 Y38.173 E.2611
G1 X149.725 Y38.173 E.01684
G1 X143.858 Y32.305 E.26111
G1 X143.322 Y32.305 E.01684
G1 X149.19 Y38.173 E.26112
G1 X148.655 Y38.173 E.01684
G1 X142.787 Y32.305 E.26112
G1 X142.252 Y32.305 E.01684
G1 X148.12 Y38.173 E.26113
G1 X147.585 Y38.173 E.01684
G1 X141.716 Y32.305 E.26113
G1 X141.181 Y32.304 E.01684
G1 X147.05 Y38.173 E.26114
G1 X146.515 Y38.173 E.01684
G1 X140.646 Y32.304 E.26114
G1 X140.111 Y32.304 E.01684
G1 X145.979 Y38.173 E.26115
G1 X145.444 Y38.173 E.01684
G1 X139.575 Y32.304 E.26116
G1 X139.04 Y32.304 E.01684
G1 X144.909 Y38.173 E.26116
G1 X144.374 Y38.173 E.01684
G1 X138.505 Y32.304 E.26117
G1 X137.969 Y32.304 E.01684
G1 X143.839 Y38.173 E.26117
G1 X143.304 Y38.173 E.01684
G1 X137.434 Y32.303 E.26118
G1 X136.899 Y32.303 E.01684
G1 X142.768 Y38.173 E.26118
G1 X142.233 Y38.173 E.01684
G1 X136.364 Y32.303 E.26119
G1 X135.828 Y32.303 E.01684
G1 X141.698 Y38.173 E.2612
G1 X141.163 Y38.173 E.01684
G1 X135.293 Y32.303 E.2612
G1 X134.758 Y32.303 E.01684
G1 X140.628 Y38.173 E.26121
G1 X140.093 Y38.173 E.01684
G1 X134.222 Y32.303 E.26121
G1 X133.687 Y32.303 E.01684
G1 X139.727 Y38.343 E.26877
M204 P1000
G1 E-2.24 F4200
;WIPE_START
G1 F7200
G1 X138.564 Y37.179 E-.912
;WIPE_END
G1 E-.048 F4200
G1 Z.4 F720
G1 X174.789 Y16.143 F9000
G1 Z.2 F720
G1 E3.2 F2400
M204 P800
G1 F1200
G1 X175.384 Y16.738 E.02649
G1 X175.384 Y17.274 E.01684
G1 X174.423 Y16.313 E.04276
G1 X173.888 Y16.313 E.01684
G1 X175.384 Y17.809 E.06657
G1 X175.384 Y18.344 E.01684
G1 X173.353 Y16.313 E.09038
G1 X172.818 Y16.313 E.01684
G1 X175.384 Y18.879 E.1142
G1 X175.384 Y19.414 E.01684
G1 X172.283 Y16.313 E.13801
G1 X171.748 Y16.313 E.01684
G1 X175.384 Y19.949 E.16182
G1 X175.384 Y20.484 E.01684
G1 X171.212 Y16.313 E.18564
G1 X170.677 Y16.313 E.01684
G1 X175.384 Y21.02 E.20945
G1 X175.384 Y21.555 E.01684
G1 X170.142 Y16.313 E.23326
G1 X169.607 Y16.313 E.01684
G1 X175.384 Y22.09 E.25708
G1 X175.384 Y22.173 E.00261
G1 X174.932 Y22.173 E.01423
G1 X169.072 Y16.313 E.26077
G1 X168.537 Y16.313 E.01684
G1 X174.397 Y22.173 E.26077
G1 X173.862 Y22.173 E.01684
G1 X168.002 Y16.313 E.26077
G1 X167.466 Y16.313 E.01684
G1 X173.327 Y22.173 E.26077
G1 X172.791 Y22.173 E.01684
G1 X166.931 Y16.313 E.26077
G1 X166.396 Y16.313 E.01684
G1 X172.256 Y22.173 E.26077
G1 X171.721 Y22.173 E.01684
G1 X165.861 Y16.313 E.26077
G1 X165.326 Y16.313 E.01684
G1 X171.186 Y22.173 E.26077
G1 X170.651 Y22.173 E.01684
G1 X164.791 Y16.313 E.26077
G1 X164.255 Y16.313 E.01684
M73 P4 R51
G1 X170.116 Y22.173 E.26077
G1 X169.581 Y22.173 E.01684
G1 X163.72 Y16.313 E.26077
G1 X163.185 Y16.313 E.01684
G1 X169.045 Y22.173 E.26077
G1 X168.51 Y22.173 E.01684
G1 X162.65 Y16.313 E.26077
G1 X162.115 Y16.313 E.01684
G1 X167.975 Y22.173 E.26077
G1 X167.44 Y22.173 E.01684
G1 X161.58 Y16.313 E.26077
G1 X161.045 Y16.313 E.01684
G1 X166.905 Y22.173 E.26077
G1 X166.37 Y22.173 E.01684
G1 X160.509 Y16.313 E.26077
G1 X159.974 Y16.313 E.01684
G1 X165.835 Y22.173 E.26077
G1 X165.299 Y22.173 E.01684
G1 X159.439 Y16.313 E.26077
G1 X158.904 Y16.313 E.01684
G1 X164.764 Y22.173 E.26077
G1 X164.229 Y22.173 E.01684
G1 X158.369 Y16.313 E.26077
G1 X157.834 Y16.313 E.01684
G1 X163.694 Y22.173 E.26077
G1 X163.159 Y22.173 E.01684
G1 X157.299 Y16.313 E.26077
G1 X156.763 Y16.313 E.01684
G1 X162.624 Y22.173 E.26077
G1 X162.088 Y22.173 E.01684
G1 X156.228 Y16.313 E.26077
G1 X155.693 Y16.313 E.01684
G1 X161.553 Y22.173 E.26077
G1 X161.018 Y22.173 E.01684
G1 X155.158 Y16.313 E.26077
G1 X154.623 Y16.313 E.01684
G1 X160.483 Y22.173 E.26077
G1 X159.948 Y22.173 E.01684
G1 X154.088 Y16.313 E.26077
G1 X153.552 Y16.313 E.01684
G1 X159.413 Y22.173 E.26077
G1 X158.878 Y22.173 E.01684
G1 X153.017 Y16.313 E.26077
G1 X152.482 Y16.313 E.01684
G1 X158.342 Y22.173 E.26077
G1 X157.807 Y22.173 E.01684
G1 X151.947 Y16.313 E.26077
G1 X151.412 Y16.313 E.01684
G1 X157.272 Y22.173 E.26077
G1 X156.737 Y22.173 E.01684
G1 X150.877 Y16.313 E.26077
G1 X150.342 Y16.313 E.01684
G1 X156.202 Y22.173 E.26077
G1 X155.667 Y22.173 E.01684
G1 X149.806 Y16.313 E.26077
G1 X149.271 Y16.313 E.01684
G1 X155.131 Y22.173 E.26077
G1 X154.596 Y22.173 E.01684
G1 X148.736 Y16.313 E.26077
G1 X148.201 Y16.313 E.01684
G1 X154.061 Y22.173 E.26077
G1 X153.526 Y22.173 E.01684
M73 P5 R51
G1 X147.666 Y16.313 E.26077
G1 X147.131 Y16.313 E.01684
G1 X152.991 Y22.173 E.26077
G1 X152.456 Y22.173 E.01684
G1 X146.595 Y16.313 E.26077
G1 X146.06 Y16.313 E.01684
G1 X151.921 Y22.173 E.26077
G1 X151.385 Y22.173 E.01684
G1 X145.525 Y16.313 E.26077
G1 X144.99 Y16.313 E.01684
G1 X150.85 Y22.173 E.26077
G1 X150.315 Y22.173 E.01684
G1 X144.455 Y16.313 E.26077
G1 X143.92 Y16.313 E.01684
G1 X149.78 Y22.173 E.26077
G1 X149.245 Y22.173 E.01684
G1 X143.385 Y16.313 E.26077
G1 X142.849 Y16.313 E.01684
G1 X148.71 Y22.173 E.26077
G1 X148.175 Y22.173 E.01684
G1 X142.314 Y16.313 E.26077
G1 X141.779 Y16.313 E.01684
G1 X147.639 Y22.173 E.26077
G1 X147.104 Y22.173 E.01684
G1 X141.244 Y16.313 E.26077
G1 X140.709 Y16.313 E.01684
G1 X146.569 Y22.173 E.26077
G1 X146.034 Y22.173 E.01684
G1 X140.174 Y16.313 E.26077
G1 X139.639 Y16.313 E.01684
G1 X145.499 Y22.173 E.26077
G1 X144.964 Y22.173 E.01684
G1 X139.103 Y16.313 E.26077
G1 X138.568 Y16.313 E.01684
G1 X144.428 Y22.173 E.26077
G1 X143.893 Y22.173 E.01684
G1 X138.033 Y16.313 E.26077
G1 X137.498 Y16.313 E.01684
G1 X143.358 Y22.173 E.26077
G1 X142.823 Y22.173 E.01684
G1 X136.963 Y16.313 E.26077
G1 X136.428 Y16.313 E.01684
G1 X142.288 Y22.173 E.26077
G1 X141.753 Y22.173 E.01684
G1 X135.892 Y16.313 E.26077
G1 X135.357 Y16.313 E.01684
G1 X141.218 Y22.173 E.26077
G1 X140.682 Y22.173 E.01684
G1 X134.822 Y16.313 E.26077
G1 X134.287 Y16.313 E.01684
G1 X140.147 Y22.173 E.26077
G1 X139.612 Y22.173 E.01684
G1 X133.752 Y16.313 E.26077
G1 X133.217 Y16.313 E.01684
G1 X139.077 Y22.173 E.26077
G1 X138.542 Y22.173 E.01684
G1 X132.682 Y16.313 E.26077
G1 X132.146 Y16.313 E.01684
G1 X138.007 Y22.173 E.26077
G1 X137.472 Y22.173 E.01684
G1 X131.611 Y16.313 E.26077
G1 X131.076 Y16.313 E.01684
G1 X136.936 Y22.173 E.26077
G1 X136.401 Y22.173 E.01684
G1 X130.541 Y16.313 E.26077
G1 X130.006 Y16.313 E.01684
G1 X135.866 Y22.173 E.26077
G1 X135.331 Y22.173 E.01684
G1 X129.471 Y16.313 E.26077
G1 X128.935 Y16.313 E.01684
G1 X134.796 Y22.173 E.26077
G1 X134.261 Y22.173 E.01684
G1 X128.4 Y16.313 E.26077
G1 X127.865 Y16.313 E.01684
G1 X133.725 Y22.173 E.26077
G1 X133.194 Y22.176 E.01673
G1 X127.33 Y16.313 E.26092
G1 X126.795 Y16.313 E.01684
G1 X132.785 Y22.302 E.26653
G1 X132.554 Y22.51 E.00978
G1 X132.52 Y22.573 E.00223
G1 X126.26 Y16.313 E.27856
G1 X125.725 Y16.313 E.01684
G1 X132.39 Y22.979 E.29662
G1 X132.384 Y23.508 E.01665
G1 X125.189 Y16.313 E.32016
G1 X124.654 Y16.313 E.01684
G1 X132.385 Y24.043 E.34398
G1 X132.385 Y24.578 E.01684
G1 X124.119 Y16.313 E.3678
