; generated by PrusaSlicer 2.5.0+win64 on 2023-08-20 at 15:14:00 UTC


;
;

;
;
; 

; external perimeters extrusion width = 0.45mm
; perimeters extrusion width = 0.45mm
; infill extrusion width = 0.45mm
; solid infill extrusion width = 0.45mm
; top infill extrusion width = 0.40mm
; first layer extrusion width = 0.42mm

M73 P0 R31
M201 X2500 Y2500 Z400 E5000 ; sets maximum accelerations, mm/sec^2
M203 X180 Y180 Z12 E80 ; sets maximum feedrates, mm / sec
M204 P1250 R1250 T2500 ; sets acceleration (P, T) and retract acceleration (R), mm/sec^2
M205 X8.00 Y8.00 Z2.00 E10.00 ; sets the jerk limits, mm/sec
M205 S0 T0 ; sets the minimum extruding and travel feed rate, mm/sec
M107
;TYPE:Custom
M862.3 P "MINI" ; printer model check
G90 ; use absolute coordinates
M83 ; extruder relative mode
M104 S170 ; set extruder temp for bed leveling
M140 S60 ; set bed temp
M109 R170 ; wait for bed leveling temp
M190 S60 ; wait for bed temp
M204 T1250 ; set travel acceleration
G28 ; home all without mesh bed level
G29 ; mesh bed leveling 
M204 T2500 ; restore travel acceleration
M104 S215 ; set extruder temp
G92 E0
G1 Y-2 X179 F2400
G1 Z3 F720
M109 S215 ; wait for extruder temp

; intro line
G1 X170 F1000
G1 Z0.2 F720
G1 X110 E8 F900
G1 X40 E10 F700
G92 E0

M221 S95 ; set flow
G21 ; set units to millimeters
G90 ; use absolute coordinates
M83 ; use relative distances for extrusion
M900 K0.2 ; Filament gcode LA 1.5
; ; Filament gcode LA 1.0
M107
;LAYER_CHANGE
;Z:0.2
;HEIGHT:0.2
;BEFORE_LAYER_CHANGE
G92 E0.0
;0.2


G1 E-3.2 F4200
G1 Z.2 F720
;AFTER_LAYER_CHANGE
;0.2
G1 Z.4
G1 X61.819 Y73.819 F9000
G1 Z.2 F720
G1 E3.2 F2400
M204 P800
;TYPE:Skirt/Brim
;WIDTH:0.42
G1 F1200
G1 X63.5 Y73.122 E.05704
G1 X116.5 Y73.122 E1.66181
G1 X118.181 Y73.819 E.05704
M73 P1 R31
G1 X118.681 Y74.319 E.02217
G1 X119.378 Y76 E.05704
G1 X119.378 Y99.001 E.72118
G1 X118.681 Y100.681 E.05704
G1 X118.181 Y101.181 E.02217
G1 X116.891 Y101.845 E.04549
G1 X86.5 Y106.878 E.96586
G1 X63.5 Y106.878 E.72118
G1 X61.819 Y106.181 E.05704
G1 X61.319 Y105.681 E.02217
G1 X60.622 Y104.001 E.05704
G1 X60.622 Y76 E.87795
G1 X61.319 Y74.319 E.05704
G1 X61.776 Y73.861 E.02029
M204 P1000
; printing object box_with_hinge_both.stl id:0 copy 0
G1 E-2.24 F4200
;WIPE_START
G1 F7200
G1 X63.289 Y73.213 E-.912
;WIPE_END
G1 E-.048 F4200
G1 Z.4 F720
G1 X85.813 Y103.313 F9000
G1 Z.2 F720
G1 E3.2 F2400
M204 P800
;TYPE:Perimeter
;WIDTH:0.419999
G1 F1200
G1 X64.187 Y103.313 E.67809
G1 X64.187 Y76.687 E.83486
G1 X85.813 Y76.687 E.67809
G1 X85.813 Y103.253 E.83298
M204 P1000
G1 X86.191 Y103.691 F9000
M204 P800
;TYPE:External perimeter
G1 F1200
G1 X63.809 Y103.691 E.70174
G1 X63.809 Y76.309 E.85851
G1 X86.191 Y76.309 E.70174
G1 X86.191 Y103.631 E.85663
M204 P1000
G1 X85.808 Y103.574 F9000
G1 E-2.24 F4200
;WIPE_START
G1 F7200
G1 X84.545 Y103.635 E-.912
;WIPE_END
G1 E-.048 F4200
G1 Z.4 F720
G1 X84.931 Y76.8 F9000
G1 Z.2 F720
G1 E3.2 F2400
M204 P800
;TYPE:Solid infill
;WIDTH:0.423301
G1 F1200
G1 X85.531 Y77.399 E.02682
G1 X85.531 Y77.937 E.01701
G1 X84.563 Y76.969 E.04329
G1 X84.025 Y76.969 E.01701
G1 X85.531 Y78.475 E.06735
G1 X85.531 Y79.013 E.01701
G1 X83.487 Y76.969 E.09142
G1 X82.949 Y76.969 E.01701
G1 X85.531 Y79.551 E.11548
G1 X85.531 Y80.089 E.01701
G1 X82.411 Y76.969 E.13954
G1 X81.873 Y76.969 E.01701
G1 X85.531 Y80.627 E.1636
G1 X85.531 Y81.165 E.01701
G1 X81.335 Y76.969 E.18766
G1 X80.797 Y76.969 E.01701
G1 X85.531 Y81.703 E.21173
G1 X85.531 Y82.241 E.01701
G1 X80.259 Y76.969 E.23579
M73 P2 R31
G1 X79.721 Y76.969 E.01701
G1 X85.531 Y82.779 E.25985
G1 X85.531 Y83.317 E.01701
G1 X79.183 Y76.969 E.28391
G1 X78.645 Y76.969 E.01701
G1 X85.531 Y83.855 E.30797
G1 X85.531 Y84.392 E.01701
G1 X78.108 Y76.969 E.33204
G1 X77.57 Y76.969 E.01701
G1 X85.531 Y84.93 E.3561
G1 X85.531 Y85.468 E.01701
G1 X77.032 Y76.969 E.38016
G1 X76.494 Y76.969 E.01701
G1 X85.531 Y86.006 E.40422
G1 X85.531 Y86.544 E.01701
G1 X75.956 Y76.969 E.42828
G1 X75.418 Y76.969 E.01701
G1 X85.531 Y87.082 E.45235
G1 X85.531 Y87.62 E.01701
G1 X74.88 Y76.969 E.47641
G1 X74.342 Y76.969 E.01701
G1 X85.531 Y88.158 E.50047
G1 X85.531 Y88.696 E.01701
G1 X73.804 Y76.969 E.52453
G1 X73.266 Y76.969 E.01701
G1 X85.531 Y89.234 E.54859
G1 X85.531 Y89.772 E.01701
G1 X72.728 Y76.969 E.57266
G1 X72.19 Y76.969 E.01701
G1 X85.531 Y90.31 E.59672
G1 X85.531 Y90.848 E.01701
M73 P2 R30
G1 X71.652 Y76.969 E.62078
G1 X71.114 Y76.969 E.01701
G1 X85.531 Y91.386 E.64484
G1 X85.531 Y91.924 E.01701
G1 X70.576 Y76.969 E.6689
G1 X70.038 Y76.969 E.01701
G1 X85.531 Y92.462 E.69297
G1 X85.531 Y93 E.01701
G1 X69.5 Y76.969 E.71703
G1 X68.963 Y76.969 E.01701
G1 X85.531 Y93.537 E.74109
G1 X85.531 Y94.075 E.01701
G1 X68.425 Y76.969 E.76515
G1 X67.887 Y76.969 E.01701
M73 P3 R30
G1 X85.531 Y94.613 E.78921
G1 X85.531 Y95.151 E.01701
G1 X67.349 Y76.969 E.81328
G1 X66.811 Y76.969 E.01701
G1 X85.531 Y95.689 E.83734
G1 X85.531 Y96.227 E.01701
G1 X66.273 Y76.969 E.8614
G1 X65.735 Y76.969 E.01701
G1 X85.531 Y96.765 E.88546
G1 X85.531 Y97.303 E.01701
G1 X65.197 Y76.969 E.90952
G1 X64.659 Y76.969 E.01701
G1 X85.531 Y97.841 E.93359
G1 X85.531 Y98.379 E.01701
G1 X64.469 Y77.318 E.94207
G1 X64.469 Y77.856 E.01701
G1 X85.531 Y98.917 E.94207
G1 X85.531 Y99.455 E.01701
G1 X64.469 Y78.394 E.94207
G1 X64.469 Y78.931 E.01701
G1 X85.531 Y99.993 E.94207
G1 X85.531 Y100.531 E.01701
G1 X64.469 Y79.469 E.94207
G1 X64.469 Y80.007 E.01701
G1 X85.531 Y101.069 E.94207
G1 X85.531 Y101.607 E.01701
G1 X64.469 Y80.545 E.94207
G1 X64.469 Y81.083 E.01701
M73 P4 R30
G1 X85.531 Y102.145 E.94207
G1 X85.531 Y102.682 E.01701
G1 X64.469 Y81.621 E.94207
G1 X64.469 Y82.159 E.01701
G1 X85.341 Y103.031 E.93358
G1 X84.803 Y103.031 E.01701
G1 X64.469 Y82.697 E.90952
G1 X64.469 Y83.235 E.01701
G1 X84.265 Y103.031 E.88546
G1 X83.727 Y103.031 E.01701
G1 X64.469 Y83.773 E.86139
G1 X64.469 Y84.311 E.01701
G1 X83.189 Y103.031 E.83733
G1 X82.651 Y103.031 E.01701
G1 X64.469 Y84.849 E.81327
G1 X64.469 Y85.387 E.01701
G1 X82.113 Y103.031 E.78921
G1 X81.575 Y103.031 E.01701
G1 X64.469 Y85.925 E.76515
G1 X64.469 Y86.463 E.01701
G1 X81.037 Y103.031 E.74108
G1 X80.499 Y103.031 E.01701
G1 X64.469 Y87.001 E.71702
G1 X64.469 Y87.539 E.01701
G1 X79.961 Y103.031 E.69296
G1 X79.424 Y103.031 E.01701
M73 P5 R30
G1 X64.469 Y88.076 E.6689
G1 X64.469 Y88.614 E.01701
G1 X78.886 Y103.031 E.64484
G1 X78.348 Y103.031 E.01701
G1 X64.469 Y89.152 E.62077
G1 X64.469 Y89.69 E.01701
G1 X77.81 Y103.031 E.59671
G1 X77.272 Y103.031 E.01701
G1 X64.469 Y90.228 E.57265
G1 X64.469 Y90.766 E.01701
G1 X76.734 Y103.031 E.54859
G1 X76.196 Y103.031 E.01701
G1 X64.469 Y91.304 E.52453
G1 X64.469 Y91.842 E.01701
G1 X75.658 Y103.031 E.50046
G1 X75.12 Y103.031 E.01701
G1 X64.469 Y92.38 E.4764
G1 X64.469 Y92.918 E.01701
G1 X74.582 Y103.031 E.45234
G1 X74.044 Y103.031 E.01701
G1 X64.469 Y93.456 E.42828
G1 X64.469 Y93.994 E.01701
G1 X73.506 Y103.031 E.40422
G1 X72.968 Y103.031 E.01701
G1 X64.469 Y94.532 E.38015
G1 X64.469 Y95.07 E.01701
G1 X72.43 Y103.031 E.35609
G1 X71.892 Y103.031 E.01701
G1 X64.469 Y95.608 E.33203
G1 X64.469 Y96.146 E.01701
G1 X71.354 Y103.031 E.30797
G1 X70.817 Y103.031 E.01701
G1 X64.469 Y96.683 E.28391
G1 X64.469 Y97.221 E.01701
M73 P5 R29
G1 X70.279 Y103.031 E.25984
G1 X69.741 Y103.031 E.01701
G1 X64.469 Y97.759 E.23578
G1 X64.469 Y98.297 E.01701
G1 X69.203 Y103.031 E.21172
G1 X68.665 Y103.031 E.01701
G1 X64.469 Y98.835 E.18766
G1 X64.469 Y99.373 E.01701
G1 X68.127 Y103.031 E.1636
G1 X67.589 Y103.031 E.01701
G1 X64.469 Y99.911 E.13953
G1 X64.469 Y100.449 E.01701
G1 X67.051 Y103.031 E.11547
G1 X66.513 Y103.031 E.01701
G1 X64.469 Y100.987 E.09141
G1 X64.469 Y101.525 E.01701
G1 X65.975 Y103.031 E.06735
G1 X65.437 Y103.031 E.01701
G1 X64.469 Y102.063 E.04329
G1 X64.469 Y102.601 E.01701
G1 X65.069 Y103.2 E.02681
M204 P1000
G1 E-2.24 F4200
;WIPE_START
G1 F7200
G1 X64.469 Y102.601 E-.46982
G1 X64.469 Y102.063 E-.29811
G1 X64.653 Y102.247 E-.14407
;WIPE_END
G1 E-.048 F4200
G1 Z.4 F720
G1 X94.187 Y98.313 F9000
G1 Z.2 F720
G1 E3.2 F2400
M204 P800
;TYPE:Perimeter
;WIDTH:0.419999
G1 F1200
G1 X94.187 Y76.687 E.67809
G1 X115.813 Y76.687 E.67809
G1 X115.813 Y98.313 E.67809
M73 P6 R29
G1 X94.247 Y98.313 E.67621
M204 P1000
G1 X93.809 Y98.691 F9000
M204 P800
;TYPE:External perimeter
G1 F1200
G1 X93.809 Y76.309 E.70174
G1 X116.191 Y76.309 E.70174
G1 X116.191 Y98.691 E.70174
G1 X93.869 Y98.691 E.69986
M204 P1000
G1 X93.913 Y98.304 F9000
G1 E-2.24 F4200
;WIPE_START
G1 F7200
G1 X93.865 Y97.045 E-.912
;WIPE_END
G1 E-.048 F4200
G1 Z.4 F720
G1 X114.934 Y76.8 F9000
G1 Z.2 F720
G1 E3.2 F2400
M204 P800
;TYPE:Solid infill
;WIDTH:0.421899
G1 F1200
G1 X115.531 Y77.396 E.02659
G1 X115.531 Y77.932 E.01689
G1 X114.568 Y76.969 E.04291
G1 X114.032 Y76.969 E.01689
G1 X115.531 Y78.468 E.0668
G1 X115.531 Y79.004 E.01689
G1 X113.496 Y76.969 E.09068
G1 X112.96 Y76.969 E.01689
G1 X115.531 Y79.54 E.11457
G1 X115.531 Y80.076 E.01689
G1 X112.424 Y76.969 E.13845
G1 X111.888 Y76.969 E.01689
G1 X115.531 Y80.612 E.16234
G1 X115.531 Y81.148 E.01689
G1 X111.352 Y76.969 E.18622
G1 X110.816 Y76.969 E.01689
G1 X115.531 Y81.684 E.21011
G1 X115.531 Y82.22 E.01689
G1 X110.28 Y76.969 E.23399
G1 X109.744 Y76.969 E.01689
G1 X115.531 Y82.756 E.25788
G1 X115.531 Y83.292 E.01689
G1 X109.208 Y76.969 E.28176
G1 X108.672 Y76.969 E.01689
G1 X115.531 Y83.828 E.30565
G1 X115.531 Y84.364 E.01689
G1 X108.136 Y76.969 E.32953
G1 X107.6 Y76.969 E.01689
G1 X115.531 Y84.9 E.35342
G1 X115.531 Y85.436 E.01689
G1 X107.064 Y76.969 E.3773
G1 X106.528 Y76.969 E.01689
G1 X115.531 Y85.972 E.40119
G1 X115.531 Y86.508 E.01689
G1 X105.992 Y76.969 E.42507
G1 X105.456 Y76.969 E.01689
G1 X115.531 Y87.044 E.44896
G1 X115.531 Y87.579 E.01689
G1 X104.921 Y76.969 E.47284
G1 X104.385 Y76.969 E.01689
G1 X115.531 Y88.115 E.49673
G1 X115.531 Y88.651 E.01689
G1 X103.849 Y76.969 E.52061
G1 X103.313 Y76.969 E.01689
G1 X115.531 Y89.187 E.54449
G1 X115.531 Y89.723 E.01689
G1 X102.777 Y76.969 E.56838
G1 X102.241 Y76.969 E.01689
M73 P7 R29
G1 X115.531 Y90.259 E.59226
G1 X115.531 Y90.795 E.01689
G1 X101.705 Y76.969 E.61615
G1 X101.169 Y76.969 E.01689
G1 X115.531 Y91.331 E.64003
G1 X115.531 Y91.867 E.01689
G1 X100.633 Y76.969 E.66392
G1 X100.097 Y76.969 E.01689
G1 X115.531 Y92.403 E.6878
G1 X115.531 Y92.939 E.01689
G1 X99.561 Y76.969 E.71169
G1 X99.025 Y76.969 E.01689
G1 X115.531 Y93.475 E.73557
G1 X115.531 Y94.011 E.01689
G1 X98.489 Y76.969 E.75946
G1 X97.953 Y76.969 E.01689
G1 X115.531 Y94.547 E.78334
G1 X115.531 Y95.083 E.01689
G1 X97.417 Y76.969 E.80723
G1 X96.881 Y76.969 E.01689
G1 X115.531 Y95.619 E.83111
G1 X115.531 Y96.155 E.01689
G1 X96.345 Y76.969 E.855
G1 X95.809 Y76.969 E.01689
G1 X115.531 Y96.691 E.87888
G1 X115.531 Y97.227 E.01689
G1 X95.273 Y76.969 E.90277
G1 X94.737 Y76.969 E.01689
G1 X115.531 Y97.763 E.92665
G1 X115.531 Y98.031 E.00844
M73 P8 R29
G1 X115.263 Y98.031 E.00845
G1 X94.469 Y77.237 E.92665
G1 X94.469 Y77.773 E.01689
G1 X114.727 Y98.031 E.90277
G1 X114.191 Y98.031 E.01689
G1 X94.469 Y78.309 E.87888
G1 X94.469 Y78.845 E.01689
G1 X113.655 Y98.031 E.855
G1 X113.119 Y98.031 E.01689
G1 X94.469 Y79.381 E.83111
G1 X94.469 Y79.917 E.01689
G1 X112.583 Y98.031 E.80723
G1 X112.047 Y98.031 E.01689
G1 X94.469 Y80.453 E.78334
G1 X94.469 Y80.989 E.01689
G1 X111.511 Y98.031 E.75946
G1 X110.975 Y98.031 E.01689
G1 X94.469 Y81.525 E.73557
G1 X94.469 Y82.061 E.01689
G1 X110.439 Y98.031 E.71169
G1 X109.903 Y98.031 E.01689
G1 X94.469 Y82.597 E.6878
G1 X94.469 Y83.133 E.01689
G1 X109.367 Y98.031 E.66392
G1 X108.831 Y98.031 E.01689
G1 X94.469 Y83.669 E.64003
G1 X94.469 Y84.205 E.01689
M73 P8 R28
G1 X108.295 Y98.031 E.61615
G1 X107.759 Y98.031 E.01689
G1 X94.469 Y84.741 E.59226
G1 X94.469 Y85.277 E.01689
G1 X107.223 Y98.031 E.56838
G1 X106.687 Y98.031 E.01689
M73 P9 R28
G1 X94.469 Y85.813 E.54449
G1 X94.469 Y86.349 E.01689
G1 X106.151 Y98.031 E.52061
G1 X105.615 Y98.031 E.01689
G1 X94.469 Y86.885 E.49672
G1 X94.469 Y87.421 E.01689
G1 X105.079 Y98.031 E.47284
G1 X104.543 Y98.031 E.01689
G1 X94.469 Y87.957 E.44895
G1 X94.469 Y88.492 E.01689
G1 X104.008 Y98.031 E.42507
G1 X103.472 Y98.031 E.01689
G1 X94.469 Y89.028 E.40118
G1 X94.469 Y89.564 E.01689
G1 X102.936 Y98.031 E.3773
G1 X102.4 Y98.031 E.01689
G1 X94.469 Y90.1 E.35341
G1 X94.469 Y90.636 E.01689
G1 X101.864 Y98.031 E.32953
G1 X101.328 Y98.031 E.01689
G1 X94.469 Y91.172 E.30564
G1 X94.469 Y91.708 E.01689
G1 X100.792 Y98.031 E.28176
G1 X100.256 Y98.031 E.01689
G1 X94.469 Y92.244 E.25787
G1 X94.469 Y92.78 E.01689
G1 X99.72 Y98.031 E.23399
G1 X99.184 Y98.031 E.01689
G1 X94.469 Y93.316 E.2101
G1 X94.469 Y93.852 E.01689
G1 X98.648 Y98.031 E.18622
G1 X98.112 Y98.031 E.01689
G1 X94.469 Y94.388 E.16233
G1 X94.469 Y94.924 E.01689
G1 X97.576 Y98.031 E.13845
G1 X97.04 Y98.031 E.01689
G1 X94.469 Y95.46 E.11456
G1 X94.469 Y95.996 E.01689
G1 X96.504 Y98.031 E.09068
G1 X95.968 Y98.031 E.01689
G1 X94.469 Y96.532 E.06679
G1 X94.469 Y97.068 E.01689
G1 X95.432 Y98.031 E.04291
G1 X94.896 Y98.031 E.01689
G1 X94.3 Y97.434 E.02659
M204 P1000
; stop printing object box_with_hinge_both.stl id:0 copy 0
M106 S84.15
;LAYER_CHANGE
;Z:0.449829
;HEIGHT:0.249829
;BEFORE_LAYER_CHANGE
G92 E0.0
;0.449829


G1 E-2.24 F4200
;WIPE_START
G1 F7200
G1 X94.896 Y98.031 E-.46755
G1 X95.432 Y98.031 E-.29701
G1 X95.244 Y97.843 E-.14744
;WIPE_END
G1 E-.048 F4200
G1 Z.4 F720
G1 Z.45
;AFTER_LAYER_CHANGE
;0.449829
M104 S210 ; set temperature
G1 Z.65
G1 X96.467 Y105.227 F9000
G1 Z.45 F720
G1 E3.2 F2400
;TYPE:Skirt/Brim
;WIDTH:0.42
G1 X86.5 Y106.878 E.38444
G1 X63.5 Y106.878 E.87531
G1 X61.819 Y106.181 E.06924
G1 X61.319 Y105.681 E.02691
G1 X60.622 Y104.001 E.06924
G1 X60.622 Y76 E1.06559
G1 X61.319 Y74.319 E.06924
G1 X61.819 Y73.819 E.02691
G1 X63.5 Y73.122 E.06924
G1 X116.5 Y73.122 E2.01698
G1 X118.181 Y73.819 E.06924
G1 X118.681 Y74.319 E.02691
G1 X119.378 Y76 E.06924
G1 X119.378 Y99.001 E.87531
G1 X118.681 Y100.681 E.06924
G1 X118.181 Y101.181 E.02691
G1 X116.891 Y101.845 E.05521
G1 X96.526 Y105.217 E.78556
; printing object box_with_hinge_both.stl id:0 copy 0
G1 E-2.24 F4200
;WIPE_START
G1 F7200
G1 X94.903 Y105.486 E-.912
;WIPE_END
G1 E-.048 F4200
G1 Z.65 F720
G1 X93.796 Y98.704 F9000
G1 Z.45 F720
G1 E3.2 F2400
M204 P800
;TYPE:Perimeter
;WIDTH:0.45
G1 F3300
G1 X93.796 Y76.296 E.92257
G1 X116.204 Y76.296 E.92257
G1 X116.204 Y98.704 E.92257
G1 X93.856 Y98.704 E.9201
M204 P1000
G1 X93.4 Y98.907 F9000
M204 P800
;TYPE:External perimeter
G1 F2400
G1 X93.4 Y76.093 E.93931
G1 X93.593 Y75.9 E.01124
M73 P10 R28
G1 X116.407 Y75.9 E.93931
G1 X116.6 Y76.093 E.01124
G1 X116.6 Y98.907 E.93931
G1 X116.407 Y99.1 E.01124
G1 X93.593 Y99.1 E.93931
G1 X93.442 Y98.95 E.00877
M204 P1000
G1 X93.601 Y98.561 F9000
G1 E-2.24 F4200
;WIPE_START
G1 F7200
G1 X93.439 Y97.304 E-.912
;WIPE_END
G1 E-.048 F4200
G1 Z.65 F720
G1 X115.281 Y98.585 F9000
G1 Z.45 F720
G1 E3.2 F2400
;TYPE:Solid infill
;WIDTH:0.451202
G1 F6000
G1 X115.907 Y97.96 E.03653
G1 X115.907 Y97.397 E.02322
G1 X114.897 Y98.407 E.05895
G1 X114.335 Y98.407 E.02322
G1 X115.907 Y96.835 E.09179
G1 X115.907 Y96.273 E.02322
G1 X113.773 Y98.407 E.12462
G1 X113.211 Y98.407 E.02322
G1 X115.907 Y95.711 E.15746
G1 X115.907 Y95.148 E.02322
G1 X112.648 Y98.407 E.1903
G1 X112.086 Y98.407 E.02322
G1 X115.907 Y94.586 E.22314
G1 X115.907 Y94.024 E.02322
G1 X111.524 Y98.407 E.25598
G1 X110.961 Y98.407 E.02322
G1 X115.907 Y93.461 E.28881
G1 X115.907 Y92.899 E.02322
G1 X110.399 Y98.407 E.32165
G1 X109.837 Y98.407 E.02322
G1 X115.907 Y92.337 E.35449
G1 X115.907 Y91.775 E.02322
G1 X109.275 Y98.407 E.38733
G1 X108.712 Y98.407 E.02322
G1 X115.907 Y91.212 E.42017
G1 X115.907 Y90.65 E.02322
G1 X108.15 Y98.407 E.453
G1 X107.588 Y98.407 E.02322
G1 X115.907 Y90.088 E.48584
G1 X115.907 Y89.526 E.02322
G1 X107.026 Y98.407 E.51868
G1 X106.463 Y98.407 E.02322
G1 X115.907 Y88.963 E.55152
G1 X115.907 Y88.401 E.02322
G1 X105.901 Y98.407 E.58435
G1 X105.339 Y98.407 E.02322
G1 X115.907 Y87.839 E.61719
G1 X115.907 Y87.276 E.02322
G1 X104.776 Y98.407 E.65003
G1 X104.214 Y98.407 E.02322
G1 X115.907 Y86.714 E.68287
G1 X115.907 Y86.152 E.02322
G1 X103.652 Y98.407 E.71571
G1 X103.09 Y98.407 E.02322
G1 X115.907 Y85.59 E.74854
