; generated by PrusaSlicer 2.5.0+win64 on 2023-08-21 at 00:18:09 UTC


;
;

;
;
; 

; external perimeters extrusion width = 0.45mm
; perimeters extrusion width = 0.45mm
; infill extrusion width = 0.45mm
; solid infill extrusion width = 0.45mm
; top infill extrusion width = 0.40mm
; support material extrusion width = 0.35mm
; first layer extrusion width = 0.42mm

M73 P0 R30
M201 X2500 Y2500 Z400 E5000 ; sets maximum accelerations, mm/sec^2
M203 X180 Y180 Z12 E80 ; sets maximum feedrates, mm / sec
M204 P1250 R1250 T2500 ; sets acceleration (P, T) and retract acceleration (R), mm/sec^2
M205 X8.00 Y8.00 Z2.00 E10.00 ; sets the jerk limits, mm/sec
M205 S0 T0 ; sets the minimum extruding and travel feed rate, mm/sec
M107
;TYPE:Custom
M862.3 P "MINI" ; printer model check
G90 ; use absolute coordinates
M83 ; extruder relative mode
M104 S170 ; set extruder temp for bed leveling
M140 S60 ; set bed temp
M109 R170 ; wait for bed leveling temp
M190 S60 ; wait for bed temp
M204 T1250 ; set travel acceleration
G28 ; home all without mesh bed level
G29 ; mesh bed leveling 
M204 T2500 ; restore travel acceleration
M104 S215 ; set extruder temp
G92 E0
G1 Y-2 X179 F2400
G1 Z3 F720
M109 S215 ; wait for extruder temp

; intro line
G1 X170 F1000
G1 Z0.2 F720
G1 X110 E8 F900
G1 X40 E10 F700
G92 E0

M221 S95 ; set flow
G21 ; set units to millimeters
G90 ; use absolute coordinates
M83 ; use relative distances for extrusion
M900 K0.2 ; Filament gcode LA 1.5
; ; Filament gcode LA 1.0
M107
;LAYER_CHANGE
;Z:0.2
;HEIGHT:0.2
;BEFORE_LAYER_CHANGE
G92 E0.0
;0.2


G1 E-3.2 F4200
G1 Z.2 F720
;AFTER_LAYER_CHANGE
;0.2
G1 Z.4
G1 X51.183 Y68.737 F9000
G1 Z.2 F720
G1 E3.2 F2400
M204 P800
;TYPE:Skirt/Brim
;WIDTH:0.42
G1 F1200
G1 X52.864 Y68.041 E.05704
G1 X105.865 Y68.041 E1.66181
G1 X107.546 Y68.737 E.05704
M73 P1 R30
G1 X108.046 Y69.237 E.02217
G1 X108.742 Y70.918 E.05704
G1 X108.742 Y93.919 E.72118
G1 X108.278 Y95.33 E.04658
G1 X102.586 Y103.045 E.30061
G1 X100.91 Y104 E.06048
G1 X77.71 Y106.308 E.73101
G1 X51.166 Y106.308 E.83225
G1 X49.859 Y105.916 E.04278
G1 X48.983 Y104.87 E.04278
G1 X48.789 Y103.931 E.03008
G1 X48.793 Y92.493 E.35861
G1 X49.99 Y70.787 E.68161
G1 X50.683 Y69.237 E.05323
G1 X51.141 Y68.78 E.02029
M204 P1000
; printing object box_with_hinge_both.stl id:0 copy 0
G1 E-2.24 F4200
;WIPE_START
G1 F7200
G1 X52.653 Y68.131 E-.912
;WIPE_END
G1 E-.048 F4200
G1 Z.4 F720
G1 X77.71 Y103.931 F9000
G1 Z.2 F720
G1 E3.2 F2400
M204 P800
;TYPE:Support material
G1 F1200
G1 X51.166 Y103.931 E.83225
G1 X51.166 Y92.624 E.35451
G1 X52.284 Y92.624 E.03504
G1 X52.284 Y94.015 E.0436
G1 X52.357 Y94.191 E.00599
G1 X52.592 Y94.426 E.01042
G1 X52.768 Y94.499 E.00599
G1 X75.96 Y94.499 E.72717
G1 X76.137 Y94.426 E.00599
G1 X76.372 Y94.191 E.01042
G1 X76.445 Y94.015 E.00599
G1 X76.445 Y91.466 E.0799
G1 X77.71 Y90.201 E.05609
G1 X77.71 Y103.874 E.42869
M204 P1000
G1 X77.27 Y103.761 F9000
M204 P800
G1 F1200
G1 X77.27 Y91.122 E.39629
G1 X76.851 Y91.541 E.01858
G1 X76.851 Y103.591 E.37784
G1 X76.432 Y103.591 E.01314
G1 X76.432 Y94.611 E.28156
G1 X76.329 Y94.714 E.00455
G1 X76.013 Y94.838 E.01067
G1 X76.013 Y103.591 E.27444
G1 X75.594 Y103.591 E.01314
G1 X75.594 Y94.838 E.27444
G1 X75.175 Y94.838 E.01314
G1 X75.175 Y103.591 E.27444
G1 X74.756 Y103.591 E.01314
G1 X74.756 Y94.838 E.27444
G1 X74.337 Y94.838 E.01314
G1 X74.337 Y103.591 E.27444
G1 X73.918 Y103.591 E.01314
G1 X73.918 Y94.838 E.27444
G1 X73.499 Y94.838 E.01314
G1 X73.499 Y103.591 E.27444
G1 X73.08 Y103.591 E.01314
G1 X73.08 Y94.838 E.27444
G1 X72.661 Y94.838 E.01314
G1 X72.661 Y103.591 E.27444
G1 X72.242 Y103.591 E.01314
G1 X72.242 Y94.838 E.27444
G1 X71.823 Y94.838 E.01314
M73 P2 R30
G1 X71.823 Y103.591 E.27444
G1 X71.404 Y103.591 E.01314
G1 X71.404 Y94.838 E.27444
G1 X70.985 Y94.838 E.01314
G1 X70.985 Y103.591 E.27444
G1 X70.566 Y103.591 E.01314
G1 X70.566 Y94.838 E.27444
G1 X70.147 Y94.838 E.01314
G1 X70.147 Y103.591 E.27444
G1 X69.728 Y103.591 E.01314
M73 P2 R29
G1 X69.728 Y94.838 E.27444
G1 X69.309 Y94.838 E.01314
G1 X69.309 Y103.591 E.27444
G1 X68.89 Y103.591 E.01314
G1 X68.89 Y94.838 E.27444
G1 X68.471 Y94.838 E.01314
G1 X68.471 Y103.591 E.27444
G1 X68.052 Y103.591 E.01314
G1 X68.052 Y94.838 E.27444
G1 X67.633 Y94.838 E.01314
G1 X67.633 Y103.591 E.27444
G1 X67.214 Y103.591 E.01314
G1 X67.214 Y94.838 E.27444
G1 X66.795 Y94.838 E.01314
G1 X66.795 Y103.591 E.27444
G1 X66.376 Y103.591 E.01314
G1 X66.376 Y94.838 E.27444
G1 X65.957 Y94.838 E.01314
G1 X65.957 Y103.591 E.27444
G1 X65.538 Y103.591 E.01314
G1 X65.538 Y94.838 E.27444
G1 X65.119 Y94.838 E.01314
G1 X65.119 Y103.591 E.27444
G1 X64.7 Y103.591 E.01314
G1 X64.7 Y94.838 E.27444
G1 X64.281 Y94.838 E.01314
G1 X64.281 Y103.591 E.27444
G1 X63.862 Y103.591 E.01314
G1 X63.862 Y94.838 E.27444
G1 X63.443 Y94.838 E.01314
G1 X63.443 Y103.591 E.27444
G1 X63.024 Y103.591 E.01314
G1 X63.024 Y94.838 E.27444
G1 X62.605 Y94.838 E.01314
G1 X62.605 Y103.591 E.27444
G1 X62.186 Y103.591 E.01314
G1 X62.186 Y94.838 E.27444
G1 X61.767 Y94.838 E.01314
G1 X61.767 Y103.591 E.27444
G1 X61.348 Y103.591 E.01314
G1 X61.348 Y94.838 E.27444
G1 X60.929 Y94.838 E.01314
G1 X60.929 Y103.591 E.27444
G1 X60.51 Y103.591 E.01314
G1 X60.51 Y94.838 E.27444
G1 X60.091 Y94.838 E.01314
G1 X60.091 Y103.591 E.27444
G1 X59.672 Y103.591 E.01314
G1 X59.672 Y94.838 E.27444
G1 X59.254 Y94.838 E.01314
G1 X59.254 Y103.591 E.27444
G1 X58.835 Y103.591 E.01314
G1 X58.835 Y94.838 E.27444
G1 X58.416 Y94.838 E.01314
G1 X58.416 Y103.591 E.27444
G1 X57.997 Y103.591 E.01314
G1 X57.997 Y94.838 E.27444
G1 X57.578 Y94.838 E.01314
G1 X57.578 Y103.591 E.27444
G1 X57.159 Y103.591 E.01314
G1 X57.159 Y94.838 E.27444
G1 X56.74 Y94.838 E.01314
G1 X56.74 Y103.591 E.27444
G1 X56.321 Y103.591 E.01314
G1 X56.321 Y94.838 E.27444
G1 X55.902 Y94.838 E.01314
G1 X55.902 Y103.591 E.27444
G1 X55.483 Y103.591 E.01314
M73 P3 R29
G1 X55.483 Y94.838 E.27444
G1 X55.064 Y94.838 E.01314
G1 X55.064 Y103.591 E.27444
G1 X54.645 Y103.591 E.01314
G1 X54.645 Y94.838 E.27444
G1 X54.226 Y94.838 E.01314
G1 X54.226 Y103.591 E.27444
G1 X53.807 Y103.591 E.01314
G1 X53.807 Y94.838 E.27444
G1 X53.388 Y94.838 E.01314
G1 X53.388 Y103.591 E.27444
G1 X52.969 Y103.591 E.01314
G1 X52.969 Y94.838 E.27444
G1 X52.701 Y94.838 E.0084
G1 X52.55 Y94.776 E.00513
G1 X52.55 Y103.591 E.2764
G1 X52.131 Y103.591 E.01314
G1 X52.131 Y94.445 E.28678
G1 X52.069 Y94.383 E.00273
G1 X51.945 Y94.082 E.01022
G1 X51.945 Y92.964 E.03507
G1 X51.712 Y92.964 E.00729
G1 X51.712 Y103.761 E.33854
M204 P1000
G1 E-2.24 F4200
;WIPE_START
G1 F7200
G1 X51.712 Y102.115 E-.912
;WIPE_END
G1 E-.048 F4200
G1 Z.4 F720
G1 X100.673 Y101.634 F9000
G1 Z.2 F720
G1 E3.2 F2400
M204 P800
G1 F1200
G1 X87.908 Y101.634 E.40024
G1 X87.908 Y94.499 E.22372
G1 X100.673 Y94.499 E.40024
G1 X100.673 Y101.578 E.22194
M204 P1000
G1 X100.313 Y101.465 F9000
M204 P800
G1 F1200
G1 X100.313 Y94.838 E.20776
G1 X99.894 Y94.838 E.01314
G1 X99.894 Y101.295 E.20244
G1 X99.475 Y101.295 E.01314
G1 X99.475 Y94.838 E.20244
G1 X99.056 Y94.838 E.01314
G1 X99.056 Y101.295 E.20244
G1 X98.637 Y101.295 E.01314
G1 X98.637 Y94.838 E.20244
G1 X98.218 Y94.838 E.01314
G1 X98.218 Y101.295 E.20244
G1 X97.799 Y101.295 E.01314
G1 X97.799 Y94.838 E.20244
G1 X97.38 Y94.838 E.01314
G1 X97.38 Y101.295 E.20244
G1 X96.961 Y101.295 E.01314
G1 X96.961 Y94.838 E.20244
G1 X96.542 Y94.838 E.01314
G1 X96.542 Y101.295 E.20244
G1 X96.123 Y101.295 E.01314
G1 X96.123 Y94.838 E.20244
G1 X95.705 Y94.838 E.01314
G1 X95.705 Y101.295 E.20244
G1 X95.286 Y101.295 E.01314
G1 X95.286 Y94.838 E.20244
G1 X94.867 Y94.838 E.01314
G1 X94.867 Y101.295 E.20244
G1 X94.448 Y101.295 E.01314
G1 X94.448 Y94.838 E.20244
G1 X94.029 Y94.838 E.01314
G1 X94.029 Y101.295 E.20244
G1 X93.61 Y101.295 E.01314
G1 X93.61 Y94.838 E.20244
G1 X93.191 Y94.838 E.01314
G1 X93.191 Y101.295 E.20244
G1 X92.772 Y101.295 E.01314
G1 X92.772 Y94.838 E.20244
G1 X92.353 Y94.838 E.01314
G1 X92.353 Y101.295 E.20244
G1 X91.934 Y101.295 E.01314
G1 X91.934 Y94.838 E.20244
G1 X91.515 Y94.838 E.01314
G1 X91.515 Y101.295 E.20244
G1 X91.096 Y101.295 E.01314
G1 X91.096 Y94.838 E.20244
G1 X90.677 Y94.838 E.01314
G1 X90.677 Y101.295 E.20244
G1 X90.258 Y101.295 E.01314
G1 X90.258 Y94.838 E.20244
G1 X89.839 Y94.838 E.01314
G1 X89.839 Y101.295 E.20244
G1 X89.42 Y101.295 E.01314
G1 X89.42 Y94.838 E.20244
G1 X89.001 Y94.838 E.01314
G1 X89.001 Y101.295 E.20244
G1 X88.582 Y101.295 E.01314
G1 X88.582 Y94.669 E.20776
M204 P1000
G1 E-2.24 F4200
;WIPE_START
M73 P4 R29
G1 F7200
G1 X88.582 Y96.314 E-.912
;WIPE_END
G1 E-.048 F4200
G1 Z.4 F720
G1 X83.551 Y93.232 F9000
G1 Z.2 F720
G1 E3.2 F2400
M204 P800
;TYPE:Perimeter
;WIDTH:0.419999
G1 F1200
G1 X83.551 Y71.605 E.67809
G1 X105.178 Y71.605 E.67809
G1 X105.178 Y93.232 E.67809
G1 X83.611 Y93.232 E.67621
M204 P1000
G1 X83.174 Y93.609 F9000
M204 P800
;TYPE:External perimeter
G1 F1200
G1 X83.174 Y71.228 E.70174
G1 X105.555 Y71.228 E.70174
G1 X105.555 Y93.609 E.70174
G1 X83.234 Y93.609 E.69986
M204 P1000
G1 X83.277 Y93.223 F9000
G1 E-2.24 F4200
;WIPE_START
G1 F7200
G1 X83.229 Y91.963 E-.912
;WIPE_END
G1 E-.048 F4200
G1 Z.4 F720
G1 X104.298 Y71.718 F9000
G1 Z.2 F720
G1 E3.2 F2400
M204 P800
;TYPE:Solid infill
;WIDTH:0.421899
G1 F1200
G1 X104.895 Y72.315 E.02659
G1 X104.895 Y72.851 E.01689
G1 X103.932 Y71.888 E.04291
G1 X103.396 Y71.888 E.01689
G1 X104.895 Y73.387 E.0668
G1 X104.895 Y73.923 E.01689
G1 X102.86 Y71.888 E.09068
G1 X102.324 Y71.888 E.01689
G1 X104.895 Y74.459 E.11457
G1 X104.895 Y74.995 E.01689
G1 X101.788 Y71.888 E.13845
G1 X101.252 Y71.888 E.01689
G1 X104.895 Y75.531 E.16234
G1 X104.895 Y76.067 E.01689
G1 X100.716 Y71.888 E.18622
G1 X100.18 Y71.888 E.01689
G1 X104.895 Y76.603 E.21011
G1 X104.895 Y77.138 E.01689
G1 X99.644 Y71.888 E.23399
G1 X99.109 Y71.888 E.01689
G1 X104.895 Y77.674 E.25788
G1 X104.895 Y78.21 E.01689
G1 X98.573 Y71.888 E.28176
G1 X98.037 Y71.888 E.01689
G1 X104.895 Y78.746 E.30565
G1 X104.895 Y79.282 E.01689
G1 X97.501 Y71.888 E.32953
G1 X96.965 Y71.888 E.01689
G1 X104.895 Y79.818 E.35342
G1 X104.895 Y80.354 E.01689
G1 X96.429 Y71.888 E.3773
G1 X95.893 Y71.888 E.01689
G1 X104.895 Y80.89 E.40119
G1 X104.895 Y81.426 E.01689
G1 X95.357 Y71.888 E.42507
G1 X94.821 Y71.888 E.01689
G1 X104.895 Y81.962 E.44896
G1 X104.895 Y82.498 E.01689
G1 X94.285 Y71.888 E.47284
G1 X93.749 Y71.888 E.01689
M73 P5 R29
G1 X104.895 Y83.034 E.49673
G1 X104.895 Y83.57 E.01689
G1 X93.213 Y71.888 E.52061
G1 X92.677 Y71.888 E.01689
G1 X104.895 Y84.106 E.54449
G1 X104.895 Y84.642 E.01689
G1 X92.141 Y71.888 E.56838
G1 X91.605 Y71.888 E.01689
G1 X104.895 Y85.178 E.59226
G1 X104.895 Y85.714 E.01689
G1 X91.069 Y71.888 E.61615
G1 X90.533 Y71.888 E.01689
G1 X104.895 Y86.25 E.64003
G1 X104.895 Y86.786 E.01689
G1 X89.997 Y71.888 E.66392
G1 X89.461 Y71.888 E.01689
M73 P5 R28
G1 X104.895 Y87.322 E.6878
G1 X104.895 Y87.858 E.01689
G1 X88.925 Y71.888 E.71169
G1 X88.389 Y71.888 E.01689
G1 X104.895 Y88.394 E.73557
G1 X104.895 Y88.93 E.01689
G1 X87.853 Y71.888 E.75946
G1 X87.317 Y71.888 E.01689
G1 X104.895 Y89.466 E.78334
G1 X104.895 Y90.001 E.01689
G1 X86.782 Y71.888 E.80723
G1 X86.246 Y71.888 E.01689
G1 X104.895 Y90.537 E.83111
G1 X104.895 Y91.073 E.01689
G1 X85.71 Y71.888 E.855
G1 X85.174 Y71.888 E.01689
G1 X104.895 Y91.609 E.87888
G1 X104.895 Y92.145 E.01689
M73 P6 R28
G1 X84.638 Y71.888 E.90277
G1 X84.102 Y71.888 E.01689
G1 X104.895 Y92.681 E.92665
G1 X104.895 Y92.949 E.00844
G1 X104.627 Y92.949 E.00845
G1 X83.834 Y72.156 E.92665
G1 X83.834 Y72.692 E.01689
G1 X104.091 Y92.949 E.90277
G1 X103.555 Y92.949 E.01689
G1 X83.834 Y73.228 E.87888
G1 X83.834 Y73.764 E.01689
G1 X103.019 Y92.949 E.855
G1 X102.483 Y92.949 E.01689
G1 X83.834 Y74.3 E.83111
G1 X83.834 Y74.836 E.01689
G1 X101.947 Y92.949 E.80723
G1 X101.411 Y92.949 E.01689
G1 X83.834 Y75.372 E.78334
G1 X83.834 Y75.908 E.01689
G1 X100.875 Y92.949 E.75946
G1 X100.339 Y92.949 E.01689
G1 X83.834 Y76.444 E.73557
G1 X83.834 Y76.98 E.01689
G1 X99.803 Y92.949 E.71169
G1 X99.267 Y92.949 E.01689
G1 X83.834 Y77.516 E.6878
G1 X83.834 Y78.051 E.01689
M73 P7 R28
G1 X98.732 Y92.949 E.66392
G1 X98.196 Y92.949 E.01689
G1 X83.834 Y78.587 E.64003
G1 X83.834 Y79.123 E.01689
G1 X97.66 Y92.949 E.61615
G1 X97.124 Y92.949 E.01689
G1 X83.834 Y79.659 E.59226
G1 X83.834 Y80.195 E.01689
G1 X96.588 Y92.949 E.56838
G1 X96.052 Y92.949 E.01689
G1 X83.834 Y80.731 E.54449
G1 X83.834 Y81.267 E.01689
G1 X95.516 Y92.949 E.52061
G1 X94.98 Y92.949 E.01689
G1 X83.834 Y81.803 E.49672
G1 X83.834 Y82.339 E.01689
G1 X94.444 Y92.949 E.47284
G1 X93.908 Y92.949 E.01689
G1 X83.834 Y82.875 E.44895
G1 X83.834 Y83.411 E.01689
G1 X93.372 Y92.949 E.42507
G1 X92.836 Y92.949 E.01689
G1 X83.834 Y83.947 E.40118
G1 X83.834 Y84.483 E.01689
G1 X92.3 Y92.949 E.3773
G1 X91.764 Y92.949 E.01689
G1 X83.834 Y85.019 E.35341
G1 X83.834 Y85.555 E.01689
G1 X91.228 Y92.949 E.32953
G1 X90.692 Y92.949 E.01689
G1 X83.834 Y86.091 E.30564
G1 X83.834 Y86.627 E.01689
G1 X90.156 Y92.949 E.28176
G1 X89.62 Y92.949 E.01689
G1 X83.834 Y87.163 E.25787
G1 X83.834 Y87.699 E.01689
G1 X89.084 Y92.949 E.23399
G1 X88.548 Y92.949 E.01689
G1 X83.834 Y88.235 E.2101
G1 X83.834 Y88.771 E.01689
G1 X88.012 Y92.949 E.18622
G1 X87.476 Y92.949 E.01689
G1 X83.834 Y89.307 E.16233
G1 X83.834 Y89.843 E.01689
G1 X86.94 Y92.949 E.13845
G1 X86.404 Y92.949 E.01689
G1 X83.834 Y90.378 E.11456
G1 X83.834 Y90.914 E.01689
G1 X85.869 Y92.949 E.09068
G1 X85.333 Y92.949 E.01689
G1 X83.834 Y91.45 E.06679
G1 X83.834 Y91.986 E.01689
G1 X84.797 Y92.949 E.04291
G1 X84.261 Y92.949 E.01689
G1 X83.664 Y92.353 E.02659
M204 P1000
G1 E-2.24 F4200
;WIPE_START
G1 F7200
G1 X84.261 Y92.949 E-.46755
G1 X84.797 Y92.949 E-.29701
G1 X84.608 Y92.761 E-.14744
;WIPE_END
G1 E-.048 F4200
G1 Z.4 F720
G1 X75.178 Y93.232 F9000
G1 Z.2 F720
G1 E3.2 F2400
M204 P800
;TYPE:Perimeter
;WIDTH:0.419999
G1 F1200
G1 X53.551 Y93.232 E.67809
G1 X53.551 Y71.605 E.67809
G1 X75.178 Y71.605 E.67809
M73 P8 R28
G1 X75.178 Y93.172 E.67621
M204 P1000
G1 X75.555 Y93.609 F9000
M204 P800
;TYPE:External perimeter
G1 F1200
G1 X53.174 Y93.609 E.70174
G1 X53.174 Y71.228 E.70174
G1 X75.555 Y71.228 E.70174
G1 X75.555 Y93.549 E.69986
M204 P1000
G1 X75.169 Y93.506 F9000
G1 E-2.24 F4200
;WIPE_START
G1 F7200
G1 X73.909 Y93.553 E-.912
;WIPE_END
G1 E-.048 F4200
G1 Z.4 F720
G1 X74.298 Y71.718 F9000
G1 Z.2 F720
G1 E3.2 F2400
M204 P800
;TYPE:Solid infill
;WIDTH:0.421899
G1 F1200
G1 X74.895 Y72.315 E.02659
G1 X74.895 Y72.851 E.01689
G1 X73.932 Y71.888 E.04291
G1 X73.396 Y71.888 E.01689
G1 X74.895 Y73.387 E.0668
G1 X74.895 Y73.923 E.01689
G1 X72.86 Y71.888 E.09068
G1 X72.324 Y71.888 E.01689
G1 X74.895 Y74.459 E.11457
G1 X74.895 Y74.995 E.01689
G1 X71.788 Y71.888 E.13845
G1 X71.252 Y71.888 E.01689
G1 X74.895 Y75.531 E.16234
G1 X74.895 Y76.067 E.01689
G1 X70.716 Y71.888 E.18622
G1 X70.18 Y71.888 E.01689
G1 X74.895 Y76.603 E.21011
G1 X74.895 Y77.138 E.01689
G1 X69.644 Y71.888 E.23399
G1 X69.109 Y71.888 E.01689
G1 X74.895 Y77.674 E.25788
G1 X74.895 Y78.21 E.01689
G1 X68.573 Y71.888 E.28176
G1 X68.037 Y71.888 E.01689
G1 X74.895 Y78.746 E.30565
G1 X74.895 Y79.282 E.01689
G1 X67.501 Y71.888 E.32953
G1 X66.965 Y71.888 E.01689
M73 P8 R27
G1 X74.895 Y79.818 E.35342
G1 X74.895 Y80.354 E.01689
G1 X66.429 Y71.888 E.3773
G1 X65.893 Y71.888 E.01689
G1 X74.895 Y80.89 E.40119
G1 X74.895 Y81.426 E.01689
G1 X65.357 Y71.888 E.42507
G1 X64.821 Y71.888 E.01689
G1 X74.895 Y81.962 E.44896
G1 X74.895 Y82.498 E.01689
G1 X64.285 Y71.888 E.47284
G1 X63.749 Y71.888 E.01689
G1 X74.895 Y83.034 E.49673
G1 X74.895 Y83.57 E.01689
G1 X63.213 Y71.888 E.52061
G1 X62.677 Y71.888 E.01689
G1 X74.895 Y84.106 E.54449
G1 X74.895 Y84.642 E.01689
M73 P9 R27
G1 X62.141 Y71.888 E.56838
G1 X61.605 Y71.888 E.01689
G1 X74.895 Y85.178 E.59226
G1 X74.895 Y85.714 E.01689
G1 X61.069 Y71.888 E.61615
G1 X60.533 Y71.888 E.01689
G1 X74.895 Y86.25 E.64003
G1 X74.895 Y86.786 E.01689
G1 X59.997 Y71.888 E.66392
G1 X59.461 Y71.888 E.01689
G1 X74.895 Y87.322 E.6878
G1 X74.895 Y87.858 E.01689
G1 X58.925 Y71.888 E.71169
G1 X58.389 Y71.888 E.01689
G1 X74.895 Y88.394 E.73557
G1 X74.895 Y88.93 E.01689
G1 X57.853 Y71.888 E.75946
G1 X57.317 Y71.888 E.01689
G1 X74.895 Y89.466 E.78334
