; generated by PrusaSlicer 2.5.0+win64 on 2023-08-21 at 22:04:36 UTC


;
;

;
;
; 

; external perimeters extrusion width = 0.45mm
; perimeters extrusion width = 0.45mm
; infill extrusion width = 0.45mm
; solid infill extrusion width = 0.45mm
; top infill extrusion width = 0.40mm
; first layer extrusion width = 0.42mm

M73 P0 R31
M201 X2500 Y2500 Z400 E5000 ; sets maximum accelerations, mm/sec^2
M203 X180 Y180 Z12 E80 ; sets maximum feedrates, mm / sec
M204 P1250 R1250 T2500 ; sets acceleration (P, T) and retract acceleration (R), mm/sec^2
M205 X8.00 Y8.00 Z2.00 E10.00 ; sets the jerk limits, mm/sec
M205 S0 T0 ; sets the minimum extruding and travel feed rate, mm/sec
M107
;TYPE:Custom
M862.3 P "MINI" ; printer model check
G90 ; use absolute coordinates
M83 ; extruder relative mode
M104 S170 ; set extruder temp for bed leveling
M140 S60 ; set bed temp
M109 R170 ; wait for bed leveling temp
M190 S60 ; wait for bed temp
M204 T1250 ; set travel acceleration
G28 ; home all without mesh bed level
G29 ; mesh bed leveling 
M204 T2500 ; restore travel acceleration
M104 S215 ; set extruder temp
G92 E0
G1 Y-2 X179 F2400
G1 Z3 F720
M109 S215 ; wait for extruder temp

; intro line
G1 X170 F1000
G1 Z0.2 F720
G1 X110 E8 F900
G1 X40 E10 F700
G92 E0

M221 S95 ; set flow
G21 ; set units to millimeters
G90 ; use absolute coordinates
M83 ; use relative distances for extrusion
M900 K0.2 ; Filament gcode LA 1.5
; ; Filament gcode LA 1.0
M107
;LAYER_CHANGE
;Z:0.2
;HEIGHT:0.2
;BEFORE_LAYER_CHANGE
G92 E0.0
;0.2


G1 E-3.2 F4200
G1 Z.2 F720
;AFTER_LAYER_CHANGE
;0.2
G1 Z.4
G1 X61.819 Y75.319 F9000
G1 Z.2 F720
G1 E3.2 F2400
M204 P800
;TYPE:Skirt/Brim
;WIDTH:0.42
G1 F1200
G1 X63.5 Y74.623 E.05704
G1 X116.5 Y74.623 E1.66181
G1 X118.181 Y75.319 E.05704
G1 X118.681 Y75.819 E.02217
M73 P1 R31
G1 X119.378 Y77.5 E.05704
G1 X119.378 Y102.001 E.76821
G1 X118.681 Y103.682 E.05704
G1 X118.181 Y104.182 E.02217
G1 X116.5 Y104.878 E.05704
G1 X63.5 Y104.878 E1.66181
G1 X61.819 Y104.182 E.05704
G1 X61.319 Y103.682 E.02217
G1 X60.622 Y102.001 E.05704
G1 X60.622 Y77.5 E.76821
G1 X61.319 Y75.819 E.05704
G1 X61.776 Y75.362 E.02029
M204 P1000
; printing object box_with_hinge_both.stl id:0 copy 0
G1 E-2.24 F4200
;WIPE_START
G1 F7200
G1 X63.289 Y74.713 E-.912
;WIPE_END
G1 E-.048 F4200
G1 Z.4 F720
G1 X85.813 Y101.314 F9000
G1 Z.2 F720
G1 E3.2 F2400
M204 P800
;TYPE:Perimeter
;WIDTH:0.419999
G1 F1200
G1 X64.187 Y101.314 E.67809
G1 X64.187 Y78.187 E.72512
G1 X85.813 Y78.187 E.67809
G1 X85.813 Y101.254 E.72324
M204 P1000
G1 X86.191 Y101.691 F9000
M204 P800
;TYPE:External perimeter
G1 F1200
G1 X63.809 Y101.691 E.70174
G1 X63.809 Y77.81 E.74877
G1 X86.191 Y77.81 E.70174
G1 X86.191 Y101.631 E.74689
M204 P1000
G1 X85.805 Y101.583 F9000
G1 E-2.24 F4200
;WIPE_START
G1 F7200
G1 X84.545 Y101.635 E-.912
;WIPE_END
G1 E-.048 F4200
G1 Z.4 F720
G1 X84.936 Y78.3 F9000
G1 Z.2 F720
G1 E3.2 F2400
M204 P800
;TYPE:Solid infill
;WIDTH:0.42098
G1 F1200
G1 X85.531 Y78.895 E.02644
G1 X85.531 Y79.43 E.01681
G1 X84.571 Y78.47 E.04266
G1 X84.036 Y78.47 E.01681
G1 X85.531 Y79.964 E.06643
G1 X85.531 Y80.499 E.01681
G1 X83.502 Y78.47 E.0902
G1 X82.967 Y78.47 E.01681
G1 X85.531 Y81.033 E.11397
G1 X85.531 Y81.568 E.01681
G1 X82.432 Y78.47 E.13774
G1 X81.898 Y78.47 E.01681
G1 X85.531 Y82.103 E.16151
G1 X85.531 Y82.637 E.01681
G1 X81.363 Y78.47 E.18528
G1 X80.828 Y78.47 E.01681
G1 X85.531 Y83.172 E.20905
G1 X85.531 Y83.707 E.01681
G1 X80.294 Y78.47 E.23282
G1 X79.759 Y78.47 E.01681
G1 X85.531 Y84.241 E.25659
G1 X85.531 Y84.776 E.01681
G1 X79.224 Y78.47 E.28036
G1 X78.69 Y78.47 E.01681
M73 P2 R31
G1 X85.531 Y85.311 E.30412
G1 X85.531 Y85.845 E.01681
G1 X78.155 Y78.47 E.32789
G1 X77.62 Y78.47 E.01681
G1 X85.531 Y86.38 E.35166
G1 X85.531 Y86.915 E.01681
G1 X77.086 Y78.47 E.37543
G1 X76.551 Y78.47 E.01681
G1 X85.531 Y87.449 E.3992
G1 X85.531 Y87.984 E.01681
G1 X76.016 Y78.47 E.42297
G1 X75.482 Y78.47 E.01681
G1 X85.531 Y88.519 E.44674
G1 X85.531 Y89.053 E.01681
G1 X74.947 Y78.47 E.47051
G1 X74.413 Y78.47 E.01681
G1 X85.531 Y89.588 E.49428
G1 X85.531 Y90.123 E.01681
G1 X73.878 Y78.47 E.51805
G1 X73.343 Y78.47 E.01681
G1 X85.531 Y90.657 E.54182
G1 X85.531 Y91.192 E.01681
G1 X72.809 Y78.47 E.56559
G1 X72.274 Y78.47 E.01681
G1 X85.531 Y91.727 E.58936
G1 X85.531 Y92.261 E.01681
G1 X71.739 Y78.47 E.61312
G1 X71.205 Y78.47 E.01681
G1 X85.531 Y92.796 E.63689
G1 X85.531 Y93.331 E.01681
G1 X70.67 Y78.47 E.66066
G1 X70.135 Y78.47 E.01681
G1 X85.531 Y93.865 E.68443
G1 X85.531 Y94.4 E.01681
G1 X69.601 Y78.47 E.7082
G1 X69.066 Y78.47 E.01681
M73 P2 R30
G1 X85.531 Y94.935 E.73197
G1 X85.531 Y95.469 E.01681
G1 X68.531 Y78.47 E.75574
G1 X67.997 Y78.47 E.01681
G1 X85.531 Y96.004 E.77951
G1 X85.531 Y96.539 E.01681
M73 P3 R30
G1 X67.462 Y78.47 E.80328
G1 X66.927 Y78.47 E.01681
G1 X85.531 Y97.073 E.82705
G1 X85.531 Y97.608 E.01681
G1 X66.393 Y78.47 E.85082
G1 X65.858 Y78.47 E.01681
G1 X85.531 Y98.143 E.87459
G1 X85.531 Y98.677 E.01681
G1 X65.323 Y78.47 E.89836
G1 X64.789 Y78.47 E.01681
G1 X85.531 Y99.212 E.92212
G1 X85.531 Y99.747 E.01681
G1 X64.469 Y78.685 E.93632
G1 X64.469 Y79.22 E.01681
G1 X85.531 Y100.281 E.93632
G1 X85.531 Y100.816 E.01681
G1 X64.469 Y79.755 E.93632
G1 X64.469 Y80.289 E.01681
G1 X85.211 Y101.031 E.92212
G1 X84.677 Y101.031 E.01681
G1 X64.469 Y80.824 E.89835
G1 X64.469 Y81.359 E.01681
G1 X84.142 Y101.031 E.87458
G1 X83.607 Y101.031 E.01681
G1 X64.469 Y81.893 E.85082
G1 X64.469 Y82.428 E.01681
G1 X83.073 Y101.031 E.82705
G1 X82.538 Y101.031 E.01681
M73 P4 R30
G1 X64.469 Y82.962 E.80328
G1 X64.469 Y83.497 E.01681
G1 X82.003 Y101.031 E.77951
G1 X81.469 Y101.031 E.01681
G1 X64.469 Y84.032 E.75574
G1 X64.469 Y84.566 E.01681
G1 X80.934 Y101.031 E.73197
G1 X80.399 Y101.031 E.01681
G1 X64.469 Y85.101 E.7082
G1 X64.469 Y85.636 E.01681
G1 X79.865 Y101.031 E.68443
G1 X79.33 Y101.031 E.01681
G1 X64.469 Y86.17 E.66066
G1 X64.469 Y86.705 E.01681
G1 X78.795 Y101.031 E.63689
G1 X78.261 Y101.031 E.01681
G1 X64.469 Y87.24 E.61312
G1 X64.469 Y87.774 E.01681
G1 X77.726 Y101.031 E.58935
G1 X77.191 Y101.031 E.01681
G1 X64.469 Y88.309 E.56558
G1 X64.469 Y88.844 E.01681
G1 X76.657 Y101.031 E.54182
G1 X76.122 Y101.031 E.01681
G1 X64.469 Y89.378 E.51805
G1 X64.469 Y89.913 E.01681
G1 X75.587 Y101.031 E.49428
G1 X75.053 Y101.031 E.01681
G1 X64.469 Y90.448 E.47051
G1 X64.469 Y90.982 E.01681
G1 X74.518 Y101.031 E.44674
G1 X73.983 Y101.031 E.01681
G1 X64.469 Y91.517 E.42297
G1 X64.469 Y92.052 E.01681
G1 X73.449 Y101.031 E.3992
G1 X72.914 Y101.031 E.01681
M73 P5 R30
G1 X64.469 Y92.586 E.37543
G1 X64.469 Y93.121 E.01681
G1 X72.38 Y101.031 E.35166
G1 X71.845 Y101.031 E.01681
G1 X64.469 Y93.656 E.32789
G1 X64.469 Y94.19 E.01681
G1 X71.31 Y101.031 E.30412
G1 X70.776 Y101.031 E.01681
G1 X64.469 Y94.725 E.28035
G1 X64.469 Y95.26 E.01681
G1 X70.241 Y101.031 E.25658
G1 X69.706 Y101.031 E.01681
G1 X64.469 Y95.794 E.23282
G1 X64.469 Y96.329 E.01681
G1 X69.172 Y101.031 E.20905
G1 X68.637 Y101.031 E.01681
G1 X64.469 Y96.864 E.18528
G1 X64.469 Y97.398 E.01681
G1 X68.102 Y101.031 E.16151
G1 X67.568 Y101.031 E.01681
G1 X64.469 Y97.933 E.13774
G1 X64.469 Y98.468 E.01681
G1 X67.033 Y101.031 E.11397
G1 X66.498 Y101.031 E.01681
G1 X64.469 Y99.002 E.0902
G1 X64.469 Y99.537 E.01681
G1 X65.964 Y101.031 E.06643
G1 X65.429 Y101.031 E.01681
G1 X64.469 Y100.072 E.04266
G1 X64.469 Y100.606 E.01681
G1 X65.064 Y101.201 E.02644
M204 P1000
G1 E-2.24 F4200
;WIPE_START
G1 F7200
G1 X64.469 Y100.606 E-.46602
G1 X64.469 Y100.072 E-.29629
G1 X64.66 Y100.263 E-.14969
;WIPE_END
G1 E-.048 F4200
G1 Z.4 F720
G1 X94.187 Y101.314 F9000
G1 Z.2 F720
G1 E3.2 F2400
M204 P800
;TYPE:Perimeter
;WIDTH:0.419999
G1 F1200
G1 X94.187 Y78.187 E.72512
G1 X115.813 Y78.187 E.67809
G1 X115.813 Y101.314 E.72512
G1 X94.247 Y101.314 E.67621
M204 P1000
G1 X93.809 Y101.691 F9000
M204 P800
;TYPE:External perimeter
G1 F1200
G1 X93.809 Y77.81 E.74877
G1 X116.191 Y77.81 E.70174
G1 X116.191 Y101.691 E.74877
G1 X93.869 Y101.691 E.69986
M204 P1000
G1 X93.909 Y101.304 F9000
G1 E-2.24 F4200
;WIPE_START
G1 F7200
G1 X93.865 Y100.045 E-.912
;WIPE_END
G1 E-.048 F4200
G1 Z.4 F720
G1 X114.936 Y78.3 F9000
G1 Z.2 F720
G1 E3.2 F2400
M204 P800
;TYPE:Solid infill
;WIDTH:0.42098
G1 F1200
G1 X115.531 Y78.895 E.02644
G1 X115.531 Y79.43 E.01681
G1 X114.571 Y78.47 E.04266
G1 X114.036 Y78.47 E.01681
G1 X115.531 Y79.964 E.06643
G1 X115.531 Y80.499 E.01681
G1 X113.502 Y78.47 E.0902
G1 X112.967 Y78.47 E.01681
G1 X115.531 Y81.033 E.11397
G1 X115.531 Y81.568 E.01681
G1 X112.432 Y78.47 E.13774
G1 X111.898 Y78.47 E.01681
G1 X115.531 Y82.103 E.16151
G1 X115.531 Y82.637 E.01681
G1 X111.363 Y78.47 E.18528
G1 X110.828 Y78.47 E.01681
M73 P5 R29
G1 X115.531 Y83.172 E.20905
G1 X115.531 Y83.707 E.01681
G1 X110.294 Y78.47 E.23282
G1 X109.759 Y78.47 E.01681
G1 X115.531 Y84.241 E.25659
G1 X115.531 Y84.776 E.01681
G1 X109.224 Y78.47 E.28036
G1 X108.69 Y78.47 E.01681
M73 P6 R29
G1 X115.531 Y85.311 E.30412
G1 X115.531 Y85.845 E.01681
G1 X108.155 Y78.47 E.32789
G1 X107.62 Y78.47 E.01681
G1 X115.531 Y86.38 E.35166
G1 X115.531 Y86.915 E.01681
G1 X107.086 Y78.47 E.37543
G1 X106.551 Y78.47 E.01681
G1 X115.531 Y87.449 E.3992
G1 X115.531 Y87.984 E.01681
G1 X106.016 Y78.47 E.42297
G1 X105.482 Y78.47 E.01681
G1 X115.531 Y88.519 E.44674
G1 X115.531 Y89.053 E.01681
G1 X104.947 Y78.47 E.47051
G1 X104.413 Y78.47 E.01681
G1 X115.531 Y89.588 E.49428
G1 X115.531 Y90.123 E.01681
G1 X103.878 Y78.47 E.51805
G1 X103.343 Y78.47 E.01681
G1 X115.531 Y90.657 E.54182
G1 X115.531 Y91.192 E.01681
G1 X102.809 Y78.47 E.56559
G1 X102.274 Y78.47 E.01681
G1 X115.531 Y91.727 E.58936
G1 X115.531 Y92.261 E.01681
G1 X101.739 Y78.47 E.61312
G1 X101.205 Y78.47 E.01681
G1 X115.531 Y92.796 E.63689
G1 X115.531 Y93.331 E.01681
G1 X100.67 Y78.47 E.66066
G1 X100.135 Y78.47 E.01681
G1 X115.531 Y93.865 E.68443
G1 X115.531 Y94.4 E.01681
G1 X99.601 Y78.47 E.7082
G1 X99.066 Y78.47 E.01681
G1 X115.531 Y94.935 E.73197
G1 X115.531 Y95.469 E.01681
G1 X98.531 Y78.47 E.75574
G1 X97.997 Y78.47 E.01681
G1 X115.531 Y96.004 E.77951
G1 X115.531 Y96.539 E.01681
M73 P7 R29
G1 X97.462 Y78.47 E.80328
G1 X96.927 Y78.47 E.01681
G1 X115.531 Y97.073 E.82705
G1 X115.531 Y97.608 E.01681
G1 X96.393 Y78.47 E.85082
G1 X95.858 Y78.47 E.01681
G1 X115.531 Y98.143 E.87459
G1 X115.531 Y98.677 E.01681
G1 X95.323 Y78.47 E.89836
G1 X94.789 Y78.47 E.01681
G1 X115.531 Y99.212 E.92212
G1 X115.531 Y99.746 E.01681
G1 X94.469 Y78.685 E.93632
G1 X94.469 Y79.22 E.01681
G1 X115.531 Y100.281 E.93632
G1 X115.531 Y100.816 E.01681
G1 X94.469 Y79.755 E.93632
G1 X94.469 Y80.289 E.01681
G1 X115.211 Y101.031 E.92212
G1 X114.677 Y101.031 E.01681
G1 X94.469 Y80.824 E.89835
G1 X94.469 Y81.359 E.01681
G1 X114.142 Y101.031 E.87458
G1 X113.607 Y101.031 E.01681
G1 X94.469 Y81.893 E.85082
G1 X94.469 Y82.428 E.01681
G1 X113.073 Y101.031 E.82705
G1 X112.538 Y101.031 E.01681
M73 P8 R29
G1 X94.469 Y82.962 E.80328
G1 X94.469 Y83.497 E.01681
G1 X112.003 Y101.031 E.77951
G1 X111.469 Y101.031 E.01681
G1 X94.469 Y84.032 E.75574
G1 X94.469 Y84.566 E.01681
G1 X110.934 Y101.031 E.73197
G1 X110.399 Y101.031 E.01681
G1 X94.469 Y85.101 E.7082
G1 X94.469 Y85.636 E.01681
G1 X109.865 Y101.031 E.68443
G1 X109.33 Y101.031 E.01681
G1 X94.469 Y86.17 E.66066
G1 X94.469 Y86.705 E.01681
G1 X108.795 Y101.031 E.63689
G1 X108.261 Y101.031 E.01681
G1 X94.469 Y87.24 E.61312
G1 X94.469 Y87.774 E.01681
G1 X107.726 Y101.031 E.58935
G1 X107.191 Y101.031 E.01681
G1 X94.469 Y88.309 E.56558
G1 X94.469 Y88.844 E.01681
G1 X106.657 Y101.031 E.54182
G1 X106.122 Y101.031 E.01681
G1 X94.469 Y89.378 E.51805
G1 X94.469 Y89.913 E.01681
G1 X105.587 Y101.031 E.49428
G1 X105.053 Y101.031 E.01681
G1 X94.469 Y90.448 E.47051
G1 X94.469 Y90.982 E.01681
G1 X104.518 Y101.031 E.44674
G1 X103.983 Y101.031 E.01681
G1 X94.469 Y91.517 E.42297
G1 X94.469 Y92.052 E.01681
G1 X103.449 Y101.031 E.3992
G1 X102.914 Y101.031 E.01681
M73 P9 R29
G1 X94.469 Y92.586 E.37543
G1 X94.469 Y93.121 E.01681
G1 X102.38 Y101.031 E.35166
G1 X101.845 Y101.031 E.01681
M73 P9 R28
G1 X94.469 Y93.656 E.32789
G1 X94.469 Y94.19 E.01681
G1 X101.31 Y101.031 E.30412
G1 X100.776 Y101.031 E.01681
G1 X94.469 Y94.725 E.28035
G1 X94.469 Y95.26 E.01681
G1 X100.241 Y101.031 E.25658
G1 X99.706 Y101.031 E.01681
G1 X94.469 Y95.794 E.23282
G1 X94.469 Y96.329 E.01681
G1 X99.172 Y101.031 E.20905
G1 X98.637 Y101.031 E.01681
G1 X94.469 Y96.864 E.18528
G1 X94.469 Y97.398 E.01681
G1 X98.102 Y101.031 E.16151
G1 X97.568 Y101.031 E.01681
G1 X94.469 Y97.933 E.13774
G1 X94.469 Y98.468 E.01681
G1 X97.033 Y101.031 E.11397
G1 X96.498 Y101.031 E.01681
G1 X94.469 Y99.002 E.0902
G1 X94.469 Y99.537 E.01681
G1 X95.964 Y101.031 E.06643
G1 X95.429 Y101.031 E.01681
G1 X94.469 Y100.072 E.04266
G1 X94.469 Y100.606 E.01681
G1 X95.064 Y101.201 E.02644
M204 P1000
; stop printing object box_with_hinge_both.stl id:0 copy 0
M106 S84.15
;LAYER_CHANGE
;Z:0.45
;HEIGHT:0.25
;BEFORE_LAYER_CHANGE
G92 E0.0
;0.45


G1 E-2.24 F4200
;WIPE_START
G1 F7200
G1 X94.469 Y100.606 E-.46602
G1 X94.469 Y100.072 E-.29629
G1 X94.66 Y100.263 E-.14969
;WIPE_END
G1 E-.048 F4200
G1 Z.4 F720
G1 Z.45
;AFTER_LAYER_CHANGE
;0.45
M104 S210 ; set temperature
G1 Z.65
G1 X94.66 Y104.878 F9000
G1 Z.45 F720
G1 E3.2 F2400
;TYPE:Skirt/Brim
;WIDTH:0.42
G1 X63.5 Y104.878 E1.18653
G1 X61.819 Y104.182 E.06928
G1 X61.319 Y103.682 E.02692
G1 X60.622 Y102.001 E.06928
G1 X60.622 Y77.5 E.93294
G1 X61.319 Y75.819 E.06928
G1 X61.819 Y75.319 E.02692
G1 X63.5 Y74.623 E.06928
G1 X116.5 Y74.623 E2.01815
G1 X118.181 Y75.319 E.06928
G1 X118.681 Y75.819 E.02692
G1 X119.378 Y77.5 E.06928
G1 X119.378 Y102.001 E.93294
G1 X118.681 Y103.682 E.06928
G1 X118.181 Y104.182 E.02692
G1 X116.5 Y104.878 E.06928
G1 X94.72 Y104.878 E.82934
; printing object box_with_hinge_both.stl id:0 copy 0
G1 E-2.24 F4200
;WIPE_START
G1 F7200
G1 X93.075 Y104.878 E-.912
;WIPE_END
G1 E-.048 F4200
G1 Z.65 F720
G1 X93.796 Y101.705 F9000
G1 Z.45 F720
G1 E3.2 F2400
M204 P800
;TYPE:Perimeter
;WIDTH:0.449999
G1 F3300
G1 X93.796 Y77.796 E.98492
G1 X116.204 Y77.796 E.92313
G1 X116.204 Y101.705 E.98492
G1 X93.856 Y101.705 E.92065
M204 P1000
G1 X93.399 Y101.908 F9000
M204 P800
;TYPE:External perimeter
G1 F2400
G1 X93.399 Y77.593 E1.00166
G1 X93.593 Y77.4 E.01126
G1 X116.407 Y77.4 E.93986
G1 X116.601 Y77.593 E.01126
G1 X116.601 Y101.908 E1.00166
G1 X116.407 Y102.101 E.01126
G1 X93.593 Y102.101 E.93986
G1 X93.442 Y101.95 E.00878
M204 P1000
G1 X93.6 Y101.562 F9000
G1 E-2.24 F4200
;WIPE_START
G1 F7200
G1 X93.439 Y100.305 E-.912
;WIPE_END
G1 E-.048 F4200
G1 Z.65 F720
G1 X116.085 Y100.775 F9000
G1 Z.45 F720
G1 E3.2 F2400
;TYPE:Solid infill
;WIDTH:0.454521
G1 F6000
G1 X115.453 Y101.407 E.03727
G1 X114.886 Y101.407 E.02362
G1 X115.907 Y100.386 E.06016
G1 X115.907 Y99.819 E.02362
G1 X114.319 Y101.407 E.09357
G1 X113.752 Y101.407 E.02362
G1 X115.907 Y99.253 E.12697
G1 X115.907 Y98.686 E.02362
G1 X113.185 Y101.407 E.16038
G1 X112.618 Y101.407 E.02362
G1 X115.907 Y98.119 E.19378
G1 X115.907 Y97.552 E.02362
G1 X112.051 Y101.407 E.22719
G1 X111.484 Y101.407 E.02362
G1 X115.907 Y96.985 E.26059
G1 X115.907 Y96.418 E.02362
G1 X110.917 Y101.407 E.294
G1 X110.351 Y101.407 E.02362
G1 X115.907 Y95.851 E.3274
G1 X115.907 Y95.284 E.02362
G1 X109.784 Y101.407 E.36081
G1 X109.217 Y101.407 E.02362
G1 X115.907 Y94.717 E.39421
G1 X115.907 Y94.15 E.02362
G1 X108.65 Y101.407 E.42762
G1 X108.083 Y101.407 E.02362
G1 X115.907 Y93.583 E.46102
G1 X115.907 Y93.016 E.02362
G1 X107.516 Y101.407 E.49443
G1 X106.949 Y101.407 E.02362
G1 X115.907 Y92.45 E.52783
G1 X115.907 Y91.883 E.02362
G1 X106.382 Y101.407 E.56124
G1 X105.815 Y101.407 E.02362
G1 X115.907 Y91.316 E.59464
G1 X115.907 Y90.749 E.02362
G1 X105.248 Y101.407 E.62805
M73 P10 R28
G1 X104.681 Y101.407 E.02362
G1 X115.907 Y90.182 E.66146
G1 X115.907 Y89.615 E.02362
G1 X104.114 Y101.407 E.69486
G1 X103.548 Y101.407 E.02362
G1 X115.907 Y89.048 E.72827
G1 X115.907 Y88.481 E.02362
G1 X102.981 Y101.407 E.76167
G1 X102.414 Y101.407 E.02362
G1 X115.907 Y87.914 E.79508
G1 X115.907 Y87.347 E.02362
G1 X101.847 Y101.407 E.82848
G1 X101.28 Y101.407 E.02362
G1 X115.907 Y86.78 E.86189
G1 X115.907 Y86.213 E.02362
G1 X100.713 Y101.407 E.89529
