; generated by PrusaSlicer 2.5.0+win64 on 2023-08-20 at 17:32:21 UTC


;
;

;
;
; 

; external perimeters extrusion width = 0.45mm
; perimeters extrusion width = 0.45mm
; infill extrusion width = 0.45mm
; solid infill extrusion width = 0.45mm
; top infill extrusion width = 0.40mm
; first layer extrusion width = 0.42mm

M73 P0 R16
M201 X2500 Y2500 Z400 E5000 ; sets maximum accelerations, mm/sec^2
M203 X180 Y180 Z12 E80 ; sets maximum feedrates, mm / sec
M204 P1250 R1250 T2500 ; sets acceleration (P, T) and retract acceleration (R), mm/sec^2
M205 X8.00 Y8.00 Z2.00 E10.00 ; sets the jerk limits, mm/sec
M205 S0 T0 ; sets the minimum extruding and travel feed rate, mm/sec
M107
;TYPE:Custom
M862.3 P "MINI" ; printer model check
G90 ; use absolute coordinates
M83 ; extruder relative mode
M104 S170 ; set extruder temp for bed leveling
M140 S60 ; set bed temp
M109 R170 ; wait for bed leveling temp
M190 S60 ; wait for bed temp
M204 T1250 ; set travel acceleration
G28 ; home all without mesh bed level
G29 ; mesh bed leveling 
M204 T2500 ; restore travel acceleration
M104 S215 ; set extruder temp
G92 E0
G1 Y-2 X179 F2400
G1 Z3 F720
M109 S215 ; wait for extruder temp

; intro line
G1 X170 F1000
G1 Z0.2 F720
G1 X110 E8 F900
G1 X40 E10 F700
G92 E0

M221 S95 ; set flow
G21 ; set units to millimeters
G90 ; use absolute coordinates
M83 ; use relative distances for extrusion
M900 K0.2 ; Filament gcode LA 1.5
; ; Filament gcode LA 1.0
M107
;LAYER_CHANGE
;Z:0.2
;HEIGHT:0.2
;BEFORE_LAYER_CHANGE
G92 E0.0
;0.2


G1 E-3.2 F4200
M73 P1 R15
G1 Z.2 F720
;AFTER_LAYER_CHANGE
;0.2
G1 Z.4
G1 X61.552 Y74.552 F9000
G1 Z.2 F720
G1 E3.2 F2400
M204 P800
;TYPE:Skirt/Brim
;WIDTH:0.42
G1 F1200
G1 X63.5 Y73.745 E.06609
G1 X86.501 Y73.745 E.72118
G1 X88.448 Y74.552 E.06609
G1 X88.948 Y75.052 E.02217
G1 X89.755 Y77 E.06609
G1 X89.755 Y103.001 E.81524
G1 X88.948 Y104.948 E.06609
G1 X88.448 Y105.448 E.02217
G1 X86.501 Y106.255 E.06609
G1 X63.5 Y106.255 E.72118
M73 P2 R15
G1 X61.552 Y105.448 E.06609
G1 X61.052 Y104.948 E.02217
G1 X60.245 Y103.001 E.06609
G1 X60.245 Y77 E.81524
G1 X61.052 Y75.052 E.06609
G1 X61.51 Y74.594 E.02029
M204 P1000
G1 X61.776 Y74.861 F9000
M204 P800
G1 F1200
G1 X61.819 Y74.819 E.00188
G1 X63.5 Y74.122 E.05704
G1 X86.501 Y74.122 E.72118
G1 X88.181 Y74.819 E.05704
G1 X88.681 Y75.319 E.02217
G1 X89.378 Y77 E.05704
G1 X89.378 Y103.001 E.81524
G1 X88.681 Y104.681 E.05704
G1 X88.181 Y105.181 E.02217
G1 X86.501 Y105.878 E.05704
G1 X63.5 Y105.878 E.72118
G1 X61.819 Y105.181 E.05704
G1 X61.319 Y104.681 E.02217
G1 X60.622 Y103.001 E.05704
G1 X60.622 Y77 E.81524
G1 X61.319 Y75.319 E.05704
G1 X61.734 Y74.904 E.01841
M204 P1000
; printing object box_with_hinge_both.stl_1 id:0 copy 0
G1 E-2.24 F4200
;WIPE_START
G1 F7200
G1 X61.819 Y74.819 E-.0665
G1 X63.228 Y74.235 E-.8455
;WIPE_END
G1 E-.048 F4200
G1 Z.4 F720
G1 X85.813 Y102.313 F9000
G1 Z.2 F720
G1 E3.2 F2400
M204 P800
;TYPE:Perimeter
;WIDTH:0.419999
G1 F1200
G1 X64.187 Y102.313 E.67809
G1 X64.187 Y77.687 E.77216
M73 P3 R15
G1 X85.813 Y77.687 E.67809
G1 X85.813 Y102.253 E.77027
M204 P1000
G1 X86.191 Y102.691 F9000
M204 P800
;TYPE:External perimeter
G1 F1200
G1 X63.809 Y102.691 E.70174
G1 X63.809 Y77.309 E.7958
G1 X86.191 Y77.309 E.70174
G1 X86.191 Y102.631 E.79392
M204 P1000
G1 X85.806 Y102.579 F9000
G1 E-2.24 F4200
;WIPE_START
G1 F7200
G1 X84.545 Y102.635 E-.912
;WIPE_END
G1 E-.048 F4200
G1 Z.4 F720
G1 X84.938 Y77.8 F9000
G1 Z.2 F720
G1 E3.2 F2400
M204 P800
;TYPE:Solid infill
;WIDTH:0.420125
G1 F1200
G1 X85.531 Y78.393 E.0263
G1 X85.531 Y78.926 E.01673
G1 X84.574 Y77.969 E.04243
G1 X84.041 Y77.969 E.01673
M73 P4 R15
G1 X85.531 Y79.459 E.06609
G1 X85.531 Y79.993 E.01673
G1 X83.507 Y77.969 E.08976
G1 X82.974 Y77.969 E.01673
G1 X85.531 Y80.526 E.11342
G1 X85.531 Y81.06 E.01673
G1 X82.44 Y77.969 E.13708
G1 X81.907 Y77.969 E.01673
G1 X85.531 Y81.593 E.16074
G1 X85.531 Y82.127 E.01673
G1 X81.373 Y77.969 E.1844
G1 X80.84 Y77.969 E.01673
G1 X85.531 Y82.66 E.20806
G1 X85.531 Y83.194 E.01673
G1 X80.306 Y77.969 E.23173
G1 X79.773 Y77.969 E.01673
G1 X85.531 Y83.727 E.25539
G1 X85.531 Y84.26 E.01673
G1 X79.24 Y77.969 E.27905
G1 X78.706 Y77.969 E.01673
G1 X85.531 Y84.794 E.30271
G1 X85.531 Y85.327 E.01673
G1 X78.173 Y77.969 E.32637
G1 X77.639 Y77.969 E.01673
G1 X85.531 Y85.861 E.35004
G1 X85.531 Y86.394 E.01673
G1 X77.106 Y77.969 E.3737
G1 X76.572 Y77.969 E.01673
G1 X85.531 Y86.928 E.39736
G1 X85.531 Y87.461 E.01673
G1 X76.039 Y77.969 E.42102
G1 X75.505 Y77.969 E.01673
G1 X85.531 Y87.995 E.44468
G1 X85.531 Y88.528 E.01673
G1 X74.972 Y77.969 E.46835
G1 X74.438 Y77.969 E.01673
G1 X85.531 Y89.062 E.49201
G1 X85.531 Y89.595 E.01673
G1 X73.905 Y77.969 E.51567
G1 X73.372 Y77.969 E.01673
M73 P5 R15
G1 X85.531 Y90.128 E.53933
G1 X85.531 Y90.662 E.01673
G1 X72.838 Y77.969 E.56299
G1 X72.305 Y77.969 E.01673
G1 X85.531 Y91.195 E.58665
G1 X85.531 Y91.729 E.01673
G1 X71.771 Y77.969 E.61032
G1 X71.238 Y77.969 E.01673
G1 X85.531 Y92.262 E.63398
G1 X85.531 Y92.796 E.01673
G1 X70.704 Y77.969 E.65764
G1 X70.171 Y77.969 E.01673
G1 X85.531 Y93.329 E.6813
G1 X85.531 Y93.863 E.01673
G1 X69.637 Y77.969 E.70496
G1 X69.104 Y77.969 E.01673
G1 X85.531 Y94.396 E.72863
G1 X85.531 Y94.929 E.01673
M73 P6 R15
G1 X68.571 Y77.969 E.75229
G1 X68.037 Y77.969 E.01673
G1 X85.531 Y95.463 E.77595
G1 X85.531 Y95.996 E.01673
G1 X67.504 Y77.969 E.79961
G1 X66.97 Y77.969 E.01673
G1 X85.531 Y96.53 E.82327
G1 X85.531 Y97.063 E.01673
G1 X66.437 Y77.969 E.84694
G1 X65.903 Y77.969 E.01673
G1 X85.531 Y97.597 E.8706
G1 X85.531 Y98.13 E.01673
G1 X65.37 Y77.969 E.89426
G1 X64.836 Y77.969 E.01673
G1 X85.531 Y98.664 E.91792
G1 X85.531 Y99.197 E.01673
M73 P7 R15
G1 X64.469 Y78.136 E.9342
G1 X64.469 Y78.669 E.01673
G1 X85.531 Y99.73 E.9342
G1 X85.531 Y100.264 E.01673
M73 P7 R14
G1 X64.469 Y79.203 E.9342
G1 X64.469 Y79.736 E.01673
G1 X85.531 Y100.797 E.9342
G1 X85.531 Y101.331 E.01673
G1 X64.469 Y80.27 E.9342
G1 X64.469 Y80.803 E.01673
G1 X85.531 Y101.864 E.9342
G1 X85.531 Y102.031 E.00522
M73 P8 R14
G1 X85.164 Y102.031 E.01151
G1 X64.469 Y81.336 E.91792
G1 X64.469 Y81.87 E.01673
G1 X84.63 Y102.031 E.89426
G1 X84.097 Y102.031 E.01673
G1 X64.469 Y82.403 E.87059
G1 X64.469 Y82.937 E.01673
G1 X83.563 Y102.031 E.84693
G1 X83.03 Y102.031 E.01673
G1 X64.469 Y83.47 E.82327
G1 X64.469 Y84.004 E.01673
G1 X82.496 Y102.031 E.79961
G1 X81.963 Y102.031 E.01673
G1 X64.469 Y84.537 E.77595
G1 X64.469 Y85.071 E.01673
M73 P9 R14
G1 X81.429 Y102.031 E.75229
G1 X80.896 Y102.031 E.01673
G1 X64.469 Y85.604 E.72862
G1 X64.469 Y86.138 E.01673
G1 X80.362 Y102.031 E.70496
G1 X79.829 Y102.031 E.01673
G1 X64.469 Y86.671 E.6813
G1 X64.469 Y87.204 E.01673
G1 X79.296 Y102.031 E.65764
G1 X78.762 Y102.031 E.01673
G1 X64.469 Y87.738 E.63398
G1 X64.469 Y88.271 E.01673
G1 X78.229 Y102.031 E.61031
G1 X77.695 Y102.031 E.01673
G1 X64.469 Y88.805 E.58665
G1 X64.469 Y89.338 E.01673
M73 P10 R14
G1 X77.162 Y102.031 E.56299
G1 X76.628 Y102.031 E.01673
G1 X64.469 Y89.872 E.53933
G1 X64.469 Y90.405 E.01673
G1 X76.095 Y102.031 E.51567
G1 X75.561 Y102.031 E.01673
G1 X64.469 Y90.939 E.49201
G1 X64.469 Y91.472 E.01673
G1 X75.028 Y102.031 E.46834
G1 X74.495 Y102.031 E.01673
G1 X64.469 Y92.005 E.44468
G1 X64.469 Y92.539 E.01673
G1 X73.961 Y102.031 E.42102
G1 X73.428 Y102.031 E.01673
G1 X64.469 Y93.072 E.39736
G1 X64.469 Y93.606 E.01673
G1 X72.894 Y102.031 E.3737
G1 X72.361 Y102.031 E.01673
G1 X64.469 Y94.139 E.35003
G1 X64.469 Y94.673 E.01673
G1 X71.827 Y102.031 E.32637
G1 X71.294 Y102.031 E.01673
G1 X64.469 Y95.206 E.30271
G1 X64.469 Y95.74 E.01673
G1 X70.76 Y102.031 E.27905
G1 X70.227 Y102.031 E.01673
G1 X64.469 Y96.273 E.25539
G1 X64.469 Y96.806 E.01673
M73 P11 R14
G1 X69.694 Y102.031 E.23172
G1 X69.16 Y102.031 E.01673
G1 X64.469 Y97.34 E.20806
G1 X64.469 Y97.873 E.01673
G1 X68.627 Y102.031 E.1844
G1 X68.093 Y102.031 E.01673
G1 X64.469 Y98.407 E.16074
G1 X64.469 Y98.94 E.01673
G1 X67.56 Y102.031 E.13708
G1 X67.026 Y102.031 E.01673
G1 X64.469 Y99.474 E.11342
G1 X64.469 Y100.007 E.01673
G1 X66.493 Y102.031 E.08975
G1 X65.959 Y102.031 E.01673
G1 X64.469 Y100.541 E.06609
G1 X64.469 Y101.074 E.01673
G1 X65.426 Y102.031 E.04243
G1 X64.892 Y102.031 E.01673
G1 X64.3 Y101.438 E.02629
M204 P1000
; stop printing object box_with_hinge_both.stl_1 id:0 copy 0
M106 S84.15
;LAYER_CHANGE
;Z:0.45
;HEIGHT:0.25
;BEFORE_LAYER_CHANGE
G92 E0.0
;0.45


G1 E-2.24 F4200
;WIPE_START
G1 F7200
G1 X64.892 Y102.031 E-.46458
G1 X65.426 Y102.031 E-.29562
G1 X65.232 Y101.837 E-.1518
;WIPE_END
G1 E-.048 F4200
G1 Z.4 F720
G1 Z.45
;AFTER_LAYER_CHANGE
;0.45
M104 S210 ; set temperature
G1 Z.65
G1 X65.232 Y106.255 F9000
G1 Z.45 F720
G1 E3.2 F2400
;TYPE:Skirt/Brim
;WIDTH:0.42
G1 X63.5 Y106.255 E.06598
G1 X61.552 Y105.448 E.08027
G1 X61.052 Y104.948 E.02692
G1 X60.245 Y103.001 E.08027
G1 X60.245 Y77 E.99006
G1 X61.052 Y75.052 E.08027
G1 X61.552 Y74.552 E.02692
G1 X63.5 Y73.745 E.08027
G1 X86.501 Y73.745 E.87582
G1 X88.448 Y74.552 E.08027
G1 X88.948 Y75.052 E.02692
G1 X89.755 Y77 E.08027
G1 X89.755 Y103.001 E.99006
G1 X88.948 Y104.948 E.08027
G1 X88.448 Y105.448 E.02692
G1 X86.501 Y106.255 E.08027
G1 X65.292 Y106.255 E.80756
G1 X65.292 Y105.878 F9000
G1 F2400
G1 X63.5 Y105.878 E.06826
G1 X61.819 Y105.181 E.06928
G1 X61.319 Y104.681 E.02692
G1 X60.622 Y103.001 E.06928
G1 X60.622 Y77 E.99006
G1 X61.319 Y75.319 E.06928
G1 X61.819 Y74.819 E.02692
G1 X63.5 Y74.122 E.06928
G1 X86.501 Y74.122 E.87582
G1 X88.181 Y74.819 E.06928
G1 X88.681 Y75.319 E.02692
G1 X89.378 Y77 E.06928
G1 X89.378 Y103.001 E.99006
G1 X88.681 Y104.681 E.06928
G1 X88.181 Y105.181 E.02692
G1 X86.501 Y105.878 E.06928
G1 X65.352 Y105.878 E.80527
; printing object box_with_hinge_both.stl_1 id:0 copy 0
G1 E-2.24 F4200
;WIPE_START
G1 F7200
G1 X63.707 Y105.878 E-.912
;WIPE_END
G1 E-.048 F4200
G1 Z.65 F720
G1 X86.204 Y102.704 F9000
G1 Z.45 F720
G1 E3.2 F2400
M204 P800
;TYPE:Perimeter
;WIDTH:0.449999
G1 F3300
G1 X63.796 Y102.704 E.92313
G1 X63.796 Y77.296 E1.04671
M73 P12 R14
G1 X86.204 Y77.296 E.92313
G1 X86.204 Y102.644 E1.04424
M204 P1000
G1 X86.601 Y102.907 F9000
M204 P800
;TYPE:External perimeter
G1 F2400
G1 X86.407 Y103.101 E.01126
G1 X63.593 Y103.101 E.93986
G1 X63.399 Y102.907 E.01126
G1 X63.399 Y77.093 E1.06345
G1 X63.593 Y76.899 E.01126
G1 X86.407 Y76.899 E.93986
G1 X86.601 Y77.093 E.01126
G1 X86.601 Y102.847 E1.06098
M204 P1000
G1 X86.327 Y102.908 F9000
G1 X85.278 Y102.585
;TYPE:Solid infill
;WIDTH:0.45283
G1 F6000
G1 X85.907 Y101.956 E.0369
G1 X85.907 Y101.392 E.02342
G1 X84.892 Y102.407 E.05956
G1 X84.327 Y102.407 E.02342
G1 X85.907 Y100.827 E.09268
G1 X85.907 Y100.263 E.02342
G1 X83.763 Y102.407 E.12581
G1 X83.198 Y102.407 E.02342
G1 X85.907 Y99.698 E.15893
G1 X85.907 Y99.134 E.02342
G1 X82.634 Y102.407 E.19205
G1 X82.069 Y102.407 E.02342
G1 X85.907 Y98.569 E.22518
G1 X85.907 Y98.005 E.02342
G1 X81.505 Y102.407 E.2583
G1 X80.94 Y102.407 E.02342
G1 X85.907 Y97.44 E.29143
G1 X85.907 Y96.876 E.02342
G1 X80.376 Y102.407 E.32455
G1 X79.811 Y102.407 E.02342
G1 X85.907 Y96.311 E.35767
G1 X85.907 Y95.747 E.02342
G1 X79.247 Y102.407 E.3908
G1 X78.682 Y102.407 E.02342
G1 X85.907 Y95.182 E.42392
G1 X85.907 Y94.618 E.02342
G1 X78.118 Y102.407 E.45704
G1 X77.553 Y102.407 E.02342
G1 X85.907 Y94.053 E.49017
G1 X85.907 Y93.488 E.02342
G1 X76.988 Y102.407 E.52329
G1 X76.424 Y102.407 E.02342
G1 X85.907 Y92.924 E.55642
G1 X85.907 Y92.359 E.02342
G1 X75.859 Y102.407 E.58954
G1 X75.295 Y102.407 E.02342
G1 X85.907 Y91.795 E.62266
G1 X85.907 Y91.23 E.02342
G1 X74.73 Y102.407 E.65579
G1 X74.166 Y102.407 E.02342
G1 X85.907 Y90.666 E.68891
G1 X85.907 Y90.101 E.02342
G1 X73.601 Y102.407 E.72204
G1 X73.037 Y102.407 E.02342
G1 X85.907 Y89.537 E.75516
G1 X85.907 Y88.972 E.02342
G1 X72.472 Y102.407 E.78828
G1 X71.908 Y102.407 E.02342
G1 X85.907 Y88.408 E.82141
G1 X85.907 Y87.843 E.02342
G1 X71.343 Y102.407 E.85453
G1 X70.779 Y102.407 E.02342
M73 P13 R14
G1 X85.907 Y87.279 E.88766
G1 X85.907 Y86.714 E.02342
G1 X70.214 Y102.407 E.92078
G1 X69.65 Y102.407 E.02342
G1 X85.907 Y86.15 E.9539
G1 X85.907 Y85.585 E.02342
G1 X69.085 Y102.407 E.98703
G1 X68.521 Y102.407 E.02342
G1 X85.907 Y85.021 E1.02015
G1 X85.907 Y84.456 E.02342
G1 X67.956 Y102.407 E1.05328
G1 X67.392 Y102.407 E.02342
G1 X85.907 Y83.892 E1.0864
G1 X85.907 Y83.327 E.02342
G1 X66.827 Y102.407 E1.11952
G1 X66.263 Y102.407 E.02342
G1 X85.907 Y82.763 E1.15265
G1 X85.907 Y82.198 E.02342
G1 X65.698 Y102.407 E1.18577
G1 X65.133 Y102.407 E.02342
G1 X85.907 Y81.633 E1.21889
G1 X85.907 Y81.069 E.02342
G1 X64.569 Y102.407 E1.25202
G1 X64.093 Y102.407 E.01974
G1 X64.093 Y102.318 E.00368
M73 P13 R13
G1 X85.907 Y80.504 E1.27994
G1 X85.907 Y79.94 E.02342
G1 X64.093 Y101.754 E1.27994
G1 X64.093 Y101.189 E.02342
G1 X85.907 Y79.375 E1.27994
G1 X85.907 Y78.811 E.02342
G1 X64.093 Y100.625 E1.27994
G1 X64.093 Y100.06 E.02342
G1 X85.907 Y78.246 E1.27994
G1 X85.907 Y77.682 E.02342
G1 X64.093 Y99.496 E1.27994
G1 X64.093 Y98.931 E.02342
G1 X85.431 Y77.593 E1.25202
G1 X84.867 Y77.593 E.02342
G1 X64.093 Y98.367 E1.21889
G1 X64.093 Y97.802 E.02342
G1 X84.302 Y77.593 E1.18577
G1 X83.737 Y77.593 E.02342
G1 X64.093 Y97.237 E1.15264
G1 X64.093 Y96.673 E.02342
G1 X83.173 Y77.593 E1.11952
G1 X82.608 Y77.593 E.02342
G1 X64.093 Y96.108 E1.0864
G1 X64.093 Y95.544 E.02342
G1 X82.044 Y77.593 E1.05327
G1 X81.479 Y77.593 E.02342
M73 P14 R13
G1 X64.093 Y94.979 E1.02015
G1 X64.093 Y94.415 E.02342
G1 X80.915 Y77.593 E.98702
G1 X80.35 Y77.593 E.02342
G1 X64.093 Y93.85 E.9539
G1 X64.093 Y93.286 E.02342
G1 X79.786 Y77.593 E.92078
G1 X79.221 Y77.593 E.02342
G1 X64.093 Y92.721 E.88765
G1 X64.093 Y92.157 E.02342
G1 X78.657 Y77.593 E.85453
G1 X78.092 Y77.593 E.02342
G1 X64.093 Y91.592 E.82141
G1 X64.093 Y91.028 E.02342
G1 X77.528 Y77.593 E.78828
G1 X76.963 Y77.593 E.02342
G1 X64.093 Y90.463 E.75516
G1 X64.093 Y89.899 E.02342
G1 X76.399 Y77.593 E.72203
G1 X75.834 Y77.593 E.02342
G1 X64.093 Y89.334 E.68891
G1 X64.093 Y88.77 E.02342
G1 X75.27 Y77.593 E.65579
G1 X74.705 Y77.593 E.02342
G1 X64.093 Y88.205 E.62266
G1 X64.093 Y87.641 E.02342
G1 X74.141 Y77.593 E.58954
G1 X73.576 Y77.593 E.02342
G1 X64.093 Y87.076 E.55641
G1 X64.093 Y86.511 E.02342
G1 X73.011 Y77.593 E.52329
G1 X72.447 Y77.593 E.02342
G1 X64.093 Y85.947 E.49017
G1 X64.093 Y85.382 E.02342
G1 X71.882 Y77.593 E.45704
G1 X71.318 Y77.593 E.02342
G1 X64.093 Y84.818 E.42392
G1 X64.093 Y84.253 E.02342
G1 X70.753 Y77.593 E.39079
G1 X70.189 Y77.593 E.02342
G1 X64.093 Y83.689 E.35767
G1 X64.093 Y83.124 E.02342
G1 X69.624 Y77.593 E.32455
G1 X69.06 Y77.593 E.02342
G1 X64.093 Y82.56 E.29142
G1 X64.093 Y81.995 E.02342
G1 X68.495 Y77.593 E.2583
G1 X67.931 Y77.593 E.02342
G1 X64.093 Y81.431 E.22518
G1 X64.093 Y80.866 E.02342
G1 X67.366 Y77.593 E.19205
G1 X66.802 Y77.593 E.02342
G1 X64.093 Y80.302 E.15893
G1 X64.093 Y79.737 E.02342
G1 X66.237 Y77.593 E.1258
G1 X65.673 Y77.593 E.02342
G1 X64.093 Y79.173 E.09268
G1 X64.093 Y78.608 E.02342
G1 X65.108 Y77.593 E.05956
G1 X64.544 Y77.593 E.02342
G1 X63.915 Y78.222 E.0369
; stop printing object box_with_hinge_both.stl_1 id:0 copy 0
M106 S170.85
;LAYER_CHANGE
;Z:0.7
;HEIGHT:0.25
;BEFORE_LAYER_CHANGE
G92 E0.0
;0.7


G1 E-2.24 F4200
;WIPE_START
G1 F7200
G1 X64.544 Y77.593 E-.49282
G1 X65.108 Y77.593 E-.31284
G1 X64.972 Y77.729 E-.10634
;WIPE_END
G1 E-.048 F4200
G1 Z.65 F720
G1 Z.7
;AFTER_LAYER_CHANGE
;0.7
G1 Z.9
G1 X64.972 Y73.745 F9000
G1 Z.7 F720
G1 E3.2 F2400
;TYPE:Skirt/Brim
;WIDTH:0.42
G1 X86.501 Y73.745 E.81974
G1 X88.448 Y74.552 E.08027
G1 X88.948 Y75.052 E.02692
G1 X89.755 Y77 E.08027
G1 X89.755 Y103.001 E.99006
G1 X88.948 Y104.948 E.08027
G1 X88.448 Y105.448 E.02692
G1 X86.501 Y106.255 E.08027
G1 X63.5 Y106.255 E.87582
G1 X61.552 Y105.448 E.08027
M73 P15 R13
G1 X61.052 Y104.948 E.02692
G1 X60.245 Y103.001 E.08027
G1 X60.245 Y77 E.99006
G1 X61.052 Y75.052 E.08027
G1 X61.552 Y74.552 E.02692
G1 X63.5 Y73.745 E.08027
G1 X64.912 Y73.745 E.0538
G1 X64.912 Y74.122 F9000
G1 F2400
G1 X86.501 Y74.122 E.82202
G1 X88.181 Y74.819 E.06928
G1 X88.681 Y75.319 E.02692
G1 X89.378 Y77 E.06928
G1 X89.378 Y103.001 E.99006
G1 X88.681 Y104.681 E.06928
G1 X88.181 Y105.181 E.02692
G1 X86.501 Y105.878 E.06928
