; generated by PrusaSlicer 2.5.0+win64 on 2023-08-20 at 16:04:10 UTC


;
;

;
;
; 

; external perimeters extrusion width = 0.45mm
; perimeters extrusion width = 0.45mm
; infill extrusion width = 0.45mm
; solid infill extrusion width = 0.45mm
; top infill extrusion width = 0.40mm
; first layer extrusion width = 0.42mm

M73 P0 R16
M201 X2500 Y2500 Z400 E5000 ; sets maximum accelerations, mm/sec^2
M203 X180 Y180 Z12 E80 ; sets maximum feedrates, mm / sec
M204 P1250 R1250 T2500 ; sets acceleration (P, T) and retract acceleration (R), mm/sec^2
M205 X8.00 Y8.00 Z2.00 E10.00 ; sets the jerk limits, mm/sec
M205 S0 T0 ; sets the minimum extruding and travel feed rate, mm/sec
M107
;TYPE:Custom
M862.3 P "MINI" ; printer model check
G90 ; use absolute coordinates
M83 ; extruder relative mode
M104 S170 ; set extruder temp for bed leveling
M140 S60 ; set bed temp
M109 R170 ; wait for bed leveling temp
M190 S60 ; wait for bed temp
M204 T1250 ; set travel acceleration
G28 ; home all without mesh bed level
G29 ; mesh bed leveling 
M204 T2500 ; restore travel acceleration
M104 S215 ; set extruder temp
G92 E0
G1 Y-2 X179 F2400
G1 Z3 F720
M109 S215 ; wait for extruder temp

; intro line
G1 X170 F1000
G1 Z0.2 F720
G1 X110 E8 F900
G1 X40 E10 F700
G92 E0

M221 S95 ; set flow
G21 ; set units to millimeters
G90 ; use absolute coordinates
M83 ; use relative distances for extrusion
M900 K0.2 ; Filament gcode LA 1.5
; ; Filament gcode LA 1.0
M107
;LAYER_CHANGE
;Z:0.2
;HEIGHT:0.2
;BEFORE_LAYER_CHANGE
G92 E0.0
;0.2


G1 E-3.2 F4200
M73 P1 R16
G1 Z.2 F720
;AFTER_LAYER_CHANGE
;0.2
G1 Z.4
G1 X91.052 Y75.052 F9000
G1 Z.2 F720
G1 E3.2 F2400
M204 P800
;TYPE:Skirt/Brim
;WIDTH:0.42
G1 F1200
G1 X91.552 Y74.552 E.02217
G1 X93.5 Y73.745 E.06609
G1 X116.5 Y73.745 E.72118
G1 X118.448 Y74.552 E.06609
G1 X118.948 Y75.052 E.02217
G1 X119.755 Y77 E.06609
G1 X119.755 Y100 E.72118
G1 X118.948 Y101.948 E.06609
G1 X118.448 Y102.448 E.02217
G1 X116.5 Y103.255 E.06609
G1 X93.5 Y103.255 E.72118
G1 X91.552 Y102.448 E.06609
M73 P2 R16
G1 X91.052 Y101.948 E.02217
G1 X90.245 Y100 E.06609
G1 X90.245 Y77 E.72118
G1 X91.029 Y75.107 E.06421
M204 P1000
G1 X91.319 Y75.319 F9000
M204 P800
G1 F1200
G1 X91.819 Y74.819 E.02217
G1 X93.5 Y74.122 E.05704
G1 X116.5 Y74.122 E.72118
G1 X118.181 Y74.819 E.05704
G1 X118.681 Y75.319 E.02217
G1 X119.378 Y77 E.05704
G1 X119.378 Y100 E.72118
G1 X118.681 Y101.681 E.05704
G1 X118.181 Y102.181 E.02217
G1 X116.5 Y102.878 E.05704
G1 X93.5 Y102.878 E.72118
G1 X91.819 Y102.181 E.05704
G1 X91.319 Y101.681 E.02217
G1 X90.622 Y100 E.05704
G1 X90.622 Y77 E.72118
G1 X91.296 Y75.374 E.05516
M204 P1000
; printing object box_with_hinge_both.stl_2 id:0 copy 0
G1 E-2.24 F4200
;WIPE_START
G1 F7200
G1 X91.819 Y74.819 E-.42277
G1 X92.634 Y74.481 E-.48924
;WIPE_END
G1 E-.048 F4200
G1 Z.4 F720
G1 X115.813 Y99.313 F9000
G1 Z.2 F720
G1 E3.2 F2400
M204 P800
;TYPE:Perimeter
;WIDTH:0.419999
G1 F1200
G1 X94.187 Y99.313 E.67809
G1 X94.187 Y77.687 E.67809
G1 X115.813 Y77.687 E.67809
M73 P3 R16
G1 X115.813 Y99.253 E.67621
M204 P1000
G1 X116.191 Y99.69 F9000
M204 P800
;TYPE:External perimeter
G1 F1200
G1 X93.809 Y99.69 E.70174
G1 X93.809 Y77.309 E.70174
G1 X116.191 Y77.309 E.70174
M73 P3 R15
G1 X116.191 Y99.63 E.69986
M204 P1000
G1 X115.804 Y99.587 F9000
G1 E-2.24 F4200
;WIPE_START
G1 F7200
G1 X114.545 Y99.635 E-.912
;WIPE_END
G1 E-.048 F4200
G1 Z.4 F720
G1 X114.934 Y77.8 F9000
G1 Z.2 F720
G1 E3.2 F2400
M204 P800
;TYPE:Solid infill
;WIDTH:0.421899
G1 F1200
G1 X115.531 Y78.396 E.02659
G1 X115.531 Y78.932 E.01689
G1 X114.568 Y77.969 E.04291
G1 X114.032 Y77.969 E.01689
G1 X115.531 Y79.468 E.0668
G1 X115.531 Y80.004 E.01689
G1 X113.496 Y77.969 E.09068
G1 X112.96 Y77.969 E.01689
G1 X115.531 Y80.54 E.11457
G1 X115.531 Y81.076 E.01689
G1 X112.424 Y77.969 E.13845
G1 X111.888 Y77.969 E.01689
G1 X115.531 Y81.612 E.16234
G1 X115.531 Y82.148 E.01689
G1 X111.352 Y77.969 E.18622
G1 X110.816 Y77.969 E.01689
G1 X115.531 Y82.684 E.21011
G1 X115.531 Y83.22 E.01689
G1 X110.28 Y77.969 E.23399
G1 X109.744 Y77.969 E.01689
M73 P4 R15
G1 X115.531 Y83.756 E.25788
G1 X115.531 Y84.292 E.01689
G1 X109.208 Y77.969 E.28176
G1 X108.672 Y77.969 E.01689
G1 X115.531 Y84.828 E.30565
G1 X115.531 Y85.364 E.01689
G1 X108.136 Y77.969 E.32953
G1 X107.6 Y77.969 E.01689
G1 X115.531 Y85.9 E.35342
G1 X115.531 Y86.436 E.01689
G1 X107.064 Y77.969 E.3773
G1 X106.528 Y77.969 E.01689
G1 X115.531 Y86.972 E.40119
G1 X115.531 Y87.508 E.01689
G1 X105.992 Y77.969 E.42507
G1 X105.456 Y77.969 E.01689
G1 X115.531 Y88.044 E.44896
G1 X115.531 Y88.579 E.01689
G1 X104.921 Y77.969 E.47284
G1 X104.385 Y77.969 E.01689
G1 X115.531 Y89.115 E.49673
G1 X115.531 Y89.651 E.01689
G1 X103.849 Y77.969 E.52061
G1 X103.313 Y77.969 E.01689
G1 X115.531 Y90.187 E.54449
G1 X115.531 Y90.723 E.01689
G1 X102.777 Y77.969 E.56838
G1 X102.241 Y77.969 E.01689
G1 X115.531 Y91.259 E.59226
G1 X115.531 Y91.795 E.01689
M73 P5 R15
G1 X101.705 Y77.969 E.61615
G1 X101.169 Y77.969 E.01689
G1 X115.531 Y92.331 E.64003
G1 X115.531 Y92.867 E.01689
G1 X100.633 Y77.969 E.66392
G1 X100.097 Y77.969 E.01689
G1 X115.531 Y93.403 E.6878
G1 X115.531 Y93.939 E.01689
G1 X99.561 Y77.969 E.71169
G1 X99.025 Y77.969 E.01689
G1 X115.531 Y94.475 E.73557
G1 X115.531 Y95.011 E.01689
G1 X98.489 Y77.969 E.75946
G1 X97.953 Y77.969 E.01689
G1 X115.531 Y95.547 E.78334
G1 X115.531 Y96.083 E.01689
M73 P6 R15
G1 X97.417 Y77.969 E.80723
G1 X96.881 Y77.969 E.01689
G1 X115.531 Y96.619 E.83111
G1 X115.531 Y97.155 E.01689
G1 X96.345 Y77.969 E.855
G1 X95.809 Y77.969 E.01689
G1 X115.531 Y97.691 E.87888
G1 X115.531 Y98.227 E.01689
G1 X95.273 Y77.969 E.90277
G1 X94.737 Y77.969 E.01689
G1 X115.531 Y98.763 E.92665
G1 X115.531 Y99.031 E.00844
G1 X115.263 Y99.031 E.00845
G1 X94.469 Y78.237 E.92665
G1 X94.469 Y78.773 E.01689
M73 P7 R15
G1 X114.727 Y99.031 E.90277
G1 X114.191 Y99.031 E.01689
G1 X94.469 Y79.309 E.87888
G1 X94.469 Y79.845 E.01689
G1 X113.655 Y99.031 E.855
G1 X113.119 Y99.031 E.01689
G1 X94.469 Y80.381 E.83111
G1 X94.469 Y80.917 E.01689
G1 X112.583 Y99.031 E.80723
G1 X112.047 Y99.031 E.01689
G1 X94.469 Y81.453 E.78334
G1 X94.469 Y81.989 E.01689
G1 X111.511 Y99.031 E.75946
G1 X110.975 Y99.031 E.01689
G1 X94.469 Y82.525 E.73557
G1 X94.469 Y83.061 E.01689
M73 P8 R15
G1 X110.439 Y99.031 E.71169
G1 X109.903 Y99.031 E.01689
G1 X94.469 Y83.597 E.6878
G1 X94.469 Y84.133 E.01689
G1 X109.367 Y99.031 E.66392
G1 X108.831 Y99.031 E.01689
G1 X94.469 Y84.669 E.64003
G1 X94.469 Y85.205 E.01689
G1 X108.295 Y99.031 E.61615
G1 X107.759 Y99.031 E.01689
G1 X94.469 Y85.741 E.59226
G1 X94.469 Y86.277 E.01689
G1 X107.223 Y99.031 E.56838
G1 X106.687 Y99.031 E.01689
G1 X94.469 Y86.813 E.54449
G1 X94.469 Y87.349 E.01689
G1 X106.151 Y99.031 E.52061
G1 X105.615 Y99.031 E.01689
M73 P9 R15
G1 X94.469 Y87.885 E.49672
G1 X94.469 Y88.421 E.01689
G1 X105.079 Y99.031 E.47284
G1 X104.543 Y99.031 E.01689
G1 X94.469 Y88.957 E.44895
G1 X94.469 Y89.492 E.01689
G1 X104.008 Y99.031 E.42507
G1 X103.472 Y99.031 E.01689
G1 X94.469 Y90.028 E.40118
G1 X94.469 Y90.564 E.01689
G1 X102.936 Y99.031 E.3773
G1 X102.4 Y99.031 E.01689
G1 X94.469 Y91.1 E.35341
G1 X94.469 Y91.636 E.01689
M73 P9 R14
G1 X101.864 Y99.031 E.32953
G1 X101.328 Y99.031 E.01689
G1 X94.469 Y92.172 E.30564
G1 X94.469 Y92.708 E.01689
G1 X100.792 Y99.031 E.28176
G1 X100.256 Y99.031 E.01689
G1 X94.469 Y93.244 E.25787
G1 X94.469 Y93.78 E.01689
G1 X99.72 Y99.031 E.23399
G1 X99.184 Y99.031 E.01689
G1 X94.469 Y94.316 E.2101
G1 X94.469 Y94.852 E.01689
G1 X98.648 Y99.031 E.18622
G1 X98.112 Y99.031 E.01689
G1 X94.469 Y95.388 E.16233
G1 X94.469 Y95.924 E.01689
G1 X97.576 Y99.031 E.13845
G1 X97.04 Y99.031 E.01689
G1 X94.469 Y96.46 E.11456
G1 X94.469 Y96.996 E.01689
G1 X96.504 Y99.031 E.09068
G1 X95.968 Y99.031 E.01689
G1 X94.469 Y97.532 E.06679
G1 X94.469 Y98.068 E.01689
G1 X95.432 Y99.031 E.04291
G1 X94.896 Y99.031 E.01689
G1 X94.3 Y98.434 E.02659
M204 P1000
; stop printing object box_with_hinge_both.stl_2 id:0 copy 0
M106 S84.15
;LAYER_CHANGE
;Z:0.45
;HEIGHT:0.25
;BEFORE_LAYER_CHANGE
G92 E0.0
;0.45


G1 E-2.24 F4200
;WIPE_START
G1 F7200
G1 X94.896 Y99.031 E-.46752
G1 X95.432 Y99.031 E-.29701
G1 X95.244 Y98.842 E-.14747
;WIPE_END
G1 E-.048 F4200
G1 Z.4 F720
G1 Z.45
;AFTER_LAYER_CHANGE
;0.45
M104 S210 ; set temperature
G1 Z.65
M73 P10 R14
G1 X95.244 Y103.255 F9000
G1 Z.45 F720
G1 E3.2 F2400
;TYPE:Skirt/Brim
;WIDTH:0.42
G1 X93.5 Y103.255 E.06643
G1 X91.552 Y102.448 E.08027
G1 X91.052 Y101.948 E.02692
G1 X90.245 Y100 E.08027
G1 X90.245 Y77 E.87582
G1 X91.052 Y75.052 E.08027
G1 X91.552 Y74.552 E.02692
G1 X93.5 Y73.745 E.08027
G1 X116.5 Y73.745 E.87582
G1 X118.448 Y74.552 E.08027
G1 X118.948 Y75.052 E.02692
G1 X119.755 Y77 E.08027
G1 X119.755 Y100 E.87582
G1 X118.948 Y101.948 E.08027
G1 X118.448 Y102.448 E.02692
G1 X116.5 Y103.255 E.08027
G1 X95.304 Y103.255 E.80711
G1 X95.304 Y102.878 F9000
G1 F2400
G1 X93.5 Y102.878 E.06871
G1 X91.819 Y102.181 E.06928
G1 X91.319 Y101.681 E.02692
G1 X90.622 Y100 E.06928
G1 X90.622 Y77 E.87582
G1 X91.319 Y75.319 E.06928
G1 X91.819 Y74.819 E.02692
G1 X93.5 Y74.122 E.06928
G1 X116.5 Y74.122 E.87582
G1 X118.181 Y74.819 E.06928
G1 X118.681 Y75.319 E.02692
G1 X119.378 Y77 E.06928
G1 X119.378 Y100 E.87582
G1 X118.681 Y101.681 E.06928
G1 X118.181 Y102.181 E.02692
G1 X116.5 Y102.878 E.06928
G1 X95.364 Y102.878 E.80483
; printing object box_with_hinge_both.stl_2 id:0 copy 0
G1 E-2.24 F4200
;WIPE_START
G1 F7200
G1 X93.718 Y102.878 E-.912
;WIPE_END
G1 E-.048 F4200
G1 Z.65 F720
G1 X116.204 Y99.704 F9000
G1 Z.45 F720
G1 E3.2 F2400
M204 P800
;TYPE:Perimeter
;WIDTH:0.449999
G1 F3300
G1 X93.796 Y99.704 E.92313
G1 X93.796 Y77.296 E.92313
G1 X116.204 Y77.296 E.92313
G1 X116.204 Y99.644 E.92065
M204 P1000
G1 X116.601 Y99.907 F9000
M204 P800
;TYPE:External perimeter
G1 F2400
G1 X116.407 Y100.1 E.01126
G1 X93.593 Y100.1 E.93986
G1 X93.399 Y99.907 E.01126
G1 X93.399 Y77.093 E.93986
G1 X93.593 Y76.899 E.01126
G1 X116.407 Y76.899 E.93986
G1 X116.601 Y77.093 E.01126
M73 P11 R14
G1 X116.601 Y99.847 E.93739
M204 P1000
G1 X116.327 Y99.908 F9000
G1 X115.281 Y99.585
;TYPE:Solid infill
;WIDTH:0.451243
G1 F6000
G1 X115.907 Y98.96 E.03656
G1 X115.907 Y98.397 E.02324
G1 X114.897 Y99.407 E.05899
G1 X114.335 Y99.407 E.02324
G1 X115.907 Y97.835 E.09185
G1 X115.907 Y97.273 E.02324
G1 X113.773 Y99.407 E.12472
G1 X113.211 Y99.407 E.02324
G1 X115.907 Y96.711 E.15758
G1 X115.907 Y96.148 E.02324
G1 X112.648 Y99.407 E.19044
G1 X112.086 Y99.407 E.02324
G1 X115.907 Y95.586 E.2233
G1 X115.907 Y95.024 E.02324
G1 X111.524 Y99.407 E.25616
G1 X110.961 Y99.407 E.02324
G1 X115.907 Y94.461 E.28902
G1 X115.907 Y93.899 E.02324
G1 X110.399 Y99.407 E.32188
G1 X109.837 Y99.407 E.02324
G1 X115.907 Y93.337 E.35474
G1 X115.907 Y92.775 E.02324
G1 X109.275 Y99.407 E.3876
G1 X108.712 Y99.407 E.02324
G1 X115.907 Y92.212 E.42046
G1 X115.907 Y91.65 E.02324
G1 X108.15 Y99.407 E.45333
G1 X107.588 Y99.407 E.02324
G1 X115.907 Y91.088 E.48619
G1 X115.907 Y90.526 E.02324
G1 X107.026 Y99.407 E.51905
G1 X106.463 Y99.407 E.02324
G1 X115.907 Y89.963 E.55191
G1 X115.907 Y89.401 E.02324
G1 X105.901 Y99.407 E.58477
G1 X105.339 Y99.407 E.02324
G1 X115.907 Y88.839 E.61763
G1 X115.907 Y88.276 E.02324
G1 X104.776 Y99.407 E.65049
G1 X104.214 Y99.407 E.02324
G1 X115.907 Y87.714 E.68335
G1 X115.907 Y87.152 E.02324
G1 X103.652 Y99.407 E.71621
G1 X103.09 Y99.407 E.02324
G1 X115.907 Y86.59 E.74908
G1 X115.907 Y86.027 E.02324
G1 X102.527 Y99.407 E.78194
G1 X101.965 Y99.407 E.02324
G1 X115.907 Y85.465 E.8148
G1 X115.907 Y84.903 E.02324
G1 X101.403 Y99.407 E.84766
G1 X100.84 Y99.407 E.02324
G1 X115.907 Y84.34 E.88052
G1 X115.907 Y83.778 E.02324
G1 X100.278 Y99.407 E.91338
G1 X99.716 Y99.407 E.02324
G1 X115.907 Y83.216 E.94624
G1 X115.907 Y82.654 E.02324
G1 X99.154 Y99.407 E.9791
G1 X98.591 Y99.407 E.02324
G1 X115.907 Y82.091 E1.01196
G1 X115.907 Y81.529 E.02324
G1 X98.029 Y99.407 E1.04482
G1 X97.467 Y99.407 E.02324
G1 X115.907 Y80.967 E1.07769
G1 X115.907 Y80.404 E.02324
G1 X96.904 Y99.407 E1.11055
G1 X96.342 Y99.407 E.02324
G1 X115.907 Y79.842 E1.14341
G1 X115.907 Y79.28 E.02324
G1 X95.78 Y99.407 E1.17627
G1 X95.218 Y99.407 E.02324
M73 P12 R14
G1 X115.907 Y78.718 E1.20913
G1 X115.907 Y78.155 E.02324
G1 X94.655 Y99.407 E1.24199
G1 X94.093 Y99.407 E.02323
G1 X115.907 Y77.593 E1.27485
G1 X115.345 Y77.593 E.02324
G1 X94.093 Y98.845 E1.24198
G1 X94.093 Y98.282 E.02324
G1 X114.782 Y77.593 E1.20912
G1 X114.22 Y77.593 E.02324
G1 X94.093 Y97.72 E1.17626
G1 X94.093 Y97.158 E.02324
G1 X113.658 Y77.593 E1.1434
G1 X113.095 Y77.593 E.02324
G1 X94.093 Y96.595 E1.11054
G1 X94.093 Y96.033 E.02324
G1 X112.533 Y77.593 E1.07768
G1 X111.971 Y77.593 E.02324
G1 X94.093 Y95.471 E1.04482
G1 X94.093 Y94.909 E.02324
G1 X111.409 Y77.593 E1.01196
G1 X110.846 Y77.593 E.02324
G1 X94.093 Y94.346 E.9791
G1 X94.093 Y93.784 E.02324
G1 X110.284 Y77.593 E.94624
G1 X109.722 Y77.593 E.02324
G1 X94.093 Y93.222 E.91337
G1 X94.093 Y92.659 E.02324
G1 X109.159 Y77.593 E.88051
G1 X108.597 Y77.593 E.02324
G1 X94.093 Y92.097 E.84765
G1 X94.093 Y91.535 E.02324
G1 X108.035 Y77.593 E.81479
G1 X107.473 Y77.593 E.02324
G1 X94.093 Y90.973 E.78193
G1 X94.093 Y90.41 E.02324
G1 X106.91 Y77.593 E.74907
G1 X106.348 Y77.593 E.02324
G1 X94.093 Y89.848 E.71621
G1 X94.093 Y89.286 E.02324
G1 X105.786 Y77.593 E.68335
G1 X105.223 Y77.593 E.02324
G1 X94.093 Y88.723 E.65049
G1 X94.093 Y88.161 E.02324
G1 X104.661 Y77.593 E.61762
G1 X104.099 Y77.593 E.02324
G1 X94.093 Y87.599 E.58476
G1 X94.093 Y87.037 E.02324
G1 X103.537 Y77.593 E.5519
G1 X102.974 Y77.593 E.02324
G1 X94.093 Y86.474 E.51904
G1 X94.093 Y85.912 E.02324
G1 X102.412 Y77.593 E.48618
G1 X101.85 Y77.593 E.02324
G1 X94.093 Y85.35 E.45332
G1 X94.093 Y84.788 E.02324
G1 X101.288 Y77.593 E.42046
G1 X100.725 Y77.593 E.02324
G1 X94.093 Y84.225 E.3876
G1 X94.093 Y83.663 E.02324
G1 X100.163 Y77.593 E.35474
G1 X99.601 Y77.593 E.02324
M73 P13 R14
G1 X94.093 Y83.101 E.32188
G1 X94.093 Y82.538 E.02324
G1 X99.038 Y77.593 E.28901
G1 X98.476 Y77.593 E.02324
G1 X94.093 Y81.976 E.25615
G1 X94.093 Y81.414 E.02324
G1 X97.914 Y77.593 E.22329
G1 X97.352 Y77.593 E.02324
G1 X94.093 Y80.852 E.19043
G1 X94.093 Y80.289 E.02324
G1 X96.789 Y77.593 E.15757
G1 X96.227 Y77.593 E.02324
G1 X94.093 Y79.727 E.12471
G1 X94.093 Y79.165 E.02324
G1 X95.665 Y77.593 E.09185
G1 X95.102 Y77.593 E.02324
G1 X94.093 Y78.602 E.05899
G1 X94.093 Y78.04 E.02324
G1 X94.719 Y77.415 E.03655
; stop printing object box_with_hinge_both.stl_2 id:0 copy 0
M106 S170.85
;LAYER_CHANGE
;Z:0.7
;HEIGHT:0.25
;BEFORE_LAYER_CHANGE
G92 E0.0
;0.7


G1 E-2.24 F4200
;WIPE_START
G1 F7200
G1 X94.093 Y78.04 E-.49013
G1 X94.093 Y78.602 E-.3116
G1 X94.234 Y78.462 E-.11028
;WIPE_END
G1 E-.048 F4200
G1 Z.65 F720
G1 Z.7
;AFTER_LAYER_CHANGE
;0.7
G1 Z.9
G1 X90.245 Y78.462 F9000
G1 Z.7 F720
G1 E3.2 F2400
;TYPE:Skirt/Brim
;WIDTH:0.42
G1 X90.245 Y77 E.05568
G1 X91.052 Y75.052 E.08027
G1 X91.552 Y74.552 E.02692
G1 X93.5 Y73.745 E.08027
G1 X116.5 Y73.745 E.87582
G1 X118.448 Y74.552 E.08027
G1 X118.948 Y75.052 E.02692
G1 X119.755 Y77 E.08027
G1 X119.755 Y100 E.87582
G1 X118.948 Y101.948 E.08027
G1 X118.448 Y102.448 E.02692
G1 X116.5 Y103.255 E.08027
G1 X93.5 Y103.255 E.87582
G1 X91.552 Y102.448 E.08027
G1 X91.052 Y101.948 E.02692
G1 X90.245 Y100 E.08027
G1 X90.245 Y78.522 E.81786
G1 X90.622 Y78.522 F9000
G1 F2400
G1 X90.622 Y77 E.05796
G1 X91.319 Y75.319 E.06928
G1 X91.819 Y74.819 E.02692
G1 X93.5 Y74.122 E.06928
G1 X116.5 Y74.122 E.87582
G1 X118.181 Y74.819 E.06928
G1 X118.681 Y75.319 E.02692
G1 X119.378 Y77 E.06928
G1 X119.378 Y100 E.87582
G1 X118.681 Y101.681 E.06928
G1 X118.181 Y102.181 E.02692
G1 X116.5 Y102.878 E.06928
G1 X93.5 Y102.878 E.87582
G1 X91.819 Y102.181 E.06928
G1 X91.319 Y101.681 E.02692
G1 X90.622 Y100 E.06928
G1 X90.622 Y78.582 E.81558
; printing object box_with_hinge_both.stl_2 id:0 copy 0
G1 E-2.24 F4200
;WIPE_START
G1 F7200
G1 X90.622 Y76.999 E-.87681
G1 X90.647 Y76.941 E-.03519
;WIPE_END
G1 E-.048 F4200
G1 Z.9 F720
G1 X116.379 Y99.743 F9000
G1 Z.7 F720
G1 E3.2 F2400
M204 P800
;TYPE:Perimeter
;WIDTH:0.449999
G1 F3300
G1 X116.243 Y99.879 E.00792
G1 X93.757 Y99.879 E.92634
G1 X93.621 Y99.743 E.00792
