; generated by PrusaSlicer 2.5.0+win64 on 2023-02-10 at 23:40:06 UTC


;
;

;
;
; 

; external perimeters extrusion width = 0.45mm
; perimeters extrusion width = 0.45mm
; infill extrusion width = 0.45mm
; solid infill extrusion width = 0.45mm
; top infill extrusion width = 0.40mm
; support material extrusion width = 0.35mm
; first layer extrusion width = 0.42mm

; external perimeters extrusion width = 0.45mm
; perimeters extrusion width = 0.45mm
; infill extrusion width = 0.45mm
; solid infill extrusion width = 0.45mm
; top infill extrusion width = 0.40mm
; support material extrusion width = 0.35mm
; first layer extrusion width = 0.42mm

M73 P0 R7
M201 X2500 Y2500 Z400 E5000 ; sets maximum accelerations, mm/sec^2
M203 X180 Y180 Z12 E80 ; sets maximum feedrates, mm / sec
M204 P1250 R1250 T2500 ; sets acceleration (P, T) and retract acceleration (R), mm/sec^2
M205 X8.00 Y8.00 Z2.00 E10.00 ; sets the jerk limits, mm/sec
M205 S0 T0 ; sets the minimum extruding and travel feed rate, mm/sec
M107
;TYPE:Custom
M862.3 P "MINI" ; printer model check
G90 ; use absolute coordinates
M83 ; extruder relative mode
M104 S170 ; set extruder temp for bed leveling
M140 S60 ; set bed temp
M109 R170 ; wait for bed leveling temp
M190 S60 ; wait for bed temp
M204 T1250 ; set travel acceleration
G28 ; home all without mesh bed level
G29 ; mesh bed leveling 
M204 T2500 ; restore travel acceleration
M104 S215 ; set extruder temp
G92 E0
G1 Y-2 X179 F2400
G1 Z3 F720
M109 S215 ; wait for extruder temp

; intro line
G1 X170 F1000
M73 P1 R7
G1 Z0.2 F720
G1 X110 E8 F900
G1 X40 E10 F700
G92 E0

M221 S95 ; set flow
G21 ; set units to millimeters
G90 ; use absolute coordinates
M83 ; use relative distances for extrusion
M900 K0.2 ; Filament gcode LA 1.5
; ; Filament gcode LA 1.0
M107
;LAYER_CHANGE
;Z:0.2
;HEIGHT:0.2
;BEFORE_LAYER_CHANGE
G92 E0.0
;0.2


M73 P2 R7
G1 E-3.2 F4200
M73 P3 R7
G1 Z.2 F720
;AFTER_LAYER_CHANGE
;0.2
G1 Z.4
G1 X91.692 Y70.4 F9000
G1 Z.2 F720
G1 E3.2 F2400
M204 P800
;TYPE:Skirt/Brim
;WIDTH:0.42
G1 F1200
G1 X92.284 Y69.708 E.02855
G1 X92.876 Y69.287 E.02277
G1 X93.399 Y69.051 E.01799
G1 X94.235 Y68.869 E.02682
G1 X105.438 Y68.855 E.35127
G1 X106.038 Y68.903 E.01888
G1 X132.449 Y73.554 E.84083
G1 X133.754 Y74.026 E.04352
G1 X134.555 Y74.524 E.02956
G1 X135.003 Y74.966 E.01976
G1 X135.334 Y75.429 E.01783
G1 X135.744 Y76.469 E.03505
G1 X137.044 Y85.752 E.2939
G1 X136.771 Y88.293 E.08011
M73 P4 R7
G1 X136.291 Y90.551 E.07238
G1 X135.883 Y91.81 E.0415
G1 X135.023 Y93.003 E.04612
G1 X133.299 Y93.61 E.0573
G1 X121.151 Y93.599 E.38089
G1 X93.028 Y91.14 E.88514
G1 X92.172 Y90.938 E.02758
G1 X91.563 Y90.617 E.0216
G1 X90.825 Y89.893 E.03242
G1 X90.472 Y89.232 E.02348
G1 X90.354 Y88.837 E.01293
G1 X90.283 Y88.203 E.02001
G1 X90.283 Y85.308 E.09075
G1 X90.57 Y75.574 E.30535
G1 X91.235 Y71.508 E.12917
G1 X91.392 Y70.988 E.01701
G1 X91.665 Y70.454 E.01883
M204 P1000
G1 X92.011 Y70.602 F9000
M204 P800
G1 F1200
G1 X92.533 Y69.992 E.02515
G1 X93.056 Y69.619 E.02016
G1 X93.53 Y69.404 E.01629
G1 X94.263 Y69.245 E.02353
G1 X105.438 Y69.232 E.35038
G1 X132.334 Y73.916 E.85601
M73 P5 R7
G1 X133.574 Y74.358 E.04127
G1 X134.262 Y74.772 E.02517
G1 X134.973 Y75.562 E.03333
G1 X135.376 Y76.55 E.03343
G1 X136.666 Y85.748 E.29123
G1 X136.399 Y88.234 E.07842
G1 X135.927 Y90.449 E.07098
G1 X135.529 Y91.679 E.04055
G1 X134.709 Y92.769 E.04278
G1 X133.299 Y93.232 E.04652
G1 X121.184 Y93.223 E.37986
G1 X93.061 Y90.765 E.88514
G1 X92.287 Y90.578 E.02496
G1 X91.544 Y90.128 E.02724
G1 X90.971 Y89.416 E.02865
G1 X90.718 Y88.733 E.02284
M73 P6 R7
G1 X90.661 Y85.246 E.10935
G1 X90.946 Y75.607 E.30235
G1 X91.599 Y71.608 E.12704
G1 X91.989 Y70.657 E.03224
M204 P1000
; printing object Buckle Side 2 (Updated).stl id:0 copy 0
G1 E-2.24 F4200
;WIPE_START
G1 F7200
G1 X92.533 Y69.992 E-.47613
G1 X93.056 Y69.619 E-.35635
G1 X93.187 Y69.56 E-.07952
;WIPE_END
G1 E-.048 F4200
G1 Z.4 F720
G1 X95.57 Y77.009 F9000
G1 Z.2 F720
G1 E3.2 F2400
M204 P800
;TYPE:Perimeter
;WIDTH:0.419999
G1 F1200
G1 X104.416 Y77.019 E.27736
G1 X103.725 Y77.821 E.03318
G1 X103.186 Y78.728 E.03309
G1 X102.84 Y79.629 E.03026
G1 X102.652 Y80.582 E.03046
G1 X102.61 Y81.086 E.01585
G1 X102.617 Y82.705 E.05077
G1 X102.708 Y83.231 E.01673
G1 X102.922 Y83.781 E.01852
G1 X103.238 Y84.266 E.01814
G1 X103.644 Y84.675 E.01808
G1 X104.29 Y85.086 E.024
G1 X105.77 Y85.707 E.05032
G1 X105.77 Y87.613 E.05976
G1 X94.23 Y87.613 E.36182
G1 X94.23 Y85.707 E.05976
G1 X95.802 Y85.038 E.05355
G1 X96.457 Y84.59 E.02489
G1 X96.831 Y84.177 E.01745
G1 X97.129 Y83.676 E.01829
G1 X97.32 Y83.121 E.0184
G1 X97.389 Y82.621 E.01582
G1 X97.382 Y81.001 E.05081
G1 X97.305 Y80.305 E.02195
G1 X97.168 Y79.657 E.02075
G1 X96.864 Y78.831 E.02762
G1 X96.497 Y78.148 E.02432
G1 X96.042 Y77.518 E.02435
G1 X95.611 Y77.053 E.01989
M204 P1000
G1 X94.626 Y76.126 F9000
M204 P800
;TYPE:External perimeter
;WIDTH:0.449069
G1 F1200
G1 X94.877 Y76.381 E.01209
;WIDTH:0.427404
G1 X95.207 Y76.557 E.01195
;WIDTH:0.421318
G1 X95.639 Y76.636 E.01381
;WIDTH:0.419999
G1 X104.332 Y76.64 E.27258
;WIDTH:0.422617
G1 X104.806 Y76.568 E.01515
;WIDTH:0.435467
G1 X105.029 Y76.467 E.00799
;WIDTH:0.477845
G1 X105.426 Y76.15 E.01834
G1 X105.576 Y75.8 E.0138
;WIDTH:0.439459
G1 X105.631 Y75.246 E.01836
;WIDTH:0.40569
G1 X105.607 Y74.68 E.01706
;WIDTH:0.410038
G1 X105.629 Y74.614 E.00214
;WIDTH:0.45441
G1 X105.65 Y74.547 E.0024
;WIDTH:0.498783
G1 X105.672 Y74.481 E.00266
;WIDTH:0.543155
G1 X105.694 Y74.414 E.00292
;WIDTH:0.587528
G1 X105.715 Y74.347 E.00317
;WIDTH:0.6319
G1 X105.737 Y74.281 E.00343
G1 X105.769 Y74.343 E.00343
;WIDTH:0.587528
G1 X105.801 Y74.406 E.00317
;WIDTH:0.543155
G1 X105.832 Y74.468 E.00292
;WIDTH:0.498783
G1 X105.864 Y74.53 E.00266
;WIDTH:0.45441
G1 X105.896 Y74.593 E.0024
;WIDTH:0.410038
G1 X105.928 Y74.655 E.00214
;WIDTH:0.395374
G1 X105.966 Y75.011 E.01049
;WIDTH:0.425083
G1 X106.004 Y75.367 E.01137
;WIDTH:0.442023
G1 X105.966 Y75.881 E.01712
;WIDTH:0.487999
G1 X105.867 Y76.284 E.01535
G1 X105.626 Y76.524 E.01259
;WIDTH:0.454851
G1 X105.109 Y76.921 E.02232
;WIDTH:0.42769
G1 X104.644 Y77.324 E.01969
;WIDTH:0.419999
G1 X104.049 Y78.014 E.02854
G1 X103.51 Y78.921 E.03309
G1 X103.208 Y79.71 E.02649
M73 P7 R7
G1 X103.039 Y80.487 E.02492
G1 X102.987 Y81.086 E.01886
G1 X102.988 Y82.621 E.04812
G1 X103.053 Y83.065 E.01407
G1 X103.225 Y83.547 E.01605
G1 X103.489 Y83.978 E.01585
G1 X103.851 Y84.36 E.01649
G1 X104.436 Y84.739 E.02184
G1 X106.147 Y85.456 E.05818
G1 X106.147 Y86.468 E.03173
G1 X106.147 Y87.99 E.04772
G1 X93.853 Y87.99 E.38547
G1 X93.853 Y85.456 E.07944
G1 X95.595 Y84.723 E.05925
G1 X96.149 Y84.36 E.02077
G1 X96.488 Y84.007 E.01533
G1 X96.758 Y83.582 E.0158
G1 X96.938 Y83.101 E.01608
G1 X97.012 Y82.621 E.01525
G1 X97.006 Y81.029 E.04992
G1 X96.935 Y80.379 E.02047
G1 X96.813 Y79.785 E.01901
G1 X96.531 Y79.007 E.02596
G1 X96.189 Y78.366 E.02277
G1 X95.765 Y77.773 E.02286
G1 X95.299 Y77.273 E.02143
;WIDTH:0.42984
G1 X94.683 Y76.721 E.02661
;WIDTH:0.437135
G1 X94.289 Y76.352 E.01772
;WIDTH:0.461068
G1 X94.09 Y76.095 E.01129
G1 X94.022 Y75.765 E.01173
;WIDTH:0.435102
G1 X94.006 Y75.213 E.01799
;WIDTH:0.408159
G1 X94.065 Y74.712 E.01533
;WIDTH:0.41119
G1 X94.096 Y74.65 E.00214
;WIDTH:0.45488
G1 X94.128 Y74.587 E.0024
;WIDTH:0.498571
G1 X94.16 Y74.525 E.00265
;WIDTH:0.542261
G1 X94.192 Y74.463 E.0029
;WIDTH:0.585952
G1 X94.224 Y74.401 E.00316
;WIDTH:0.629642
G1 X94.256 Y74.338 E.00341
G1 X94.278 Y74.405 E.00341
;WIDTH:0.585952
G1 X94.3 Y74.471 E.00316
;WIDTH:0.542261
G1 X94.322 Y74.538 E.0029
;WIDTH:0.498571
G1 X94.343 Y74.604 E.00265
;WIDTH:0.45488
G1 X94.365 Y74.671 E.0024
;WIDTH:0.41119
G1 X94.387 Y74.737 E.00214
;WIDTH:0.408159
G1 X94.368 Y75.221 E.01471
;WIDTH:0.435102
G1 X94.413 Y75.737 E.01686
;WIDTH:0.449069
G1 X94.525 Y76.023 E.0104
G1 X94.584 Y76.083 E.00283
M204 P1000
G1 X94.499 Y76.461 F9000
G1 E-2.24 F4200
;WIPE_START
G1 F7200
G1 X94.877 Y76.381 E-.23159
G1 X95.207 Y76.557 E-.20709
G1 X95.639 Y76.636 E-.24321
G1 X96.054 Y76.636 E-.23011
;WIPE_END
G1 E-.048 F4200
G1 Z.4 F720
G1 X105.685 Y73.779 F9000
G1 Z.2 F720
G1 E3.2 F2400
M204 P800
;WIDTH:0.6319
G1 F1200
G1 X105.737 Y74.281 E.02469
M204 P1000
G1 E-2.24 F4200
;WIPE_START
G1 F7200
G1 X105.685 Y73.779 E-.27933
;WIPE_END
G1 E-.68067 F4200
G1 Z.4 F720
G1 X94.467 Y73.466 F9000
G1 Z.2 F720
G1 E3.2 F2400
M204 P800
;WIDTH:0.592709
G1 F1200
G1 X94.33 Y73.721 E.01324
;WIDTH:0.595247
G1 X94.435 Y73.154 E.02648
G1 X94.722 Y72.504 E.03263
G1 X95.131 Y72.488 E.01881
;WIDTH:0.56244
G1 X95.677 Y72.47 E.02359
;WIDTH:0.528791
G1 X97.117 Y72.464 E.05816
;WIDTH:0.518903
G1 X97.124 Y72.464 E.00029
;WIDTH:0.523659
G1 X103.835 Y72.459 E.26827
;WIDTH:0.523844
G1 X103.853 Y72.459 E.00073
;WIDTH:0.535785
G1 X104.388 Y72.465 E.02191
;WIDTH:0.566698
G1 X104.833 Y72.48 E.01943
;WIDTH:0.597611
G1 X105.279 Y72.495 E.02057
G1 X105.56 Y73.155 E.03308
G1 X105.685 Y73.779 E.02937
;WIDTH:0.595381
G1 X105.552 Y73.492 E.01453
;WIDTH:0.597611
G1 X105.161 Y73.111 E.0252
G1 X104.904 Y73.016 E.01262
;WIDTH:0.576836
G1 X104.352 Y72.955 E.02466
;WIDTH:0.535785
G1 X103.835 Y72.94 E.02119
;WIDTH:0.523659
G1 X97.124 Y72.94 E.26827
;WIDTH:0.518903
G1 X97.12 Y72.94 E.00014
;WIDTH:0.528791
G1 X95.681 Y72.956 E.05816
;WIDTH:0.56244
G1 X95.165 Y73.005 E.02237
;WIDTH:0.595247
G1 X94.905 Y73.077 E.01241
G1 X94.512 Y73.426 E.02414
M204 P1000
G1 X94.18 Y73.427 F9000
G1 X94.256 Y74.338
M204 P800
;WIDTH:0.629642
G1 F1200
G1 X94.284 Y74.069 E.01323
;WIDTH:0.601321
G1 X94.312 Y73.799 E.01259
;WIDTH:0.58403
G1 X94.33 Y73.721 E.00359
M204 P1000
G1 E-2.24 F4200
;WIPE_START
G1 F7200
G1 X94.312 Y73.799 E-.04423
G1 X94.284 Y74.069 E-.1503
G1 X94.256 Y74.338 E-.1503
;WIPE_END
G1 E-.61518 F4200
G1 Z.4 F720
G1 X103.821 Y77.534 F9000
G1 Z.2 F720
M73 P8 R7
G1 E3.2 F2400
M204 P800
;TYPE:Solid infill
;WIDTH:0.42034
G1 F1200
G1 X103.587 Y77.3 E.01039
G1 X103.053 Y77.3 E.01676
G1 X103.463 Y77.709 E.01817
G1 X103.264 Y78.044 E.01222
G1 X102.519 Y77.299 E.03303
G1 X101.985 Y77.299 E.01676
G1 X103.065 Y78.378 E.0479
G1 X102.939 Y78.59 E.00774
G1 X102.884 Y78.732 E.00475
G1 X101.451 Y77.299 E.06359
G1 X100.917 Y77.299 E.01676
G1 X102.736 Y79.117 E.08071
G1 X102.588 Y79.503 E.01296
G1 X100.383 Y77.298 E.09784
G1 X99.849 Y77.298 E.01676
G1 X102.484 Y79.933 E.11692
G1 X102.389 Y80.372 E.0141
G1 X99.315 Y77.298 E.13643
G1 X98.781 Y77.298 E.01676
G1 X102.345 Y80.861 E.15815
G1 X102.328 Y81.378 E.01625
G1 X98.247 Y77.297 E.18112
G1 X97.713 Y77.297 E.01676
G1 X102.328 Y81.912 E.20482
G1 X102.328 Y82.446 E.01675
G1 X97.18 Y77.297 E.22851
G1 X96.646 Y77.297 E.01676
G1 X102.612 Y83.263 E.2648
M204 P1000
G1 E-2.24 F4200
;WIPE_START
G1 F7200
G1 X101.448 Y82.099 E-.912
;WIPE_END
G1 E-.048 F4200
G1 Z.4 F720
G1 X104.752 Y85.403 F9000
G1 Z.2 F720
G1 E3.2 F2400
M204 P800
G1 F1200
G1 X105.487 Y86.138 E.03263
G1 X105.487 Y86.672 E.01675
G1 X104.136 Y85.321 E.05997
G1 X103.485 Y84.909 E.02415
G1 X103.34 Y84.787 E.00595
G1 X102.934 Y84.334 E.01911
G1 X102.621 Y83.805 E.01927
G1 X96.536 Y77.721 E.27003
G1 X96.783 Y78.074 E.01351
G1 X97.16 Y78.802 E.02574
G1 X97.202 Y78.92 E.00392
G1 X105.487 Y87.206 E.36772
G1 X105.487 Y87.33 E.00391
M73 P9 R7
G1 X105.078 Y87.33 E.01284
G1 X97.477 Y79.729 E.33733
G1 X97.609 Y80.395 E.02129
G1 X104.544 Y87.33 E.3078
G1 X104.01 Y87.33 E.01675
G1 X97.664 Y80.983 E.28168
G1 X97.673 Y81.527 E.01706
G1 X103.476 Y87.33 E.25755
G1 X102.943 Y87.33 E.01675
G1 X97.673 Y82.06 E.2339
G1 X97.672 Y82.593 E.01673
G1 X102.409 Y87.33 E.21024
G1 X101.875 Y87.33 E.01675
G1 X97.612 Y83.067 E.18919
G1 X97.598 Y83.171 E.00328
G1 X97.493 Y83.482 E.0103
G1 X101.341 Y87.33 E.17079
G1 X100.808 Y87.33 E.01675
G1 X97.348 Y83.87 E.15356
G1 X97.148 Y84.204 E.01221
G1 X100.274 Y87.33 E.13875
G1 X99.74 Y87.33 E.01675
G1 X96.914 Y84.504 E.12543
G1 X96.662 Y84.785 E.01186
G1 X99.206 Y87.33 E.11295
G1 X98.673 Y87.33 E.01675
M73 P10 R7
G1 X96.353 Y85.011 E.10293
G1 X96.027 Y85.218 E.01214
G1 X98.139 Y87.33 E.09375
G1 X97.605 Y87.33 E.01675
G1 X95.681 Y85.406 E.08542
G1 X95.305 Y85.563 E.0128
G1 X97.071 Y87.33 E.07842
G1 X96.538 Y87.33 E.01675
G1 X94.929 Y85.721 E.07142
G1 X94.552 Y85.879 E.0128
G1 X96.004 Y87.33 E.06442
G1 X95.47 Y87.33 E.01675
G1 X94.513 Y86.373 E.04248
G1 X94.513 Y86.907 E.01675
G1 X95.106 Y87.5 E.02632
M204 P1000
; stop printing object Buckle Side 2 (Updated).stl id:0 copy 0
; printing object Buckle Side 1 (Updated).stl id:1 copy 0
G1 E-2.24 F4200
;WIPE_START
G1 F7200
G1 X94.513 Y86.907 E-.46483
G1 X94.513 Y86.373 E-.29575
G1 X94.706 Y86.566 E-.15142
;WIPE_END
G1 E-.048 F4200
G1 Z.4 F720
G1 X132.803 Y86.236 F9000
G1 Z.2 F720
G1 E3.2 F2400
M204 P800
;TYPE:External perimeter
;WIDTH:0.540683
G1 F1200
G1 X132.892 Y86.027 E.00937
G1 X133.071 Y85.934 E.00833
;WIDTH:0.541854
G1 X133.598 Y85.928 E.02188
G1 X133.549 Y86.43 E.02094
G1 X132.8 Y86.431 E.0311
;WIDTH:0.540683
G1 X132.802 Y86.296 E.0056
M204 P1000
G1 E-2.24 F4200
;WIPE_START
G1 F7200
G1 X132.892 Y86.027 E-.15684
G1 X133.071 Y85.934 E-.11149
G1 X133.598 Y85.928 E-.29227
G1 X133.549 Y86.43 E-.2797
G1 X133.42 Y86.431 E-.07171
;WIPE_END
G1 E-.048 F4200
G1 Z.4 F720
G1 X121.891 Y86.245 F9000
G1 Z.2 F720
G1 E3.2 F2400
M204 P800
;WIDTH:0.544103
G1 F1200
G1 X121.892 Y86.429 E.00769
G1 X121.14 Y86.429 E.03132
G1 X121.088 Y85.929 E.02098
G1 X121.366 Y85.928 E.01157
G1 X121.691 Y85.965 E.01361
G1 X121.818 Y86.06 E.00664
G1 X121.869 Y86.189 E.00576
M204 P1000
G1 X121.754 Y86.369 F9000
G1 E-2.24 F4200
;WIPE_START
G1 F7200
G1 X121.892 Y86.429 E-.13378
G1 X121.14 Y86.429 E-.41651
G1 X121.088 Y85.929 E-.27903
G1 X121.238 Y85.928 E-.08268
;WIPE_END
G1 E-.048 F4200
G1 Z.4 F720
G1 X122.788 Y77.621 F9000
G1 Z.2 F720
M73 P10 R6
G1 E3.2 F2400
M204 P800
;WIDTH:0.563162
G1 F1200
G1 X122.342 Y77.629 E.01927
G1 X122.329 Y77.144 E.02099
;WIDTH:0.558981
G1 X122.38 Y77.032 E.00526
G1 X122.822 Y76.817 E.02109
G1 X122.842 Y76.878 E.00276
G1 X122.842 Y77.211 E.0143
;WIDTH:0.563162
G1 X122.796 Y77.562 E.01529
M204 P1000
G1 E-2.24 F4200
;WIPE_START
G1 F7200
G1 X122.342 Y77.629 E-.254
G1 X122.329 Y77.144 E-.26892
G1 X122.38 Y77.032 E-.06795
G1 X122.822 Y76.817 E-.27239
G1 X122.842 Y76.878 E-.03563
G1 X122.842 Y76.902 E-.01311
;WIPE_END
G1 E-.048 F4200
G1 Z.4 F720
G1 X131.871 Y76.833 F9000
G1 Z.2 F720
G1 E3.2 F2400
M204 P800
;WIDTH:0.564231
G1 F1200
G1 X132.206 Y76.979 E.01581
G1 X132.356 Y77.088 E.00806
G1 X132.36 Y77.166 E.00341
G1 X132.372 Y77.362 E.00851
;WIDTH:0.559639
G1 X132.348 Y77.634 E.0117
G1 X131.884 Y77.634 E.01996
G1 X131.858 Y77.404 E.00991
;WIDTH:0.564231
G1 X131.87 Y76.893 E.02218
M204 P1000
; stop printing object Buckle Side 1 (Updated).stl id:1 copy 0
M106 S84.15
;LAYER_CHANGE
;Z:0.4
;HEIGHT:0.2
;BEFORE_LAYER_CHANGE
G92 E0.0
;0.4


G1 E-2.24 F4200
;WIPE_START
G1 F7200
G1 X132.206 Y76.979 E-.19212
G1 X132.356 Y77.088 E-.1031
G1 X132.36 Y77.166 E-.04357
G1 X132.372 Y77.362 E-.10886
G1 X132.348 Y77.634 E-.15093
G1 X131.884 Y77.634 E-.25739
G1 X131.872 Y77.533 E-.05604
;WIPE_END
G1 E-.048 F4200
G1 Z.4 F720
;AFTER_LAYER_CHANGE
;0.4
G1 Z.6
G1 X133.211 Y73.83 F9000
G1 Z.4 F720
G1 E3.2 F2400
;TYPE:Skirt/Brim
;WIDTH:0.42
G1 X133.754 Y74.026 E.01812
G1 X134.555 Y74.524 E.02956
G1 X135.003 Y74.966 E.01976
G1 X135.334 Y75.429 E.01783
G1 X135.744 Y76.469 E.03505
G1 X137.044 Y85.752 E.2939
G1 X136.771 Y88.293 E.08011
G1 X136.291 Y90.551 E.07238
M73 P11 R6
G1 X135.883 Y91.81 E.0415
G1 X135.023 Y93.003 E.04612
G1 X133.299 Y93.61 E.0573
G1 X121.151 Y93.599 E.38089
G1 X93.028 Y91.14 E.88514
G1 X92.172 Y90.938 E.02758
G1 X91.563 Y90.617 E.0216
G1 X90.825 Y89.893 E.03242
G1 X90.472 Y89.232 E.02348
G1 X90.354 Y88.837 E.01293
G1 X90.283 Y88.203 E.02001
G1 X90.283 Y85.308 E.09075
G1 X90.57 Y75.574 E.30535
G1 X91.235 Y71.508 E.12917
G1 X91.392 Y70.988 E.01701
G1 X91.692 Y70.4 E.02071
G1 X92.284 Y69.708 E.02855
G1 X92.876 Y69.287 E.02277
G1 X93.399 Y69.051 E.01799
G1 X94.235 Y68.869 E.02682
G1 X105.438 Y68.855 E.35127
G1 X106.038 Y68.903 E.01888
G1 X132.449 Y73.554 E.84083
G1 X133.154 Y73.809 E.02352
G1 X133.028 Y74.164 F9000
G1 F2400
G1 X133.574 Y74.358 E.01818
G1 X134.262 Y74.772 E.02517
G1 X134.973 Y75.562 E.03333
G1 X135.376 Y76.55 E.03343
