; generated by PrusaSlicer 2.5.0+win64 on 2023-02-11 at 04:14:05 UTC


;
;

;
;
; 

; external perimeters extrusion width = 0.45mm
; perimeters extrusion width = 0.45mm
; infill extrusion width = 0.45mm
; solid infill extrusion width = 0.45mm
; top infill extrusion width = 0.40mm
; support material extrusion width = 0.35mm
; first layer extrusion width = 0.42mm

M73 P0 R7
M201 X2500 Y2500 Z400 E5000 ; sets maximum accelerations, mm/sec^2
M203 X180 Y180 Z12 E80 ; sets maximum feedrates, mm / sec
M204 P1250 R1250 T2500 ; sets acceleration (P, T) and retract acceleration (R), mm/sec^2
M205 X8.00 Y8.00 Z2.00 E10.00 ; sets the jerk limits, mm/sec
M205 S0 T0 ; sets the minimum extruding and travel feed rate, mm/sec
M107
;TYPE:Custom
M862.3 P "MINI" ; printer model check
G90 ; use absolute coordinates
M83 ; extruder relative mode
M104 S170 ; set extruder temp for bed leveling
M140 S60 ; set bed temp
M109 R170 ; wait for bed leveling temp
M190 S60 ; wait for bed temp
M204 T1250 ; set travel acceleration
G28 ; home all without mesh bed level
G29 ; mesh bed leveling 
M204 T2500 ; restore travel acceleration
M104 S215 ; set extruder temp
G92 E0
G1 Y-2 X179 F2400
G1 Z3 F720
M109 S215 ; wait for extruder temp

; intro line
G1 X170 F1000
M73 P1 R7
G1 Z0.2 F720
G1 X110 E8 F900
G1 X40 E10 F700
G92 E0

M221 S95 ; set flow
G21 ; set units to millimeters
G90 ; use absolute coordinates
M83 ; use relative distances for extrusion
M900 K0.2 ; Filament gcode LA 1.5
; ; Filament gcode LA 1.0
M107
;LAYER_CHANGE
;Z:0.2
;HEIGHT:0.2
;BEFORE_LAYER_CHANGE
G92 E0.0
;0.2


M73 P2 R7
G1 E-3.2 F4200
M73 P3 R7
G1 Z.2 F720
;AFTER_LAYER_CHANGE
;0.2
G1 Z.4
G1 X90.014 Y73.385 F9000
G1 Z.2 F720
G1 E3.2 F2400
M204 P800
;TYPE:Skirt/Brim
;WIDTH:0.42
G1 F1200
G1 X91.327 Y72.256 E.05431
G1 X96.905 Y69.96 E.18912
G1 X97.887 Y69.753 E.03148
G1 X99.748 Y69.731 E.05834
G1 X100.667 Y69.959 E.02969
G1 X106.234 Y72.257 E.18884
G1 X107.131 Y72.855 E.0338
G1 X109.438 Y75.162 E.1023
G1 X110.245 Y77.11 E.06609
G1 X110.245 Y87.611 E.32925
G1 X109.852 Y89.028 E.04612
G1 X108.786 Y90.041 E.04612
G1 X107.892 Y90.335 E.02951
G1 X101.496 Y91.276 E.20271
G1 X97.777 Y91.345 E.11662
M73 P4 R7
G1 X93.914 Y90.255 E.12583
G1 X92.735 Y89.558 E.04296
G1 X90.428 Y87.251 E.1023
G1 X89.621 Y85.304 E.06609
G1 X89.621 Y74.802 E.32925
G1 X89.998 Y73.443 E.04424
M204 P1000
G1 X90.372 Y73.555 F9000
M204 P800
G1 F1200
G1 X90.39 Y73.495 E.00195
G1 X91.471 Y72.604 E.04392
G1 X97.048 Y70.309 E.18912
G1 X97.896 Y70.13 E.02717
G1 X99.709 Y70.106 E.05683
G1 X100.523 Y70.308 E.0263
G1 X106.09 Y72.605 E.18884
G1 X106.864 Y73.122 E.02918
G1 X109.172 Y75.429 E.1023
G1 X109.868 Y77.11 E.05704
G1 X109.868 Y87.611 E.32925
G1 X109.476 Y88.918 E.04278
G1 X107.837 Y89.962 E.06095
G1 X101.33 Y90.913 E.20619
G1 X98.23 Y90.999 E.09725
G1 X97.465 Y90.894 E.02419
G1 X94.02 Y89.893 E.11251
G1 X93.002 Y89.291 E.03708
G1 X90.695 Y86.984 E.1023
G1 X89.998 Y85.304 E.05704
G1 X89.998 Y74.802 E.32925
G1 X90.355 Y73.612 E.03895
M204 P1000
; printing object Buckle Side 2 (Updated).stl id:0 copy 0
M73 P5 R7
G1 E-2.24 F4200
;WIPE_START
G1 F7200
G1 X90.39 Y73.495 E-.06768
G1 X91.471 Y72.604 E-.77624
G1 X91.584 Y72.558 E-.06808
;WIPE_END
G1 E-.048 F4200
G1 Z.4 F720
G1 X97.862 Y74.823 F9000
G1 Z.2 F720
G1 E3.2 F2400
M204 P800
;TYPE:Support material
G1 F1200
G1 X97.749 Y74.884 E.00404
G1 X97.659 Y74.965 E.00381
G1 X97.548 Y75.181 E.00761
G1 X97.496 Y75.519 E.01072
G1 X97.448 Y76.375 E.02688
G1 X97.493 Y76.708 E.01051
G1 X97.603 Y77.022 E.01044
G1 X97.679 Y77.129 E.00412
G1 X97.77 Y77.211 E.00385
G1 X97.977 Y77.302 E.00707
G1 X100.756 Y77.233 E.08717
G1 X100.989 Y77.177 E.0075
G1 X101.18 Y77.054 E.00715
G1 X101.336 Y76.861 E.00776
G1 X101.424 Y76.644 E.00736
G1 X101.456 Y76.368 E.00871
G1 X101.415 Y76.075 E.00928
G1 X101.225 Y75.584 E.0165
G1 X101.063 Y75.256 E.01148
G1 X100.944 Y75.07 E.00692
G1 X100.784 Y74.893 E.00747
G1 X100.622 Y74.802 E.00582
G1 X105.184 Y74.802 E.14302
G1 X105.184 Y77.11 E.07234
G1 X107.491 Y77.11 E.07234
G1 X107.491 Y87.611 E.32925
G1 X101.351 Y87.611 E.19249
G1 X101.483 Y86.957 E.02092
G1 X101.616 Y86.157 E.0254
G1 X101.705 Y85.489 E.02116
G1 X101.692 Y85.284 E.00642
G1 X101.59 Y85.046 E.00812
G1 X101.489 Y84.924 E.00499
G1 X101.372 Y84.831 E.00467
G1 X101.103 Y84.711 E.00923
G1 X100.736 Y84.663 E.01162
G1 X98.258 Y84.726 E.07772
G1 X98.094 Y84.766 E.00527
G1 X97.94 Y84.864 E.00572
G1 X97.848 Y84.972 E.00447
G1 X97.781 Y85.1 E.00452
G1 X97.722 Y85.281 E.00598
G1 X97.695 Y85.45 E.00537
G1 X97.801 Y87.61 E.06781
G1 X94.683 Y87.611 E.09778
G1 X94.683 Y85.304 E.07234
G1 X92.376 Y85.304 E.07234
G1 X92.376 Y74.802 E.32925
G1 X97.942 Y74.802 E.17455
G1 X97.917 Y74.809 E.00082
M204 P1000
G1 E-2.24 F4200
;WIPE_START
G1 F7200
G1 X97.942 Y74.802 E-.01446
G1 X96.323 Y74.802 E-.89754
;WIPE_END
G1 E-.048 F4200
G1 Z.4 F720
G1 X107.056 Y87.441 F9000
G1 Z.2 F720
M73 P6 R7
G1 E3.2 F2400
M204 P800
G1 F1200
G1 X107.056 Y77.449 E.31329
G1 X106.637 Y77.449 E.01314
G1 X106.637 Y87.271 E.30797
G1 X106.218 Y87.271 E.01314
G1 X106.218 Y77.449 E.30797
G1 X105.799 Y77.449 E.01314
G1 X105.799 Y87.271 E.30797
G1 X105.38 Y87.271 E.01314
G1 X105.38 Y77.449 E.30797
G1 X104.961 Y77.449 E.01314
G1 X104.961 Y87.271 E.30797
G1 X104.542 Y87.271 E.01314
G1 X104.542 Y75.142 E.38031
G1 X104.123 Y75.142 E.01314
G1 X104.123 Y87.271 E.38031
G1 X103.704 Y87.271 E.01314
M73 P7 R7
G1 X103.704 Y75.142 E.38031
G1 X103.285 Y75.142 E.01314
G1 X103.285 Y87.271 E.38031
G1 X102.866 Y87.271 E.01314
G1 X102.866 Y75.142 E.38031
G1 X102.447 Y75.142 E.01314
G1 X102.447 Y87.271 E.38031
G1 X102.028 Y87.271 E.01314
G1 X102.028 Y75.142 E.38031
G1 X101.609 Y75.142 E.01314
G1 X101.609 Y75.621 E.01501
G1 X101.745 Y75.994 E.01247
G1 X101.796 Y76.393 E.01259
G1 X101.781 Y76.585 E.00607
G1 X101.741 Y76.772 E.00597
G1 X101.609 Y77.064 E.01006
G1 X101.609 Y84.583 E.23574
G1 X101.428 Y84.473 E.00663
G1 X101.19 Y84.383 E.00799
G1 X101.19 Y77.458 E.21713
G1 X100.999 Y77.535 E.00647
G1 X100.771 Y77.572 E.00724
G1 X100.771 Y84.324 E.21168
G1 X100.352 Y84.332 E.01314
G1 X100.352 Y77.586 E.21153
G1 X99.933 Y77.598 E.01314
M73 P8 R7
G1 X99.933 Y84.343 E.21149
G1 X99.514 Y84.353 E.01314
G1 X99.514 Y77.61 E.21144
G1 X99.095 Y77.622 E.01314
G1 X99.095 Y84.364 E.2114
G1 X98.676 Y84.375 E.01314
G1 X98.676 Y77.634 E.21136
G1 X98.257 Y77.646 E.01314
G1 X98.257 Y84.386 E.21134
G1 X98.023 Y84.43 E.00746
G1 X97.838 Y84.518 E.00642
G1 X97.838 Y77.617 E.21636
G1 X97.608 Y77.51 E.00797
G1 X97.419 Y77.347 E.00783
G1 X97.419 Y87.271 E.31117
G1 X97 Y87.271 E.01314
G1 X97 Y75.142 E.3803
G1 X96.581 Y75.142 E.01314
G1 X96.581 Y87.271 E.3803
G1 X96.162 Y87.271 E.01314
G1 X96.162 Y75.142 E.38031
G1 X95.743 Y75.142 E.01314
M73 P9 R6
G1 X95.743 Y87.271 E.38031
G1 X95.324 Y87.271 E.01314
G1 X95.324 Y75.142 E.38031
G1 X94.905 Y75.142 E.01314
G1 X94.905 Y84.964 E.30797
G1 X94.486 Y84.964 E.01314
G1 X94.486 Y75.142 E.30797
G1 X94.067 Y75.142 E.01314
G1 X94.067 Y84.964 E.30797
G1 X93.648 Y84.964 E.01314
G1 X93.648 Y75.142 E.30797
G1 X93.229 Y75.142 E.01314
G1 X93.229 Y84.964 E.30797
G1 X92.811 Y84.964 E.01314
G1 X92.811 Y74.972 E.31329
M204 P1000
G1 E-2.24 F4200
;WIPE_START
M73 P10 R6
G1 F7200
G1 X92.811 Y76.618 E-.912
;WIPE_END
G1 E-.048 F4200
G1 Z.4 F720
G1 X100.358 Y85.94 F9000
G1 Z.2 F720
G1 E3.2 F2400
M204 P800
;TYPE:Perimeter
;WIDTH:0.419999
G1 F1200
G1 X100.211 Y86.87 E.0295
G1 X100.03 Y87.676 E.0259
G1 X99.075 Y87.706 E.02995
G1 X98.984 Y85.974 E.05438
G1 X100.298 Y85.942 E.04119
M204 P1000
G1 X100.783 Y85.564 F9000
M204 P800
;TYPE:External perimeter
G1 F1200
G1 X100.694 Y86.3 E.02324
G1 X100.583 Y86.931 E.0201
G1 X100.461 Y87.514 E.01867
G1 X100.325 Y88.043 E.01714
G1 X98.718 Y88.095 E.05041
G1 X98.587 Y85.607 E.07812
G1 X100.723 Y85.565 E.06697
M204 P1000
G1 X100.662 Y85.945 F9000
G1 X100.126 Y86.702
M204 P800
;TYPE:Solid infill
;WIDTH:0.420334
G1 F1200
G1 X99.664 Y86.24 E.02049
G1 X99.282 Y86.25 E.012
G1 X99.29 Y86.4 E.00471
G1 X99.893 Y87.003 E.02675
G1 X99.806 Y87.4 E.01276
G1 X99.758 Y87.401 E.00153
G1 X99.14 Y86.784 E.0274
M204 P1000
G1 E-2.24 F4200
;WIPE_START
G1 F7200
G1 X99.758 Y87.401 E-.48394
G1 X99.806 Y87.4 E-.02699
G1 X99.893 Y87.003 E-.22527
G1 X99.668 Y86.778 E-.1758
;WIPE_END
G1 E-.048 F4200
G1 Z.4 F720
G1 X98.52 Y76.233 F9000
G1 Z.2 F720
G1 E3.2 F2400
M204 P800
;TYPE:Perimeter
;WIDTH:0.416627
G1 F1200
G1 X98.543 Y75.856 E.01173
G1 X100.044 Y75.827 E.04663
;WIDTH:0.408333
G1 X100.153 Y75.826 E.00332
G1 X100.321 Y76.185 E.01205
G1 X100.052 Y76.193 E.00818
;WIDTH:0.416627
G1 X98.579 Y76.231 E.04578
M204 P1000
G1 X98.202 Y76.617 F9000
M204 P800
;TYPE:External perimeter
;WIDTH:0.419999
G1 F1200
G1 X98.147 Y76.343 E.00878
G1 X98.197 Y75.486 E.0269
G1 X100.351 Y75.451 E.06754
G1 X100.559 Y75.791 E.01249
G1 X100.742 Y76.28 E.01639
G1 X100.746 Y76.422 E.00444
G1 X100.681 Y76.546 E.0044
G1 X98.262 Y76.616 E.07588
M204 P1000
G1 X98.303 Y76.356 F9000
; stop printing object Buckle Side 2 (Updated).stl id:0 copy 0
M106 S84.15
;LAYER_CHANGE
;Z:0.4
;HEIGHT:0.2
;BEFORE_LAYER_CHANGE
G92 E0.0
;0.4


G1 E-2.24 F4200
;WIPE_START
G1 F7200
G1 X98.147 Y76.343 E-.16403
G1 X98.197 Y75.486 E-.47541
G1 X98.689 Y75.478 E-.27257
;WIPE_END
G1 E-.048 F4200
G1 Z.4 F720
;AFTER_LAYER_CHANGE
;0.4
G1 Z.6
G1 X98.621 Y69.745 F9000
G1 Z.4 F720
G1 E3.2 F2400
;TYPE:Skirt/Brim
;WIDTH:0.42
G1 F900
G1 X99.748 Y69.731 E.03533
G1 X100.667 Y69.959 E.02969
G1 X106.234 Y72.257 E.18884
G1 X107.131 Y72.855 E.0338
G1 X109.438 Y75.162 E.1023
G1 X110.245 Y77.11 E.06609
G1 X110.245 Y87.611 E.32925
G1 X109.852 Y89.028 E.04612
M73 P11 R6
G1 X108.786 Y90.041 E.04612
G1 X107.892 Y90.335 E.02951
G1 X101.496 Y91.276 E.20271
G1 X97.777 Y91.345 E.11662
G1 X93.914 Y90.255 E.12583
G1 X92.735 Y89.558 E.04296
G1 X90.428 Y87.251 E.1023
G1 X89.621 Y85.304 E.06609
G1 X89.621 Y74.802 E.32925
G1 X90.014 Y73.385 E.04612
G1 X91.327 Y72.256 E.05431
G1 X96.905 Y69.96 E.18912
G1 X97.887 Y69.753 E.03148
G1 X98.561 Y69.745 E.02113
G1 X98.566 Y70.121 F9000
G1 F900
G1 X99.709 Y70.106 E.03583
G1 X100.523 Y70.308 E.0263
G1 X106.09 Y72.605 E.18884
G1 X106.864 Y73.122 E.02918
G1 X109.172 Y75.429 E.1023
G1 X109.868 Y77.11 E.05704
G1 X109.868 Y87.611 E.32925
G1 X109.476 Y88.918 E.04278
M73 P12 R6
G1 X107.837 Y89.962 E.06095
G1 X101.33 Y90.913 E.20619
G1 X98.23 Y90.999 E.09725
G1 X97.465 Y90.894 E.02419
G1 X94.02 Y89.893 E.11251
G1 X93.002 Y89.291 E.03708
G1 X90.695 Y86.984 E.1023
G1 X89.998 Y85.304 E.05704
G1 X89.998 Y74.802 E.32925
G1 X90.39 Y73.495 E.04278
G1 X91.471 Y72.604 E.04392
G1 X97.048 Y70.309 E.18912
G1 X97.896 Y70.13 E.02717
G1 X98.506 Y70.122 E.01912
; printing object Buckle Side 2 (Updated).stl id:0 copy 0
G1 E-2.24 F4200
;WIPE_START
G1 F7200
G1 X99.709 Y70.106 E-.66649
G1 X100.139 Y70.213 E-.24551
;WIPE_END
G1 E-.048 F4200
G1 Z.6 F720
G1 X100.926 Y85.59 F9000
G1 Z.4 F720
G1 E3.2 F2400
M204 P800
;TYPE:Perimeter
;WIDTH:0.449999
G1 F900
G1 X100.765 Y86.998 E.04798
G1 X100.613 Y87.931 E.03198
G1 X98.741 Y87.982 E.06339
G1 X98.618 Y85.641 E.07934
G1 X100.866 Y85.59 E.0761
M204 P1000
G1 X100.981 Y85.193 F9000
M204 P800
;TYPE:External perimeter
G1 F900
G1 X101.064 Y85.193 E.00279
G1 X101.313 Y85.295 E.00912
G1 X101.349 Y85.436 E.00495
G1 X101.283 Y86.146 E.02415
G1 X101.12 Y87.35 E.04111
;TYPE:Overhang perimeter
M73 P13 R6
G1 F1500
G1 X100.971 Y88.264 E.03136
G1 X100.895 Y88.283 E.00264
;TYPE:External perimeter
G1 F900
G1 X100.677 Y88.336 E.00761
G1 X98.473 Y88.396 E.07461
G1 X98.354 Y88.366 E.00417
G1 X98.206 Y85.559 E.09517
G1 X98.376 Y85.24 E.01223
G1 X100.403 Y85.19 E.06865
G1 X100.921 Y85.192 E.01753
M204 P1000
G1 X101.023 Y85.264 F9000
G1 E-2.24 F4200
;WIPE_START
G1 F7200
G1 X101.064 Y85.193 E-.07897
G1 X101.313 Y85.295 E-.14932
G1 X101.349 Y85.436 E-.08097
G1 X101.283 Y86.146 E-.39532
G1 X101.233 Y86.517 E-.20741
;WIPE_END
G1 E-.048 F4200
G1 Z.6 F720
G1 X100.679 Y86.705 F9000
G1 Z.4 F720
G1 E3.2 F2400
;TYPE:Solid infill
;WIDTH:0.501586
G1 F900
G1 X99.735 Y87.649 E.05091
G1 X99.068 Y87.667 E.02544
G1 X100.561 Y86.175 E.0805
G1 X100.591 Y85.898 E.01063
G1 X100.179 Y85.908 E.01569
G1 X99 Y87.087 E.06361
G1 X98.968 Y86.471 E.02354
G1 X99.702 Y85.736 E.03962
G1 E-2.24 F4200
;WIPE_START
G1 F7200
G1 X98.968 Y86.471 E-.57565
G1 X98.999 Y87.077 E-.33635
;WIPE_END
G1 E-.048 F4200
G1 Z.6 F720
G1 X98.413 Y76.492 F9000
G1 Z.4 F720
G1 E3.2 F2400
M204 P800
;TYPE:Perimeter
;WIDTH:0.449999
G1 F900
G1 X98.372 Y76.315 E.00616
G1 X98.46 Y75.066 E.04239
;TYPE:Overhang perimeter
G1 F1500
G1 X98.525 Y74.346 E.02447
G1 X99.747 Y74.321 E.04137
G1 X100.016 Y74.84 E.01977
G1 X100.093 Y75.035 E.00711
;TYPE:Perimeter
G1 F900
G1 X100.242 Y75.413 E.01374
G1 X100.525 Y76.349 E.03312
G1 X100.525 Y76.444 E.00319
G1 X98.473 Y76.491 E.06948
M204 P1000
G1 X98.064 Y76.717 F9000
M204 P800
;TYPE:External perimeter
G1 F900
G1 X97.962 Y76.347 E.013
G1 X98.051 Y75.073 E.0432
;TYPE:Overhang perimeter
G1 F1500
G1 X98.157 Y73.946 E.03833
G1 X99.921 Y73.91 E.05974
G1 X100.103 Y74.118 E.00934
G1 X100.349 Y74.577 E.01763
G1 X100.548 Y75.075 E.01814
;TYPE:External perimeter
G1 F900
G1 X100.82 Y75.873 E.02855
G1 X100.932 Y76.351 E.01662
G1 X100.931 Y76.62 E.00909
G1 X100.875 Y76.781 E.00577
G1 X100.743 Y76.846 E.00496
G1 X98.174 Y76.905 E.08699
G1 X98.094 Y76.769 E.00534
M204 P1000
G1 X98.199 Y76.357 F9000
G1 E-2.24 F4200
;WIPE_START
G1 F7200
G1 X97.962 Y76.347 E-.24517
G1 X98.046 Y75.146 E-.66683
;WIPE_END
G1 E-.048 F4200
G1 Z.6 F720
G1 X100.348 Y76.157 F9000
G1 Z.4 F720
G1 E3.2 F2400
;TYPE:Bridge infill
;WIDTH:0.430943
G1 F1500
G1 X98.677 Y76.191 E.05392
G1 X98.706 Y75.802 E.01258
G1 X100.046 Y75.775 E.04324
G1 X99.917 Y75.389 E.01312
G1 X98.736 Y75.413 E.03811
G1 X98.765 Y75.025 E.01258
G1 X99.761 Y75.005 E.03216
G1 X99.58 Y74.62 E.01372
G1 X98.619 Y74.64 E.031
; stop printing object Buckle Side 2 (Updated).stl id:0 copy 0
M106 S170.85
;LAYER_CHANGE
;Z:0.44
;HEIGHT:0.04
;BEFORE_LAYER_CHANGE
G92 E0.0
;0.44


G1 E-2.24 F4200
;WIPE_START
G1 F7200
G1 X99.58 Y74.62 E-.53252
G1 X99.761 Y75.005 E-.23557
G1 X99.502 Y75.01 E-.14391
;WIPE_END
G1 E-.048 F4200
G1 Z.6 F720
;AFTER_LAYER_CHANGE
;0.44
; printing object Buckle Side 2 (Updated).stl id:0 copy 0
G1 X102.24 Y80.011 F9000
G1 Z.44 F720
G1 E3.2 F2400
;TYPE:Support material
;WIDTH:0.35
;HEIGHT:0.24
G1 F1208
G1 X102.24 Y77.746 E.06745
G1 X101.139 Y77.746 E.0328
G1 X100.87 Y77.799 E.00817
G1 X99.734 Y77.83 E.03385
G1 X99.665 Y77.949 E.0041
M73 P14 R6
G1 X96.824 Y77.949 E.08462
G1 X96.706 Y77.746 E.00699
G1 X95.319 Y77.746 E.04132
G1 X95.319 Y80.103 E.0702
G1 X95.319 Y80.717 F9000
G1 F1208
G1 X95.319 Y82.36 E.04894
G1 X96.706 Y82.36 E.04132
G1 X95.669 Y80.563 E.06179
G1 X95.319 Y80.563 E.01042
G1 X95.319 Y80.256 E.00915
G1 X95.669 Y80.256 E.01042
G1 X96.824 Y78.256 E.06878
G1 X99.665 Y78.256 E.08462
G1 X100.82 Y80.256 E.06878
G1 X103.661 Y80.256 E.08462
G1 X103.778 Y80.053 E.00699
G1 X104.547 Y80.053 E.02291
G1 X104.547 Y81.945 E.05636
G1 X100.673 Y84.346 F9000
G1 F1208
G1 X101.377 Y84.328 E.02098
G1 X101.6 Y84.347 E.00666
G1 X101.903 Y84.456 E.00959
G1 X102.02 Y84.535 E.00422
G1 X102.155 Y84.667 E.00562
G1 X103.778 Y84.667 E.04834
G1 X104.547 Y83.335 E.04581
G1 X104.547 Y82.099 E.03682
G1 X103.661 Y80.563 E.0528
G1 X100.82 Y80.563 E.08462
G1 X99.665 Y82.563 E.06878
G1 X97.626 Y82.563 E.06072
G1 X97.626 Y82.871 E.00915
G1 X99.665 Y82.871 E.06072
G1 X100.519 Y84.35 E.05089
G1 X98.237 Y84.412 E.06798
G1 X98.13 Y84.436 E.00329
G1 X98.011 Y84.494 E.00393
G1 X97.835 Y84.667 E.00735
G1 X97.626 Y84.667 E.00623
G1 X97.626 Y83.024 E.04894
; stop printing object Buckle Side 2 (Updated).stl id:0 copy 0
;LAYER_CHANGE
;Z:0.6
;HEIGHT:0.16
;BEFORE_LAYER_CHANGE
G92 E0.0
;0.6


G1 E-2.24 F4200
;WIPE_START
G1 F7200
G1 X97.626 Y84.667 E-.91055
G1 X97.629 Y84.667 E-.00145
;WIPE_END
G1 E-.048 F4200
G1 Z.64 F720
;AFTER_LAYER_CHANGE
;0.6
G1 X95.895 Y90.814 F9000
G1 Z.6 F720
G1 E3.2 F2400
;TYPE:Skirt/Brim
;WIDTH:0.42
;HEIGHT:0.2
G1 F1208
G1 X93.914 Y90.255 E.06452
G1 X92.735 Y89.558 E.04296
G1 X90.428 Y87.251 E.1023
G1 X89.621 Y85.304 E.06609
G1 X89.621 Y74.802 E.32925
G1 X90.014 Y73.385 E.04612
G1 X91.327 Y72.256 E.05431
G1 X96.905 Y69.96 E.18912
