; generated by PrusaSlicer 2.5.0+win64 on 2023-02-10 at 23:12:30 UTC


;
;

;
;
; 

; external perimeters extrusion width = 0.45mm
; perimeters extrusion width = 0.45mm
; infill extrusion width = 0.45mm
; solid infill extrusion width = 0.45mm
; top infill extrusion width = 0.40mm
; first layer extrusion width = 0.42mm

; external perimeters extrusion width = 0.45mm
; perimeters extrusion width = 0.45mm
; infill extrusion width = 0.45mm
; solid infill extrusion width = 0.45mm
; top infill extrusion width = 0.40mm
; first layer extrusion width = 0.42mm

; external perimeters extrusion width = 0.45mm
; perimeters extrusion width = 0.45mm
; infill extrusion width = 0.45mm
; solid infill extrusion width = 0.45mm
; top infill extrusion width = 0.40mm
; first layer extrusion width = 0.42mm

M73 P0 R23
M201 X2500 Y2500 Z400 E5000 ; sets maximum accelerations, mm/sec^2
M203 X180 Y180 Z12 E80 ; sets maximum feedrates, mm / sec
M204 P1250 R1250 T2500 ; sets acceleration (P, T) and retract acceleration (R), mm/sec^2
M205 X8.00 Y8.00 Z2.00 E10.00 ; sets the jerk limits, mm/sec
M205 S0 T0 ; sets the minimum extruding and travel feed rate, mm/sec
M107
;TYPE:Custom
M862.3 P "MINI" ; printer model check
G90 ; use absolute coordinates
M83 ; extruder relative mode
M104 S170 ; set extruder temp for bed leveling
M140 S60 ; set bed temp
M109 R170 ; wait for bed leveling temp
M190 S60 ; wait for bed temp
M204 T1250 ; set travel acceleration
G28 ; home all without mesh bed level
G29 ; mesh bed leveling 
M204 T2500 ; restore travel acceleration
M104 S215 ; set extruder temp
G92 E0
G1 Y-2 X179 F2400
G1 Z3 F720
M109 S215 ; wait for extruder temp

; intro line
G1 X170 F1000
G1 Z0.2 F720
G1 X110 E8 F900
G1 X40 E10 F700
G92 E0

M221 S95 ; set flow
G21 ; set units to millimeters
G90 ; use absolute coordinates
M83 ; use relative distances for extrusion
M900 K0.2 ; Filament gcode LA 1.5
; ; Filament gcode LA 1.0
M107
;LAYER_CHANGE
;Z:0.2
;HEIGHT:0.2
;BEFORE_LAYER_CHANGE
G92 E0.0
;0.2


G1 E-3.2 F4200
M73 P1 R23
G1 Z.2 F720
;AFTER_LAYER_CHANGE
;0.2
G1 Z.4
G1 X66.627 Y79.64 F9000
G1 Z.2 F720
G1 E3.2 F2400
M204 P800
;TYPE:Skirt/Brim
;WIDTH:0.42
G1 F1200
G1 X67.258 Y79.208 E.02398
G1 X93.888 Y69.447 E.88928
G1 X94.529 Y69.373 E.02024
G1 X105.586 Y69.376 E.34668
G1 X126.648 Y70.975 E.66227
G1 X128.117 Y71.633 E.05049
G1 X128.777 Y72.288 E.02913
G1 X129.175 Y72.941 E.02397
G1 X129.363 Y73.886 E.03024
G1 X129.358 Y76.151 E.07101
G1 X129.182 Y77.104 E.03038
G1 X128.911 Y77.746 E.02184
G1 X128.523 Y78.333 E.02206
G1 X128.028 Y78.845 E.02233
G1 X127.528 Y79.21 E.01942
G1 X107.886 Y90.42 E.7091
G1 X106.98 Y90.739 E.03013
G1 X93.424 Y90.776 E.42502
G1 X69.567 Y90.247 E.74822
G1 X68.689 Y90.084 E.02801
G1 X67.949 Y89.728 E.02572
G1 X67.362 Y89.239 E.02397
G1 X66.827 Y88.471 E.02936
G1 X66.366 Y87.101 E.0453
G1 X66.029 Y85.429 E.05349
G1 X65.853 Y83.639 E.05638
G1 X65.807 Y81.503 E.06699
G1 X65.889 Y80.87 E.02001
G1 X66.2 Y80.153 E.02453
G1 X66.588 Y79.686 E.01904
M204 P1000
; printing object Buckle Side 1 (Updated).stl id:0 copy 0
G1 E-2.24 F4200
;WIPE_START
G1 F7200
G1 X67.258 Y79.208 E-.45595
G1 X68.031 Y78.924 E-.45605
;WIPE_END
G1 E-.048 F4200
G1 Z.4 F720
G1 X80.882 Y86.128 F9000
G1 Z.2 F720
G1 E3.2 F2400
M204 P800
;TYPE:External perimeter
;WIDTH:0.53633
G1 F1200
M73 P1 R22
G1 X80.963 Y85.727 E.01678
M204 P1000
G1 E-2.24 F4200
;WIPE_START
G1 F7200
G1 X80.882 Y86.128 E-.22666
;WIPE_END
G1 E-.73334 F4200
G1 Z.4 F720
G1 X69.118 Y86.135 F9000
G1 Z.2 F720
G1 E3.2 F2400
M204 P800
;WIDTH:0.52504
G1 F1200
G1 X69.396 Y86.498 E.01835
;WIDTH:0.493456
G1 X69.818 Y86.812 E.01969
G1 X70.013 Y86.85 E.00744
;WIDTH:0.464608
G1 X70.208 Y86.887 E.00696
;WIDTH:0.435759
G1 X71.169 Y86.911 E.03141
;WIDTH:0.42253
G1 X79.311 Y86.907 E.25699
;WIDTH:0.423222
G1 X79.327 Y86.907 E.00051
;WIDTH:0.442561
G1 X80.002 Y86.859 E.0225
;WIDTH:0.485219
G1 X80.271 Y86.767 E.01044
;WIDTH:0.493451
G1 X80.707 Y86.382 E.02177
;WIDTH:0.532688
G1 X80.882 Y86.128 E.01258
G1 X80.877 Y86.14 E.00054
;WIDTH:0.531128
G1 X80.712 Y86.824 E.02856
;WIDTH:0.485219
G1 X80.483 Y87.166 E.01513
G1 X80.036 Y87.257 E.0168
;WIDTH:0.442561
G1 X79.311 Y87.287 E.02411
;WIDTH:0.42253
G1 X71.169 Y87.288 E.25699
;WIDTH:0.420224
G1 X71.156 Y87.288 E.00039
;WIDTH:0.450468
G1 X70.438 Y87.264 E.02435
;WIDTH:0.480711
G1 X69.72 Y87.241 E.02616
;WIDTH:0.493065
G1 X69.495 Y87.132 E.00935
G1 X69.276 Y86.79 E.01521
;WIDTH:0.52504
G1 X69.132 Y86.193 E.02462
M204 P1000
G1 E-2.24 F4200
;WIPE_START
G1 F7200
G1 X69.396 Y86.498 E-.22364
G1 X69.818 Y86.812 E-.29127
G1 X70.013 Y86.85 E-.11004
G1 X70.208 Y86.887 E-.11004
G1 X70.527 Y86.895 E-.17701
;WIPE_END
G1 E-.048 F4200
G1 Z.4 F720
G1 X80.963 Y85.727 F9000
G1 Z.2 F720
G1 E3.2 F2400
M204 P800
;WIDTH:0.53633
G1 F1200
G1 X80.874 Y85.306 E.01767
;WIDTH:0.502914
G1 X80.632 Y84.83 E.0204
;WIDTH:0.5042
G1 X80.603 Y84.696 E.00527
G1 X80.616 Y84.105 E.02266
;WIDTH:0.504567
G1 X80.635 Y82.568 E.05901
;WIDTH:0.50533
G1 X80.639 Y81.871 E.02681
G1 X80.705 Y81.786 E.00414
G1 X81.103 Y81.76 E.01531
G1 X81.097 Y82.578 E.03142
;WIDTH:0.504567
G1 X81.054 Y84.114 E.059
;WIDTH:0.483988
G1 X81.045 Y84.398 E.01042
;WIDTH:0.502914
G1 X81.099 Y85.098 E.02683
;WIDTH:0.53633
G1 X80.976 Y85.669 E.02397
M204 P1000
G1 E-2.24 F4200
;WIPE_START
G1 F7200
G1 X80.874 Y85.306 E-.20877
G1 X80.632 Y84.83 E-.29561
G1 X80.603 Y84.696 E-.0762
G1 X80.616 Y84.105 E-.32737
G1 X80.616 Y84.098 E-.00405
;WIPE_END
G1 E-.048 F4200
G1 Z.4 F720
G1 X69.043 Y85.806 F9000
G1 Z.2 F720
G1 E3.2 F2400
M204 P800
;WIDTH:0.527794
G1 F1200
G1 X69.111 Y86.104 E.01233
M204 P1000
G1 X69.043 Y85.806 F9000
M204 P800
;WIDTH:0.525974
G1 F1200
G1 X69.024 Y85.717 E.00362
;WIDTH:0.520749
G1 X68.903 Y85.109 E.02465
;WIDTH:0.504012
G1 X68.937 Y84.685 E.01633
G1 X68.946 Y84.113 E.02192
;WIDTH:0.505026
G1 X68.908 Y82.752 E.05229
;WIDTH:0.508204
G1 X68.9 Y81.77 E.03802
G1 X69.16 Y81.762 E.01007
G1 X69.319 Y81.798 E.00632
G1 X69.367 Y81.995 E.00785
G1 X69.37 Y82.75 E.02918
;WIDTH:0.505026
G1 X69.384 Y84.104 E.05205
;WIDTH:0.483451
G1 X69.394 Y84.392 E.01053
;WIDTH:0.50287
G1 X69.367 Y84.83 E.01681
G1 X69.133 Y85.301 E.0201
;WIDTH:0.525974
G1 X69.054 Y85.746 E.01818
M204 P1000
; stop printing object Buckle Side 1 (Updated).stl id:0 copy 0
; printing object Buckle Side 2 (Updated).stl id:1 copy 0
G1 E-2.24 F4200
;WIPE_START
G1 F7200
G1 X69.024 Y85.717 E-.02293
G1 X68.903 Y85.109 E-.34383
G1 X68.937 Y84.685 E-.23604
G1 X68.946 Y84.127 E-.3092
;WIPE_END
G1 E-.048 F4200
G1 Z.4 F720
G1 X96.421 Y77.391 F9000
G1 Z.2 F720
M73 P2 R22
G1 E3.2 F2400
M204 P800
;TYPE:Perimeter
;WIDTH:0.419999
G1 F1200
G1 X103.585 Y77.394 E.22462
G1 X103.401 Y77.628 E.00933
G1 X102.862 Y78.535 E.03309
G1 X102.791 Y78.681 E.00509
G1 X102.472 Y79.548 E.02895
G1 X102.276 Y80.549 E.03199
G1 X102.233 Y81.086 E.01688
G1 X102.234 Y82.621 E.04812
G1 X102.354 Y83.36 E.02348
G1 X102.602 Y83.981 E.02096
G1 X102.963 Y84.525 E.02048
G1 X103.438 Y84.99 E.02084
G1 X104.144 Y85.434 E.02615
G1 X105.393 Y85.958 E.04246
G1 X105.393 Y87.236 E.04007
G1 X94.607 Y87.236 E.33817
G1 X94.607 Y85.958 E.04007
G1 X96.008 Y85.353 E.04784
G1 X96.562 Y84.99 E.02077
G1 X97.037 Y84.525 E.02084
G1 X97.398 Y83.981 E.02048
G1 X97.524 Y83.694 E.0098
G1 X97.693 Y83.177 E.01706
G1 X97.766 Y82.622 E.01757
G1 X97.768 Y81.144 E.04635
G1 X97.674 Y80.231 E.02878
G1 X97.523 Y79.53 E.02249
G1 X97.197 Y78.654 E.02928
G1 X96.804 Y77.929 E.02588
G1 X96.455 Y77.44 E.01883
M204 P1000
G1 X95.57 Y77.009 F9000
M204 P800
G1 F1200
G1 X104.416 Y77.019 E.27736
G1 X103.725 Y77.821 E.03318
G1 X103.186 Y78.728 E.03309
G1 X102.84 Y79.629 E.03026
G1 X102.652 Y80.582 E.03046
G1 X102.61 Y81.086 E.01585
G1 X102.617 Y82.705 E.05077
G1 X102.708 Y83.231 E.01673
G1 X102.922 Y83.781 E.01852
G1 X103.238 Y84.266 E.01814
G1 X103.644 Y84.675 E.01808
G1 X104.29 Y85.086 E.024
G1 X105.77 Y85.707 E.05032
G1 X105.77 Y87.613 E.05976
G1 X94.23 Y87.613 E.36182
G1 X94.23 Y85.707 E.05976
G1 X95.802 Y85.038 E.05355
G1 X96.457 Y84.59 E.02489
G1 X96.831 Y84.177 E.01745
G1 X97.129 Y83.676 E.01829
G1 X97.32 Y83.121 E.0184
G1 X97.389 Y82.621 E.01582
G1 X97.382 Y81.001 E.05081
G1 X97.305 Y80.305 E.02195
G1 X97.168 Y79.657 E.02075
G1 X96.864 Y78.831 E.02762
G1 X96.497 Y78.148 E.02432
G1 X96.042 Y77.518 E.02435
G1 X95.611 Y77.053 E.01989
M204 P1000
G1 E-2.24 F4200
;WIPE_START
G1 F7200
G1 X97.256 Y77.047 E-.912
;WIPE_END
G1 E-.048 F4200
G1 Z.4 F720
G1 X94.3 Y74.471 F9000
G1 Z.2 F720
G1 E3.2 F2400
M204 P800
;TYPE:External perimeter
;WIDTH:0.542261
G1 F1200
G1 X94.322 Y74.538 E.0029
;WIDTH:0.498571
G1 X94.343 Y74.604 E.00265
;WIDTH:0.45488
G1 X94.365 Y74.671 E.0024
;WIDTH:0.41119
G1 X94.387 Y74.737 E.00214
;WIDTH:0.408159
G1 X94.368 Y75.221 E.01471
;WIDTH:0.435102
G1 X94.413 Y75.737 E.01686
;WIDTH:0.449069
G1 X94.525 Y76.023 E.0104
G1 X94.877 Y76.381 E.01695
;WIDTH:0.427404
G1 X95.207 Y76.557 E.01195
;WIDTH:0.421318
G1 X95.639 Y76.636 E.01381
;WIDTH:0.419999
G1 X104.332 Y76.64 E.27258
;WIDTH:0.422617
G1 X104.806 Y76.568 E.01515
;WIDTH:0.435467
G1 X105.029 Y76.467 E.00799
;WIDTH:0.477845
G1 X105.426 Y76.15 E.01834
G1 X105.576 Y75.8 E.0138
;WIDTH:0.439459
G1 X105.631 Y75.246 E.01836
;WIDTH:0.40569
G1 X105.607 Y74.68 E.01706
;WIDTH:0.410038
G1 X105.629 Y74.614 E.00214
;WIDTH:0.45441
G1 X105.65 Y74.547 E.0024
;WIDTH:0.498783
G1 X105.672 Y74.481 E.00266
;WIDTH:0.543155
G1 X105.694 Y74.414 E.00292
;WIDTH:0.587528
G1 X105.715 Y74.347 E.00317
;WIDTH:0.6319
G1 X105.737 Y74.281 E.00343
G1 X105.769 Y74.343 E.00343
;WIDTH:0.587528
G1 X105.801 Y74.406 E.00317
;WIDTH:0.543155
G1 X105.832 Y74.468 E.00292
;WIDTH:0.498783
G1 X105.864 Y74.53 E.00266
;WIDTH:0.45441
G1 X105.896 Y74.593 E.0024
;WIDTH:0.410038
G1 X105.928 Y74.655 E.00214
;WIDTH:0.395374
G1 X105.966 Y75.011 E.01049
;WIDTH:0.425083
G1 X106.004 Y75.367 E.01137
;WIDTH:0.442023
G1 X105.966 Y75.881 E.01712
;WIDTH:0.487999
G1 X105.867 Y76.284 E.01535
G1 X105.626 Y76.524 E.01259
;WIDTH:0.454851
G1 X105.109 Y76.921 E.02232
;WIDTH:0.42769
G1 X104.644 Y77.324 E.01969
;WIDTH:0.419999
G1 X104.049 Y78.014 E.02854
G1 X103.51 Y78.921 E.03309
G1 X103.208 Y79.71 E.02649
G1 X103.039 Y80.487 E.02492
G1 X102.987 Y81.086 E.01886
G1 X102.988 Y82.621 E.04812
G1 X103.053 Y83.065 E.01407
G1 X103.225 Y83.547 E.01605
G1 X103.489 Y83.978 E.01585
G1 X103.851 Y84.36 E.01649
G1 X104.436 Y84.739 E.02184
G1 X106.147 Y85.456 E.05818
G1 X106.147 Y86.468 E.03173
G1 X106.147 Y87.99 E.04772
G1 X93.853 Y87.99 E.38547
G1 X93.853 Y85.456 E.07944
G1 X95.595 Y84.723 E.05925
G1 X96.149 Y84.36 E.02077
G1 X96.488 Y84.007 E.01533
G1 X96.758 Y83.582 E.0158
G1 X96.938 Y83.101 E.01608
G1 X97.012 Y82.621 E.01525
G1 X97.006 Y81.029 E.04992
G1 X96.935 Y80.379 E.02047
G1 X96.813 Y79.785 E.01901
G1 X96.531 Y79.007 E.02596
G1 X96.189 Y78.366 E.02277
G1 X95.765 Y77.773 E.02286
G1 X95.299 Y77.273 E.02143
;WIDTH:0.42984
G1 X94.683 Y76.721 E.02661
;WIDTH:0.437135
G1 X94.289 Y76.352 E.01772
;WIDTH:0.461068
G1 X94.09 Y76.095 E.01129
G1 X94.022 Y75.765 E.01173
;WIDTH:0.435102
G1 X94.006 Y75.213 E.01799
;WIDTH:0.408159
G1 X94.065 Y74.712 E.01533
;WIDTH:0.41119
G1 X94.096 Y74.65 E.00214
;WIDTH:0.45488
G1 X94.128 Y74.587 E.0024
;WIDTH:0.498571
G1 X94.16 Y74.525 E.00265
;WIDTH:0.542261
G1 X94.192 Y74.463 E.0029
;WIDTH:0.585952
G1 X94.224 Y74.401 E.00316
;WIDTH:0.629642
G1 X94.256 Y74.338 E.00341
G1 X94.278 Y74.405 E.00341
;WIDTH:0.585952
G1 X94.281 Y74.414 E.00045
M204 P1000
G1 E-2.24 F4200
;WIPE_START
G1 F7200
G1 X94.322 Y74.538 E-.07202
G1 X94.343 Y74.604 E-.03877
G1 X94.365 Y74.671 E-.03877
G1 X94.387 Y74.737 E-.03877
G1 X94.368 Y75.221 E-.26851
G1 X94.413 Y75.737 E-.28659
G1 X94.524 Y76.02 E-.16857
;WIPE_END
G1 E-.048 F4200
G1 Z.4 F720
G1 X105.685 Y73.779 F9000
G1 Z.2 F720
G1 E3.2 F2400
M204 P800
;WIDTH:0.6319
G1 F1200
G1 X105.737 Y74.281 E.02469
M204 P1000
G1 E-2.24 F4200
;WIPE_START
G1 F7200
G1 X105.685 Y73.779 E-.27933
;WIPE_END
G1 E-.68067 F4200
G1 Z.4 F720
G1 X94.467 Y73.466 F9000
G1 Z.2 F720
G1 E3.2 F2400
M204 P800
;WIDTH:0.592709
G1 F1200
G1 X94.33 Y73.721 E.01324
;WIDTH:0.595247
G1 X94.435 Y73.154 E.02648
G1 X94.722 Y72.504 E.03263
G1 X95.131 Y72.488 E.01881
;WIDTH:0.56244
G1 X95.677 Y72.47 E.02359
;WIDTH:0.528791
G1 X97.117 Y72.464 E.05816
;WIDTH:0.518903
G1 X97.124 Y72.464 E.00029
;WIDTH:0.523659
G1 X103.835 Y72.459 E.26827
;WIDTH:0.523844
G1 X103.853 Y72.459 E.00073
;WIDTH:0.535785
G1 X104.388 Y72.465 E.02191
;WIDTH:0.566698
G1 X104.833 Y72.48 E.01943
;WIDTH:0.597611
G1 X105.279 Y72.495 E.02057
G1 X105.56 Y73.155 E.03308
G1 X105.685 Y73.779 E.02937
;WIDTH:0.595381
G1 X105.552 Y73.492 E.01453
;WIDTH:0.597611
G1 X105.161 Y73.111 E.0252
G1 X104.904 Y73.016 E.01262
;WIDTH:0.576836
G1 X104.352 Y72.955 E.02466
;WIDTH:0.535785
G1 X103.835 Y72.94 E.02119
;WIDTH:0.523659
G1 X97.124 Y72.94 E.26827
;WIDTH:0.518903
G1 X97.12 Y72.94 E.00014
;WIDTH:0.528791
G1 X95.681 Y72.956 E.05816
;WIDTH:0.56244
G1 X95.165 Y73.005 E.02237
;WIDTH:0.595247
G1 X94.905 Y73.077 E.01241
G1 X94.512 Y73.426 E.02414
M204 P1000
G1 X94.18 Y73.427 F9000
G1 X94.256 Y74.338
M204 P800
;WIDTH:0.629642
G1 F1200
G1 X94.284 Y74.069 E.01323
;WIDTH:0.601321
G1 X94.312 Y73.799 E.01259
;WIDTH:0.58403
G1 X94.33 Y73.721 E.00359
M204 P1000
G1 E-2.24 F4200
;WIPE_START
G1 F7200
G1 X94.312 Y73.799 E-.04423
G1 X94.284 Y74.069 E-.1503
G1 X94.256 Y74.338 E-.1503
;WIPE_END
G1 E-.61518 F4200
G1 Z.4 F720
G1 X102.585 Y77.507 F9000
G1 Z.2 F720
G1 E3.2 F2400
M204 P800
;TYPE:Solid infill
;WIDTH:0.424062
G1 F1200
G1 X102.936 Y77.858 E.01573
G1 X102.735 Y78.196 E.01246
G1 X102.215 Y77.676 E.02328
G1 X101.676 Y77.676 E.01709
G1 X102.544 Y78.544 E.03891
G1 X102.397 Y78.936 E.01326
G1 X101.137 Y77.676 E.05647
G1 X100.597 Y77.675 E.01709
G1 X102.252 Y79.33 E.07417
G1 X102.197 Y79.481 E.00509
G1 X102.137 Y79.754 E.00887
G1 X100.058 Y77.675 E.09318
G1 X99.519 Y77.675 E.01709
G1 X102.04 Y80.197 E.11302
G1 X101.983 Y80.679 E.01538
G1 X98.98 Y77.675 E.13463
G1 X98.44 Y77.675 E.01709
G1 X101.952 Y81.186 E.15739
G1 X101.952 Y81.725 E.01707
G1 X97.901 Y77.674 E.18155
G1 X97.362 Y77.674 E.01709
G1 X101.951 Y82.264 E.2057
G1 X101.951 Y82.629 E.01158
G1 X101.98 Y82.831 E.00647
G1 X97.19 Y78.042 E.21465
G1 X97.515 Y78.675 E.02254
G1 X97.637 Y79.028 E.01184
G1 X102.387 Y83.777 E.21286
M204 P1000
G1 E-2.24 F4200
;WIPE_START
G1 F7200
G1 X101.223 Y82.613 E-.912
;WIPE_END
G1 E-.048 F4200
G1 Z.4 F720
G1 X104.183 Y85.573 F9000
G1 Z.2 F720
G1 E3.2 F2400
M204 P800
G1 F1200
M73 P3 R22
G1 X105.11 Y86.5 E.04154
G1 X105.11 Y86.953 E.01435
G1 X105.024 Y86.953 E.00273
G1 X97.876 Y79.805 E.32035
G1 X98.004 Y80.472 E.02152
G1 X104.485 Y86.953 E.29046
G1 X103.946 Y86.953 E.01708
G1 X98.046 Y81.054 E.26441
G1 X98.05 Y81.597 E.01721
G1 X103.407 Y86.953 E.24007
G1 X102.868 Y86.953 E.01708
G1 X98.05 Y82.135 E.21595
G1 X98.043 Y82.668 E.01689
G1 X102.329 Y86.953 E.19206
G1 X101.79 Y86.953 E.01708
G1 X97.976 Y83.14 E.17091
G1 X97.948 Y83.342 E.00647
G1 X97.867 Y83.569 E.00765
G1 X101.251 Y86.953 E.15165
G1 X100.712 Y86.953 E.01708
G1 X97.72 Y83.962 E.13406
G1 X97.527 Y84.308 E.01255
G1 X100.173 Y86.953 E.11857
G1 X99.634 Y86.953 E.01708
G1 X97.311 Y84.631 E.10409
G1 X97.057 Y84.915 E.0121
G1 X99.095 Y86.953 E.09132
G1 X98.556 Y86.953 E.01708
G1 X96.779 Y85.176 E.07964
G1 X96.459 Y85.396 E.01228
G1 X98.017 Y86.953 E.06979
G1 X97.478 Y86.953 E.01708
G1 X96.132 Y85.607 E.06032
G1 X95.765 Y85.779 E.01284
G1 X96.939 Y86.953 E.05261
G1 X96.4 Y86.953 E.01708
G1 X95.385 Y85.938 E.04547
G1 X95.005 Y86.098 E.01305
G1 X95.86 Y86.953 E.03834
G1 X95.321 Y86.953 E.01708
G1 X94.72 Y86.352 E.02694
M204 P1000
; stop printing object Buckle Side 2 (Updated).stl id:1 copy 0
; printing object Buckle Side 2 (Updated).stl id:2 copy 0
G1 E-2.24 F4200
;WIPE_START
G1 F7200
G1 X95.321 Y86.953 E-.471
G1 X95.86 Y86.953 E-.2987
G1 X95.679 Y86.771 E-.14229
;WIPE_END
G1 E-.048 F4200
G1 Z.4 F720
G1 X125.725 Y77.021 F9000
G1 Z.2 F720
G1 E3.2 F2400
M204 P800
;TYPE:External perimeter
;WIDTH:0.611
G1 F1200
G1 X125.524 Y77.065 E.00968
;WIDTH:0.563854
G1 X125.324 Y77.11 E.00888
;WIDTH:0.516708
G1 X125.124 Y77.154 E.00807
;WIDTH:0.469562
G1 X124.924 Y77.198 E.00727
;WIDTH:0.444544
G1 X124.662 Y77.214 E.00877
