; generated by PrusaSlicer 2.5.0+win64 on 2023-02-10 at 23:56:47 UTC


;
;

;
;
; 

; external perimeters extrusion width = 0.45mm
; perimeters extrusion width = 0.45mm
; infill extrusion width = 0.45mm
; solid infill extrusion width = 0.45mm
; top infill extrusion width = 0.40mm
; support material extrusion width = 0.35mm
; first layer extrusion width = 0.42mm

; external perimeters extrusion width = 0.45mm
; perimeters extrusion width = 0.45mm
; infill extrusion width = 0.45mm
; solid infill extrusion width = 0.45mm
; top infill extrusion width = 0.40mm
; support material extrusion width = 0.35mm
; first layer extrusion width = 0.42mm

M73 P0 R19
M201 X2500 Y2500 Z400 E5000 ; sets maximum accelerations, mm/sec^2
M203 X180 Y180 Z12 E80 ; sets maximum feedrates, mm / sec
M204 P1250 R1250 T2500 ; sets acceleration (P, T) and retract acceleration (R), mm/sec^2
M205 X8.00 Y8.00 Z2.00 E10.00 ; sets the jerk limits, mm/sec
M205 S0 T0 ; sets the minimum extruding and travel feed rate, mm/sec
M107
;TYPE:Custom
M862.3 P "MINI" ; printer model check
G90 ; use absolute coordinates
M83 ; extruder relative mode
M104 S170 ; set extruder temp for bed leveling
M140 S60 ; set bed temp
M109 R170 ; wait for bed leveling temp
M190 S60 ; wait for bed temp
M204 T1250 ; set travel acceleration
G28 ; home all without mesh bed level
G29 ; mesh bed leveling 
M204 T2500 ; restore travel acceleration
M104 S215 ; set extruder temp
G92 E0
G1 Y-2 X179 F2400
G1 Z3 F720
M109 S215 ; wait for extruder temp

; intro line
G1 X170 F1000
G1 Z0.2 F720
G1 X110 E8 F900
G1 X40 E10 F700
G92 E0

M221 S95 ; set flow
G21 ; set units to millimeters
G90 ; use absolute coordinates
M83 ; use relative distances for extrusion
M900 K0.2 ; Filament gcode LA 1.5
; ; Filament gcode LA 1.0
M107
;LAYER_CHANGE
;Z:0.2
;HEIGHT:0.2
;BEFORE_LAYER_CHANGE
G92 E0.0
;0.2


G1 E-3.2 F4200
M73 P1 R19
G1 Z.2 F720
;AFTER_LAYER_CHANGE
;0.2
G1 Z.4
G1 X43.698 Y73.755 F9000
G1 Z.2 F720
G1 E3.2 F2400
M204 P800
;TYPE:Skirt/Brim
;WIDTH:0.42
G1 F1200
G1 X44.826 Y73.436 E.03675
G1 X65.135 Y72.206 E.63795
G1 X84.865 Y72.206 E.6186
G1 X86.282 Y72.598 E.04612
G1 X87.295 Y73.665 E.04612
G1 X87.619 Y74.96 E.04186
G1 X87.619 Y82.847 E.24729
G1 X86.812 Y84.794 E.06609
G1 X84.198 Y87.408 E.11592
G1 X82.444 Y88.208 E.06045
G1 X64.723 Y89.448 E.55698
G1 X44.993 Y89.448 E.6186
G1 X43.576 Y89.055 E.04612
G1 X42.563 Y87.989 E.04612
G1 X42.239 Y86.693 E.04186
G1 X42.239 Y76.185 E.32948
G1 X42.632 Y74.768 E.04612
G1 X43.655 Y73.796 E.04424
M204 P1000
G1 X43.921 Y74.113 F9000
M204 P800
G1 F1200
G1 X44.054 Y74.002 E.00544
G1 X44.849 Y73.813 E.02563
G1 X65.135 Y72.583 E.63723
G1 X84.865 Y72.583 E.6186
G1 X86.172 Y72.974 E.04278
M73 P2 R19
G1 X87.048 Y74.02 E.04278
G1 X87.242 Y74.96 E.03008
G1 X87.242 Y82.847 E.24729
G1 X86.546 Y84.527 E.05704
G1 X83.931 Y87.142 E.11592
G1 X82.417 Y87.832 E.05218
G1 X64.723 Y89.07 E.55615
G1 X44.993 Y89.07 E.6186
G1 X43.686 Y88.679 E.04278
G1 X42.81 Y87.633 E.04278
G1 X42.616 Y86.693 E.03008
G1 X42.616 Y76.185 E.32948
G1 X43.008 Y74.878 E.04278
G1 X43.875 Y74.152 E.03546
M204 P1000
; printing object Buckle Side 1 (Updated).stl id:0 copy 0
G1 E-2.24 F4200
;WIPE_START
G1 F7200
G1 X44.054 Y74.002 E-.12943
G1 X44.849 Y73.813 E-.45308
G1 X45.443 Y73.777 E-.32949
;WIPE_END
G1 E-.048 F4200
G1 Z.4 F720
G1 X68.756 Y80.412 F9000
G1 Z.2 F720
G1 E3.2 F2400
M204 P800
;TYPE:Support material interface
;WIDTH:0.35
G1 F1200
G1 X68.915 Y80.678 E.00791
G1 X68.915 Y82.517 E.04696
G1 X68.408 Y82.517 E.01295
G1 X68.408 Y80.21 E.05891
G1 X68.079 Y80.21 E.00841
G1 X68.079 Y82.517 E.05891
G1 X68.254 Y82.517 E.00449
M204 P1000
G1 E-2.24 F4200
;WIPE_START
G1 F7200
G1 X68.079 Y82.517 E-.09736
G1 X68.079 Y81.047 E-.81464
;WIPE_END
G1 E-.048 F4200
G1 Z.4 F720
G1 X70.083 Y82.517 F9000
G1 Z.2 F720
G1 E3.2 F2400
M204 P800
G1 F1200
G1 X70.386 Y82.517 E.00774
G1 X70.386 Y80.463 E.05247
G1 X70.244 Y80.463 E.00361
G1 X70.232 Y80.687 E.00574
G1 X70.177 Y80.866 E.00479
G1 X70.071 Y81.025 E.00488
G1 X69.929 Y81.132 E.00454
G1 X69.929 Y82.517 E.03536
G1 X69.422 Y82.517 E.01295
G1 X69.422 Y81.111 E.0359
G1 X69.205 Y80.971 E.0066
G1 X69.013 Y80.796 E.00663
M204 P1000
G1 X69.493 Y80.725 F9000
M204 P800
;TYPE:Support material
;WIDTH:0.42
G1 F1200
G1 X69.595 Y80.759 E.00336
G1 X69.708 Y80.77 E.00356
G1 X69.827 Y80.75 E.00379
G1 X69.757 Y80.812 E.00294
G1 X69.682 Y80.825 E.00238
G1 X69.467 Y80.713 E.00759
M204 P1000
G1 E-2.24 F4200
;WIPE_START
G1 F7200
G1 X69.682 Y80.825 E-.13421
G1 X69.757 Y80.812 E-.04214
G1 X69.827 Y80.75 E-.05196
G1 X69.708 Y80.77 E-.06695
G1 X69.595 Y80.759 E-.0629
G1 X69.493 Y80.725 E-.05931
;WIPE_END
G1 E-.54254 F4200
G1 Z.4 F720
G1 X79.251 Y82.881 F9000
G1 Z.2 F720
G1 E3.2 F2400
M204 P800
G1 F1200
G1 X82.251 Y82.881 E.09406
G1 X82.251 Y85.461 E.08089
G1 X67.749 Y85.461 E.45467
G1 X67.749 Y82.881 E.08089
G1 X70.749 Y82.881 E.09406
G1 X70.749 Y80.504 E.07453
G1 X79.251 Y80.504 E.26654
G1 X79.251 Y82.824 E.07275
M204 P1000
G1 X81.704 Y85.291 F9000
M204 P800
G1 F1200
G1 X81.704 Y83.22 E.06493
G1 X81.285 Y83.22 E.01314
G1 X81.285 Y85.121 E.05961
G1 X80.866 Y85.121 E.01314
G1 X80.866 Y83.22 E.05961
G1 X80.447 Y83.22 E.01314
G1 X80.447 Y85.121 E.05961
G1 X80.028 Y85.121 E.01314
G1 X80.028 Y83.22 E.05961
G1 X79.609 Y83.22 E.01314
G1 X79.609 Y85.121 E.05961
G1 X79.19 Y85.121 E.01314
G1 X79.19 Y83.22 E.05961
G1 X78.911 Y83.22 E.00874
G1 X78.911 Y80.843 E.07453
G1 X78.771 Y80.843 E.0044
G1 X78.771 Y85.121 E.13413
G1 X78.352 Y85.121 E.01314
G1 X78.352 Y80.843 E.13413
G1 X77.933 Y80.843 E.01314
G1 X77.933 Y85.121 E.13413
G1 X77.514 Y85.121 E.01314
G1 X77.514 Y80.843 E.13413
G1 X77.095 Y80.843 E.01314
G1 X77.095 Y85.121 E.13413
G1 X76.676 Y85.121 E.01314
G1 X76.676 Y80.843 E.13413
G1 X76.257 Y80.843 E.01314
G1 X76.257 Y85.121 E.13413
G1 X75.838 Y85.121 E.01314
M73 P2 R18
G1 X75.838 Y80.843 E.13413
G1 X75.419 Y80.843 E.01314
M73 P3 R18
G1 X75.419 Y85.121 E.13413
G1 X75 Y85.121 E.01314
G1 X75 Y80.843 E.13413
G1 X74.581 Y80.843 E.01314
G1 X74.581 Y85.121 E.13413
G1 X74.162 Y85.121 E.01314
G1 X74.162 Y80.843 E.13413
G1 X73.743 Y80.843 E.01314
G1 X73.743 Y85.121 E.13413
G1 X73.324 Y85.121 E.01314
G1 X73.324 Y80.843 E.13413
G1 X72.905 Y80.843 E.01314
G1 X72.905 Y85.121 E.13413
G1 X72.486 Y85.121 E.01314
G1 X72.486 Y80.843 E.13413
G1 X72.067 Y80.843 E.01314
G1 X72.067 Y85.121 E.13413
G1 X71.648 Y85.121 E.01314
G1 X71.648 Y80.843 E.13413
G1 X71.229 Y80.843 E.01314
G1 X71.229 Y85.121 E.13413
G1 X70.81 Y85.121 E.01314
G1 X70.81 Y83.22 E.05961
G1 X70.391 Y83.22 E.01314
G1 X70.391 Y85.121 E.05961
G1 X69.972 Y85.121 E.01314
G1 X69.972 Y83.22 E.05961
G1 X69.553 Y83.22 E.01314
G1 X69.553 Y85.121 E.05961
G1 X69.134 Y85.121 E.01314
G1 X69.134 Y83.22 E.05961
G1 X68.715 Y83.22 E.01314
G1 X68.715 Y85.121 E.05961
G1 X68.296 Y85.121 E.01314
G1 X68.296 Y83.051 E.06493
M204 P1000
G1 E-2.24 F4200
;WIPE_START
G1 F7200
G1 X68.296 Y84.696 E-.912
;WIPE_END
G1 E-.048 F4200
G1 Z.4 F720
G1 X79.917 Y82.517 F9000
G1 Z.2 F720
G1 E3.2 F2400
M204 P800
;TYPE:Support material interface
;WIDTH:0.35
G1 F1200
G1 X79.614 Y82.517 E.00774
G1 X79.614 Y80.463 E.05247
G1 X79.756 Y80.463 E.00361
G1 X79.769 Y80.687 E.00575
G1 X79.824 Y80.868 E.00481
G1 X79.942 Y81.039 E.00531
G1 X80.071 Y81.133 E.00407
G1 X80.071 Y82.517 E.03536
G1 X80.578 Y82.517 E.01295
G1 X80.578 Y81.111 E.0359
G1 X80.795 Y80.971 E.00661
G1 X80.987 Y80.796 E.00662
M204 P1000
G1 X80.528 Y80.716 F9000
M204 P800
;TYPE:Support material
;WIDTH:0.42
G1 F1200
G1 X80.318 Y80.825 E.00744
G1 X80.243 Y80.812 E.00238
G1 X80.173 Y80.75 E.00292
G1 X80.299 Y80.771 E.004
G1 X80.498 Y80.729 E.00638
M204 P1000
G1 X81.25 Y80.398 F9000
M204 P800
;TYPE:Support material interface
;WIDTH:0.35
G1 F1200
G1 X81.085 Y80.678 E.00831
G1 X81.085 Y82.517 E.04696
G1 X81.592 Y82.517 E.01295
G1 X81.592 Y80.21 E.05891
G1 X81.921 Y80.21 E.00841
G1 X81.921 Y82.517 E.05891
G1 X81.746 Y82.517 E.00449
M204 P1000
G1 E-2.24 F4200
;WIPE_START
G1 F7200
G1 X81.921 Y82.517 E-.09736
G1 X81.921 Y81.047 E-.81464
;WIPE_END
G1 E-.048 F4200
G1 Z.4 F720
G1 X84.865 Y82.847 F9000
G1 Z.2 F720
G1 E3.2 F2400
M204 P800
;TYPE:Support material
;WIDTH:0.42
G1 F1200
G1 X82.285 Y82.847 E.08089
G1 X82.285 Y79.847 E.09406
G1 X81.11 Y79.847 E.03683
G1 X81.191 Y79.498 E.01122
G1 X81.21 Y79.308 E.00599
G1 X81.182 Y79.171 E.00437
G1 X81.092 Y79.001 E.00603
G1 X80.95 Y78.865 E.00618
G1 X80.786 Y78.778 E.00583
G1 X80.502 Y78.7 E.00922
G1 X80.291 Y78.682 E.00663
G1 X69.709 Y78.682 E.33182
G1 X69.386 Y78.723 E.01018
G1 X69.172 Y78.795 E.00708
G1 X69.05 Y78.865 E.00441
G1 X68.934 Y78.969 E.00487
G1 X68.845 Y79.103 E.00506
G1 X68.802 Y79.23 E.00419
G1 X68.79 Y79.384 E.00486
G1 X68.89 Y79.847 E.01483
G1 X67.715 Y79.847 E.03683
G1 X67.715 Y82.847 E.09406
G1 X65.135 Y82.847 E.08089
G1 X65.135 Y74.96 E.24729
G1 X84.865 Y74.96 E.6186
G1 X84.865 Y82.79 E.24551
M204 P1000
G1 X84.217 Y82.677 F9000
M204 P800
G1 F1200
G1 X84.217 Y75.299 E.23133
G1 X83.799 Y75.299 E.01314
G1 X83.799 Y82.507 E.22601
G1 X83.38 Y82.507 E.01314
G1 X83.38 Y75.299 E.22601
G1 X82.961 Y75.299 E.01314
G1 X82.961 Y82.507 E.22601
G1 X82.624 Y82.507 E.01054
G1 X82.624 Y79.507 E.09406
G1 X82.542 Y79.507 E.00259
G1 X82.542 Y75.299 E.13194
G1 X82.123 Y75.299 E.01314
G1 X82.123 Y79.507 E.13194
G1 X81.704 Y79.507 E.01314
G1 X81.704 Y75.299 E.13194
G1 X81.285 Y75.299 E.01314
G1 X81.285 Y78.707 E.10686
G1 X81.111 Y78.564 E.00706
G1 X80.866 Y78.446 E.00854
G1 X80.866 Y75.299 E.09866
G1 X80.447 Y75.299 E.01314
G1 X80.447 Y78.351 E.09569
M73 P4 R18
G1 X80.028 Y78.343 E.01314
G1 X80.028 Y75.299 E.09544
G1 X79.609 Y75.299 E.01314
G1 X79.609 Y78.343 E.09544
G1 X79.19 Y78.343 E.01314
G1 X79.19 Y75.299 E.09544
G1 X78.771 Y75.299 E.01314
G1 X78.771 Y78.343 E.09544
G1 X78.352 Y78.343 E.01314
G1 X78.352 Y75.299 E.09544
G1 X77.933 Y75.299 E.01314
G1 X77.933 Y78.343 E.09544
G1 X77.514 Y78.343 E.01314
G1 X77.514 Y75.299 E.09544
G1 X77.095 Y75.299 E.01314
G1 X77.095 Y78.343 E.09544
G1 X76.676 Y78.343 E.01314
G1 X76.676 Y75.299 E.09544
G1 X76.257 Y75.299 E.01314
G1 X76.257 Y78.343 E.09544
G1 X75.838 Y78.343 E.01314
G1 X75.838 Y75.299 E.09544
G1 X75.419 Y75.299 E.01314
G1 X75.419 Y78.343 E.09544
G1 X75 Y78.343 E.01314
G1 X75 Y75.299 E.09544
G1 X74.581 Y75.299 E.01314
G1 X74.581 Y78.343 E.09544
G1 X74.162 Y78.343 E.01314
G1 X74.162 Y75.299 E.09544
G1 X73.743 Y75.299 E.01314
G1 X73.743 Y78.343 E.09544
G1 X73.324 Y78.343 E.01314
G1 X73.324 Y75.299 E.09544
G1 X72.905 Y75.299 E.01314
G1 X72.905 Y78.343 E.09544
G1 X72.486 Y78.343 E.01314
G1 X72.486 Y75.299 E.09544
G1 X72.067 Y75.299 E.01314
G1 X72.067 Y78.343 E.09544
G1 X71.648 Y78.343 E.01314
G1 X71.648 Y75.299 E.09544
G1 X71.229 Y75.299 E.01314
G1 X71.229 Y78.343 E.09544
G1 X70.81 Y78.343 E.01314
G1 X70.81 Y75.299 E.09544
G1 X70.391 Y75.299 E.01314
G1 X70.391 Y78.343 E.09544
G1 X69.972 Y78.343 E.01314
G1 X69.972 Y75.299 E.09544
G1 X69.553 Y75.299 E.01314
G1 X69.553 Y78.351 E.09569
G1 X69.321 Y78.39 E.00737
G1 X69.134 Y78.446 E.00612
G1 X69.134 Y75.299 E.09866
G1 X68.715 Y75.299 E.01314
G1 X68.715 Y78.707 E.10686
G1 X68.578 Y78.883 E.00699
G1 X68.494 Y79.068 E.00638
G1 X68.45 Y79.288 E.00704
G1 X68.466 Y79.507 E.00688
G1 X68.296 Y79.507 E.00532
G1 X68.296 Y75.299 E.13194
G1 X67.877 Y75.299 E.01314
G1 X67.877 Y79.507 E.13194
G1 X67.458 Y79.507 E.01314
G1 X67.458 Y75.299 E.13194
G1 X67.039 Y75.299 E.01314
G1 X67.039 Y82.507 E.22601
G1 X66.62 Y82.507 E.01314
G1 X66.62 Y75.299 E.22601
G1 X66.201 Y75.299 E.01314
G1 X66.201 Y82.507 E.22601
G1 X65.783 Y82.507 E.01314
G1 X65.783 Y75.129 E.23133
M204 P1000
G1 E-2.24 F4200
;WIPE_START
G1 F7200
G1 X65.783 Y76.775 E-.912
;WIPE_END
G1 E-.048 F4200
G1 Z.4 F720
G1 X69.83 Y79.858 F9000
G1 Z.2 F720
G1 E3.2 F2400
M204 P800
;TYPE:External perimeter
;WIDTH:0.479826
G1 F1200
G1 X69.691 Y79.944 E.00597
G1 X69.541 Y79.439 E.01911
G1 X70.067 Y79.388 E.01918
;WIDTH:0.452055
G1 X79.933 Y79.39 E.33566
;WIDTH:0.459162
G1 X80.049 Y79.394 E.00402
;WIDTH:0.479063
G1 X80.456 Y79.454 E.01491
G1 X80.308 Y79.943 E.01855
G1 X80.174 Y79.845 E.00603
G1 X79.933 Y79.798 E.00889
;WIDTH:0.452055
G1 X70.067 Y79.798 E.33566
;WIDTH:0.479826
G1 X69.883 Y79.829 E.00679
M204 P1000
; stop printing object Buckle Side 1 (Updated).stl id:0 copy 0
; printing object Buckle Side 2 (Updated).stl id:1 copy 0
G1 E-2.24 F4200
;WIPE_START
G1 F7200
G1 X69.691 Y79.944 E-.12392
G1 X69.541 Y79.439 E-.29157
G1 X70.067 Y79.388 E-.29254
G1 X70.435 Y79.389 E-.20397
;WIPE_END
G1 E-.048 F4200
G1 Z.4 F720
G1 X64.723 Y86.693 F9000
G1 Z.2 F720
G1 E3.2 F2400
M204 P800
;TYPE:Support material
;WIDTH:0.42
G1 F1200
G1 X44.993 Y86.693 E.6186
G1 X44.993 Y76.185 E.32948
G1 X54.867 Y76.21 E.30959
G1 X64.723 Y76.185 E.30902
M73 P5 R18
G1 X64.723 Y86.637 E.3277
M204 P1000
G1 E-2.24 F4200
;WIPE_START
G1 F7200
G1 X64.723 Y84.991 E-.912
;WIPE_END
G1 E-.048 F4200
G1 Z.4 F720
G1 X52.534 Y78.58 F9000
G1 Z.2 F720
G1 E3.2 F2400
M204 P800
G1 F1200
G1 X48.351 Y78.58 E.13115
G1 X48.179 Y78.649 E.00582
G1 X47.569 Y79.241 E.02667
G1 X47.477 Y79.394 E.0056
G1 X47.434 Y79.587 E.00619
G1 X47.434 Y81.64 E.06438
G1 X47.462 Y81.958 E.00999
G1 X47.52 Y82.195 E.00766
G1 X47.637 Y82.485 E.00979
G1 X47.783 Y82.727 E.00886
G1 X47.968 Y82.949 E.00907
G1 X48.134 Y83.102 E.00709
G1 X48.365 Y83.266 E.00889
G1 X48.604 Y83.388 E.0084
G1 X48.788 Y83.456 E.00614
G1 X49.15 Y83.533 E.0116
G1 X50.061 Y83.62 E.02872
G1 X51.835 Y83.746 E.05576
G1 X53.702 Y83.817 E.05856
G1 X55.57 Y83.825 E.05856
G1 X57.436 Y83.769 E.05856
G1 X58.679 Y83.697 E.03904
G1 X59.832 Y83.605 E.03625
G1 X60.632 Y83.524 E.02523
G1 X60.928 Y83.456 E.00952
G1 X61.112 Y83.388 E.00613
G1 X61.342 Y83.271 E.0081
G1 X61.69 Y83.007 E.01369
G1 X61.969 Y82.675 E.0136
G1 X62.079 Y82.486 E.00686
G1 X62.166 Y82.287 E.0068
G1 X62.252 Y81.97 E.01031
G1 X62.281 Y81.7 E.00852
G1 X62.282 Y79.586 E.06626
G1 X62.266 Y79.477 E.00347
G1 X62.217 Y79.346 E.0044
G1 X62.123 Y79.213 E.00509
G1 X61.537 Y78.649 E.02552
G1 X61.365 Y78.58 E.00581
G1 X57.182 Y78.58 E.13113
G1 X54.858 Y76.34 E.10121
G1 X52.575 Y78.541 E.09944
M204 P1000
G1 E-2.24 F4200
;WIPE_START
G1 F7200
G1 X53.76 Y77.398 E-.912
;WIPE_END
G1 E-.048 F4200
G1 Z.4 F720
G1 X64.076 Y86.524 F9000
G1 Z.2 F720
G1 E3.2 F2400
M204 P800
G1 F1200
G1 X64.076 Y76.526 E.31346
G1 X63.657 Y76.527 E.01314
G1 X63.657 Y86.354 E.30811
G1 X63.238 Y86.354 E.01314
G1 X63.238 Y76.528 E.30808
G1 X62.819 Y76.529 E.01314
G1 X62.819 Y86.354 E.30804
G1 X62.4 Y86.354 E.01314
G1 X62.4 Y82.602 E.11765
G1 X62.211 Y82.921 E.01162
G1 X61.981 Y83.197 E.01128
G1 X61.981 Y86.354 E.09898
G1 X61.562 Y86.354 E.01314
G1 X61.562 Y83.534 E.08841
G1 X61.143 Y83.741 E.01465
G1 X61.143 Y86.354 E.08193
G1 X60.724 Y86.354 E.01314
G1 X60.724 Y83.853 E.07842
G1 X60.305 Y83.901 E.01322
G1 X60.305 Y86.354 E.07691
G1 X59.886 Y86.354 E.01314
G1 X59.886 Y83.941 E.07567
G1 X59.467 Y83.977 E.01319
G1 X59.467 Y86.354 E.07453
G1 X59.048 Y86.354 E.01314
G1 X59.048 Y84.01 E.07348
G1 X58.629 Y84.04 E.01317
G1 X58.629 Y86.354 E.07254
G1 X58.21 Y86.354 E.01314
G1 X58.21 Y84.067 E.0717
G1 X57.791 Y84.091 E.01316
G1 X57.791 Y86.354 E.07095
G1 X57.372 Y86.354 E.01314
G1 X57.372 Y84.112 E.07031
G1 X56.953 Y84.129 E.01315
G1 X56.953 Y86.354 E.06977
G1 X56.534 Y86.354 E.01314
G1 X56.534 Y84.143 E.06932
G1 X56.115 Y84.154 E.01314
G1 X56.115 Y86.354 E.06897
G1 X55.696 Y86.354 E.01314
G1 X55.696 Y84.162 E.06873
G1 X55.277 Y84.167 E.01314
G1 X55.277 Y86.354 E.06858
G1 X54.858 Y86.354 E.01314
G1 X54.858 Y84.169 E.06852
G1 X54.439 Y84.167 E.01314
G1 X54.439 Y86.354 E.06858
G1 X54.02 Y86.354 E.01314
G1 X54.02 Y84.162 E.06873
G1 X53.601 Y84.154 E.01314
G1 X53.601 Y86.354 E.06898
G1 X53.182 Y86.354 E.01314
G1 X53.182 Y84.143 E.06932
G1 X52.763 Y84.129 E.01314
G1 X52.763 Y86.354 E.06977
G1 X52.344 Y86.354 E.01314
G1 X52.344 Y84.111 E.07031
G1 X51.925 Y84.091 E.01315
G1 X51.925 Y86.354 E.07096
G1 X51.506 Y86.354 E.01314
G1 X51.506 Y84.067 E.0717
G1 X51.087 Y84.04 E.01316
G1 X51.087 Y86.354 E.07254
G1 X50.668 Y86.354 E.01314
G1 X50.668 Y84.01 E.07349
G1 X50.249 Y83.977 E.01318
G1 X50.249 Y86.354 E.07453
G1 X49.83 Y86.354 E.01314
G1 X49.83 Y83.941 E.07567
G1 X49.411 Y83.901 E.0132
