; generated by PrusaSlicer 2.5.0+win64 on 2023-02-13 at 02:28:42 UTC


;
;

;
;
; 

; external perimeters extrusion width = 0.45mm
; perimeters extrusion width = 0.45mm
; infill extrusion width = 0.45mm
; solid infill extrusion width = 0.45mm
; top infill extrusion width = 0.40mm
; first layer extrusion width = 0.42mm

; external perimeters extrusion width = 0.45mm
; perimeters extrusion width = 0.45mm
; infill extrusion width = 0.45mm
; solid infill extrusion width = 0.45mm
; top infill extrusion width = 0.40mm
; first layer extrusion width = 0.42mm

M73 P0 R138
M201 X2500 Y2500 Z400 E5000 ; sets maximum accelerations, mm/sec^2
M203 X180 Y180 Z12 E80 ; sets maximum feedrates, mm / sec
M204 P1250 R1250 T2500 ; sets acceleration (P, T) and retract acceleration (R), mm/sec^2
M205 X8.00 Y8.00 Z2.00 E10.00 ; sets the jerk limits, mm/sec
M205 S0 T0 ; sets the minimum extruding and travel feed rate, mm/sec
M107
;TYPE:Custom
M862.3 P "MINI" ; printer model check
G90 ; use absolute coordinates
M83 ; extruder relative mode
M104 S170 ; set extruder temp for bed leveling
M140 S60 ; set bed temp
M109 R170 ; wait for bed leveling temp
M190 S60 ; wait for bed temp
M204 T1250 ; set travel acceleration
G28 ; home all without mesh bed level
G29 ; mesh bed leveling 
M204 T2500 ; restore travel acceleration
M104 S215 ; set extruder temp
G92 E0
G1 Y-2 X179 F2400
G1 Z3 F720
M109 S215 ; wait for extruder temp

; intro line
G1 X170 F1000
G1 Z0.2 F720
G1 X110 E8 F900
G1 X40 E10 F700
G92 E0

M221 S95 ; set flow
G21 ; set units to millimeters
G90 ; use absolute coordinates
M83 ; use relative distances for extrusion
M900 K0.2 ; Filament gcode LA 1.5
; ; Filament gcode LA 1.0
M107
;LAYER_CHANGE
;Z:0.2
;HEIGHT:0.2
;BEFORE_LAYER_CHANGE
G92 E0.0
;0.2


G1 E-3.2 F4200
G1 Z.2 F720
;AFTER_LAYER_CHANGE
;0.2
G1 Z.4
G1 X26.556 Y27.539 F9000
G1 Z.2 F720
G1 E3.2 F2400
M204 P800
;TYPE:Skirt/Brim
;WIDTH:0.42
G1 F1200
G1 X28.237 Y26.843 E.05704
G1 X131.763 Y26.843 E3.24598
G1 X133.444 Y27.539 E.05704
G1 X136.431 Y30.527 E.13247
G1 X137.128 Y32.207 E.05704
G1 X137.128 Y121.324 E2.79418
G1 X136.431 Y123.004 E.05704
G1 X133.444 Y125.992 E.13247
G1 X131.763 Y126.688 E.05704
G1 X28.237 Y126.688 E3.24598
G1 X26.556 Y125.992 E.05704
G1 X23.569 Y123.004 E.13247
G1 X22.872 Y121.324 E.05704
G1 X22.872 Y32.207 E2.79418
G1 X23.569 Y30.527 E.05704
M73 P0 R137
G1 X26.514 Y27.581 E.13059
M204 P1000
G1 E-2.24 F4200
;WIPE_START
G1 F7200
G1 X28.026 Y26.933 E-.912
;WIPE_END
G1 E-.048 F4200
G1 Z.4 F720
G1 X29.991 Y79.597 F9000
G1 Z.2 F720
G1 E3.2 F2400
M204 P800
G1 F1200
G1 X130.04 Y79.6 E3.13694
G1 X131.06 Y79.794 E.03256
G1 X132.038 Y80.21 E.03333
G1 X133.163 Y81.106 E.04508
G1 X134.056 Y82.444 E.05044
G1 X134.464 Y83.989 E.05011
G1 X134.464 Y119.629 E1.11748
G1 X134.141 Y120.972 E.0433
G1 X133.527 Y122.084 E.03982
G1 X132.612 Y123.023 E.04113
G1 X131.463 Y123.683 E.04154
G1 X130.009 Y124.025 E.04684
G1 X29.931 Y124.025 E3.13786
G1 X28.589 Y123.701 E.0433
G1 X27.477 Y123.088 E.03982
G1 X26.538 Y122.172 E.04113
G1 X25.877 Y121.024 E.04154
G1 X25.536 Y119.569 E.04684
G1 X25.536 Y83.992 E1.1155
G1 X25.859 Y82.649 E.0433
G1 X26.473 Y81.538 E.03982
G1 X27.388 Y80.598 E.04113
G1 X28.537 Y79.938 E.04154
G1 X29.933 Y79.61 E.04496
M204 P1000
G1 X30.013 Y79.974 F9000
M204 P800
G1 F1200
G1 X130.021 Y79.977 E3.1357
G1 X130.968 Y80.16 E.03023
G1 X131.865 Y80.546 E.03062
G1 X132.904 Y81.381 E.0418
G1 X133.7 Y82.572 E.0449
G1 X134.087 Y84.014 E.04682
G1 X134.087 Y119.606 E1.11597
G1 X133.781 Y120.857 E.04036
G1 X133.211 Y121.877 E.03664
G1 X132.362 Y122.739 E.03794
G1 X131.301 Y123.342 E.03825
G1 X129.987 Y123.647 E.0423
G1 X29.954 Y123.647 E3.13646
G1 X28.704 Y123.341 E.04036
G1 X27.684 Y122.771 E.03664
G1 X26.821 Y121.923 E.03794
G1 X26.219 Y120.862 E.03825
G1 X25.913 Y119.548 E.0423
G1 X25.913 Y84.015 E1.11411
G1 X26.219 Y82.765 E.04036
G1 X26.789 Y81.744 E.03664
G1 X27.638 Y80.882 E.03794
G1 X28.699 Y80.28 E.03825
G1 X29.954 Y79.987 E.04042
M204 P1000
G1 X30.034 Y80.351 F9000
M204 P800
G1 F1200
G1 X130.003 Y80.354 E3.13445
G1 X130.874 Y80.526 E.02786
G1 X131.691 Y80.881 E.02791
G1 X132.643 Y81.655 E.03848
G1 X133.368 Y82.753 E.04126
G1 X133.71 Y84.038 E.0417
G1 X133.71 Y119.583 E1.11447
G1 X133.421 Y120.741 E.03742
G1 X132.923 Y121.632 E.03202
G1 X132.152 Y122.425 E.03467
G1 X131.139 Y123 E.03653
G1 X129.966 Y123.27 E.03774
G1 X29.978 Y123.27 E3.13506
G1 X28.82 Y122.982 E.03742
G1 X27.928 Y122.483 E.03202
G1 X27.136 Y121.713 E.03467
G1 X26.56 Y120.699 E.03653
G1 X26.29 Y119.527 E.03774
G1 X26.29 Y84.038 E1.11271
G1 X26.579 Y82.88 E.03742
G1 X27.077 Y81.989 E.03202
G1 X27.848 Y81.196 E.03467
G1 X28.861 Y80.621 E.03653
G1 X29.975 Y80.364 E.03586
M204 P1000
G1 X30.055 Y80.728 F9000
M204 P800
G1 F1200
G1 X129.984 Y80.731 E3.13319
G1 X130.779 Y80.892 E.02545
M73 P1 R137
G1 X131.514 Y81.215 E.02518
G1 X132.381 Y81.927 E.03516
G1 X133.035 Y82.933 E.03763
G1 X133.333 Y84.062 E.03663
G1 X133.333 Y119.559 E1.11296
G1 X133.062 Y120.622 E.03441
G1 X132.608 Y121.424 E.02889
G1 X131.903 Y122.141 E.03152
G1 X130.979 Y122.658 E.03319
G1 X129.945 Y122.893 E.03325
G1 X30.002 Y122.893 E3.13365
G1 X28.938 Y122.623 E.03441
M73 P1 R136
G1 X28.137 Y122.168 E.02889
G1 X27.42 Y121.463 E.03152
G1 X26.903 Y120.54 E.03319
G1 X26.667 Y119.506 E.03325
G1 X26.667 Y84.062 E1.1113
G1 X26.938 Y82.999 E.03441
G1 X27.392 Y82.197 E.02889
G1 X28.097 Y81.481 E.03152
G1 X29.021 Y80.964 E.03319
G1 X29.996 Y80.741 E.03137
M204 P1000
G1 X30.076 Y81.105 F9000
M204 P800
G1 F1200
G1 X129.965 Y81.109 E3.13196
G1 X130.646 Y81.245 E.02178
G1 X131.338 Y81.549 E.02369
G1 X132.117 Y82.198 E.03181
G1 X132.679 Y83.06 E.03225
G1 X132.956 Y84.088 E.03337
G1 X132.956 Y119.534 E1.1114
G1 X132.704 Y120.502 E.03135
G1 X132.294 Y121.213 E.02574
G1 X131.655 Y121.855 E.02838
G1 X130.821 Y122.314 E.02986
G1 X129.925 Y122.516 E.02882
G1 X30.026 Y122.516 E3.13224
G1 X29.059 Y122.265 E.03135
G1 X28.347 Y121.855 E.02574
G1 X27.706 Y121.216 E.02838
G1 X27.246 Y120.382 E.02986
G1 X27.044 Y119.485 E.02882
G1 X27.044 Y84.087 E1.10989
G1 X27.296 Y83.119 E.03135
G1 X27.706 Y82.408 E.02574
G1 X28.345 Y81.766 E.02838
G1 X29.179 Y81.307 E.02986
G1 X30.017 Y81.118 E.02695
M204 P1000
G1 X30.096 Y81.482 F9000
M204 P800
G1 F1200
G1 X129.945 Y81.486 E3.13071
G1 X130.549 Y81.61 E.01933
G1 X131.159 Y81.882 E.02093
G1 X131.852 Y82.467 E.02843
G1 X132.345 Y83.238 E.0287
G1 X132.579 Y84.112 E.02837
G1 X132.579 Y119.509 E1.10985
G1 X132.347 Y120.379 E.02822
G1 X131.982 Y121 E.02259
G1 X131.41 Y121.567 E.02525
G1 X130.666 Y121.97 E.02653
G1 X129.904 Y122.139 E.02447
G1 X30.052 Y122.139 E3.13081
G1 X29.182 Y121.907 E.02822
G1 X28.56 Y121.543 E.02259
G1 X27.993 Y120.971 E.02525
G1 X27.591 Y120.227 E.02653
G1 X27.421 Y119.465 E.02447
G1 X27.421 Y84.112 E1.10846
G1 X27.653 Y83.242 E.02822
G1 X28.018 Y82.621 E.02259
G1 X28.59 Y82.054 E.02525
G1 X29.334 Y81.651 E.02653
G1 X30.037 Y81.495 E.02259
M204 P1000
G1 X30.118 Y81.859 F9000
M204 P800
G1 F1200
G1 X129.925 Y81.863 E3.12939
G1 X130.45 Y81.974 E.01682
G1 X130.977 Y82.214 E.01817
G1 X131.585 Y82.735 E.0251
G1 X131.99 Y83.366 E.02351
G1 X132.202 Y84.138 E.0251
G1 X132.202 Y119.483 E1.10822
G1 X131.99 Y120.254 E.02507
G1 X131.697 Y120.752 E.01811
G1 X131.203 Y121.251 E.02202
G1 X130.555 Y121.608 E.0232
G1 X129.882 Y121.762 E.02163
G1 X30.077 Y121.762 E3.12931
G1 X29.306 Y121.551 E.02507
G1 X28.808 Y121.258 E.01811
G1 X28.309 Y120.764 E.02202
G1 X27.952 Y120.116 E.0232
G1 X27.798 Y119.443 E.02163
G1 X27.798 Y84.138 E1.10696
G1 X28.01 Y83.367 E.02507
G1 X28.303 Y82.869 E.01811
G1 X28.797 Y82.37 E.02202
G1 X29.445 Y82.013 E.0232
G1 X30.059 Y81.872 E.01975
M204 P1000
G1 X30.138 Y82.236 F9000
M204 P800
G1 F1200
G1 X129.904 Y82.24 E3.12808
G1 X130.347 Y82.337 E.01424
G1 X130.793 Y82.544 E.01541
G1 X131.316 Y83.001 E.02178
G1 X131.635 Y83.496 E.01847
G1 X131.824 Y84.165 E.02179
G1 X131.824 Y119.456 E1.10654
G1 X131.635 Y120.126 E.02182
G1 X131.387 Y120.536 E.01503
G1 X130.958 Y120.964 E.019
G1 X130.4 Y121.264 E.01986
G1 X129.862 Y121.385 E.0173
G1 X30.104 Y121.385 E3.12783
G1 X29.435 Y121.195 E.02182
G1 X29.024 Y120.948 E.01503
G1 X28.597 Y120.518 E.019
G1 X28.297 Y119.961 E.01986
G1 X28.176 Y119.422 E.0173
G1 X28.176 Y84.165 E1.10548
G1 X28.365 Y83.495 E.02182
G1 X28.613 Y83.085 E.01503
G1 X29.042 Y82.658 E.019
G1 X29.6 Y82.357 E.01986
G1 X30.08 Y82.249 E.01542
M204 P1000
G1 X30.158 Y82.613 F9000
M204 P800
G1 F1200
G1 X129.881 Y82.617 E3.12674
G1 X130.241 Y82.7 E.01157
M73 P1 R135
G1 X130.606 Y82.872 E.01266
G1 X131.046 Y83.264 E.01848
G1 X131.282 Y83.63 E.01362
G1 X131.447 Y84.193 E.01841
G1 X131.447 Y119.428 E1.10478
G1 X131.281 Y119.993 E.01845
G1 X131.08 Y120.317 E.01195
G1 X130.715 Y120.673 E.016
G1 X130.249 Y120.918 E.01652
G1 X129.842 Y121.008 E.01307
G1 X30.132 Y121.008 E3.12632
G1 X29.568 Y120.842 E.01845
G1 X29.244 Y120.641 E.01195
G1 X28.887 Y120.276 E.016
G1 X28.643 Y119.809 E.01652
G1 X28.553 Y119.402 E.01307
G1 X28.553 Y84.193 E1.10396
G1 X28.719 Y83.628 E.01845
M73 P2 R135
G1 X28.92 Y83.305 E.01195
G1 X29.285 Y82.948 E.016
G1 X29.751 Y82.703 E.01652
G1 X30.1 Y82.626 E.01119
M204 P1000
G1 X30.178 Y82.99 F9000
M204 P800
G1 F1200
G1 X129.86 Y82.994 E3.12544
G1 X130.098 Y83.049 E.00767
G1 X130.418 Y83.201 E.01111
G1 X130.773 Y83.525 E.01508
G1 X130.93 Y83.767 E.00902
G1 X131.07 Y84.222 E.01495
G1 X131.07 Y119.399 E1.10293
G1 X130.93 Y119.854 E.01496
G1 X130.777 Y120.092 E.00886
G1 X130.476 Y120.381 E.01306
G1 X130.102 Y120.57 E.01316
G1 X129.822 Y120.631 E.00898
G1 X30.162 Y120.631 E3.12477
G1 X29.706 Y120.49 E.01496
G1 X29.468 Y120.337 E.00886
G1 X29.18 Y120.037 E.01306
G1 X28.99 Y119.662 E.01316
G1 X28.93 Y119.382 E.00898
G1 X28.93 Y84.222 E1.10242
G1 X29.07 Y83.767 E.01496
G1 X29.223 Y83.529 E.00886
G1 X29.524 Y83.24 E.01306
G1 X29.898 Y83.051 E.01316
G1 X30.12 Y83.003 E.0071
M204 P1000
G1 X30.196 Y83.368 F9000
M204 P800
G1 F1200
G1 X129.838 Y83.371 E3.12419
G1 X129.955 Y83.399 E.00377
G1 X130.229 Y83.528 E.0095
G1 X130.497 Y83.783 E.0116
G1 X130.58 Y83.91 E.00476
G1 X130.693 Y84.254 E.01136
G1 X130.693 Y119.367 E1.10094
G1 X130.58 Y119.711 E.01136
G1 X130.496 Y119.84 E.00484
G1 X130.278 Y120.059 E.00967
G1 X129.954 Y120.222 E.01136
G1 X129.803 Y120.254 E.00484
G1 X30.194 Y120.254 E3.12318
G1 X29.849 Y120.141 E.01136
G1 X29.72 Y120.056 E.00484
G1 X29.502 Y119.838 E.00967
G1 X29.338 Y119.515 E.01136
G1 X29.307 Y119.364 E.00484
G1 X29.307 Y84.254 E1.10083
G1 X29.42 Y83.91 E.01136
G1 X29.504 Y83.781 E.00484
G1 X29.722 Y83.563 E.00967
G1 X30.046 Y83.399 E.01136
G1 X30.137 Y83.38 E.00293
M204 P1000
G1 X30.21 Y83.745 F9000
M204 P800
G1 F1200
G1 X129.817 Y83.751 E3.12312
G1 X130.036 Y83.854 E.00757
G1 X130.217 Y84.035 E.00802
G1 X130.316 Y84.289 E.00856
G1 X130.316 Y119.332 E1.09874
G1 X130.217 Y119.586 E.00856
G1 X130.036 Y119.767 E.00802
G1 X129.785 Y119.877 E.00856
G1 X30.229 Y119.877 E3.12153
G1 X29.974 Y119.777 E.00856
G1 X29.793 Y119.596 E.00802
G1 X29.684 Y119.346 E.00856
G1 X29.684 Y84.289 E1.09918
G1 X29.783 Y84.035 E.00856
G1 X29.964 Y83.854 E.00802
G1 X30.154 Y83.765 E.00656
M204 P1000
G1 X30.271 Y84.122 F9000
M204 P800
G1 F1200
G1 X129.729 Y84.122 E3.11846
G1 X129.799 Y84.15 E.00235
M73 P2 R134
G1 X129.91 Y84.262 E.00495
G1 X129.939 Y84.331 E.00235
G1 X129.939 Y119.29 E1.09611
G1 X129.91 Y119.359 E.00235
G1 X129.799 Y119.471 E.00495
G1 X129.729 Y119.5 E.00235
G1 X30.271 Y119.5 E3.11846
G1 X30.201 Y119.471 E.00235
G1 X30.09 Y119.359 E.00495
G1 X30.061 Y119.29 E.00235
G1 X30.061 Y84.331 E1.09611
G1 X30.09 Y84.262 E.00235
G1 X30.215 Y84.144 E.00539
M204 P1000
G1 E-2.24 F4200
;WIPE_START
G1 F7200
G1 X31.861 Y84.144 E-.912
;WIPE_END
G1 E-.048 F4200
G1 Z.4 F720
G1 X30.215 Y73.934 F9000
G1 Z.2 F720
G1 E3.2 F2400
M204 P800
G1 F1200
G1 X29.931 Y73.934 E.0089
G1 X28.589 Y73.611 E.0433
G1 X27.477 Y72.997 E.03982
G1 X26.538 Y72.082 E.04113
G1 X25.877 Y70.933 E.04154
G1 X25.536 Y69.479 E.04684
G1 X25.536 Y33.902 E1.1155
G1 X25.859 Y32.559 E.0433
G1 X26.473 Y31.447 E.03982
G1 X27.388 Y30.508 E.04113
G1 X28.537 Y29.848 E.04154
G1 X29.991 Y29.506 E.04684
G1 X130.04 Y29.51 E3.13694
G1 X131.06 Y29.704 E.03256
G1 X132.038 Y30.12 E.03333
G1 X133.163 Y31.015 E.04508
G1 X134.056 Y32.353 E.05044
G1 X134.464 Y33.899 E.05011
G1 X134.464 Y69.539 E1.11748
G1 X134.141 Y70.882 E.0433
G1 X133.527 Y71.993 E.03982
G1 X132.612 Y72.933 E.04113
G1 X131.463 Y73.593 E.04154
G1 X130.009 Y73.934 E.04684
G1 X30.275 Y73.934 E3.12708
M204 P1000
G1 X30.275 Y73.557 F9000
M204 P800
G1 F1200
G1 X29.954 Y73.557 E.01006
G1 X28.704 Y73.251 E.04036
G1 X27.684 Y72.681 E.03664
G1 X26.821 Y71.832 E.03794
G1 X26.219 Y70.771 E.03825
G1 X25.913 Y69.458 E.0423
G1 X25.913 Y33.925 E1.11411
G1 X26.219 Y32.674 E.04036
G1 X26.789 Y31.654 E.03664
G1 X27.638 Y30.792 E.03794
G1 X28.699 Y30.189 E.03825
G1 X30.013 Y29.883 E.0423
G1 X130.021 Y29.887 E3.1357
G1 X130.968 Y30.07 E.03023
G1 X131.865 Y30.455 E.03062
G1 X132.904 Y31.291 E.0418
G1 X133.7 Y32.481 E.0449
G1 X134.087 Y33.924 E.04682
G1 X134.087 Y69.516 E1.11597
G1 X133.781 Y70.766 E.04036
G1 X133.211 Y71.787 E.03664
G1 X132.362 Y72.649 E.03794
G1 X131.301 Y73.251 E.03825
G1 X129.987 Y73.557 E.0423
G1 X30.335 Y73.557 E3.12452
M204 P1000
G1 X30.335 Y73.18 F9000
M204 P800
M73 P3 R134
G1 F1200
G1 X29.978 Y73.18 E.0112
G1 X28.82 Y72.891 E.03742
G1 X27.928 Y72.393 E.03202
G1 X27.136 Y71.622 E.03467
G1 X26.56 Y70.609 E.03653
G1 X26.29 Y69.436 E.03774
G1 X26.29 Y33.948 E1.11271
G1 X26.579 Y32.79 E.03742
G1 X27.077 Y31.899 E.03202
G1 X27.848 Y31.106 E.03467
G1 X28.861 Y30.531 E.03653
G1 X30.034 Y30.261 E.03774
G1 X130.003 Y30.264 E3.13445
G1 X130.874 Y30.436 E.02786
G1 X131.691 Y30.791 E.02791
G1 X132.643 Y31.565 E.03848
G1 X133.368 Y32.663 E.04126
G1 X133.71 Y33.948 E.0417
G1 X133.71 Y69.493 E1.11447
G1 X133.421 Y70.65 E.03742
G1 X132.923 Y71.542 E.03202
G1 X132.152 Y72.335 E.03467
G1 X131.139 Y72.91 E.03653
G1 X129.966 Y73.18 E.03774
G1 X30.395 Y73.18 E3.12198
M204 P1000
G1 X30.395 Y72.803 F9000
M204 P800
G1 F1200
G1 X30.002 Y72.803 E.01233
G1 X28.938 Y72.533 E.03441
G1 X28.137 Y72.078 E.02889
G1 X27.42 Y71.373 E.03152
G1 X26.903 Y70.449 E.03319
G1 X26.667 Y69.416 E.03325
G1 X26.667 Y33.972 E1.1113
G1 X26.938 Y32.909 E.03441
G1 X27.392 Y32.107 E.02889
G1 X28.097 Y31.39 E.03152
G1 X29.021 Y30.873 E.03319
G1 X30.055 Y30.638 E.03325
G1 X129.984 Y30.641 E3.13319
G1 X130.779 Y30.801 E.02545
M73 P3 R133
G1 X131.514 Y31.125 E.02518
G1 X132.381 Y31.837 E.03516
G1 X133.035 Y32.843 E.03763
G1 X133.333 Y33.972 E.03663
G1 X133.333 Y69.469 E1.11296
G1 X133.062 Y70.532 E.03441
G1 X132.608 Y71.334 E.02889
G1 X131.903 Y72.05 E.03152
G1 X130.979 Y72.567 E.03319
G1 X129.945 Y72.803 E.03325
G1 X30.455 Y72.803 E3.11944
M204 P1000
G1 X30.455 Y72.426 F9000
M204 P800
G1 F1200
G1 X30.026 Y72.426 E.01344
G1 X29.059 Y72.174 E.03135
G1 X28.347 Y71.764 E.02574
G1 X27.706 Y71.126 E.02838
G1 X27.246 Y70.292 E.02986
G1 X27.044 Y69.395 E.02882
G1 X27.044 Y33.997 E1.10989
G1 X27.296 Y33.029 E.03135
G1 X27.706 Y32.318 E.02574
G1 X28.345 Y31.676 E.02838
G1 X29.179 Y31.217 E.02986
G1 X30.076 Y31.015 E.02883
G1 X129.965 Y31.018 E3.13196
G1 X130.646 Y31.155 E.02178
G1 X131.338 Y31.459 E.02369
G1 X132.117 Y32.108 E.03181
G1 X132.679 Y32.97 E.03225
G1 X132.956 Y33.997 E.03337
G1 X132.956 Y69.444 E1.1114
G1 X132.704 Y70.412 E.03135
G1 X132.294 Y71.123 E.02574
G1 X131.655 Y71.765 E.02838
G1 X130.821 Y72.224 E.02986
G1 X129.925 Y72.426 E.02882
G1 X30.515 Y72.426 E3.11691
M204 P1000
G1 X30.515 Y72.049 F9000
M204 P800
G1 F1200
G1 X30.052 Y72.049 E.01454
G1 X29.182 Y71.817 E.02822
G1 X28.56 Y71.452 E.02259
G1 X27.993 Y70.88 E.02525
G1 X27.591 Y70.136 E.02653
G1 X27.421 Y69.375 E.02447
G1 X27.421 Y34.022 E1.10846
G1 X27.653 Y33.152 E.02822
G1 X28.018 Y32.531 E.02259
G1 X28.59 Y31.964 E.02525
G1 X29.334 Y31.561 E.02653
G1 X30.096 Y31.392 E.02447
G1 X129.945 Y31.395 E3.13071
G1 X130.549 Y31.52 E.01933
G1 X131.159 Y31.792 E.02093
G1 X131.852 Y32.377 E.02843
G1 X132.345 Y33.148 E.0287
G1 X132.579 Y34.022 E.02837
G1 X132.579 Y69.419 E1.10985
G1 X132.347 Y70.289 E.02822
G1 X131.982 Y70.91 E.02259
G1 X131.41 Y71.477 E.02525
G1 X130.666 Y71.88 E.02653
