; generated by PrusaSlicer 2.5.0+win64 on 2023-02-12 at 17:03:49 UTC


;
;

;
;
; 

; external perimeters extrusion width = 0.45mm
; perimeters extrusion width = 0.45mm
; infill extrusion width = 0.45mm
; solid infill extrusion width = 0.45mm
; top infill extrusion width = 0.40mm
; first layer extrusion width = 0.42mm

; external perimeters extrusion width = 0.45mm
; perimeters extrusion width = 0.45mm
; infill extrusion width = 0.45mm
; solid infill extrusion width = 0.45mm
; top infill extrusion width = 0.40mm
; first layer extrusion width = 0.42mm

; external perimeters extrusion width = 0.45mm
; perimeters extrusion width = 0.45mm
; infill extrusion width = 0.45mm
; solid infill extrusion width = 0.45mm
; top infill extrusion width = 0.40mm
; first layer extrusion width = 0.42mm

M73 P0 R214
M201 X2500 Y2500 Z400 E5000 ; sets maximum accelerations, mm/sec^2
M203 X180 Y180 Z12 E80 ; sets maximum feedrates, mm / sec
M204 P1250 R1250 T2500 ; sets acceleration (P, T) and retract acceleration (R), mm/sec^2
M205 X8.00 Y8.00 Z2.00 E10.00 ; sets the jerk limits, mm/sec
M205 S0 T0 ; sets the minimum extruding and travel feed rate, mm/sec
M107
;TYPE:Custom
M862.3 P "MINI" ; printer model check
G90 ; use absolute coordinates
M83 ; extruder relative mode
M104 S170 ; set extruder temp for bed leveling
M140 S60 ; set bed temp
M109 R170 ; wait for bed leveling temp
M190 S60 ; wait for bed temp
M204 T1250 ; set travel acceleration
G28 ; home all without mesh bed level
G29 ; mesh bed leveling 
M204 T2500 ; restore travel acceleration
M104 S215 ; set extruder temp
G92 E0
G1 Y-2 X179 F2400
G1 Z3 F720
M109 S215 ; wait for extruder temp

; intro line
M73 P0 R213
G1 X170 F1000
G1 Z0.2 F720
G1 X110 E8 F900
G1 X40 E10 F700
G92 E0

M221 S95 ; set flow
G21 ; set units to millimeters
G90 ; use absolute coordinates
M83 ; use relative distances for extrusion
M900 K0.2 ; Filament gcode LA 1.5
; ; Filament gcode LA 1.0
M107
;LAYER_CHANGE
;Z:0.2
;HEIGHT:0.2
;BEFORE_LAYER_CHANGE
G92 E0.0
;0.2


G1 E-3.2 F4200
G1 Z.2 F720
;AFTER_LAYER_CHANGE
;0.2
G1 Z.4
G1 X26.556 Y28.351 F9000
G1 Z.2 F720
G1 E3.2 F2400
M204 P800
;TYPE:Skirt/Brim
;WIDTH:0.42
G1 F1200
G1 X28.237 Y27.655 E.05704
G1 X131.763 Y27.655 E3.24598
G1 X133.444 Y28.351 E.05704
G1 X136.431 Y31.339 E.13247
G1 X137.128 Y33.019 E.05704
G1 X137.128 Y170.263 E4.30319
G1 X136.431 Y171.944 E.05704
G1 X133.444 Y174.932 E.13247
G1 X131.763 Y175.628 E.05704
G1 X28.237 Y175.628 E3.24598
G1 X26.556 Y174.932 E.05704
G1 X23.569 Y171.944 E.13247
G1 X22.872 Y170.263 E.05704
G1 X22.872 Y33.019 E4.30319
G1 X23.569 Y31.339 E.05704
G1 X26.514 Y28.393 E.13059
M204 P1000
G1 E-2.24 F4200
;WIPE_START
G1 F7200
G1 X28.026 Y27.745 E-.912
;WIPE_END
G1 E-.048 F4200
G1 Z.4 F720
G1 X27.995 Y30.971 F9000
G1 Z.2 F720
G1 E3.2 F2400
M204 P800
G1 F1200
G1 X28.537 Y30.66 E.01958
G1 X29.991 Y30.318 E.04684
G1 X130.04 Y30.322 E3.13694
G1 X131.06 Y30.516 E.03256
G1 X132.038 Y30.932 E.03333
G1 X133.163 Y31.827 E.04508
G1 X134.056 Y33.166 E.05044
G1 X134.464 Y34.711 E.05011
G1 X134.464 Y70.351 E1.11748
G1 X134.141 Y71.694 E.0433
G1 X133.527 Y72.805 E.03982
G1 X132.612 Y73.745 E.04113
G1 X131.463 Y74.405 E.04154
G1 X130.009 Y74.746 E.04684
G1 X29.931 Y74.746 E3.13786
G1 X28.589 Y74.423 E.0433
G1 X27.477 Y73.809 E.03982
G1 X26.538 Y72.894 E.04113
G1 X25.877 Y71.745 E.04154
G1 X25.536 Y70.291 E.04684
G1 X25.536 Y34.714 E1.1155
G1 X25.859 Y33.371 E.0433
G1 X26.473 Y32.259 E.03982
G1 X27.388 Y31.32 E.04113
G1 X27.943 Y31.001 E.02007
M204 P1000
G1 X28.128 Y31.326 F9000
M204 P800
G1 F1200
G1 X28.699 Y31.001 E.02059
G1 X30.013 Y30.695 E.0423
G1 X130.021 Y30.699 E3.1357
G1 X130.968 Y30.882 E.03023
G1 X131.865 Y31.267 E.03062
G1 X132.904 Y32.103 E.0418
G1 X133.7 Y33.293 E.0449
G1 X134.087 Y34.736 E.04682
G1 X134.087 Y70.328 E1.11597
G1 X133.781 Y71.578 E.04036
M73 P0 R212
G1 X133.211 Y72.599 E.03664
G1 X132.362 Y73.461 E.03794
G1 X131.301 Y74.063 E.03825
G1 X129.987 Y74.369 E.0423
G1 X29.954 Y74.369 E3.13646
G1 X28.704 Y74.063 E.04036
G1 X27.684 Y73.493 E.03664
G1 X26.821 Y72.644 E.03794
G1 X26.219 Y71.584 E.03825
G1 X25.913 Y70.27 E.0423
G1 X25.913 Y34.737 E1.11411
G1 X26.219 Y33.486 E.04036
G1 X26.789 Y32.466 E.03664
G1 X27.638 Y31.604 E.03794
G1 X28.076 Y31.355 E.01578
M204 P1000
G1 X28.262 Y31.683 F9000
M204 P800
G1 F1200
G1 X28.861 Y31.343 E.02161
G1 X30.034 Y31.073 E.03774
G1 X130.003 Y31.076 E3.13445
G1 X130.874 Y31.248 E.02786
G1 X131.691 Y31.603 E.02791
G1 X132.643 Y32.377 E.03848
G1 X133.368 Y33.475 E.04126
G1 X133.71 Y34.76 E.0417
G1 X133.71 Y70.305 E1.11447
G1 X133.421 Y71.462 E.03742
G1 X132.923 Y72.354 E.03202
G1 X132.152 Y73.147 E.03467
G1 X131.139 Y73.722 E.03653
G1 X129.966 Y73.992 E.03774
G1 X29.978 Y73.992 E3.13506
G1 X28.82 Y73.703 E.03742
G1 X27.928 Y73.205 E.03202
G1 X27.136 Y72.434 E.03467
G1 X26.56 Y71.421 E.03653
G1 X26.29 Y70.249 E.03774
G1 X26.29 Y34.76 E1.11271
G1 X26.579 Y33.602 E.03742
G1 X27.077 Y32.711 E.03202
G1 X27.848 Y31.918 E.03467
G1 X28.21 Y31.713 E.01304
M204 P1000
G1 X28.391 Y32.038 F9000
M204 P800
G1 F1200
G1 X29.021 Y31.685 E.02262
G1 X30.055 Y31.45 E.03325
G1 X129.984 Y31.453 E3.13319
G1 X130.779 Y31.613 E.02545
G1 X131.514 Y31.937 E.02518
G1 X132.381 Y32.649 E.03516
G1 X133.035 Y33.655 E.03763
G1 X133.333 Y34.784 E.03663
G1 X133.333 Y70.281 E1.11296
G1 X133.062 Y71.344 E.03441
G1 X132.608 Y72.146 E.02889
G1 X131.903 Y72.862 E.03152
G1 X130.979 Y73.379 E.03319
G1 X129.945 Y73.615 E.03325
G1 X30.002 Y73.615 E3.13365
G1 X28.938 Y73.345 E.03441
G1 X28.137 Y72.89 E.02889
G1 X27.42 Y72.185 E.03152
G1 X26.903 Y71.262 E.03319
G1 X26.667 Y70.228 E.03325
G1 X26.667 Y34.784 E1.1113
G1 X26.938 Y33.721 E.03441
G1 X27.392 Y32.919 E.02889
G1 X28.097 Y32.202 E.03152
G1 X28.339 Y32.067 E.00869
M204 P1000
G1 X28.518 Y32.392 F9000
M204 P800
G1 F1200
G1 X29.179 Y32.029 E.02364
G1 X30.076 Y31.827 E.02883
G1 X129.965 Y31.83 E3.13196
G1 X130.646 Y31.967 E.02178
G1 X131.338 Y32.271 E.02369
G1 X132.117 Y32.92 E.03181
G1 X132.679 Y33.782 E.03225
G1 X132.956 Y34.81 E.03337
G1 X132.956 Y70.256 E1.1114
G1 X132.704 Y71.224 E.03135
G1 X132.294 Y71.935 E.02574
G1 X131.655 Y72.577 E.02838
G1 X130.821 Y73.036 E.02986
G1 X129.925 Y73.238 E.02882
G1 X30.026 Y73.238 E3.13224
G1 X29.059 Y72.986 E.03135
G1 X28.347 Y72.576 E.02574
G1 X27.706 Y71.938 E.02838
G1 X27.246 Y71.104 E.02986
G1 X27.044 Y70.207 E.02882
G1 X27.044 Y34.809 E1.10989
G1 X27.296 Y33.841 E.03135
G1 X27.706 Y33.13 E.02574
G1 X28.345 Y32.488 E.02838
G1 X28.466 Y32.421 E.00434
M204 P1000
G1 X28.642 Y32.747 F9000
M204 P800
G1 F1200
G1 X29.334 Y32.373 E.02467
G1 X30.096 Y32.204 E.02447
G1 X129.945 Y32.207 E3.13071
G1 X130.549 Y32.332 E.01933
G1 X131.159 Y32.604 E.02093
G1 X131.852 Y33.189 E.02843
G1 X132.345 Y33.96 E.0287
G1 X132.579 Y34.834 E.02837
G1 X132.579 Y70.231 E1.10985
G1 X132.347 Y71.101 E.02822
G1 X131.982 Y71.722 E.02259
G1 X131.41 Y72.289 E.02525
G1 X130.666 Y72.692 E.02653
G1 X129.904 Y72.861 E.02447
G1 X30.052 Y72.861 E3.13081
G1 X29.182 Y72.629 E.02822
M73 P0 R211
G1 X28.56 Y72.264 E.02259
G1 X27.993 Y71.693 E.02525
G1 X27.591 Y70.948 E.02653
G1 X27.421 Y70.187 E.02447
G1 X27.421 Y34.834 E1.10846
G1 X27.653 Y33.964 E.02822
M73 P1 R211
G1 X28.018 Y33.343 E.02259
G1 X28.589 Y32.776 E.02524
M204 P1000
G1 X28.797 Y33.092 F9000
M204 P800
G1 F1200
G1 X29.445 Y32.734 E.0232
G1 X30.118 Y32.581 E.02163
G1 X129.925 Y32.585 E3.12939
G1 X130.45 Y32.696 E.01682
G1 X130.977 Y32.936 E.01817
G1 X131.585 Y33.457 E.0251
G1 X131.99 Y34.088 E.02351
G1 X132.202 Y34.86 E.0251
G1 X132.202 Y70.205 E1.10822
G1 X131.99 Y70.976 E.02507
G1 X131.697 Y71.474 E.01811
G1 X131.203 Y71.973 E.02202
G1 X130.555 Y72.33 E.0232
G1 X129.882 Y72.484 E.02163
G1 X30.077 Y72.484 E3.12931
G1 X29.306 Y72.272 E.02507
G1 X28.808 Y71.98 E.01811
G1 X28.309 Y71.485 E.02202
G1 X27.952 Y70.837 E.0232
G1 X27.798 Y70.165 E.02163
G1 X27.798 Y34.86 E1.10696
G1 X28.01 Y34.089 E.02507
G1 X28.303 Y33.591 E.01811
G1 X28.755 Y33.134 E.02014
M204 P1000
G1 X29.02 Y33.401 F9000
M204 P800
G1 F1200
G1 X29.6 Y33.079 E.0208
G1 X30.138 Y32.958 E.0173
G1 X129.904 Y32.962 E3.12808
G1 X130.347 Y33.059 E.01424
G1 X130.793 Y33.266 E.01541
G1 X131.316 Y33.723 E.02178
G1 X131.635 Y34.218 E.01847
G1 X131.824 Y34.887 E.02179
G1 X131.824 Y70.178 E1.10654
G1 X131.635 Y70.848 E.02182
G1 X131.387 Y71.258 E.01503
G1 X130.958 Y71.685 E.019
G1 X130.4 Y71.986 E.01986
G1 X129.862 Y72.107 E.0173
G1 X30.104 Y72.107 E3.12783
G1 X29.435 Y71.917 E.02182
G1 X29.024 Y71.67 E.01503
G1 X28.597 Y71.24 E.019
G1 X28.297 Y70.682 E.01986
G1 X28.176 Y70.144 E.0173
G1 X28.176 Y34.887 E1.10548
G1 X28.365 Y34.217 E.02182
G1 X28.613 Y33.807 E.01503
G1 X28.978 Y33.444 E.01614
M204 P1000
G1 X29.241 Y33.713 F9000
M204 P800
G1 F1200
G1 X29.285 Y33.669 E.00193
G1 X29.751 Y33.425 E.01652
G1 X30.158 Y33.335 E.01307
G1 X129.881 Y33.339 E3.12674
G1 X130.241 Y33.422 E.01157
G1 X130.606 Y33.594 E.01266
G1 X131.046 Y33.986 E.01848
G1 X131.282 Y34.351 E.01362
G1 X131.447 Y34.915 E.01841
G1 X131.447 Y70.15 E1.10478
G1 X131.281 Y70.715 E.01845
G1 X131.08 Y71.038 E.01195
G1 X130.715 Y71.395 E.016
G1 X130.249 Y71.64 E.01652
G1 X129.842 Y71.73 E.01307
G1 X30.132 Y71.73 E3.12632
G1 X29.568 Y71.564 E.01845
G1 X29.244 Y71.363 E.01195
G1 X28.887 Y70.998 E.016
G1 X28.643 Y70.531 E.01652
G1 X28.553 Y70.124 E.01307
G1 X28.553 Y34.915 E1.10396
G1 X28.719 Y34.35 E.01845
G1 X28.92 Y34.026 E.01195
G1 X29.198 Y33.754 E.01219
M204 P1000
G1 X29.458 Y34.026 F9000
M204 P800
G1 F1200
G1 X29.524 Y33.962 E.00286
G1 X29.898 Y33.773 E.01316
G1 X30.178 Y33.712 E.00898
G1 X129.86 Y33.716 E3.12544
G1 X130.098 Y33.771 E.00767
G1 X130.418 Y33.922 E.01111
G1 X130.773 Y34.247 E.01508
G1 X130.93 Y34.489 E.00902
G1 X131.07 Y34.944 E.01495
G1 X131.07 Y70.12 E1.10293
G1 X130.93 Y70.576 E.01496
G1 X130.777 Y70.814 E.00886
G1 X130.476 Y71.103 E.01306
G1 X130.102 Y71.292 E.01316
G1 X129.822 Y71.353 E.00898
G1 X30.162 Y71.353 E3.12477
G1 X29.706 Y71.212 E.01496
M73 P1 R210
G1 X29.468 Y71.059 E.00886
G1 X29.18 Y70.759 E.01306
G1 X28.99 Y70.384 E.01316
G1 X28.93 Y70.104 E.00898
G1 X28.93 Y34.944 E1.10242
G1 X29.07 Y34.488 E.01496
G1 X29.223 Y34.251 E.00886
G1 X29.415 Y34.067 E.00831
M204 P1000
G1 X29.677 Y34.33 F9000
M204 P800
G1 F1200
G1 X29.722 Y34.284 E.00201
G1 X30.046 Y34.121 E.01136
G1 X30.197 Y34.089 E.00484
G1 X129.838 Y34.093 E3.12416
G1 X129.955 Y34.12 E.00377
G1 X130.229 Y34.25 E.0095
G1 X130.497 Y34.505 E.0116
G1 X130.58 Y34.632 E.00476
G1 X130.693 Y34.976 E.01136
G1 X130.693 Y70.089 E1.10094
G1 X130.58 Y70.433 E.01136
G1 X130.496 Y70.562 E.00484
G1 X130.278 Y70.78 E.00967
G1 X129.954 Y70.944 E.01136
G1 X129.803 Y70.976 E.00484
G1 X30.194 Y70.976 E3.12318
G1 X29.849 Y70.863 E.01136
G1 X29.72 Y70.778 E.00484
G1 X29.502 Y70.56 E.00967
G1 X29.338 Y70.237 E.01136
G1 X29.307 Y70.085 E.00484
G1 X29.307 Y34.976 E1.10083
G1 X29.42 Y34.632 E.01136
G1 X29.504 Y34.502 E.00484
G1 X29.635 Y34.372 E.00578
M204 P1000
G1 X29.901 Y34.639 F9000
M204 P800
G1 F1200
G1 X29.964 Y34.576 E.00279
G1 X30.215 Y34.466 E.00856
G1 X129.817 Y34.473 E3.12298
G1 X130.036 Y34.576 E.00757
G1 X130.217 Y34.757 E.00802
G1 X130.316 Y35.011 E.00856
G1 X130.316 Y70.054 E1.09874
G1 X130.217 Y70.308 E.00856
G1 X130.036 Y70.489 E.00802
G1 X129.785 Y70.599 E.00856
G1 X30.229 Y70.599 E3.12153
G1 X29.974 Y70.499 E.00856
G1 X29.793 Y70.318 E.00802
G1 X29.684 Y70.068 E.00856
G1 X29.684 Y35.011 E1.09918
G1 X29.765 Y34.784 E.00757
G1 X29.859 Y34.681 E.00436
M204 P1000
G1 X30.126 Y34.948 F9000
M204 P800
G1 F1200
G1 X30.201 Y34.872 E.00336
G1 X30.271 Y34.843 E.00235
G1 X129.729 Y34.843 E3.11846
G1 X129.799 Y34.872 E.00235
G1 X129.91 Y34.984 E.00495
G1 X129.939 Y35.053 E.00235
G1 X129.939 Y70.012 E1.09611
G1 X129.91 Y70.081 E.00235
G1 X129.799 Y70.193 E.00495
G1 X129.729 Y70.221 E.00235
G1 X30.271 Y70.221 E3.11846
G1 X30.201 Y70.193 E.00235
G1 X30.09 Y70.081 E.00495
G1 X30.061 Y70.012 E.00235
G1 X30.061 Y35.053 E1.09611
G1 X30.086 Y34.992 E.00206
M204 P1000
G1 E-2.24 F4200
;WIPE_START
G1 F7200
G1 X30.201 Y34.872 E-.09219
G1 X30.271 Y34.843 E-.04156
G1 X31.675 Y34.843 E-.77824
;WIPE_END
G1 E-.048 F4200
G1 Z.4 F720
G1 X30.096 Y88.464 F9000
G1 Z.2 F720
G1 E3.2 F2400
M204 P800
G1 F1200
G1 X130.501 Y88.445 E3.14811
G1 X131.303 Y88.665 E.0261
G1 X132.071 Y89.018 E.0265
G1 X133.165 Y89.898 E.04403
G1 X134.056 Y91.234 E.05033
G1 X134.464 Y92.78 E.05013
G1 X134.428 Y109.383 E.52058
G1 X134.004 Y110.781 E.04582
G1 X133.224 Y111.943 E.04386
G1 X132.65 Y112.474 E.02452
G1 X132.076 Y112.882 E.02206
G1 X130.731 Y113.411 E.04534
G1 X130.564 Y113.436 E.0053
G1 X29.931 Y113.514 E3.15527
G1 X28.445 Y113.133 E.0481
G1 X27.109 Y112.275 E.0498
G1 X26.575 Y111.699 E.0246
G1 X26.168 Y111.126 E.02206
G1 X25.644 Y109.806 E.04453
G1 X25.627 Y109.703 E.00326
G1 X25.571 Y92.521 E.53874
G1 X25.996 Y91.119 E.04593
G1 X26.776 Y89.957 E.04387
G1 X27.35 Y89.426 E.02452
G1 X27.924 Y89.018 E.02206
G1 X29.269 Y88.489 E.04534
G1 X29.437 Y88.464 E.00531
G1 X30.036 Y88.464 E.01879
M204 P1000
G1 X30.036 Y88.841 F9000
M204 P800
G1 F1200
G1 X130.425 Y88.815 E3.14763
G1 X131.188 Y89.025 E.02481
M73 P1 R209
G1 X131.891 Y89.35 E.02429
G1 X132.906 Y90.173 E.04096
G1 X133.7 Y91.362 E.04483
G1 X134.087 Y92.804 E.04684
G1 X134.059 Y109.302 E.51727
G1 X133.674 Y110.596 E.04234
G1 X132.951 Y111.681 E.04088
G1 X132.403 Y112.189 E.02342
G1 X131.878 Y112.561 E.02017
G1 X130.649 Y113.042 E.04136
G1 X130.547 Y113.059 E.00325
G1 X29.955 Y113.136 E3.15399
G1 X28.57 Y112.776 E.04489
G1 X27.369 Y112.001 E.04479
G1 X26.861 Y111.452 E.02347
G1 X26.489 Y110.927 E.02018
G1 X26.01 Y109.716 E.04083
G1 X25.941 Y92.601 E.53662
G1 X26.326 Y91.304 E.04244
G1 X27.049 Y90.219 E.04089
G1 X27.597 Y89.711 E.02342
G1 X28.122 Y89.339 E.02017
G1 X29.351 Y88.858 E.04137
G1 X29.453 Y88.841 E.00325
G1 X29.976 Y88.841 E.0164
M204 P1000
G1 X29.976 Y89.218 F9000
M204 P800
G1 F1200
G1 X130.351 Y89.186 E3.14718
G1 X131.045 Y89.374 E.02253
M73 P2 R209
G1 X131.711 Y89.682 E.02302
G1 X132.644 Y90.446 E.03781
G1 X133.368 Y91.543 E.04122
G1 X133.71 Y92.828 E.0417
G1 X133.689 Y109.223 E.51403
G1 X133.343 Y110.413 E.03887
G1 X132.678 Y111.42 E.03785
G1 X132.156 Y111.904 E.02229
G1 X131.68 Y112.239 E.01827
G1 X130.527 Y112.682 E.0387
G1 X29.979 Y112.759 E3.15264
G1 X28.747 Y112.442 E.03988
G1 X27.629 Y111.727 E.0416
G1 X27.146 Y111.206 E.0223
G1 X26.811 Y110.729 E.01827
G1 X26.381 Y109.628 E.03706
G1 X26.31 Y92.68 E.5314
G1 X26.657 Y91.487 E.03894
G1 X27.322 Y90.48 E.03786
G1 X27.844 Y89.996 E.02229
G1 X28.32 Y89.661 E.01827
G1 X29.439 Y89.224 E.03765
G1 X29.916 Y89.218 E.01497
M204 P1000
G1 X29.917 Y89.595 F9000
M204 P800
G1 F1200
G1 X130.277 Y89.556 E3.14672
G1 X130.93 Y89.733 E.02122
G1 X131.529 Y90.013 E.02073
G1 X132.381 Y90.717 E.03466
G1 X133.035 Y91.723 E.0376
G1 X133.333 Y92.852 E.03663
G1 X133.32 Y109.146 E.51086
G1 X133.011 Y110.232 E.03539
G1 X132.404 Y111.16 E.03478
G1 X131.909 Y111.618 E.02114
G1 X131.483 Y111.916 E.01632
G1 X130.475 Y112.305 E.03387
G1 X30.003 Y112.382 E3.15022
G1 X28.872 Y112.085 E.03666
G1 X27.89 Y111.454 E.03662
G1 X27.431 Y110.959 E.02114
G1 X27.133 Y110.532 E.01632
G1 X26.745 Y109.525 E.03385
G1 X26.68 Y92.757 E.52576
G1 X26.988 Y91.669 E.03545
G1 X27.596 Y90.74 E.03478
G1 X28.091 Y90.282 E.02114
G1 X28.517 Y89.984 E.01632
G1 X29.525 Y89.595 E.03388
G1 X29.857 Y89.595 E.01038
M204 P1000
G1 X29.857 Y89.96 F9000
M204 P800
G1 F1200
G1 X130.204 Y89.927 E3.14631
G1 X130.786 Y90.082 E.01889
G1 X131.347 Y90.344 E.01941
G1 X132.118 Y90.988 E.03149
G1 X132.679 Y91.85 E.03224
G1 X132.956 Y92.878 E.03337
G1 X132.949 Y109.071 E.50772
G1 X132.679 Y110.052 E.03192
G1 X132.13 Y110.899 E.03165
G1 X131.663 Y111.332 E.01997
G1 X131.287 Y111.593 E.01434
G1 X130.373 Y111.94 E.03065
G1 X30.027 Y112.005 E3.1463
G1 X29.049 Y111.751 E.03168
G1 X28.15 Y111.179 E.03341
G1 X27.717 Y110.713 E.01994
G1 X27.456 Y110.337 E.01434
G1 X27.11 Y109.423 E.03064
G1 X27.051 Y92.831 E.52024
G1 X27.321 Y91.848 E.03197
G1 X27.87 Y91.001 E.03166
G1 X28.337 Y90.568 E.01997
G1 X28.713 Y90.307 E.01434
G1 X29.627 Y89.96 E.03065
G1 X29.797 Y89.96 E.00533
M204 P1000
G1 X29.797 Y90.325 F9000
M204 P800
G1 F1200
G1 X130.13 Y90.298 E3.14589
