; generated by PrusaSlicer 2.5.0+win64 on 2023-02-08 at 21:23:12 UTC


;
;

;
;
; 

; external perimeters extrusion width = 0.45mm
; perimeters extrusion width = 0.45mm
; infill extrusion width = 0.45mm
; solid infill extrusion width = 0.45mm
; top infill extrusion width = 0.40mm
; support material extrusion width = 0.35mm
; first layer extrusion width = 0.42mm

; external perimeters extrusion width = 0.45mm
; perimeters extrusion width = 0.45mm
; infill extrusion width = 0.45mm
; solid infill extrusion width = 0.45mm
; top infill extrusion width = 0.40mm
; support material extrusion width = 0.35mm
; first layer extrusion width = 0.42mm

M73 P0 R49
M201 X2500 Y2500 Z400 E5000 ; sets maximum accelerations, mm/sec^2
M203 X180 Y180 Z12 E80 ; sets maximum feedrates, mm / sec
M204 P1250 R1250 T2500 ; sets acceleration (P, T) and retract acceleration (R), mm/sec^2
M205 X8.00 Y8.00 Z2.00 E10.00 ; sets the jerk limits, mm/sec
M205 S0 T0 ; sets the minimum extruding and travel feed rate, mm/sec
M107
;TYPE:Custom
M862.3 P "MINI" ; printer model check
G90 ; use absolute coordinates
M83 ; extruder relative mode
M104 S170 ; set extruder temp for bed leveling
M140 S60 ; set bed temp
M109 R170 ; wait for bed leveling temp
M190 S60 ; wait for bed temp
M204 T1250 ; set travel acceleration
G28 ; home all without mesh bed level
G29 ; mesh bed leveling 
M204 T2500 ; restore travel acceleration
M104 S215 ; set extruder temp
G92 E0
G1 Y-2 X179 F2400
G1 Z3 F720
M109 S215 ; wait for extruder temp

; intro line
G1 X170 F1000
G1 Z0.2 F720
G1 X110 E8 F900
G1 X40 E10 F700
G92 E0

M221 S95 ; set flow
G21 ; set units to millimeters
G90 ; use absolute coordinates
M83 ; use relative distances for extrusion
M900 K0.2 ; Filament gcode LA 1.5
; ; Filament gcode LA 1.0
M107
;LAYER_CHANGE
;Z:0.2
;HEIGHT:0.2
;BEFORE_LAYER_CHANGE
G92 E0.0
;0.2


G1 E-3.2 F4200
G1 Z.2 F720
;AFTER_LAYER_CHANGE
;0.2
G1 Z.4
G1 X59.522 Y77.914 F9000
G1 Z.2 F720
G1 E3.2 F2400
M204 P800
;TYPE:Skirt/Brim
;WIDTH:0.42
G1 F1200
G1 X60.462 Y77.721 E.03008
G1 X78.261 Y77.741 E.55806
G1 X115.312 Y82.643 E1.17184
G1 X116.556 Y83.203 E.04278
G1 X117.377 Y85 E.06194
G1 X117.377 Y95 E.31354
G1 X116.985 Y96.307 E.04278
G1 X115.94 Y97.183 E.04278
G1 X115 Y97.377 E.03008
G1 X65 Y97.377 E1.56771
G1 X63.351 Y96.712 E.05574
G1 X58.813 Y92.343 E.19751
G1 X58.085 Y90.631 E.05835
G1 X58.085 Y80.098 E.33026
G1 X58.477 Y78.791 E.04278
G1 X59.476 Y77.953 E.0409
M204 P1000
; printing object double_snap_fit.stl_2 id:1 copy 0
G1 E-2.24 F4200
;WIPE_START
G1 F7200
G1 X60.462 Y77.721 E-.56121
G1 X61.095 Y77.721 E-.35079
;WIPE_END
G1 E-.048 F4200
G1 Z.4 F720
G1 X95.787 Y94.213 F9000
G1 Z.2 F720
G1 E3.2 F2400
M204 P800
;TYPE:Perimeter
;WIDTH:0.419999
G1 F1200
G1 X95.787 Y85.787 E.26419
G1 X114.213 Y85.787 E.57773
G1 X114.213 Y94.213 E.26419
G1 X95.847 Y94.213 E.57585
M204 P1000
G1 X95.41 Y94.59 F9000
M204 P800
;TYPE:External perimeter
G1 F1200
G1 X95.41 Y85.41 E.28783
G1 X114.59 Y85.41 E.60137
G1 X114.59 Y94.59 E.28783
G1 X95.47 Y94.59 E.59949
M204 P1000
G1 X95.556 Y94.218 F9000
M73 P1 R49
G1 E-2.24 F4200
;WIPE_START
G1 F7200
G1 X95.459 Y92.944 E-.912
;WIPE_END
G1 E-.048 F4200
G1 Z.4 F720
G1 X113.327 Y85.9 F9000
G1 Z.2 F720
M73 P1 R48
G1 E3.2 F2400
M204 P800
;TYPE:Solid infill
;WIDTH:0.424969
G1 F1200
G1 X113.93 Y86.503 E.0271
G1 X113.93 Y87.044 E.01716
G1 X112.956 Y86.07 E.04375
G1 X112.416 Y86.07 E.01716
G1 X113.93 Y87.584 E.06802
G1 X113.93 Y88.124 E.01716
G1 X111.876 Y86.07 E.09229
G1 X111.335 Y86.07 E.01716
G1 X113.93 Y88.665 E.11657
G1 X113.93 Y89.205 E.01716
G1 X110.795 Y86.07 E.14084
G1 X110.255 Y86.07 E.01716
G1 X113.93 Y89.745 E.16511
G1 X113.93 Y90.285 E.01716
G1 X109.715 Y86.07 E.18939
G1 X109.174 Y86.07 E.01716
G1 X113.93 Y90.826 E.21366
G1 X113.93 Y91.366 E.01716
G1 X108.634 Y86.07 E.23793
G1 X108.094 Y86.07 E.01716
G1 X113.93 Y91.906 E.26221
G1 X113.93 Y92.447 E.01716
G1 X107.553 Y86.07 E.28648
G1 X107.013 Y86.07 E.01716
G1 X113.93 Y92.987 E.31075
G1 X113.93 Y93.527 E.01716
G1 X106.473 Y86.07 E.33503
G1 X105.932 Y86.07 E.01716
G1 X113.793 Y93.93 E.35313
G1 X113.252 Y93.93 E.01716
G1 X105.392 Y86.07 E.35313
G1 X104.852 Y86.07 E.01716
G1 X112.712 Y93.93 E.35313
G1 X112.172 Y93.93 E.01716
G1 X104.312 Y86.07 E.35313
G1 X103.771 Y86.07 E.01716
G1 X111.632 Y93.93 E.35313
G1 X111.091 Y93.93 E.01716
G1 X103.231 Y86.07 E.35313
G1 X102.691 Y86.07 E.01716
G1 X110.551 Y93.93 E.35313
G1 X110.011 Y93.93 E.01716
G1 X102.15 Y86.07 E.35313
G1 X101.61 Y86.07 E.01716
G1 X109.47 Y93.93 E.35313
G1 X108.93 Y93.93 E.01716
G1 X101.07 Y86.07 E.35313
G1 X100.53 Y86.07 E.01716
G1 X108.39 Y93.93 E.35313
G1 X107.849 Y93.93 E.01716
G1 X99.989 Y86.07 E.35313
G1 X99.449 Y86.07 E.01716
G1 X107.309 Y93.93 E.35313
G1 X106.769 Y93.93 E.01716
G1 X98.909 Y86.07 E.35313
G1 X98.368 Y86.07 E.01716
G1 X106.229 Y93.93 E.35313
G1 X105.688 Y93.93 E.01716
G1 X97.828 Y86.07 E.35313
G1 X97.288 Y86.07 E.01716
G1 X105.148 Y93.93 E.35313
G1 X104.608 Y93.93 E.01716
G1 X96.747 Y86.07 E.35313
G1 X96.207 Y86.07 E.01716
G1 X104.067 Y93.93 E.35313
G1 X103.527 Y93.93 E.01716
G1 X96.07 Y86.473 E.33502
G1 X96.07 Y87.013 E.01716
G1 X102.987 Y93.93 E.31075
G1 X102.446 Y93.93 E.01716
G1 X96.07 Y87.554 E.28648
G1 X96.07 Y88.094 E.01716
G1 X101.906 Y93.93 E.2622
G1 X101.366 Y93.93 E.01716
G1 X96.07 Y88.634 E.23793
G1 X96.07 Y89.174 E.01716
G1 X100.826 Y93.93 E.21365
G1 X100.285 Y93.93 E.01716
G1 X96.07 Y89.715 E.18938
G1 X96.07 Y90.255 E.01716
G1 X99.745 Y93.93 E.16511
G1 X99.205 Y93.93 E.01716
G1 X96.07 Y90.795 E.14083
G1 X96.07 Y91.336 E.01716
G1 X98.664 Y93.93 E.11656
G1 X98.124 Y93.93 E.01716
G1 X96.07 Y91.876 E.09229
G1 X96.07 Y92.416 E.01716
G1 X97.584 Y93.93 E.06801
G1 X97.043 Y93.93 E.01716
G1 X96.07 Y92.957 E.04374
G1 X96.07 Y93.497 E.01716
G1 X96.673 Y94.1 E.02709
M204 P1000
; stop printing object double_snap_fit.stl_2 id:1 copy 0
; printing object double_snap_fit.stl_1 id:0 copy 0
G1 E-2.24 F4200
;WIPE_START
G1 F7200
G1 X96.07 Y93.497 E-.47257
G1 X96.07 Y92.957 E-.29942
G1 X96.249 Y93.135 E-.14001
;WIPE_END
G1 E-.048 F4200
G1 Z.4 F720
G1 X77.949 Y84.52 F9000
G1 Z.2 F720
G1 E3.2 F2400
M204 P800
;TYPE:Support material
;WIDTH:0.42
G1 F1200
G1 X64.801 Y84.52 E.41224
G1 X64.52 Y84.801 E.01247
G1 X64.52 Y90.631 E.18279
G1 X60.462 Y90.631 E.12723
G1 X60.462 Y80.098 E.33026
G1 X77.949 Y80.098 E.54828
G1 X77.949 Y84.463 E.13688
M204 P1000
G1 X77.514 Y84.35 F9000
M204 P800
G1 F1200
G1 X77.514 Y80.437 E.1227
G1 X77.095 Y80.437 E.01314
G1 X77.095 Y84.181 E.11737
G1 X76.676 Y84.181 E.01314
G1 X76.676 Y80.437 E.11737
G1 X76.257 Y80.437 E.01314
G1 X76.257 Y84.181 E.11737
G1 X75.838 Y84.181 E.01314
G1 X75.838 Y80.437 E.11737
G1 X75.419 Y80.437 E.01314
G1 X75.419 Y84.181 E.11737
G1 X75 Y84.181 E.01314
G1 X75 Y80.437 E.11737
G1 X74.581 Y80.437 E.01314
G1 X74.581 Y84.181 E.11737
G1 X74.162 Y84.181 E.01314
G1 X74.162 Y80.437 E.11737
G1 X73.743 Y80.437 E.01314
G1 X73.743 Y84.181 E.11737
G1 X73.324 Y84.181 E.01314
G1 X73.324 Y80.437 E.11737
G1 X72.905 Y80.437 E.01314
G1 X72.905 Y84.181 E.11737
G1 X72.486 Y84.181 E.01314
G1 X72.486 Y80.437 E.11737
G1 X72.067 Y80.437 E.01314
G1 X72.067 Y84.181 E.11737
G1 X71.648 Y84.181 E.01314
G1 X71.648 Y80.437 E.11737
G1 X71.229 Y80.437 E.01314
G1 X71.229 Y84.181 E.11737
G1 X70.81 Y84.181 E.01314
G1 X70.81 Y80.437 E.11737
G1 X70.391 Y80.437 E.01314
G1 X70.391 Y84.181 E.11737
G1 X69.972 Y84.181 E.01314
G1 X69.972 Y80.437 E.11737
G1 X69.553 Y80.437 E.01314
G1 X69.553 Y84.181 E.11737
G1 X69.134 Y84.181 E.01314
G1 X69.134 Y80.437 E.11737
G1 X68.715 Y80.437 E.01314
G1 X68.715 Y84.181 E.11737
G1 X68.296 Y84.181 E.01314
G1 X68.296 Y80.437 E.11737
G1 X67.877 Y80.437 E.01314
G1 X67.877 Y84.181 E.11737
G1 X67.458 Y84.181 E.01314
M73 P2 R48
G1 X67.458 Y80.437 E.11737
G1 X67.039 Y80.437 E.01314
G1 X67.039 Y84.181 E.11737
G1 X66.62 Y84.181 E.01314
G1 X66.62 Y80.437 E.11737
G1 X66.201 Y80.437 E.01314
G1 X66.201 Y84.181 E.11737
G1 X65.783 Y84.181 E.01314
G1 X65.783 Y80.437 E.11737
G1 X65.364 Y80.437 E.01314
G1 X65.364 Y84.181 E.11737
G1 X64.945 Y84.181 E.01314
G1 X64.945 Y80.437 E.11737
G1 X64.526 Y80.437 E.01314
G1 X64.526 Y84.316 E.12161
G1 X64.181 Y84.661 E.0153
G1 X64.181 Y90.292 E.17656
G1 X64.107 Y90.292 E.00232
G1 X64.107 Y80.437 E.30898
G1 X63.688 Y80.437 E.01314
G1 X63.688 Y90.292 E.30898
G1 X63.269 Y90.292 E.01314
G1 X63.269 Y80.437 E.30898
G1 X62.85 Y80.437 E.01314
G1 X62.85 Y90.292 E.30898
G1 X62.431 Y90.292 E.01314
G1 X62.431 Y80.437 E.30898
G1 X62.012 Y80.437 E.01314
G1 X62.012 Y90.292 E.30898
G1 X61.593 Y90.292 E.01314
G1 X61.593 Y80.437 E.30898
G1 X61.174 Y80.437 E.01314
G1 X61.174 Y90.461 E.3143
M204 P1000
G1 E-2.24 F4200
;WIPE_START
G1 F7200
G1 X61.174 Y88.816 E-.912
;WIPE_END
G1 E-.048 F4200
G1 Z.4 F720
G1 X65.787 Y85.787 F9000
G1 Z.2 F720
G1 E3.2 F2400
M204 P800
;TYPE:Perimeter
;WIDTH:0.419999
G1 F1200
G1 X84.213 Y85.787 E.57773
G1 X84.213 Y94.213 E.26419
G1 X65.787 Y94.213 E.57773
G1 X65.787 Y85.847 E.2623
M204 P1000
G1 X65.41 Y85.41 F9000
M204 P800
;TYPE:External perimeter
G1 F1200
G1 X84.59 Y85.41 E.60137
G1 X84.59 Y94.59 E.28783
G1 X65.41 Y94.59 E.60137
G1 X65.41 Y85.47 E.28595
M204 P1000
G1 X65.806 Y85.469 F9000
G1 E-2.24 F4200
;WIPE_START
G1 F7200
G1 X67.056 Y85.465 E-.912
;WIPE_END
G1 E-.048 F4200
G1 Z.4 F720
G1 X83.327 Y85.9 F9000
G1 Z.2 F720
G1 E3.2 F2400
M204 P800
;TYPE:Solid infill
;WIDTH:0.424969
G1 F1200
G1 X83.93 Y86.503 E.0271
G1 X83.93 Y87.044 E.01716
G1 X82.956 Y86.07 E.04375
G1 X82.416 Y86.07 E.01716
G1 X83.93 Y87.584 E.06802
G1 X83.93 Y88.124 E.01716
G1 X81.876 Y86.07 E.09229
G1 X81.335 Y86.07 E.01716
G1 X83.93 Y88.665 E.11657
G1 X83.93 Y89.205 E.01716
G1 X80.795 Y86.07 E.14084
G1 X80.255 Y86.07 E.01716
G1 X83.93 Y89.745 E.16511
G1 X83.93 Y90.285 E.01716
G1 X79.715 Y86.07 E.18939
G1 X79.174 Y86.07 E.01716
G1 X83.93 Y90.826 E.21366
G1 X83.93 Y91.366 E.01716
G1 X78.634 Y86.07 E.23793
G1 X78.094 Y86.07 E.01716
G1 X83.93 Y91.906 E.26221
G1 X83.93 Y92.447 E.01716
G1 X77.553 Y86.07 E.28648
G1 X77.013 Y86.07 E.01716
G1 X83.93 Y92.987 E.31075
G1 X83.93 Y93.527 E.01716
G1 X76.473 Y86.07 E.33503
G1 X75.932 Y86.07 E.01716
G1 X83.793 Y93.93 E.35313
G1 X83.252 Y93.93 E.01716
G1 X75.392 Y86.07 E.35313
G1 X74.852 Y86.07 E.01716
G1 X82.712 Y93.93 E.35313
G1 X82.172 Y93.93 E.01716
G1 X74.312 Y86.07 E.35313
G1 X73.771 Y86.07 E.01716
G1 X81.632 Y93.93 E.35313
G1 X81.091 Y93.93 E.01716
G1 X73.231 Y86.07 E.35313
G1 X72.691 Y86.07 E.01716
G1 X80.551 Y93.93 E.35313
G1 X80.011 Y93.93 E.01716
G1 X72.15 Y86.07 E.35313
G1 X71.61 Y86.07 E.01716
G1 X79.47 Y93.93 E.35313
G1 X78.93 Y93.93 E.01716
G1 X71.07 Y86.07 E.35313
G1 X70.53 Y86.07 E.01716
G1 X78.39 Y93.93 E.35313
G1 X77.849 Y93.93 E.01716
G1 X69.989 Y86.07 E.35313
G1 X69.449 Y86.07 E.01716
G1 X77.309 Y93.93 E.35313
G1 X76.769 Y93.93 E.01716
G1 X68.909 Y86.07 E.35313
G1 X68.368 Y86.07 E.01716
G1 X76.229 Y93.93 E.35313
G1 X75.688 Y93.93 E.01716
G1 X67.828 Y86.07 E.35313
G1 X67.288 Y86.07 E.01716
G1 X75.148 Y93.93 E.35313
G1 X74.608 Y93.93 E.01716
G1 X66.747 Y86.07 E.35313
G1 X66.207 Y86.07 E.01716
G1 X74.067 Y93.93 E.35313
G1 X73.527 Y93.93 E.01716
G1 X66.07 Y86.473 E.33502
G1 X66.07 Y87.013 E.01716
G1 X72.987 Y93.93 E.31075
G1 X72.446 Y93.93 E.01716
M73 P3 R48
G1 X66.07 Y87.554 E.28648
G1 X66.07 Y88.094 E.01716
G1 X71.906 Y93.93 E.2622
G1 X71.366 Y93.93 E.01716
G1 X66.07 Y88.634 E.23793
M73 P3 R47
G1 X66.07 Y89.174 E.01716
G1 X70.826 Y93.93 E.21365
G1 X70.285 Y93.93 E.01716
G1 X66.07 Y89.715 E.18938
G1 X66.07 Y90.255 E.01716
G1 X69.745 Y93.93 E.16511
G1 X69.205 Y93.93 E.01716
G1 X66.07 Y90.795 E.14083
G1 X66.07 Y91.336 E.01716
G1 X68.664 Y93.93 E.11656
G1 X68.124 Y93.93 E.01716
G1 X66.07 Y91.876 E.09229
G1 X66.07 Y92.416 E.01716
G1 X67.584 Y93.93 E.06801
G1 X67.043 Y93.93 E.01716
G1 X66.07 Y92.957 E.04374
G1 X66.07 Y93.497 E.01716
G1 X66.673 Y94.1 E.02709
M204 P1000
; stop printing object double_snap_fit.stl_1 id:0 copy 0
M106 S84.15
;LAYER_CHANGE
;Z:0.35
;HEIGHT:0.15
;BEFORE_LAYER_CHANGE
G92 E0.0
;0.35


G1 E-2.24 F4200
;WIPE_START
G1 F7200
G1 X66.07 Y93.497 E-.47257
G1 X66.07 Y92.957 E-.29942
G1 X66.249 Y93.135 E-.14001
;WIPE_END
G1 E-.048 F4200
G1 Z.4 F720
;AFTER_LAYER_CHANGE
;0.35
G1 X66.249 Y97.377 F9000
G1 Z.35 F720
G1 E3.2 F2400
;TYPE:Skirt/Brim
;WIDTH:0.42
G1 X65 Y97.377 E.0302
G1 X63.351 Y96.712 E.04299
G1 X58.813 Y92.343 E.15235
G1 X58.085 Y90.631 E.04501
G1 X58.085 Y80.098 E.25475
G1 X58.477 Y78.791 E.033
G1 X59.522 Y77.914 E.033
G1 X60.462 Y77.721 E.02321
G1 X78.261 Y77.741 E.43045
G1 X115.312 Y82.643 E.90389
G1 X116.556 Y83.203 E.033
G1 X117.377 Y85 E.04778
G1 X117.377 Y95 E.24185
G1 X116.985 Y96.307 E.033
G1 X115.94 Y97.183 E.033
G1 X115 Y97.377 E.02321
G1 X66.309 Y97.377 E1.1776
; printing object double_snap_fit.stl_2 id:1 copy 0
G1 E-2.24 F4200
;WIPE_START
G1 F7200
G1 X65 Y97.377 E-.72514
G1 X64.687 Y97.251 E-.18686
;WIPE_END
G1 E-.048 F4200
G1 Z.55 F720
G1 X95.643 Y94.357 F9000
G1 Z.35 F720
G1 E3.2 F2400
M204 P800
;TYPE:Perimeter
;WIDTH:0.449999
G1 F3000
G1 X95.643 Y85.643 E.22706
G1 X114.357 Y85.643 E.48762
G1 X114.357 Y94.357 E.22706
G1 X95.703 Y94.357 E.48605
M204 P1000
G1 X95.225 Y94.775 F9000
M204 P800
;TYPE:External perimeter
G1 F2400
G1 X95.225 Y85.225 E.24883
G1 X114.775 Y85.225 E.50939
G1 X114.775 Y94.775 E.24883
G1 X95.285 Y94.775 E.50783
M204 P1000
G1 X95.37 Y94.402 F9000
G1 E-2.24 F4200
;WIPE_START
G1 F7200
G1 X95.275 Y93.129 E-.912
;WIPE_END
G1 E-.048 F4200
G1 Z.55 F720
G1 X113.373 Y94.232 F9000
G1 Z.35 F720
G1 E3.2 F2400
;TYPE:Solid infill
;WIDTH:0.456626
G1 F8400
G1 X114.044 Y93.561 E.0251
G1 X114.044 Y92.961 E.01589
G1 X112.961 Y94.044 E.04053
G1 X112.361 Y94.044 E.01589
G1 X114.044 Y92.361 E.063
G1 X114.044 Y91.76 E.01589
G1 X111.76 Y94.044 E.08547
G1 X111.16 Y94.044 E.01589
G1 X114.044 Y91.16 E.10794
G1 X114.044 Y90.56 E.01589
G1 X110.56 Y94.044 E.13041
G1 X109.96 Y94.044 E.01589
G1 X114.044 Y89.96 E.15288
G1 X114.044 Y89.36 E.01589
G1 X109.36 Y94.044 E.17535
G1 X108.759 Y94.044 E.01589
G1 X114.044 Y88.759 E.19782
G1 X114.044 Y88.159 E.01589
G1 X108.159 Y94.044 E.22029
G1 X107.559 Y94.044 E.01589
G1 X114.044 Y87.559 E.24275
G1 X114.044 Y86.959 E.01589
G1 X106.959 Y94.044 E.26522
G1 X106.358 Y94.044 E.01589
G1 X114.044 Y86.358 E.28769
G1 X114.044 Y85.956 E.01064
G1 X113.846 Y85.956 E.00524
G1 X105.758 Y94.044 E.30274
G1 X105.158 Y94.044 E.01589
G1 X113.245 Y85.956 E.30274
G1 X112.645 Y85.956 E.01589
G1 X104.558 Y94.044 E.30274
G1 X103.957 Y94.044 E.01589
G1 X112.045 Y85.956 E.30274
G1 X111.445 Y85.956 E.01589
G1 X103.357 Y94.044 E.30274
G1 X102.757 Y94.044 E.01589
G1 X110.845 Y85.956 E.30274
G1 X110.244 Y85.956 E.01589
G1 X102.157 Y94.044 E.30274
G1 X101.556 Y94.044 E.01589
G1 X109.644 Y85.956 E.30274
G1 X109.044 Y85.956 E.01589
G1 X100.956 Y94.044 E.30274
G1 X100.356 Y94.044 E.01589
G1 X108.444 Y85.956 E.30274
G1 X107.843 Y85.956 E.01589
G1 X99.756 Y94.044 E.30274
G1 X99.155 Y94.044 E.01589
G1 X107.243 Y85.956 E.30274
G1 X106.643 Y85.956 E.01589
G1 X98.555 Y94.044 E.30274
G1 X97.955 Y94.044 E.01589
G1 X106.043 Y85.956 E.30274
G1 X105.442 Y85.956 E.01589
G1 X97.355 Y94.044 E.30274
G1 X96.754 Y94.044 E.01589
G1 X104.842 Y85.956 E.30274
G1 X104.242 Y85.956 E.01589
G1 X96.154 Y94.044 E.30274
G1 X95.956 Y94.044 E.00524
G1 X95.956 Y93.642 E.01065
G1 X103.642 Y85.956 E.28769
G1 X103.041 Y85.956 E.01589
G1 X95.956 Y93.041 E.26522
G1 X95.956 Y92.441 E.01589
G1 X102.441 Y85.956 E.24275
G1 X101.841 Y85.956 E.01589
G1 X95.956 Y91.841 E.22028
G1 X95.956 Y91.241 E.01589
G1 X101.241 Y85.956 E.19781
G1 X100.64 Y85.956 E.01589
G1 X95.956 Y90.64 E.17534
G1 X95.956 Y90.04 E.01589
G1 X100.04 Y85.956 E.15287
G1 X99.44 Y85.956 E.01589
G1 X95.956 Y89.44 E.13041
G1 X95.956 Y88.84 E.01589
G1 X98.84 Y85.956 E.10794
G1 X98.239 Y85.956 E.01589
G1 X95.956 Y88.239 E.08547
G1 X95.956 Y87.639 E.01589
G1 X97.639 Y85.956 E.063
G1 X97.039 Y85.956 E.01589
G1 X95.956 Y87.039 E.04053
G1 X95.956 Y86.439 E.01589
G1 X96.627 Y85.768 E.0251
; stop printing object double_snap_fit.stl_2 id:1 copy 0
; printing object double_snap_fit.stl_1 id:0 copy 0
G1 E-2.24 F4200
;WIPE_START
G1 F7200
G1 X95.956 Y86.439 E-.52549
G1 X95.956 Y87.039 E-.33263
G1 X96.025 Y86.97 E-.05387
