; generated by PrusaSlicer 2.5.0+win64 on 2023-02-09 at 19:03:18 UTC


;
;

;
;
; 

; external perimeters extrusion width = 0.45mm
; perimeters extrusion width = 0.45mm
; infill extrusion width = 0.45mm
; solid infill extrusion width = 0.45mm
; top infill extrusion width = 0.40mm
; first layer extrusion width = 0.42mm

M73 P0 R35
M201 X2500 Y2500 Z400 E5000 ; sets maximum accelerations, mm/sec^2
M203 X180 Y180 Z12 E80 ; sets maximum feedrates, mm / sec
M204 P1250 R1250 T2500 ; sets acceleration (P, T) and retract acceleration (R), mm/sec^2
M205 X8.00 Y8.00 Z2.00 E10.00 ; sets the jerk limits, mm/sec
M205 S0 T0 ; sets the minimum extruding and travel feed rate, mm/sec
M107
;TYPE:Custom
M862.3 P "MINI" ; printer model check
G90 ; use absolute coordinates
M83 ; extruder relative mode
M104 S170 ; set extruder temp for bed leveling
M140 S60 ; set bed temp
M109 R170 ; wait for bed leveling temp
M190 S60 ; wait for bed temp
M204 T1250 ; set travel acceleration
G28 ; home all without mesh bed level
G29 ; mesh bed leveling 
M204 T2500 ; restore travel acceleration
M104 S215 ; set extruder temp
G92 E0
G1 Y-2 X179 F2400
G1 Z3 F720
M109 S215 ; wait for extruder temp

; intro line
G1 X170 F1000
G1 Z0.2 F720
G1 X110 E8 F900
G1 X40 E10 F700
G92 E0

M221 S95 ; set flow
G21 ; set units to millimeters
G90 ; use absolute coordinates
M83 ; use relative distances for extrusion
M900 K0.2 ; Filament gcode LA 1.5
; ; Filament gcode LA 1.0
M107
;LAYER_CHANGE
;Z:0.2
;HEIGHT:0.2
;BEFORE_LAYER_CHANGE
G92 E0.0
;0.2


G1 E-3.2 F4200
G1 Z.2 F720
;AFTER_LAYER_CHANGE
;0.2
G1 Z.4
G1 X82.344 Y82.342 F9000
G1 Z.2 F720
G1 E3.2 F2400
M204 P800
;TYPE:Skirt/Brim
;WIDTH:0.42
G1 F1200
G1 X84 Y81.869 E.054
G1 X96 Y81.869 E.37625
G1 X97.52 Y82.262 E.04923
G1 X98.658 Y83.344 E.04923
G1 X99.131 Y85 E.054
G1 X99.131 Y95 E.31354
G1 X98.738 Y96.52 E.04923
G1 X97.656 Y97.658 E.04923
G1 X96 Y98.131 E.054
G1 X84 Y98.131 E.37625
G1 X82.48 Y97.738 E.04923
G1 X81.342 Y96.656 E.04923
G1 X80.869 Y95 E.054
G1 X80.869 Y85 E.31354
G1 X81.262 Y83.48 E.04923
G1 X82.303 Y82.386 E.04735
M204 P1000
G1 X82.585 Y82.683 F9000
M204 P800
G1 F1200
G1 X82.705 Y82.569 E.00517
G1 X84 Y82.246 E.04186
G1 X96 Y82.246 E.37625
G1 X97.417 Y82.639 E.04612
G1 X98.431 Y83.705 E.04612
G1 X98.754 Y85 E.04186
G1 X98.754 Y95 E.31354
G1 X98.361 Y96.417 E.04612
G1 X97.295 Y97.431 E.04612
G1 X96 Y97.754 E.04186
G1 X84 Y97.754 E.37625
G1 X82.583 Y97.361 E.04612
M73 P1 R35
G1 X81.569 Y96.295 E.04612
G1 X81.246 Y95 E.04186
G1 X81.246 Y85 E.31354
G1 X81.639 Y83.583 E.04612
G1 X82.542 Y82.724 E.03907
M204 P1000
G1 X82.801 Y83.034 F9000
M204 P800
G1 F1200
G1 X83.06 Y82.817 E.0106
G1 X84 Y82.623 E.03008
G1 X96 Y82.623 E.37625
G1 X97.307 Y83.015 E.04278
G1 X98.183 Y84.06 E.04278
G1 X98.377 Y85 E.03008
G1 X98.377 Y95 E.31354
G1 X97.985 Y96.307 E.04278
G1 X96.94 Y97.183 E.04278
G1 X96 Y97.377 E.03008
G1 X84 Y97.377 E.37625
G1 X82.693 Y96.985 E.04278
G1 X81.817 Y95.94 E.04278
G1 X81.623 Y95 E.03008
G1 X81.623 Y85 E.31354
G1 X82.015 Y83.693 E.04278
G1 X82.755 Y83.072 E.0303
M204 P1000
; printing object double_snap_fit.stl id:0 copy 0
G1 E-2.24 F4200
;WIPE_START
G1 F7200
G1 X83.06 Y82.817 E-.22062
G1 X84 Y82.623 E-.53172
G1 X84.288 Y82.623 E-.15966
;WIPE_END
G1 E-.048 F4200
G1 Z.4 F720
G1 X94.836 Y86.164 F9000
G1 Z.2 F720
G1 E3.2 F2400
M204 P800
;TYPE:Perimeter
;WIDTH:0.419999
G1 F1200
G1 X94.836 Y93.836 E.24054
G1 X85.164 Y93.836 E.30325
G1 X85.164 Y86.164 E.24054
G1 X94.776 Y86.164 E.30137
M204 P1000
G1 X95.213 Y85.787 F9000
M204 P800
G1 F1200
G1 X95.213 Y94.213 E.26419
G1 X84.787 Y94.213 E.32689
G1 X84.787 Y85.787 E.26419
G1 X95.153 Y85.787 E.32501
M204 P1000
G1 X95.59 Y85.41 F9000
M204 P800
;TYPE:External perimeter
G1 F1200
G1 X95.59 Y94.59 E.28783
G1 X84.41 Y94.59 E.35054
G1 X84.41 Y85.41 E.28783
G1 X95.53 Y85.41 E.34866
M204 P1000
G1 X95.474 Y85.793 F9000
G1 E-2.24 F4200
;WIPE_START
G1 F7200
G1 X95.541 Y87.056 E-.912
;WIPE_END
G1 E-.048 F4200
G1 Z.4 F720
G1 X93.939 Y86.277 F9000
G1 Z.2 F720
G1 E3.2 F2400
M204 P800
;TYPE:Solid infill
;WIDTH:0.42992
G1 F1200
G1 X94.553 Y86.891 E.02793
G1 X94.553 Y87.438 E.01761
G1 X93.562 Y86.447 E.04511
G1 X93.015 Y86.447 E.01761
G1 X94.553 Y87.986 E.07002
G1 X94.553 Y88.533 E.01761
G1 X92.467 Y86.447 E.09492
G1 X91.92 Y86.447 E.01761
G1 X94.553 Y89.08 E.11983
G1 X94.553 Y89.627 E.01761
G1 X91.373 Y86.447 E.14474
G1 X90.825 Y86.447 E.01761
G1 X94.553 Y90.175 E.16964
G1 X94.553 Y90.722 E.01761
G1 X90.278 Y86.447 E.19455
G1 X89.731 Y86.447 E.01761
G1 X94.553 Y91.269 E.21946
G1 X94.553 Y91.817 E.01761
G1 X89.183 Y86.447 E.24436
G1 X88.636 Y86.447 E.01761
G1 X94.553 Y92.364 E.26927
G1 X94.553 Y92.911 E.01761
G1 X88.089 Y86.447 E.29418
G1 X87.541 Y86.447 E.01761
G1 X94.553 Y93.459 E.31908
G1 X94.553 Y93.553 E.00304
G1 X94.1 Y93.553 E.01457
G1 X86.994 Y86.447 E.32339
G1 X86.447 Y86.447 E.01761
G1 X93.553 Y93.553 E.32339
G1 X93.006 Y93.553 E.01761
G1 X85.9 Y86.447 E.32339
G1 X85.447 Y86.447 E.01457
G1 X85.447 Y86.542 E.00305
G1 X92.458 Y93.553 E.31908
G1 X91.911 Y93.553 E.01761
G1 X85.447 Y87.089 E.29417
G1 X85.447 Y87.636 E.01761
G1 X91.364 Y93.553 E.26926
G1 X90.816 Y93.553 E.01761
G1 X85.447 Y88.184 E.24436
G1 X85.447 Y88.731 E.01761
G1 X90.269 Y93.553 E.21945
G1 X89.722 Y93.553 E.01761
G1 X85.447 Y89.278 E.19454
G1 X85.447 Y89.825 E.01761
G1 X89.175 Y93.553 E.16964
G1 X88.627 Y93.553 E.01761
G1 X85.447 Y90.373 E.14473
G1 X85.447 Y90.92 E.01761
G1 X88.08 Y93.553 E.11982
G1 X87.533 Y93.553 E.01761
G1 X85.447 Y91.467 E.09492
G1 X85.447 Y92.015 E.01761
G1 X86.985 Y93.553 E.07001
G1 X86.438 Y93.553 E.01761
G1 X85.447 Y92.562 E.0451
G1 X85.447 Y93.109 E.01761
G1 X86.06 Y93.723 E.02792
M204 P1000
; stop printing object double_snap_fit.stl id:0 copy 0
M106 S84.15
;LAYER_CHANGE
;Z:0.3
;HEIGHT:0.1
;BEFORE_LAYER_CHANGE
G92 E0.0
;0.3


G1 E-2.24 F4200
;WIPE_START
G1 F7200
G1 X85.447 Y93.109 E-.48081
G1 X85.447 Y92.562 E-.3033
G1 X85.61 Y92.725 E-.12789
;WIPE_END
G1 E-.048 F4200
G1 Z.4 F720
;AFTER_LAYER_CHANGE
;0.3
G1 X80.869 Y92.725 F9000
G1 Z.3 F720
G1 E3.2 F2400
;TYPE:Skirt/Brim
;WIDTH:0.42
G1 F2190
G1 X80.869 Y85 E.128
G1 X81.262 Y83.48 E.02601
G1 X82.344 Y82.342 E.02601
G1 X84 Y81.869 E.02853
G1 X96 Y81.869 E.19883
G1 X97.52 Y82.262 E.02601
G1 X98.658 Y83.344 E.02601
G1 X99.131 Y85 E.02853
G1 X99.131 Y95 E.16569
M73 P2 R35
G1 X98.738 Y96.52 E.02601
G1 X97.656 Y97.658 E.02601
G1 X96 Y98.131 E.02853
G1 X84 Y98.131 E.19883
G1 X82.48 Y97.738 E.02601
G1 X81.342 Y96.656 E.02601
G1 X80.869 Y95 E.02853
G1 X80.869 Y92.785 E.0367
G1 X81.246 Y92.785 F9000
G1 F2190
G1 X81.246 Y85 E.12899
G1 X81.639 Y83.583 E.02437
G1 X82.705 Y82.569 E.02437
G1 X84 Y82.246 E.02212
G1 X96 Y82.246 E.19883
G1 X97.417 Y82.639 E.02437
G1 X98.431 Y83.705 E.02437
G1 X98.754 Y85 E.02212
G1 X98.754 Y95 E.16569
G1 X98.361 Y96.417 E.02437
G1 X97.295 Y97.431 E.02437
G1 X96 Y97.754 E.02212
G1 X84 Y97.754 E.19883
G1 X82.583 Y97.361 E.02437
G1 X81.569 Y96.295 E.02437
G1 X81.246 Y95 E.02212
G1 X81.246 Y92.845 E.03571
G1 X81.623 Y92.845 F9000
G1 F2190
G1 X81.623 Y85 E.12999
G1 X82.015 Y83.693 E.02261
G1 X83.06 Y82.817 E.02261
G1 X84 Y82.623 E.0159
G1 X96 Y82.623 E.19883
G1 X97.307 Y83.015 E.02261
G1 X98.183 Y84.06 E.02261
G1 X98.377 Y85 E.0159
G1 X98.377 Y95 E.16569
G1 X97.985 Y96.307 E.02261
G1 X96.94 Y97.183 E.02261
G1 X96 Y97.377 E.0159
G1 X84 Y97.377 E.19883
G1 X82.693 Y96.985 E.02261
G1 X81.817 Y95.94 E.02261
G1 X81.623 Y95 E.0159
G1 X81.623 Y92.905 E.03471
; printing object double_snap_fit.stl id:0 copy 0
G1 E-2.24 F4200
;WIPE_START
G1 F7200
G1 X81.623 Y91.259 E-.912
;WIPE_END
G1 E-.048 F4200
G1 Z.5 F720
G1 X94.918 Y86.082 F9000
G1 Z.3 F720
G1 E3.2 F2400
M204 P600
;TYPE:Perimeter
;WIDTH:0.449999
G1 F1500
G1 X94.918 Y93.918 E.13961
G1 X85.082 Y93.918 E.17524
G1 X85.082 Y86.082 E.13961
G1 X94.858 Y86.082 E.17417
M204 P1000
G1 X95.346 Y85.654 F9000
M204 P600
G1 F1500
G1 X95.346 Y94.346 E.15488
G1 X84.654 Y94.346 E.19051
G1 X84.654 Y85.654 E.15488
G1 X95.286 Y85.654 E.18944
M204 P1000
G1 X95.775 Y85.225 F9000
M204 P600
;TYPE:External perimeter
G1 F1800
G1 X95.775 Y94.775 E.17015
G1 X84.225 Y94.775 E.20578
G1 X84.225 Y85.225 E.17015
G1 X95.715 Y85.225 E.20471
M204 P1000
G1 X95.659 Y85.608 F9000
G1 E-2.24 F4200
;WIPE_START
G1 F7200
G1 X95.725 Y86.871 E-.912
;WIPE_END
G1 E-.048 F4200
G1 Z.5 F720
G1 X94.789 Y92.908 F9000
G1 Z.3 F720
G1 E3.2 F2400
;TYPE:Solid infill
;WIDTH:0.456915
G1 F2190
G1 X94.101 Y93.597 E.01762
G1 X93.485 Y93.597 E.01115
G1 X94.597 Y92.485 E.02845
G1 X94.597 Y91.87 E.01115
G1 X92.87 Y93.597 E.04421
G1 X92.254 Y93.597 E.01115
G1 X94.597 Y91.254 E.05998
G1 X94.597 Y90.638 E.01115
G1 X91.638 Y93.597 E.07575
G1 X91.022 Y93.597 E.01115
G1 X94.597 Y90.022 E.09152
G1 X94.597 Y89.406 E.01115
G1 X90.406 Y93.597 E.10728
G1 X89.79 Y93.597 E.01115
G1 X94.597 Y88.79 E.12305
G1 X94.597 Y88.175 E.01115
G1 X89.175 Y93.597 E.13882
G1 X88.559 Y93.597 E.01115
M73 P2 R34
G1 X94.597 Y87.559 E.15458
G1 X94.597 Y86.943 E.01115
G1 X87.943 Y93.597 E.17035
G1 X87.327 Y93.597 E.01115
G1 X94.52 Y86.403 E.18416
G1 X93.904 Y86.403 E.01115
G1 X86.711 Y93.597 E.18416
G1 X86.096 Y93.597 E.01115
G1 X93.289 Y86.403 E.18416
G1 X92.673 Y86.403 E.01115
G1 X85.48 Y93.597 E.18416
G1 X85.403 Y93.597 E.00138
G1 X85.403 Y93.057 E.00977
G1 X92.057 Y86.403 E.17035
G1 X91.441 Y86.403 E.01115
G1 X85.403 Y92.441 E.15458
G1 X85.403 Y91.825 E.01115
G1 X90.825 Y86.403 E.13881
G1 X90.209 Y86.403 E.01115
G1 X85.403 Y91.209 E.12305
G1 X85.403 Y90.594 E.01115
G1 X89.594 Y86.403 E.10728
G1 X88.978 Y86.403 E.01115
G1 X85.403 Y89.978 E.09151
G1 X85.403 Y89.362 E.01115
G1 X88.362 Y86.403 E.07575
G1 X87.746 Y86.403 E.01115
G1 X85.403 Y88.746 E.05998
G1 X85.403 Y88.13 E.01115
G1 X87.13 Y86.403 E.04421
G1 X86.514 Y86.403 E.01115
G1 X85.403 Y87.514 E.02844
G1 X85.403 Y86.899 E.01115
G1 X86.091 Y86.211 E.01761
; stop printing object double_snap_fit.stl id:0 copy 0
M106 S170.85
;LAYER_CHANGE
;Z:0.4
;HEIGHT:0.1
;BEFORE_LAYER_CHANGE
G92 E0.0
;0.4


G1 E-2.24 F4200
;WIPE_START
G1 F7200
G1 X85.403 Y86.899 E-.53919
G1 X85.403 Y87.514 E-.34127
G1 X85.444 Y87.474 E-.03154
;WIPE_END
G1 E-.048 F4200
G1 Z.5 F720
;AFTER_LAYER_CHANGE
;0.4
G1 X80.869 Y87.474 F9000
G1 Z.4 F720
G1 E3.2 F2400
;TYPE:Skirt/Brim
;WIDTH:0.42
G1 F2183
G1 X80.869 Y85 E.041
G1 X81.262 Y83.48 E.02601
G1 X82.344 Y82.342 E.02601
G1 X84 Y81.869 E.02853
G1 X96 Y81.869 E.19883
G1 X97.52 Y82.262 E.02601
G1 X98.658 Y83.344 E.02601
G1 X99.131 Y85 E.02853
G1 X99.131 Y95 E.16569
G1 X98.738 Y96.52 E.02601
G1 X97.656 Y97.658 E.02601
G1 X96 Y98.131 E.02853
G1 X84 Y98.131 E.19883
G1 X82.48 Y97.738 E.02601
G1 X81.342 Y96.656 E.02601
G1 X80.869 Y95 E.02853
G1 X80.869 Y87.534 E.1237
G1 X81.246 Y87.534 F9000
G1 F2183
G1 X81.246 Y85 E.04199
G1 X81.639 Y83.583 E.02437
G1 X82.705 Y82.569 E.02437
G1 X84 Y82.246 E.02212
G1 X96 Y82.246 E.19883
G1 X97.417 Y82.639 E.02437
G1 X98.431 Y83.705 E.02437
G1 X98.754 Y85 E.02212
G1 X98.754 Y95 E.16569
G1 X98.361 Y96.417 E.02437
G1 X97.295 Y97.431 E.02437
G1 X96 Y97.754 E.02212
G1 X84 Y97.754 E.19883
G1 X82.583 Y97.361 E.02437
G1 X81.569 Y96.295 E.02437
G1 X81.246 Y95 E.02212
G1 X81.246 Y87.594 E.12271
G1 X81.623 Y87.594 F9000
G1 F2183
G1 X81.623 Y85 E.04298
G1 X82.015 Y83.693 E.02261
G1 X83.06 Y82.817 E.02261
G1 X84 Y82.623 E.0159
G1 X96 Y82.623 E.19883
G1 X97.307 Y83.015 E.02261
G1 X98.183 Y84.06 E.02261
G1 X98.377 Y85 E.0159
G1 X98.377 Y95 E.16569
G1 X97.985 Y96.307 E.02261
G1 X96.94 Y97.183 E.02261
G1 X96 Y97.377 E.0159
G1 X84 Y97.377 E.19883
G1 X82.693 Y96.985 E.02261
G1 X81.817 Y95.94 E.02261
G1 X81.623 Y95 E.0159
G1 X81.623 Y87.654 E.12172
; printing object double_snap_fit.stl id:0 copy 0
G1 E-2.24 F4200
;WIPE_START
G1 F7200
G1 X81.623 Y86.008 E-.912
;WIPE_END
G1 E-.048 F4200
G1 Z.6 F720
G1 X94.918 Y86.082 F9000
M73 P3 R34
G1 Z.4 F720
G1 E3.2 F2400
M204 P600
;TYPE:Perimeter
;WIDTH:0.449999
G1 F1500
G1 X94.918 Y93.918 E.13961
G1 X85.082 Y93.918 E.17524
G1 X85.082 Y86.082 E.13961
G1 X94.858 Y86.082 E.17417
M204 P1000
G1 X95.346 Y85.654 F9000
M204 P600
G1 F1500
G1 X95.346 Y94.346 E.15488
G1 X84.654 Y94.346 E.19051
G1 X84.654 Y85.654 E.15488
G1 X95.286 Y85.654 E.18944
M204 P1000
G1 X95.775 Y85.225 F9000
M204 P600
;TYPE:External perimeter
G1 F1800
G1 X95.775 Y94.775 E.17015
G1 X84.225 Y94.775 E.20578
G1 X84.225 Y85.225 E.17015
G1 X95.715 Y85.225 E.20471
M204 P1000
G1 X95.659 Y85.608 F9000
G1 E-2.24 F4200
;WIPE_START
G1 F7200
G1 X95.725 Y86.871 E-.912
;WIPE_END
G1 E-.048 F4200
G1 Z.6 F720
G1 X93.908 Y86.211 F9000
G1 Z.4 F720
G1 E3.2 F2400
;TYPE:Solid infill
;WIDTH:0.456915
G1 F2183
G1 X94.597 Y86.899 E.01762
G1 X94.597 Y87.515 E.01115
G1 X93.485 Y86.403 E.02845
G1 X92.87 Y86.403 E.01115
G1 X94.597 Y88.13 E.04421
G1 X94.597 Y88.746 E.01115
G1 X92.254 Y86.403 E.05998
G1 X91.638 Y86.403 E.01115
G1 X94.597 Y89.362 E.07575
G1 X94.597 Y89.978 E.01115
G1 X91.022 Y86.403 E.09152
G1 X90.406 Y86.403 E.01115
G1 X94.597 Y90.594 E.10728
G1 X94.597 Y91.21 E.01115
G1 X89.79 Y86.403 E.12305
G1 X89.175 Y86.403 E.01115
G1 X94.597 Y91.825 E.13882
G1 X94.597 Y92.441 E.01115
G1 X88.559 Y86.403 E.15458
G1 X87.943 Y86.403 E.01115
G1 X94.597 Y93.057 E.17035
G1 X94.597 Y93.597 E.00977
G1 X94.52 Y93.597 E.00138
G1 X87.327 Y86.403 E.18416
G1 X86.711 Y86.403 E.01115
G1 X93.904 Y93.597 E.18416
G1 X93.289 Y93.597 E.01115
G1 X86.096 Y86.403 E.18416
G1 X85.48 Y86.403 E.01115
G1 X92.673 Y93.597 E.18416
G1 X92.057 Y93.597 E.01115
G1 X85.403 Y86.943 E.17035
G1 X85.403 Y87.559 E.01115
G1 X91.441 Y93.597 E.15458
G1 X90.825 Y93.597 E.01115
G1 X85.403 Y88.175 E.13881
G1 X85.403 Y88.791 E.01115
G1 X90.209 Y93.597 E.12305
G1 X89.594 Y93.597 E.01115
G1 X85.403 Y89.406 E.10728
G1 X85.403 Y90.022 E.01115
G1 X88.978 Y93.597 E.09151
G1 X88.362 Y93.597 E.01115
G1 X85.403 Y90.638 E.07575
G1 X85.403 Y91.254 E.01115
G1 X87.746 Y93.597 E.05998
G1 X87.13 Y93.597 E.01115
G1 X85.403 Y91.87 E.04421
G1 X85.403 Y92.486 E.01115
G1 X86.514 Y93.597 E.02844
G1 X85.899 Y93.597 E.01115
G1 X85.211 Y92.909 E.01761
; stop printing object double_snap_fit.stl id:0 copy 0
M106 S255
;LAYER_CHANGE
;Z:0.5
;HEIGHT:0.1
;BEFORE_LAYER_CHANGE
G92 E0.0
;0.5


G1 E-2.24 F4200
;WIPE_START
G1 F7200
G1 X85.899 Y93.597 E-.53919
G1 X86.514 Y93.597 E-.34127
G1 X86.474 Y93.556 E-.03154
;WIPE_END
G1 E-.048 F4200
G1 Z.6 F720
;AFTER_LAYER_CHANGE
;0.5
; printing object double_snap_fit.stl id:0 copy 0
G1 X94.918 Y86.082 F9000
G1 Z.5 F720
G1 E3.2 F2400
M204 P600
;TYPE:Perimeter
;WIDTH:0.449999
G1 F1200
G1 X94.918 Y93.918 E.13961
G1 X85.082 Y93.918 E.17524
G1 X85.082 Y86.082 E.13961
G1 X94.858 Y86.082 E.17417
M204 P1000
G1 X95.346 Y85.654 F9000
M204 P600
G1 F1200
G1 X95.346 Y94.346 E.15488
G1 X84.654 Y94.346 E.19051
G1 X84.654 Y85.654 E.15488
G1 X95.286 Y85.654 E.18944
M204 P1000
G1 X95.775 Y85.225 F9000
M204 P600
;TYPE:External perimeter
G1 F1200
G1 X95.775 Y94.775 E.17015
G1 X84.225 Y94.775 E.20578
G1 X84.225 Y85.225 E.17015
G1 X95.715 Y85.225 E.20471
M204 P1000
G1 X95.659 Y85.608 F9000
G1 E-2.24 F4200
;WIPE_START
G1 F7200
G1 X95.725 Y86.871 E-.912
;WIPE_END
G1 E-.048 F4200
G1 Z.7 F720
G1 X94.789 Y92.908 F9000
G1 Z.5 F720
G1 E3.2 F2400
;TYPE:Solid infill
;WIDTH:0.456915
G1 F1200
G1 X94.101 Y93.597 E.01762
G1 X93.485 Y93.597 E.01115
G1 X94.597 Y92.485 E.02845
G1 X94.597 Y91.87 E.01115
G1 X92.87 Y93.597 E.04421
G1 X92.254 Y93.597 E.01115
G1 X94.597 Y91.254 E.05998
G1 X94.597 Y90.638 E.01115
G1 X91.638 Y93.597 E.07575
G1 X91.022 Y93.597 E.01115
G1 X94.597 Y90.022 E.09152
G1 X94.597 Y89.406 E.01115
G1 X90.406 Y93.597 E.10728
G1 X89.79 Y93.597 E.01115
G1 X94.597 Y88.79 E.12305
G1 X94.597 Y88.175 E.01115
G1 X89.175 Y93.597 E.13882
G1 X88.559 Y93.597 E.01115
G1 X94.597 Y87.559 E.15458
G1 X94.597 Y86.943 E.01115
G1 X87.943 Y93.597 E.17035
G1 X87.327 Y93.597 E.01115
G1 X94.52 Y86.403 E.18416
G1 X93.904 Y86.403 E.01115
G1 X86.711 Y93.597 E.18416
G1 X86.096 Y93.597 E.01115
M73 P4 R34
G1 X93.289 Y86.403 E.18416
G1 X92.673 Y86.403 E.01115
G1 X85.48 Y93.597 E.18416
G1 X85.403 Y93.597 E.00138
G1 X85.403 Y93.057 E.00977
G1 X92.057 Y86.403 E.17035
G1 X91.441 Y86.403 E.01115
G1 X85.403 Y92.441 E.15458
G1 X85.403 Y91.825 E.01115
G1 X90.825 Y86.403 E.13881
G1 X90.209 Y86.403 E.01115
