; generated by PrusaSlicer 2.5.0+win64 on 2023-02-09 at 19:47:58 UTC


;
;

;
;
; 

; external perimeters extrusion width = 0.45mm
; perimeters extrusion width = 0.45mm
; infill extrusion width = 0.45mm
; solid infill extrusion width = 0.45mm
; top infill extrusion width = 0.40mm
; first layer extrusion width = 0.42mm

M73 P0 R34
M201 X2500 Y2500 Z400 E5000 ; sets maximum accelerations, mm/sec^2
M203 X180 Y180 Z12 E80 ; sets maximum feedrates, mm / sec
M204 P1250 R1250 T2500 ; sets acceleration (P, T) and retract acceleration (R), mm/sec^2
M205 X8.00 Y8.00 Z2.00 E10.00 ; sets the jerk limits, mm/sec
M205 S0 T0 ; sets the minimum extruding and travel feed rate, mm/sec
M107
;TYPE:Custom
M862.3 P "MINI" ; printer model check
G90 ; use absolute coordinates
M83 ; extruder relative mode
M104 S170 ; set extruder temp for bed leveling
M140 S60 ; set bed temp
M109 R170 ; wait for bed leveling temp
M190 S60 ; wait for bed temp
M204 T1250 ; set travel acceleration
G28 ; home all without mesh bed level
G29 ; mesh bed leveling 
M204 T2500 ; restore travel acceleration
M104 S215 ; set extruder temp
G92 E0
G1 Y-2 X179 F2400
G1 Z3 F720
M109 S215 ; wait for extruder temp

; intro line
G1 X170 F1000
G1 Z0.2 F720
G1 X110 E8 F900
G1 X40 E10 F700
G92 E0

M221 S95 ; set flow
G21 ; set units to millimeters
G90 ; use absolute coordinates
M83 ; use relative distances for extrusion
M900 K0.2 ; Filament gcode LA 1.5
; ; Filament gcode LA 1.0
M107
;LAYER_CHANGE
;Z:0.2
;HEIGHT:0.2
;BEFORE_LAYER_CHANGE
G92 E0.0
;0.2


G1 E-3.2 F4200
G1 Z.2 F720
;AFTER_LAYER_CHANGE
;0.2
G1 Z.4
G1 X90.262 Y83.48 F9000
G1 Z.2 F720
G1 E3.2 F2400
M204 P800
;TYPE:Skirt/Brim
;WIDTH:0.42
G1 F1200
G1 X91.344 Y82.342 E.04923
G1 X93 Y81.869 E.054
G1 X105 Y81.869 E.37625
G1 X106.52 Y82.262 E.04923
G1 X107.658 Y83.344 E.04923
G1 X108.131 Y85 E.054
G1 X108.131 Y95 E.31354
G1 X107.738 Y96.52 E.04923
G1 X106.656 Y97.658 E.04923
G1 X105 Y98.131 E.054
G1 X93 Y98.131 E.37625
G1 X91.48 Y97.738 E.04923
G1 X90.342 Y96.656 E.04923
G1 X89.869 Y95 E.054
G1 X89.869 Y85 E.31354
G1 X90.247 Y83.538 E.04735
M204 P1000
G1 X90.622 Y83.642 F9000
M204 P800
G1 F1200
G1 X90.639 Y83.583 E.00193
G1 X91.705 Y82.569 E.04612
G1 X93 Y82.246 E.04186
G1 X105 Y82.246 E.37625
G1 X106.417 Y82.639 E.04612
G1 X107.431 Y83.705 E.04612
G1 X107.754 Y85 E.04186
M73 P0 R33
G1 X107.754 Y95 E.31354
M73 P1 R33
G1 X107.361 Y96.417 E.04612
G1 X106.295 Y97.431 E.04612
G1 X105 Y97.754 E.04186
G1 X93 Y97.754 E.37625
G1 X91.583 Y97.361 E.04612
G1 X90.569 Y96.295 E.04612
G1 X90.246 Y95 E.04186
G1 X90.246 Y85 E.31354
G1 X90.606 Y83.7 E.0423
M204 P1000
G1 X90.979 Y83.812 F9000
M204 P800
G1 F1200
G1 X91.015 Y83.693 E.00388
G1 X92.06 Y82.817 E.04278
G1 X93 Y82.623 E.03008
G1 X105 Y82.623 E.37625
G1 X106.307 Y83.015 E.04278
G1 X107.183 Y84.06 E.04278
G1 X107.377 Y85 E.03008
G1 X107.377 Y95 E.31354
G1 X106.985 Y96.307 E.04278
G1 X105.94 Y97.183 E.04278
G1 X105 Y97.377 E.03008
G1 X93 Y97.377 E.37625
G1 X91.693 Y96.985 E.04278
G1 X90.817 Y95.94 E.04278
G1 X90.623 Y95 E.03008
G1 X90.623 Y85 E.31354
G1 X90.962 Y83.869 E.03702
M204 P1000
; printing object double_snap_fit.stl_2 id:0 copy 0
G1 E-2.24 F4200
;WIPE_START
G1 F7200
G1 X91.015 Y83.693 E-.10186
G1 X92.06 Y82.817 E-.75612
G1 X92.156 Y82.797 E-.05402
;WIPE_END
G1 E-.048 F4200
G1 Z.4 F720
G1 X103.836 Y93.836 F9000
G1 Z.2 F720
G1 E3.2 F2400
M204 P800
;TYPE:Perimeter
;WIDTH:0.419999
G1 F1200
G1 X94.164 Y93.836 E.30325
G1 X94.164 Y86.164 E.24054
G1 X103.836 Y86.164 E.30325
G1 X103.836 Y93.776 E.23866
M204 P1000
G1 X104.213 Y94.213 F9000
M204 P800
G1 F1200
G1 X93.787 Y94.213 E.32689
G1 X93.787 Y85.787 E.26419
G1 X104.213 Y85.787 E.32689
G1 X104.213 Y94.153 E.2623
M204 P1000
G1 X104.59 Y94.59 F9000
M204 P800
;TYPE:External perimeter
G1 F1200
G1 X93.41 Y94.59 E.35054
G1 X93.41 Y85.41 E.28783
G1 X104.59 Y85.41 E.35054
G1 X104.59 Y94.53 E.28595
M204 P1000
G1 X104.2 Y94.499 F9000
G1 E-2.24 F4200
;WIPE_START
G1 F7200
G1 X102.944 Y94.539 E-.912
;WIPE_END
G1 E-.048 F4200
G1 Z.4 F720
G1 X102.939 Y86.277 F9000
G1 Z.2 F720
G1 E3.2 F2400
M204 P800
;TYPE:Solid infill
;WIDTH:0.42992
G1 F1200
G1 X103.553 Y86.891 E.02793
G1 X103.553 Y87.438 E.01761
G1 X102.562 Y86.447 E.04511
G1 X102.015 Y86.447 E.01761
G1 X103.553 Y87.986 E.07002
G1 X103.553 Y88.533 E.01761
G1 X101.467 Y86.447 E.09492
G1 X100.92 Y86.447 E.01761
G1 X103.553 Y89.08 E.11983
G1 X103.553 Y89.627 E.01761
G1 X100.373 Y86.447 E.14474
G1 X99.825 Y86.447 E.01761
G1 X103.553 Y90.175 E.16964
G1 X103.553 Y90.722 E.01761
G1 X99.278 Y86.447 E.19455
G1 X98.731 Y86.447 E.01761
G1 X103.553 Y91.269 E.21946
G1 X103.553 Y91.817 E.01761
G1 X98.183 Y86.447 E.24436
G1 X97.636 Y86.447 E.01761
G1 X103.553 Y92.364 E.26927
G1 X103.553 Y92.911 E.01761
G1 X97.089 Y86.447 E.29418
G1 X96.541 Y86.447 E.01761
G1 X103.553 Y93.459 E.31908
G1 X103.553 Y93.553 E.00304
G1 X103.1 Y93.553 E.01457
G1 X95.994 Y86.447 E.32339
G1 X95.447 Y86.447 E.01761
G1 X102.553 Y93.553 E.32339
G1 X102.006 Y93.553 E.01761
G1 X94.9 Y86.447 E.32339
G1 X94.447 Y86.447 E.01457
G1 X94.447 Y86.542 E.00305
G1 X101.458 Y93.553 E.31908
G1 X100.911 Y93.553 E.01761
G1 X94.447 Y87.089 E.29417
G1 X94.447 Y87.636 E.01761
G1 X100.364 Y93.553 E.26926
G1 X99.816 Y93.553 E.01761
G1 X94.447 Y88.184 E.24436
G1 X94.447 Y88.731 E.01761
G1 X99.269 Y93.553 E.21945
G1 X98.722 Y93.553 E.01761
G1 X94.447 Y89.278 E.19454
G1 X94.447 Y89.825 E.01761
G1 X98.175 Y93.553 E.16964
G1 X97.627 Y93.553 E.01761
G1 X94.447 Y90.373 E.14473
G1 X94.447 Y90.92 E.01761
G1 X97.08 Y93.553 E.11982
M73 P2 R33
G1 X96.533 Y93.553 E.01761
G1 X94.447 Y91.467 E.09492
G1 X94.447 Y92.015 E.01761
G1 X95.985 Y93.553 E.07001
G1 X95.438 Y93.553 E.01761
G1 X94.447 Y92.562 E.0451
G1 X94.447 Y93.109 E.01761
G1 X95.06 Y93.723 E.02792
M204 P1000
; stop printing object double_snap_fit.stl_2 id:0 copy 0
M106 S84.15
;LAYER_CHANGE
;Z:0.3
;HEIGHT:0.1
;BEFORE_LAYER_CHANGE
G92 E0.0
;0.3


G1 E-2.24 F4200
;WIPE_START
G1 F7200
G1 X94.447 Y93.109 E-.48081
G1 X94.447 Y92.562 E-.3033
G1 X94.61 Y92.725 E-.12789
;WIPE_END
G1 E-.048 F4200
G1 Z.4 F720
;AFTER_LAYER_CHANGE
;0.3
G1 X89.869 Y92.725 F9000
G1 Z.3 F720
G1 E3.2 F2400
;TYPE:Skirt/Brim
;WIDTH:0.42
G1 F2182
G1 X89.869 Y85 E.128
G1 X90.262 Y83.48 E.02601
G1 X91.344 Y82.342 E.02601
G1 X93 Y81.869 E.02853
G1 X105 Y81.869 E.19883
G1 X106.52 Y82.262 E.02601
G1 X107.658 Y83.344 E.02601
G1 X108.131 Y85 E.02853
G1 X108.131 Y95 E.16569
G1 X107.738 Y96.52 E.02601
G1 X106.656 Y97.658 E.02601
G1 X105 Y98.131 E.02853
G1 X93 Y98.131 E.19883
G1 X91.48 Y97.738 E.02601
G1 X90.342 Y96.656 E.02601
G1 X89.869 Y95 E.02853
G1 X89.869 Y92.785 E.0367
G1 X90.246 Y92.785 F9000
G1 F2182
G1 X90.246 Y85 E.12899
G1 X90.639 Y83.583 E.02437
G1 X91.705 Y82.569 E.02437
G1 X93 Y82.246 E.02212
G1 X105 Y82.246 E.19883
G1 X106.417 Y82.639 E.02437
G1 X107.431 Y83.705 E.02437
G1 X107.754 Y85 E.02212
G1 X107.754 Y95 E.16569
G1 X107.361 Y96.417 E.02437
G1 X106.295 Y97.431 E.02437
G1 X105 Y97.754 E.02212
G1 X93 Y97.754 E.19883
G1 X91.583 Y97.361 E.02437
G1 X90.569 Y96.295 E.02437
G1 X90.246 Y95 E.02212
G1 X90.246 Y92.845 E.03571
G1 X90.623 Y92.845 F9000
G1 F2182
G1 X90.623 Y85 E.12999
G1 X91.015 Y83.693 E.02261
G1 X92.06 Y82.817 E.02261
G1 X93 Y82.623 E.0159
G1 X105 Y82.623 E.19883
G1 X106.307 Y83.015 E.02261
G1 X107.183 Y84.06 E.02261
G1 X107.377 Y85 E.0159
G1 X107.377 Y95 E.16569
G1 X106.985 Y96.307 E.02261
G1 X105.94 Y97.183 E.02261
G1 X105 Y97.377 E.0159
G1 X93 Y97.377 E.19883
G1 X91.693 Y96.985 E.02261
G1 X90.817 Y95.94 E.02261
G1 X90.623 Y95 E.0159
G1 X90.623 Y92.905 E.03471
; printing object double_snap_fit.stl_2 id:0 copy 0
G1 E-2.24 F4200
;WIPE_START
G1 F7200
G1 X90.623 Y91.259 E-.912
;WIPE_END
G1 E-.048 F4200
G1 Z.5 F720
G1 X103.918 Y93.918 F9000
G1 Z.3 F720
G1 E3.2 F2400
M204 P600
;TYPE:Perimeter
;WIDTH:0.449999
G1 F1500
G1 X94.082 Y93.918 E.17524
G1 X94.082 Y86.082 E.13961
G1 X103.918 Y86.082 E.17524
G1 X103.918 Y93.858 E.13854
M204 P1000
G1 X104.346 Y94.346 F9000
M204 P600
G1 F1500
G1 X93.654 Y94.346 E.19051
G1 X93.654 Y85.654 E.15488
G1 X104.346 Y85.654 E.19051
G1 X104.346 Y94.286 E.15381
M204 P1000
G1 X104.775 Y94.775 F9000
M204 P600
;TYPE:External perimeter
G1 F1800
G1 X93.225 Y94.775 E.20578
G1 X93.225 Y85.225 E.17015
G1 X104.775 Y85.225 E.20578
G1 X104.775 Y94.715 E.16908
M204 P1000
G1 X104.386 Y94.684 F9000
G1 E-2.24 F4200
;WIPE_START
G1 F7200
G1 X103.129 Y94.724 E-.912
;WIPE_END
G1 E-.048 F4200
G1 Z.5 F720
G1 X103.789 Y92.908 F9000
G1 Z.3 F720
G1 E3.2 F2400
;TYPE:Solid infill
;WIDTH:0.456915
G1 F2182
G1 X103.101 Y93.597 E.01762
G1 X102.485 Y93.597 E.01115
G1 X103.597 Y92.485 E.02845
G1 X103.597 Y91.87 E.01115
G1 X101.87 Y93.597 E.04421
G1 X101.254 Y93.597 E.01115
G1 X103.597 Y91.254 E.05998
G1 X103.597 Y90.638 E.01115
G1 X100.638 Y93.597 E.07575
G1 X100.022 Y93.597 E.01115
G1 X103.597 Y90.022 E.09152
G1 X103.597 Y89.406 E.01115
G1 X99.406 Y93.597 E.10728
G1 X98.79 Y93.597 E.01115
G1 X103.597 Y88.79 E.12305
G1 X103.597 Y88.175 E.01115
G1 X98.175 Y93.597 E.13882
G1 X97.559 Y93.597 E.01115
G1 X103.597 Y87.559 E.15458
G1 X103.597 Y86.943 E.01115
G1 X96.943 Y93.597 E.17035
G1 X96.327 Y93.597 E.01115
G1 X103.52 Y86.403 E.18416
G1 X102.904 Y86.403 E.01115
G1 X95.711 Y93.597 E.18416
G1 X95.096 Y93.597 E.01115
G1 X102.289 Y86.403 E.18416
G1 X101.673 Y86.403 E.01115
G1 X94.48 Y93.597 E.18416
G1 X94.403 Y93.597 E.00138
G1 X94.403 Y93.057 E.00977
G1 X101.057 Y86.403 E.17035
G1 X100.441 Y86.403 E.01115
G1 X94.403 Y92.441 E.15458
G1 X94.403 Y91.825 E.01115
G1 X99.825 Y86.403 E.13881
G1 X99.209 Y86.403 E.01115
G1 X94.403 Y91.209 E.12305
G1 X94.403 Y90.594 E.01115
G1 X98.594 Y86.403 E.10728
G1 X97.978 Y86.403 E.01115
G1 X94.403 Y89.978 E.09151
G1 X94.403 Y89.362 E.01115
G1 X97.362 Y86.403 E.07575
G1 X96.746 Y86.403 E.01115
G1 X94.403 Y88.746 E.05998
G1 X94.403 Y88.13 E.01115
G1 X96.13 Y86.403 E.04421
G1 X95.514 Y86.403 E.01115
G1 X94.403 Y87.514 E.02844
G1 X94.403 Y86.899 E.01115
G1 X95.091 Y86.211 E.01761
; stop printing object double_snap_fit.stl_2 id:0 copy 0
M106 S170.85
;LAYER_CHANGE
;Z:0.4
;HEIGHT:0.1
;BEFORE_LAYER_CHANGE
G92 E0.0
;0.4


G1 E-2.24 F4200
;WIPE_START
G1 F7200
G1 X94.403 Y86.899 E-.53919
G1 X94.403 Y87.514 E-.34127
G1 X94.444 Y87.474 E-.03154
;WIPE_END
G1 E-.048 F4200
G1 Z.5 F720
;AFTER_LAYER_CHANGE
;0.4
G1 X89.869 Y87.474 F9000
G1 Z.4 F720
G1 E3.2 F2400
;TYPE:Skirt/Brim
;WIDTH:0.42
G1 F2195
G1 X89.869 Y85 E.041
G1 X90.262 Y83.48 E.02601
G1 X91.344 Y82.342 E.02601
G1 X93 Y81.869 E.02853
G1 X105 Y81.869 E.19883
G1 X106.52 Y82.262 E.02601
G1 X107.658 Y83.344 E.02601
G1 X108.131 Y85 E.02853
G1 X108.131 Y95 E.16569
G1 X107.738 Y96.52 E.02601
G1 X106.656 Y97.658 E.02601
G1 X105 Y98.131 E.02853
G1 X93 Y98.131 E.19883
G1 X91.48 Y97.738 E.02601
G1 X90.342 Y96.656 E.02601
G1 X89.869 Y95 E.02853
G1 X89.869 Y87.534 E.1237
G1 X90.246 Y87.534 F9000
G1 F2195
G1 X90.246 Y85 E.04199
G1 X90.639 Y83.583 E.02437
G1 X91.705 Y82.569 E.02437
G1 X93 Y82.246 E.02212
G1 X105 Y82.246 E.19883
G1 X106.417 Y82.639 E.02437
G1 X107.431 Y83.705 E.02437
G1 X107.754 Y85 E.02212
G1 X107.754 Y95 E.16569
G1 X107.361 Y96.417 E.02437
M73 P3 R33
G1 X106.295 Y97.431 E.02437
G1 X105 Y97.754 E.02212
G1 X93 Y97.754 E.19883
G1 X91.583 Y97.361 E.02437
G1 X90.569 Y96.295 E.02437
G1 X90.246 Y95 E.02212
G1 X90.246 Y87.594 E.12271
G1 X90.623 Y87.594 F9000
G1 F2195
G1 X90.623 Y85 E.04298
G1 X91.015 Y83.693 E.02261
G1 X92.06 Y82.817 E.02261
G1 X93 Y82.623 E.0159
G1 X105 Y82.623 E.19883
G1 X106.307 Y83.015 E.02261
G1 X107.183 Y84.06 E.02261
G1 X107.377 Y85 E.0159
G1 X107.377 Y95 E.16569
G1 X106.985 Y96.307 E.02261
G1 X105.94 Y97.183 E.02261
G1 X105 Y97.377 E.0159
G1 X93 Y97.377 E.19883
G1 X91.693 Y96.985 E.02261
G1 X90.817 Y95.94 E.02261
G1 X90.623 Y95 E.0159
G1 X90.623 Y87.654 E.12172
; printing object double_snap_fit.stl_2 id:0 copy 0
G1 E-2.24 F4200
;WIPE_START
G1 F7200
G1 X90.623 Y86.008 E-.912
;WIPE_END
G1 E-.048 F4200
G1 Z.6 F720
G1 X103.918 Y93.918 F9000
G1 Z.4 F720
G1 E3.2 F2400
M204 P600
;TYPE:Perimeter
;WIDTH:0.449999
G1 F1500
G1 X94.082 Y93.918 E.17524
G1 X94.082 Y86.082 E.13961
G1 X103.918 Y86.082 E.17524
G1 X103.918 Y93.858 E.13854
M204 P1000
G1 X104.346 Y94.346 F9000
M204 P600
G1 F1500
G1 X93.654 Y94.346 E.19051
G1 X93.654 Y85.654 E.15488
G1 X104.346 Y85.654 E.19051
G1 X104.346 Y94.286 E.15381
M204 P1000
G1 X104.775 Y94.775 F9000
M204 P600
;TYPE:External perimeter
G1 F1800
G1 X93.225 Y94.775 E.20578
G1 X93.225 Y85.225 E.17015
G1 X104.775 Y85.225 E.20578
G1 X104.775 Y94.715 E.16908
M204 P1000
G1 X104.386 Y94.684 F9000
G1 E-2.24 F4200
;WIPE_START
G1 F7200
G1 X103.129 Y94.724 E-.912
;WIPE_END
G1 E-.048 F4200
G1 Z.6 F720
G1 X102.908 Y86.211 F9000
G1 Z.4 F720
G1 E3.2 F2400
;TYPE:Solid infill
;WIDTH:0.456915
G1 F2195
G1 X103.597 Y86.899 E.01762
G1 X103.597 Y87.515 E.01115
G1 X102.485 Y86.403 E.02845
G1 X101.87 Y86.403 E.01115
G1 X103.597 Y88.13 E.04421
G1 X103.597 Y88.746 E.01115
G1 X101.254 Y86.403 E.05998
G1 X100.638 Y86.403 E.01115
G1 X103.597 Y89.362 E.07575
G1 X103.597 Y89.978 E.01115
G1 X100.022 Y86.403 E.09152
G1 X99.406 Y86.403 E.01115
G1 X103.597 Y90.594 E.10728
G1 X103.597 Y91.21 E.01115
G1 X98.79 Y86.403 E.12305
G1 X98.175 Y86.403 E.01115
G1 X103.597 Y91.825 E.13882
G1 X103.597 Y92.441 E.01115
G1 X97.559 Y86.403 E.15458
G1 X96.943 Y86.403 E.01115
G1 X103.597 Y93.057 E.17035
G1 X103.597 Y93.597 E.00977
G1 X103.52 Y93.597 E.00138
G1 X96.327 Y86.403 E.18416
G1 X95.711 Y86.403 E.01115
G1 X102.904 Y93.597 E.18416
G1 X102.289 Y93.597 E.01115
G1 X95.096 Y86.403 E.18416
G1 X94.48 Y86.403 E.01115
G1 X101.673 Y93.597 E.18416
G1 X101.057 Y93.597 E.01115
G1 X94.403 Y86.943 E.17035
G1 X94.403 Y87.559 E.01115
G1 X100.441 Y93.597 E.15458
G1 X99.825 Y93.597 E.01115
G1 X94.403 Y88.175 E.13881
G1 X94.403 Y88.791 E.01115
G1 X99.209 Y93.597 E.12305
G1 X98.594 Y93.597 E.01115
G1 X94.403 Y89.406 E.10728
G1 X94.403 Y90.022 E.01115
G1 X97.978 Y93.597 E.09151
G1 X97.362 Y93.597 E.01115
G1 X94.403 Y90.638 E.07575
G1 X94.403 Y91.254 E.01115
G1 X96.746 Y93.597 E.05998
G1 X96.13 Y93.597 E.01115
G1 X94.403 Y91.87 E.04421
G1 X94.403 Y92.486 E.01115
G1 X95.514 Y93.597 E.02844
G1 X94.899 Y93.597 E.01115
G1 X94.211 Y92.909 E.01761
; stop printing object double_snap_fit.stl_2 id:0 copy 0
M106 S255
;LAYER_CHANGE
;Z:0.5
;HEIGHT:0.1
;BEFORE_LAYER_CHANGE
G92 E0.0
;0.5


G1 E-2.24 F4200
;WIPE_START
G1 F7200
G1 X94.899 Y93.597 E-.53919
G1 X95.514 Y93.597 E-.34127
G1 X95.474 Y93.556 E-.03154
;WIPE_END
G1 E-.048 F4200
G1 Z.6 F720
;AFTER_LAYER_CHANGE
;0.5
; printing object double_snap_fit.stl_2 id:0 copy 0
G1 X103.918 Y93.918 F9000
G1 Z.5 F720
G1 E3.2 F2400
M204 P600
;TYPE:Perimeter
;WIDTH:0.449999
G1 F1196
G1 X94.082 Y93.918 E.17524
G1 X94.082 Y86.082 E.13961
G1 X103.918 Y86.082 E.17524
G1 X103.918 Y93.858 E.13854
M204 P1000
G1 X104.346 Y94.346 F9000
M204 P600
G1 F1196
G1 X93.654 Y94.346 E.19051
G1 X93.654 Y85.654 E.15488
G1 X104.346 Y85.654 E.19051
G1 X104.346 Y94.286 E.15381
M204 P1000
G1 X104.775 Y94.775 F9000
M204 P600
;TYPE:External perimeter
G1 F1196
G1 X93.225 Y94.775 E.20578
G1 X93.225 Y85.225 E.17015
G1 X104.775 Y85.225 E.20578
M73 P3 R32
G1 X104.775 Y94.715 E.16908
M204 P1000
G1 X104.386 Y94.684 F9000
G1 E-2.24 F4200
;WIPE_START
G1 F7200
G1 X103.129 Y94.724 E-.912
;WIPE_END
G1 E-.048 F4200
G1 Z.7 F720
G1 X103.789 Y92.908 F9000
G1 Z.5 F720
G1 E3.2 F2400
;TYPE:Solid infill
;WIDTH:0.456915
G1 F1196
M73 P4 R32
G1 X103.101 Y93.597 E.01762
G1 X102.485 Y93.597 E.01115
G1 X103.597 Y92.485 E.02845
G1 X103.597 Y91.87 E.01115
G1 X101.87 Y93.597 E.04421
G1 X101.254 Y93.597 E.01115
G1 X103.597 Y91.254 E.05998
G1 X103.597 Y90.638 E.01115
G1 X100.638 Y93.597 E.07575
G1 X100.022 Y93.597 E.01115
G1 X103.597 Y90.022 E.09152
G1 X103.597 Y89.406 E.01115
G1 X99.406 Y93.597 E.10728
G1 X98.79 Y93.597 E.01115
G1 X103.597 Y88.79 E.12305
G1 X103.597 Y88.175 E.01115
G1 X98.175 Y93.597 E.13882
G1 X97.559 Y93.597 E.01115
G1 X103.597 Y87.559 E.15458
G1 X103.597 Y86.943 E.01115
G1 X96.943 Y93.597 E.17035
G1 X96.327 Y93.597 E.01115
G1 X103.52 Y86.403 E.18416
G1 X102.904 Y86.403 E.01115
G1 X95.711 Y93.597 E.18416
G1 X95.096 Y93.597 E.01115
G1 X102.289 Y86.403 E.18416
G1 X101.673 Y86.403 E.01115
