; generated by PrusaSlicer 2.5.0+win64 on 2023-02-07 at 20:57:44 UTC


;
;

;
;
; 

; external perimeters extrusion width = 0.45mm
; perimeters extrusion width = 0.45mm
; infill extrusion width = 0.45mm
; solid infill extrusion width = 0.45mm
; top infill extrusion width = 0.40mm
; support material extrusion width = 0.35mm
; first layer extrusion width = 0.42mm

; external perimeters extrusion width = 0.45mm
; perimeters extrusion width = 0.45mm
; infill extrusion width = 0.45mm
; solid infill extrusion width = 0.45mm
; top infill extrusion width = 0.40mm
; support material extrusion width = 0.35mm
; first layer extrusion width = 0.42mm

M73 P0 R30
M201 X2500 Y2500 Z400 E5000 ; sets maximum accelerations, mm/sec^2
M203 X180 Y180 Z12 E80 ; sets maximum feedrates, mm / sec
M204 P1250 R1250 T2500 ; sets acceleration (P, T) and retract acceleration (R), mm/sec^2
M205 X8.00 Y8.00 Z2.00 E10.00 ; sets the jerk limits, mm/sec
M205 S0 T0 ; sets the minimum extruding and travel feed rate, mm/sec
M107
;TYPE:Custom
M862.3 P "MINI" ; printer model check
G90 ; use absolute coordinates
M83 ; extruder relative mode
M104 S170 ; set extruder temp for bed leveling
M140 S60 ; set bed temp
M109 R170 ; wait for bed leveling temp
M190 S60 ; wait for bed temp
M204 T1250 ; set travel acceleration
G28 ; home all without mesh bed level
G29 ; mesh bed leveling 
M204 T2500 ; restore travel acceleration
M104 S215 ; set extruder temp
G92 E0
G1 Y-2 X179 F2400
G1 Z3 F720
M109 S215 ; wait for extruder temp

; intro line
G1 X170 F1000
G1 Z0.2 F720
G1 X110 E8 F900
G1 X40 E10 F700
G92 E0

M221 S95 ; set flow
G21 ; set units to millimeters
G90 ; use absolute coordinates
M83 ; use relative distances for extrusion
M900 K0.2 ; Filament gcode LA 1.5
; ; Filament gcode LA 1.0
M107
;LAYER_CHANGE
;Z:0.2
;HEIGHT:0.2
;BEFORE_LAYER_CHANGE
G92 E0.0
;0.2


G1 E-3.2 F4200
G1 Z.2 F720
;AFTER_LAYER_CHANGE
;0.2
G1 Z.4
G1 X63.06 Y82.317 F9000
G1 Z.2 F720
G1 E3.2 F2400
M204 P800
;TYPE:Skirt/Brim
;WIDTH:0.42
G1 F1200
G1 X64 Y82.123 E.03008
G1 X116 Y82.123 E1.63042
G1 X117.307 Y82.515 E.04278
M73 P1 R30
G1 X118.183 Y83.56 E.04278
G1 X118.377 Y84.5 E.03008
G1 X118.377 Y95.5 E.3449
G1 X117.985 Y96.807 E.04278
G1 X116.94 Y97.683 E.04278
G1 X116 Y97.877 E.03008
G1 X64 Y97.877 E1.63042
G1 X62.693 Y97.485 E.04278
G1 X61.817 Y96.44 E.04278
G1 X61.623 Y95.5 E.03008
G1 X61.623 Y84.5 E.3449
G1 X62.015 Y83.193 E.04278
G1 X63.014 Y82.355 E.0409
M204 P1000
; printing object double_snap_fit.stl_2 id:1 copy 0
G1 E-2.24 F4200
;WIPE_START
G1 F7200
G1 X64 Y82.123 E-.56121
G1 X64.633 Y82.123 E-.35079
;WIPE_END
G1 E-.048 F4200
G1 Z.4 F720
G1 X115.213 Y94.713 F9000
G1 Z.2 F720
G1 E3.2 F2400
M204 P800
;TYPE:Perimeter
;WIDTH:0.419999
G1 F1200
G1 X94.787 Y94.713 E.64044
G1 X94.787 Y85.287 E.29554
G1 X115.213 Y85.287 E.64044
G1 X115.213 Y94.653 E.29366
M204 P1000
G1 X115.59 Y95.09 F9000
M204 P800
;TYPE:External perimeter
G1 F1200
G1 X94.41 Y95.09 E.66408
G1 X94.41 Y84.91 E.31919
G1 X115.59 Y84.91 E.66408
G1 X115.59 Y95.03 E.31731
M204 P1000
G1 X115.194 Y95.03 F9000
G1 E-2.24 F4200
;WIPE_START
G1 F7200
G1 X113.944 Y95.035 E-.912
;WIPE_END
G1 E-.048 F4200
G1 Z.4 F720
G1 X114.334 Y85.4 F9000
G1 Z.2 F720
G1 E3.2 F2400
M204 P800
;TYPE:Solid infill
;WIDTH:0.42186
G1 F1200
G1 X114.93 Y85.997 E.02658
G1 X114.93 Y86.533 E.01689
G1 X113.967 Y85.57 E.0429
G1 X113.431 Y85.57 E.01689
G1 X114.93 Y87.069 E.06678
G1 X114.93 Y87.604 E.01689
G1 X112.896 Y85.57 E.09066
G1 X112.36 Y85.57 E.01689
G1 X114.93 Y88.14 E.11454
G1 X114.93 Y88.676 E.01689
G1 X111.824 Y85.57 E.13842
G1 X111.288 Y85.57 E.01689
G1 X114.93 Y89.212 E.1623
G1 X114.93 Y89.748 E.01689
G1 X110.752 Y85.57 E.18618
G1 X110.216 Y85.57 E.01689
G1 X114.93 Y90.284 E.21006
G1 X114.93 Y90.82 E.01689
G1 X109.68 Y85.57 E.23394
G1 X109.144 Y85.57 E.01689
G1 X114.93 Y91.356 E.25782
G1 X114.93 Y91.892 E.01689
G1 X108.608 Y85.57 E.2817
G1 X108.072 Y85.57 E.01689
G1 X114.93 Y92.428 E.30558
G1 X114.93 Y92.963 E.01689
G1 X107.537 Y85.57 E.32946
G1 X107.001 Y85.57 E.01689
G1 X114.93 Y93.499 E.35334
G1 X114.93 Y94.035 E.01689
G1 X106.465 Y85.57 E.37722
G1 X105.929 Y85.57 E.01689
G1 X114.789 Y94.43 E.39482
G1 X114.253 Y94.43 E.01689
M73 P2 R30
G1 X105.393 Y85.57 E.39482
G1 X104.857 Y85.57 E.01689
G1 X113.717 Y94.43 E.39482
G1 X113.181 Y94.43 E.01689
G1 X104.321 Y85.57 E.39482
G1 X103.785 Y85.57 E.01689
G1 X112.645 Y94.43 E.39482
G1 X112.11 Y94.43 E.01689
G1 X103.249 Y85.57 E.39482
G1 X102.713 Y85.57 E.01689
G1 X111.574 Y94.43 E.39482
G1 X111.038 Y94.43 E.01689
G1 X102.178 Y85.57 E.39482
G1 X101.642 Y85.57 E.01689
G1 X110.502 Y94.43 E.39482
G1 X109.966 Y94.43 E.01689
G1 X101.106 Y85.57 E.39482
G1 X100.57 Y85.57 E.01689
G1 X109.43 Y94.43 E.39482
G1 X108.894 Y94.43 E.01689
G1 X100.034 Y85.57 E.39482
G1 X99.498 Y85.57 E.01689
G1 X108.358 Y94.43 E.39482
G1 X107.822 Y94.43 E.01689
M73 P2 R29
G1 X98.962 Y85.57 E.39482
G1 X98.426 Y85.57 E.01689
G1 X107.286 Y94.43 E.39482
G1 X106.751 Y94.43 E.01689
G1 X97.89 Y85.57 E.39482
G1 X97.354 Y85.57 E.01689
G1 X106.215 Y94.43 E.39482
G1 X105.679 Y94.43 E.01689
G1 X96.819 Y85.57 E.39482
G1 X96.283 Y85.57 E.01689
G1 X105.143 Y94.43 E.39482
G1 X104.607 Y94.43 E.01689
G1 X95.747 Y85.57 E.39482
G1 X95.211 Y85.57 E.01689
G1 X104.071 Y94.43 E.39482
G1 X103.535 Y94.43 E.01689
G1 X95.07 Y85.965 E.37722
G1 X95.07 Y86.501 E.01689
G1 X102.999 Y94.43 E.35334
G1 X102.463 Y94.43 E.01689
G1 X95.07 Y87.037 E.32946
G1 X95.07 Y87.573 E.01689
G1 X101.927 Y94.43 E.30558
G1 X101.392 Y94.43 E.01689
G1 X95.07 Y88.108 E.2817
G1 X95.07 Y88.644 E.01689
G1 X100.856 Y94.43 E.25782
G1 X100.32 Y94.43 E.01689
G1 X95.07 Y89.18 E.23394
G1 X95.07 Y89.716 E.01689
G1 X99.784 Y94.43 E.21006
G1 X99.248 Y94.43 E.01689
G1 X95.07 Y90.252 E.18618
G1 X95.07 Y90.788 E.01689
G1 X98.712 Y94.43 E.1623
G1 X98.176 Y94.43 E.01689
G1 X95.07 Y91.324 E.13842
G1 X95.07 Y91.86 E.01689
M73 P3 R29
G1 X97.64 Y94.43 E.11454
G1 X97.104 Y94.43 E.01689
G1 X95.07 Y92.396 E.09066
G1 X95.07 Y92.932 E.01689
G1 X96.568 Y94.43 E.06678
G1 X96.033 Y94.43 E.01689
G1 X95.07 Y93.467 E.0429
G1 X95.07 Y94.003 E.01689
G1 X95.666 Y94.6 E.02658
M204 P1000
; stop printing object double_snap_fit.stl_2 id:1 copy 0
; printing object double_snap_fit.stl_1 id:0 copy 0
G1 E-2.24 F4200
;WIPE_START
G1 F7200
G1 X95.07 Y94.003 E-.46743
G1 X95.07 Y93.467 E-.29698
G1 X95.258 Y93.656 E-.14759
;WIPE_END
G1 E-.048 F4200
G1 Z.4 F720
G1 X64.787 Y94.713 F9000
G1 Z.2 F720
G1 E3.2 F2400
M204 P800
;TYPE:Perimeter
;WIDTH:0.419999
G1 F1200
G1 X64.787 Y85.287 E.29554
G1 X85.213 Y85.287 E.64044
G1 X85.213 Y94.713 E.29554
G1 X64.847 Y94.713 E.63856
M204 P1000
G1 X64.41 Y95.09 F9000
M204 P800
;TYPE:External perimeter
G1 F1200
G1 X64.41 Y84.91 E.31919
G1 X85.59 Y84.91 E.66408
G1 X85.59 Y95.09 E.31919
G1 X64.47 Y95.09 E.6622
M204 P1000
G1 X64.556 Y94.718 F9000
G1 E-2.24 F4200
;WIPE_START
G1 F7200
G1 X64.46 Y93.444 E-.912
;WIPE_END
G1 E-.048 F4200
G1 Z.4 F720
G1 X84.334 Y85.4 F9000
G1 Z.2 F720
G1 E3.2 F2400
M204 P800
;TYPE:Solid infill
;WIDTH:0.42186
G1 F1200
G1 X84.93 Y85.997 E.02658
G1 X84.93 Y86.533 E.01689
G1 X83.967 Y85.57 E.0429
G1 X83.431 Y85.57 E.01689
G1 X84.93 Y87.069 E.06678
G1 X84.93 Y87.604 E.01689
G1 X82.896 Y85.57 E.09066
G1 X82.36 Y85.57 E.01689
G1 X84.93 Y88.14 E.11454
G1 X84.93 Y88.676 E.01689
G1 X81.824 Y85.57 E.13842
G1 X81.288 Y85.57 E.01689
G1 X84.93 Y89.212 E.1623
G1 X84.93 Y89.748 E.01689
G1 X80.752 Y85.57 E.18618
G1 X80.216 Y85.57 E.01689
G1 X84.93 Y90.284 E.21006
G1 X84.93 Y90.82 E.01689
G1 X79.68 Y85.57 E.23394
G1 X79.144 Y85.57 E.01689
G1 X84.93 Y91.356 E.25782
G1 X84.93 Y91.892 E.01689
G1 X78.608 Y85.57 E.2817
G1 X78.072 Y85.57 E.01689
G1 X84.93 Y92.428 E.30558
G1 X84.93 Y92.963 E.01689
G1 X77.537 Y85.57 E.32946
G1 X77.001 Y85.57 E.01689
G1 X84.93 Y93.499 E.35334
G1 X84.93 Y94.035 E.01689
G1 X76.465 Y85.57 E.37722
G1 X75.929 Y85.57 E.01689
G1 X84.789 Y94.43 E.39482
G1 X84.253 Y94.43 E.01689
G1 X75.393 Y85.57 E.39482
G1 X74.857 Y85.57 E.01689
G1 X83.717 Y94.43 E.39482
G1 X83.181 Y94.43 E.01689
G1 X74.321 Y85.57 E.39482
G1 X73.785 Y85.57 E.01689
G1 X82.645 Y94.43 E.39482
G1 X82.11 Y94.43 E.01689
G1 X73.249 Y85.57 E.39482
G1 X72.713 Y85.57 E.01689
G1 X81.574 Y94.43 E.39482
G1 X81.038 Y94.43 E.01689
M73 P4 R29
G1 X72.178 Y85.57 E.39482
G1 X71.642 Y85.57 E.01689
G1 X80.502 Y94.43 E.39482
G1 X79.966 Y94.43 E.01689
G1 X71.106 Y85.57 E.39482
G1 X70.57 Y85.57 E.01689
G1 X79.43 Y94.43 E.39482
G1 X78.894 Y94.43 E.01689
G1 X70.034 Y85.57 E.39482
G1 X69.498 Y85.57 E.01689
G1 X78.358 Y94.43 E.39482
G1 X77.822 Y94.43 E.01689
G1 X68.962 Y85.57 E.39482
G1 X68.426 Y85.57 E.01689
G1 X77.286 Y94.43 E.39482
G1 X76.751 Y94.43 E.01689
G1 X67.89 Y85.57 E.39482
G1 X67.354 Y85.57 E.01689
G1 X76.215 Y94.43 E.39482
G1 X75.679 Y94.43 E.01689
G1 X66.819 Y85.57 E.39482
G1 X66.283 Y85.57 E.01689
G1 X75.143 Y94.43 E.39482
G1 X74.607 Y94.43 E.01689
G1 X65.747 Y85.57 E.39482
G1 X65.211 Y85.57 E.01689
G1 X74.071 Y94.43 E.39482
G1 X73.535 Y94.43 E.01689
G1 X65.07 Y85.965 E.37722
G1 X65.07 Y86.501 E.01689
G1 X72.999 Y94.43 E.35334
G1 X72.463 Y94.43 E.01689
G1 X65.07 Y87.037 E.32946
G1 X65.07 Y87.573 E.01689
G1 X71.927 Y94.43 E.30558
G1 X71.392 Y94.43 E.01689
G1 X65.07 Y88.108 E.2817
G1 X65.07 Y88.644 E.01689
G1 X70.856 Y94.43 E.25782
G1 X70.32 Y94.43 E.01689
G1 X65.07 Y89.18 E.23394
G1 X65.07 Y89.716 E.01689
G1 X69.784 Y94.43 E.21006
G1 X69.248 Y94.43 E.01689
G1 X65.07 Y90.252 E.18618
G1 X65.07 Y90.788 E.01689
G1 X68.712 Y94.43 E.1623
G1 X68.176 Y94.43 E.01689
G1 X65.07 Y91.324 E.13842
G1 X65.07 Y91.86 E.01689
G1 X67.64 Y94.43 E.11454
G1 X67.104 Y94.43 E.01689
G1 X65.07 Y92.396 E.09066
G1 X65.07 Y92.932 E.01689
G1 X66.568 Y94.43 E.06678
G1 X66.033 Y94.43 E.01689
G1 X65.07 Y93.467 E.0429
G1 X65.07 Y94.003 E.01689
G1 X65.666 Y94.6 E.02658
M204 P1000
; stop printing object double_snap_fit.stl_1 id:0 copy 0
M106 S84.15
;LAYER_CHANGE
;Z:0.45
;HEIGHT:0.25
;BEFORE_LAYER_CHANGE
G92 E0.0
;0.45


G1 E-2.24 F4200
;WIPE_START
G1 F7200
G1 X65.07 Y94.003 E-.46743
G1 X65.07 Y93.467 E-.29698
G1 X65.258 Y93.656 E-.14759
;WIPE_END
G1 E-.048 F4200
G1 Z.4 F720
G1 Z.45
;AFTER_LAYER_CHANGE
;0.45
G1 Z.65
G1 X61.623 Y93.656 F9000
G1 Z.45 F720
G1 E3.2 F2400
;TYPE:Skirt/Brim
;WIDTH:0.42
G1 X61.623 Y84.5 E.34863
G1 X62.015 Y83.193 E.05195
G1 X63.06 Y82.317 E.05195
G1 X64 Y82.123 E.03654
G1 X116 Y82.123 E1.98004
G1 X117.307 Y82.515 E.05195
G1 X118.183 Y83.56 E.05195
G1 X118.377 Y84.5 E.03654
G1 X118.377 Y95.5 E.41885
G1 X117.985 Y96.807 E.05195
G1 X116.94 Y97.683 E.05195
G1 X116 Y97.877 E.03654
G1 X64 Y97.877 E1.98004
G1 X62.693 Y97.485 E.05195
M73 P5 R29
G1 X61.817 Y96.44 E.05195
G1 X61.623 Y95.5 E.03654
G1 X61.623 Y93.716 E.06794
; printing object double_snap_fit.stl_2 id:1 copy 0
G1 E-2.24 F4200
;WIPE_START
G1 F7200
G1 X61.623 Y92.07 E-.912
;WIPE_END
G1 E-.048 F4200
G1 Z.65 F720
G1 X115.379 Y94.879 F9000
G1 Z.45 F720
G1 E3.2 F2400
M204 P800
;TYPE:Perimeter
;WIDTH:0.449999
G1 F3300
G1 X94.621 Y94.879 E.85511
G1 X94.621 Y85.121 E.40196
G1 X115.379 Y85.121 E.85511
G1 X115.379 Y94.819 E.39949
M204 P1000
G1 X115.775 Y95.275 F9000
M204 P800
;TYPE:External perimeter
G1 F2400
G1 X94.225 Y95.275 E.88777
G1 X94.225 Y84.725 E.43461
G1 X115.775 Y84.725 E.88777
G1 X115.775 Y95.215 E.43214
M204 P1000
G1 X115.38 Y95.215 F9000
G1 X115.26 Y93.947
;TYPE:Solid infill
;WIDTH:0.455476
G1 F6000
G1 X114.625 Y94.581 E.03748
G1 X114.057 Y94.581 E.02373
G1 X115.081 Y93.557 E.06051
G1 X115.081 Y92.989 E.02373
G1 X113.489 Y94.581 E.09407
G1 X112.92 Y94.581 E.02373
G1 X115.081 Y92.42 E.12763
G1 X115.081 Y91.852 E.02373
G1 X112.352 Y94.581 E.1612
G1 X111.784 Y94.581 E.02373
G1 X115.081 Y91.284 E.19476
G1 X115.081 Y90.716 E.02373
G1 X111.216 Y94.581 E.22833
G1 X110.647 Y94.581 E.02373
G1 X115.081 Y90.147 E.26189
G1 X115.081 Y89.579 E.02373
G1 X110.079 Y94.581 E.29546
G1 X109.511 Y94.581 E.02373
G1 X115.081 Y89.011 E.32902
G1 X115.081 Y88.443 E.02373
G1 X108.943 Y94.581 E.36259
G1 X108.374 Y94.581 E.02373
G1 X115.081 Y87.874 E.39615
G1 X115.081 Y87.306 E.02373
G1 X107.806 Y94.581 E.42971
G1 X107.238 Y94.581 E.02373
G1 X115.081 Y86.738 E.46328
G1 X115.081 Y86.17 E.02373
G1 X106.67 Y94.581 E.49684
G1 X106.101 Y94.581 E.02373
G1 X115.081 Y85.601 E.53041
G1 X115.081 Y85.419 E.00763
G1 X114.696 Y85.419 E.01611
G1 X105.533 Y94.581 E.5412
G1 X104.965 Y94.581 E.02373
G1 X114.128 Y85.419 E.5412
G1 X113.559 Y85.419 E.02373
G1 X104.396 Y94.581 E.5412
G1 X103.828 Y94.581 E.02373
G1 X112.991 Y85.419 E.5412
G1 X112.423 Y85.419 E.02373
G1 X103.26 Y94.581 E.5412
G1 X102.692 Y94.581 E.02373
G1 X111.854 Y85.419 E.5412
G1 X111.286 Y85.419 E.02373
G1 X102.123 Y94.581 E.5412
G1 X101.555 Y94.581 E.02373
G1 X110.718 Y85.419 E.5412
G1 X110.15 Y85.419 E.02373
G1 X100.987 Y94.581 E.5412
G1 X100.419 Y94.581 E.02373
G1 X109.581 Y85.419 E.5412
G1 X109.013 Y85.419 E.02373
G1 X99.85 Y94.581 E.5412
G1 X99.282 Y94.581 E.02373
G1 X108.445 Y85.419 E.5412
G1 X107.877 Y85.419 E.02373
G1 X98.714 Y94.581 E.5412
G1 X98.145 Y94.581 E.02373
G1 X107.308 Y85.419 E.5412
G1 X106.74 Y85.419 E.02373
G1 X97.577 Y94.581 E.5412
G1 X97.009 Y94.581 E.02373
G1 X106.172 Y85.419 E.5412
G1 X105.603 Y85.419 E.02373
G1 X96.441 Y94.581 E.5412
G1 X95.872 Y94.581 E.02373
G1 X105.035 Y85.419 E.5412
G1 X104.467 Y85.419 E.02373
G1 X95.304 Y94.581 E.5412
G1 X94.919 Y94.581 E.0161
G1 X94.919 Y94.399 E.00763
G1 X103.899 Y85.419 E.5304
G1 X103.33 Y85.419 E.02373
G1 X94.919 Y93.83 E.49684
G1 X94.919 Y93.262 E.02373
G1 X102.762 Y85.419 E.46328
G1 X102.194 Y85.419 E.02373
M73 P5 R28
G1 X94.919 Y92.694 E.42971
G1 X94.919 Y92.126 E.02373
G1 X101.626 Y85.419 E.39615
G1 X101.057 Y85.419 E.02373
G1 X94.919 Y91.557 E.36258
G1 X94.919 Y90.989 E.02373
G1 X100.489 Y85.419 E.32902
G1 X99.921 Y85.419 E.02373
G1 X94.919 Y90.421 E.29545
G1 X94.919 Y89.853 E.02373
G1 X99.353 Y85.419 E.26189
G1 X98.784 Y85.419 E.02373
G1 X94.919 Y89.284 E.22832
G1 X94.919 Y88.716 E.02373
G1 X98.216 Y85.419 E.19476
G1 X97.648 Y85.419 E.02373
G1 X94.919 Y88.148 E.16119
G1 X94.919 Y87.579 E.02373
G1 X97.079 Y85.419 E.12763
G1 X96.511 Y85.419 E.02373
G1 X94.919 Y87.011 E.09407
G1 X94.919 Y86.443 E.02373
G1 X95.943 Y85.419 E.0605
G1 X95.375 Y85.419 E.02373
G1 X94.74 Y86.053 E.03747
; stop printing object double_snap_fit.stl_2 id:1 copy 0
; printing object double_snap_fit.stl_1 id:0 copy 0
G1 E-2.24 F4200
;WIPE_START
G1 F7200
G1 X95.375 Y85.419 E-.49719
G1 X95.943 Y85.419 E-.31492
G1 X95.815 Y85.546 E-.09989
;WIPE_END
G1 E-.048 F4200
G1 Z.65 F720
G1 X64.621 Y94.879 F9000
G1 Z.45 F720
G1 E3.2 F2400
M204 P800
;TYPE:Perimeter
;WIDTH:0.449999
G1 F3300
G1 X64.621 Y85.121 E.40196
G1 X85.379 Y85.121 E.85511
G1 X85.379 Y94.879 E.40196
G1 X64.681 Y94.879 E.85264
M204 P1000
G1 X64.225 Y95.275 F9000
M204 P800
;TYPE:External perimeter
G1 F2400
G1 X64.225 Y84.725 E.43461
G1 X85.775 Y84.725 E.88777
G1 X85.775 Y95.275 E.43461
G1 X64.285 Y95.275 E.8853
M204 P1000
G1 X64.37 Y94.902 F9000
G1 E-2.24 F4200
;WIPE_START
G1 F7200
G1 X64.276 Y93.629 E-.912
;WIPE_END
G1 E-.048 F4200
G1 Z.65 F720
G1 X85.26 Y93.947 F9000
G1 Z.45 F720
M73 P6 R28
G1 E3.2 F2400
;TYPE:Solid infill
;WIDTH:0.455476
G1 F6000
G1 X84.625 Y94.581 E.03748
G1 X84.057 Y94.581 E.02373
G1 X85.081 Y93.557 E.06051
G1 X85.081 Y92.989 E.02373
G1 X83.489 Y94.581 E.09407
G1 X82.92 Y94.581 E.02373
G1 X85.081 Y92.42 E.12763
G1 X85.081 Y91.852 E.02373
G1 X82.352 Y94.581 E.1612
G1 X81.784 Y94.581 E.02373
G1 X85.081 Y91.284 E.19476
G1 X85.081 Y90.716 E.02373
G1 X81.216 Y94.581 E.22833
G1 X80.647 Y94.581 E.02373
G1 X85.081 Y90.147 E.26189
G1 X85.081 Y89.579 E.02373
G1 X80.079 Y94.581 E.29546
G1 X79.511 Y94.581 E.02373
G1 X85.081 Y89.011 E.32902
G1 X85.081 Y88.443 E.02373
G1 X78.943 Y94.581 E.36259
G1 X78.374 Y94.581 E.02373
G1 X85.081 Y87.874 E.39615
G1 X85.081 Y87.306 E.02373
G1 X77.806 Y94.581 E.42971
G1 X77.238 Y94.581 E.02373
G1 X85.081 Y86.738 E.46328
G1 X85.081 Y86.17 E.02373
G1 X76.67 Y94.581 E.49684
G1 X76.101 Y94.581 E.02373
G1 X85.081 Y85.601 E.53041
G1 X85.081 Y85.419 E.00763
G1 X84.696 Y85.419 E.01611
G1 X75.533 Y94.581 E.5412
G1 X74.965 Y94.581 E.02373
G1 X84.128 Y85.419 E.5412
G1 X83.559 Y85.419 E.02373
G1 X74.396 Y94.581 E.5412
