; generated by PrusaSlicer 2.5.0+win64 on 2023-02-08 at 20:24:43 UTC


;
;

;
;
; 

; external perimeters extrusion width = 0.45mm
; perimeters extrusion width = 0.45mm
; infill extrusion width = 0.45mm
; solid infill extrusion width = 0.45mm
; top infill extrusion width = 0.40mm
; support material extrusion width = 0.35mm
; first layer extrusion width = 0.42mm

M73 P0 R42
M201 X2500 Y2500 Z400 E5000 ; sets maximum accelerations, mm/sec^2
M203 X180 Y180 Z12 E80 ; sets maximum feedrates, mm / sec
M204 P1250 R1250 T2500 ; sets acceleration (P, T) and retract acceleration (R), mm/sec^2
M205 X8.00 Y8.00 Z2.00 E10.00 ; sets the jerk limits, mm/sec
M205 S0 T0 ; sets the minimum extruding and travel feed rate, mm/sec
M107
;TYPE:Custom
M862.3 P "MINI" ; printer model check
G90 ; use absolute coordinates
M83 ; extruder relative mode
M104 S170 ; set extruder temp for bed leveling
M140 S60 ; set bed temp
M109 R170 ; wait for bed leveling temp
M190 S60 ; wait for bed temp
M204 T1250 ; set travel acceleration
G28 ; home all without mesh bed level
G29 ; mesh bed leveling 
M204 T2500 ; restore travel acceleration
M104 S215 ; set extruder temp
G92 E0
G1 Y-2 X179 F2400
G1 Z3 F720
M109 S215 ; wait for extruder temp

; intro line
G1 X170 F1000
G1 Z0.2 F720
G1 X110 E8 F900
G1 X40 E10 F700
G92 E0

M221 S95 ; set flow
G21 ; set units to millimeters
G90 ; use absolute coordinates
M83 ; use relative distances for extrusion
M900 K0.2 ; Filament gcode LA 1.5
; ; Filament gcode LA 1.0
M107
;LAYER_CHANGE
;Z:0.2
;HEIGHT:0.2
;BEFORE_LAYER_CHANGE
G92 E0.0
;0.2


G1 E-3.2 F4200
G1 Z.2 F720
;AFTER_LAYER_CHANGE
;0.2
G1 Z.4
G1 X57.2 Y76.048 F9000
G1 Z.2 F720
M73 P0 R41
G1 E3.2 F2400
M204 P800
;TYPE:Skirt/Brim
;WIDTH:0.42
G1 F1200
G1 X58.495 Y75.725 E.04186
G1 X78.299 Y75.725 E.62096
G1 X80.281 Y76.566 E.06749
G1 X85.014 Y81.468 E.21366
G1 X85.787 Y83.381 E.06469
G1 X85.787 Y93.381 E.31354
G1 X85.394 Y94.799 E.04612
G1 X84.328 Y95.812 E.04612
G1 X83.033 Y96.135 E.04186
G1 X63.033 Y96.135 E.62709
G1 X61.122 Y95.365 E.06458
G1 X56.585 Y90.996 E.19751
G1 X55.741 Y89.012 E.0676
G1 X55.741 Y78.479 E.33026
G1 X56.133 Y77.061 E.04612
G1 X57.156 Y76.09 E.04424
M204 P1000
G1 X57.422 Y76.407 F9000
M204 P800
G1 F1200
G1 X57.555 Y76.295 E.00544
G1 X58.495 Y76.102 E.03008
G1 X78.299 Y76.102 E.62096
G1 X80.009 Y76.828 E.05825
G1 X84.743 Y81.73 E.21366
G1 X85.41 Y83.381 E.05584
G1 X85.41 Y93.381 E.31354
G1 X85.018 Y94.688 E.04278
G1 X83.972 Y95.565 E.04278
G1 X83.033 Y95.758 E.03008
G1 X63.033 Y95.758 E.62709
G1 X61.384 Y95.094 E.05574
G1 X56.846 Y90.725 E.19751
G1 X56.118 Y89.012 E.05835
G1 X56.118 Y78.479 E.33026
G1 X56.509 Y77.172 E.04278
G1 X57.376 Y76.445 E.03546
M204 P1000
; printing object double_snap_fit.stl_1 id:0 copy 0
G1 E-2.24 F4200
;WIPE_START
G1 F7200
M73 P1 R41
G1 X57.555 Y76.295 E-.12943
G1 X58.495 Y76.102 E-.53172
G1 X58.947 Y76.102 E-.25085
;WIPE_END
G1 E-.048 F4200
G1 Z.4 F720
G1 X78.299 Y82.901 F9000
G1 Z.2 F720
G1 E3.2 F2400
M204 P800
;TYPE:Support material
G1 F1200
G1 X62.834 Y82.901 E.48491
G1 X62.553 Y83.182 E.01247
G1 X62.553 Y89.012 E.18279
G1 X58.495 Y89.012 E.12723
G1 X58.495 Y78.479 E.33026
G1 X78.299 Y78.479 E.62096
G1 X78.299 Y82.845 E.13688
M204 P1000
G1 X77.641 Y82.731 F9000
M204 P800
G1 F1200
G1 X77.641 Y78.818 E.1227
G1 X77.222 Y78.818 E.01314
G1 X77.222 Y82.562 E.11737
G1 X76.803 Y82.562 E.01314
G1 X76.803 Y78.818 E.11737
G1 X76.385 Y78.818 E.01314
G1 X76.385 Y82.562 E.11737
G1 X75.966 Y82.562 E.01314
G1 X75.966 Y78.818 E.11737
G1 X75.547 Y78.818 E.01314
G1 X75.547 Y82.562 E.11737
G1 X75.128 Y82.562 E.01314
G1 X75.128 Y78.818 E.11737
G1 X74.709 Y78.818 E.01314
G1 X74.709 Y82.562 E.11737
G1 X74.29 Y82.562 E.01314
G1 X74.29 Y78.818 E.11737
G1 X73.871 Y78.818 E.01314
G1 X73.871 Y82.562 E.11737
G1 X73.452 Y82.562 E.01314
G1 X73.452 Y78.818 E.11737
G1 X73.033 Y78.818 E.01314
G1 X73.033 Y82.562 E.11737
G1 X72.614 Y82.562 E.01314
G1 X72.614 Y78.818 E.11737
G1 X72.195 Y78.818 E.01314
G1 X72.195 Y82.562 E.11737
G1 X71.776 Y82.562 E.01314
G1 X71.776 Y78.818 E.11737
G1 X71.357 Y78.818 E.01314
G1 X71.357 Y82.562 E.11737
G1 X70.938 Y82.562 E.01314
G1 X70.938 Y78.818 E.11737
G1 X70.519 Y78.818 E.01314
G1 X70.519 Y82.562 E.11737
G1 X70.1 Y82.562 E.01314
G1 X70.1 Y78.818 E.11737
G1 X69.681 Y78.818 E.01314
G1 X69.681 Y82.562 E.11737
G1 X69.262 Y82.562 E.01314
G1 X69.262 Y78.818 E.11737
G1 X68.843 Y78.818 E.01314
G1 X68.843 Y82.562 E.11737
G1 X68.424 Y82.562 E.01314
G1 X68.424 Y78.818 E.11737
G1 X68.005 Y78.818 E.01314
G1 X68.005 Y82.562 E.11737
G1 X67.586 Y82.562 E.01314
G1 X67.586 Y78.818 E.11737
G1 X67.167 Y78.818 E.01314
G1 X67.167 Y82.562 E.11737
G1 X66.748 Y82.562 E.01314
G1 X66.748 Y78.818 E.11737
G1 X66.329 Y78.818 E.01314
G1 X66.329 Y82.562 E.11737
G1 X65.91 Y82.562 E.01314
G1 X65.91 Y78.818 E.11737
G1 X65.491 Y78.818 E.01314
G1 X65.491 Y82.562 E.11737
G1 X65.072 Y82.562 E.01314
G1 X65.072 Y78.818 E.11737
G1 X64.653 Y78.818 E.01314
G1 X64.653 Y82.562 E.11737
G1 X64.234 Y82.562 E.01314
G1 X64.234 Y78.818 E.11737
G1 X63.815 Y78.818 E.01314
G1 X63.815 Y82.562 E.11737
G1 X63.396 Y82.562 E.01314
G1 X63.396 Y78.818 E.11737
G1 X62.977 Y78.818 E.01314
G1 X62.977 Y82.562 E.11737
G1 X62.693 Y82.562 E.0089
G1 X62.558 Y82.697 E.00599
G1 X62.558 Y78.818 E.12161
G1 X62.139 Y78.818 E.01314
G1 X62.139 Y88.673 E.30898
G1 X61.72 Y88.673 E.01314
G1 X61.72 Y78.818 E.30898
G1 X61.301 Y78.818 E.01314
G1 X61.301 Y88.673 E.30898
G1 X60.882 Y88.673 E.01314
G1 X60.882 Y78.818 E.30898
G1 X60.463 Y78.818 E.01314
G1 X60.463 Y88.673 E.30898
G1 X60.044 Y88.673 E.01314
G1 X60.044 Y78.818 E.30898
G1 X59.625 Y78.818 E.01314
G1 X59.625 Y88.673 E.30898
G1 X59.206 Y88.673 E.01314
G1 X59.206 Y78.649 E.3143
M204 P1000
G1 E-2.24 F4200
;WIPE_START
G1 F7200
G1 X59.206 Y80.294 E-.912
;WIPE_END
G1 E-.048 F4200
G1 Z.4 F720
G1 X63.82 Y92.594 F9000
G1 Z.2 F720
G1 E3.2 F2400
M204 P800
;TYPE:Perimeter
;WIDTH:0.419999
G1 F1200
G1 X63.82 Y84.168 E.26419
G1 X82.246 Y84.168 E.57773
G1 X82.246 Y92.594 E.26419
G1 X63.88 Y92.594 E.57585
M204 P1000
G1 X63.443 Y92.971 F9000
M204 P800
;TYPE:External perimeter
G1 F1200
G1 X63.443 Y83.791 E.28783
G1 X82.623 Y83.791 E.60137
G1 X82.623 Y92.971 E.28783
G1 X63.503 Y92.971 E.59949
M204 P1000
G1 X63.589 Y92.599 F9000
G1 E-2.24 F4200
;WIPE_START
G1 F7200
G1 X63.492 Y91.325 E-.912
;WIPE_END
G1 E-.048 F4200
G1 Z.4 F720
G1 X81.36 Y84.281 F9000
G1 Z.2 F720
G1 E3.2 F2400
M204 P800
;TYPE:Solid infill
;WIDTH:0.424969
G1 F1200
G1 X81.963 Y84.884 E.0271
G1 X81.963 Y85.425 E.01716
G1 X80.989 Y84.451 E.04375
G1 X80.449 Y84.451 E.01716
G1 X81.963 Y85.965 E.06802
G1 X81.963 Y86.505 E.01716
G1 X79.908 Y84.451 E.09229
G1 X79.368 Y84.451 E.01716
G1 X81.963 Y87.046 E.11657
G1 X81.963 Y87.586 E.01716
G1 X78.828 Y84.451 E.14084
G1 X78.288 Y84.451 E.01716
G1 X81.963 Y88.126 E.16511
G1 X81.963 Y88.667 E.01716
G1 X77.747 Y84.451 E.18939
G1 X77.207 Y84.451 E.01716
G1 X81.963 Y89.207 E.21366
G1 X81.963 Y89.747 E.01716
G1 X76.667 Y84.451 E.23793
G1 X76.126 Y84.451 E.01716
G1 X81.963 Y90.287 E.26221
G1 X81.963 Y90.828 E.01716
M73 P2 R41
G1 X75.586 Y84.451 E.28648
G1 X75.046 Y84.451 E.01716
G1 X81.963 Y91.368 E.31075
G1 X81.963 Y91.908 E.01716
G1 X74.505 Y84.451 E.33503
G1 X73.965 Y84.451 E.01716
G1 X81.825 Y92.311 E.35313
G1 X81.285 Y92.311 E.01716
G1 X73.425 Y84.451 E.35313
G1 X72.885 Y84.451 E.01716
G1 X80.745 Y92.311 E.35313
G1 X80.205 Y92.311 E.01716
G1 X72.344 Y84.451 E.35313
G1 X71.804 Y84.451 E.01716
G1 X79.664 Y92.311 E.35313
G1 X79.124 Y92.311 E.01716
G1 X71.264 Y84.451 E.35313
G1 X70.723 Y84.451 E.01716
G1 X78.584 Y92.311 E.35313
G1 X78.043 Y92.311 E.01716
G1 X70.183 Y84.451 E.35313
G1 X69.643 Y84.451 E.01716
G1 X77.503 Y92.311 E.35313
G1 X76.963 Y92.311 E.01716
G1 X69.102 Y84.451 E.35313
G1 X68.562 Y84.451 E.01716
G1 X76.422 Y92.311 E.35313
G1 X75.882 Y92.311 E.01716
G1 X68.022 Y84.451 E.35313
G1 X67.482 Y84.451 E.01716
G1 X75.342 Y92.311 E.35313
G1 X74.802 Y92.311 E.01716
G1 X66.941 Y84.451 E.35313
G1 X66.401 Y84.451 E.01716
G1 X74.261 Y92.311 E.35313
G1 X73.721 Y92.311 E.01716
G1 X65.861 Y84.451 E.35313
G1 X65.32 Y84.451 E.01716
G1 X73.181 Y92.311 E.35313
G1 X72.64 Y92.311 E.01716
G1 X64.78 Y84.451 E.35313
G1 X64.24 Y84.451 E.01716
G1 X72.1 Y92.311 E.35313
G1 X71.56 Y92.311 E.01716
G1 X64.103 Y84.854 E.33502
G1 X64.103 Y85.394 E.01716
G1 X71.019 Y92.311 E.31075
G1 X70.479 Y92.311 E.01716
G1 X64.103 Y85.935 E.28648
G1 X64.103 Y86.475 E.01716
G1 X69.939 Y92.311 E.2622
G1 X69.399 Y92.311 E.01716
G1 X64.103 Y87.015 E.23793
G1 X64.103 Y87.556 E.01716
G1 X68.858 Y92.311 E.21365
G1 X68.318 Y92.311 E.01716
G1 X64.103 Y88.096 E.18938
G1 X64.103 Y88.636 E.01716
G1 X67.778 Y92.311 E.16511
G1 X67.237 Y92.311 E.01716
G1 X64.103 Y89.176 E.14083
G1 X64.103 Y89.717 E.01716
G1 X66.697 Y92.311 E.11656
G1 X66.157 Y92.311 E.01716
G1 X64.103 Y90.257 E.09229
G1 X64.103 Y90.797 E.01716
G1 X65.616 Y92.311 E.06801
G1 X65.076 Y92.311 E.01716
G1 X64.103 Y91.338 E.04374
G1 X64.103 Y91.878 E.01716
G1 X64.706 Y92.481 E.02709
M204 P1000
; stop printing object double_snap_fit.stl_1 id:0 copy 0
M106 S84.15
;LAYER_CHANGE
;Z:0.35
;HEIGHT:0.15
;BEFORE_LAYER_CHANGE
G92 E0.0
;0.35


G1 E-2.24 F4200
;WIPE_START
G1 F7200
G1 X64.103 Y91.878 E-.47257
G1 X64.103 Y91.338 E-.29942
G1 X64.281 Y91.516 E-.14001
;WIPE_END
G1 E-.048 F4200
G1 Z.4 F720
;AFTER_LAYER_CHANGE
;0.35
G1 X64.281 Y96.135 F9000
G1 Z.35 F720
G1 E3.2 F2400
;TYPE:Skirt/Brim
;WIDTH:0.42
G1 X63.033 Y96.135 E.0302
G1 X61.122 Y95.365 E.04981
G1 X56.585 Y90.996 E.15235
G1 X55.741 Y89.012 E.05214
G1 X55.741 Y78.479 E.25475
G1 X56.133 Y77.061 E.03557
G1 X57.2 Y76.048 E.03557
G1 X58.495 Y75.725 E.03229
G1 X78.299 Y75.725 E.47897
G1 X80.281 Y76.566 E.05206
G1 X85.014 Y81.468 E.16481
G1 X85.787 Y83.381 E.0499
G1 X85.787 Y93.381 E.24185
G1 X85.394 Y94.799 E.03557
G1 X84.328 Y95.812 E.03557
G1 X83.033 Y96.135 E.03229
G1 X64.341 Y96.135 E.45205
G1 X64.341 Y95.758 F9000
G1 F2400
G1 X63.033 Y95.758 E.03165
G1 X61.384 Y95.094 E.04299
G1 X56.846 Y90.725 E.15235
G1 X56.118 Y89.012 E.04501
G1 X56.118 Y78.479 E.25475
G1 X56.509 Y77.172 E.033
G1 X57.555 Y76.295 E.033
G1 X58.495 Y76.102 E.02321
G1 X78.299 Y76.102 E.47897
G1 X80.009 Y76.828 E.04493
G1 X84.743 Y81.73 E.16481
G1 X85.41 Y83.381 E.04307
G1 X85.41 Y93.381 E.24185
G1 X85.018 Y94.688 E.033
G1 X83.972 Y95.565 E.033
G1 X83.033 Y95.758 E.02321
G1 X64.401 Y95.758 E.4506
; printing object double_snap_fit.stl_1 id:0 copy 0
G1 E-2.24 F4200
;WIPE_START
G1 F7200
G1 X63.033 Y95.758 E-.75839
G1 X62.776 Y95.655 E-.15361
;WIPE_END
G1 E-.048 F4200
G1 Z.55 F720
G1 X63.675 Y92.738 F9000
G1 Z.35 F720
G1 E3.2 F2400
M204 P800
;TYPE:Perimeter
;WIDTH:0.449999
G1 F3000
G1 X63.675 Y84.024 E.22706
G1 X82.39 Y84.024 E.48762
G1 X82.39 Y92.738 E.22706
G1 X63.735 Y92.738 E.48605
M204 P1000
G1 X63.258 Y93.156 F9000
M204 P800
;TYPE:External perimeter
G1 F2400
G1 X63.258 Y83.606 E.24883
G1 X82.808 Y83.606 E.50939
G1 X82.808 Y93.156 E.24883
G1 X63.318 Y93.156 E.50783
M204 P1000
M73 P3 R40
G1 X63.403 Y92.783 F9000
G1 E-2.24 F4200
;WIPE_START
G1 F7200
G1 X63.307 Y91.51 E-.912
;WIPE_END
G1 E-.048 F4200
G1 Z.55 F720
G1 X81.406 Y92.613 F9000
G1 Z.35 F720
G1 E3.2 F2400
;TYPE:Solid infill
;WIDTH:0.456626
G1 F3146
G1 X82.077 Y91.942 E.0251
G1 X82.077 Y91.342 E.01589
G1 X80.994 Y92.425 E.04053
G1 X80.393 Y92.425 E.01589
G1 X82.077 Y90.742 E.063
G1 X82.077 Y90.142 E.01589
G1 X79.793 Y92.425 E.08547
G1 X79.193 Y92.425 E.01589
G1 X82.077 Y89.541 E.10794
G1 X82.077 Y88.941 E.01589
G1 X78.593 Y92.425 E.13041
G1 X77.992 Y92.425 E.01589
G1 X82.077 Y88.341 E.15288
G1 X82.077 Y87.741 E.01589
G1 X77.392 Y92.425 E.17535
G1 X76.792 Y92.425 E.01589
G1 X82.077 Y87.14 E.19782
G1 X82.077 Y86.54 E.01589
G1 X76.192 Y92.425 E.22029
G1 X75.591 Y92.425 E.01589
G1 X82.077 Y85.94 E.24275
G1 X82.077 Y85.34 E.01589
G1 X74.991 Y92.425 E.26522
G1 X74.391 Y92.425 E.01589
G1 X82.077 Y84.739 E.28769
G1 X82.077 Y84.337 E.01064
G1 X81.878 Y84.337 E.00524
G1 X73.791 Y92.425 E.30274
G1 X73.19 Y92.425 E.01589
G1 X81.278 Y84.337 E.30274
G1 X80.678 Y84.337 E.01589
G1 X72.59 Y92.425 E.30274
G1 X71.99 Y92.425 E.01589
G1 X80.078 Y84.337 E.30274
G1 X79.477 Y84.337 E.01589
G1 X71.39 Y92.425 E.30274
G1 X70.79 Y92.425 E.01589
G1 X78.877 Y84.337 E.30274
G1 X78.277 Y84.337 E.01589
G1 X70.189 Y92.425 E.30274
G1 X69.589 Y92.425 E.01589
G1 X77.677 Y84.337 E.30274
G1 X77.076 Y84.337 E.01589
G1 X68.989 Y92.425 E.30274
G1 X68.389 Y92.425 E.01589
G1 X76.476 Y84.337 E.30274
G1 X75.876 Y84.337 E.01589
G1 X67.788 Y92.425 E.30274
G1 X67.188 Y92.425 E.01589
G1 X75.276 Y84.337 E.30274
G1 X74.675 Y84.337 E.01589
G1 X66.588 Y92.425 E.30274
G1 X65.988 Y92.425 E.01589
G1 X74.075 Y84.337 E.30274
G1 X73.475 Y84.337 E.01589
G1 X65.387 Y92.425 E.30274
G1 X64.787 Y92.425 E.01589
G1 X72.875 Y84.337 E.30274
G1 X72.275 Y84.337 E.01589
G1 X64.187 Y92.425 E.30274
G1 X63.989 Y92.425 E.00524
G1 X63.989 Y92.023 E.01065
G1 X71.674 Y84.337 E.28769
G1 X71.074 Y84.337 E.01589
G1 X63.989 Y91.422 E.26522
G1 X63.989 Y90.822 E.01589
G1 X70.474 Y84.337 E.24275
G1 X69.874 Y84.337 E.01589
G1 X63.989 Y90.222 E.22028
G1 X63.989 Y89.622 E.01589
G1 X69.273 Y84.337 E.19781
G1 X68.673 Y84.337 E.01589
G1 X63.989 Y89.021 E.17534
G1 X63.989 Y88.421 E.01589
G1 X68.073 Y84.337 E.15287
G1 X67.473 Y84.337 E.01589
G1 X63.989 Y87.821 E.13041
G1 X63.989 Y87.221 E.01589
G1 X66.872 Y84.337 E.10794
G1 X66.272 Y84.337 E.01589
G1 X63.989 Y86.621 E.08547
G1 X63.989 Y86.02 E.01589
G1 X65.672 Y84.337 E.063
G1 X65.072 Y84.337 E.01589
G1 X63.989 Y85.42 E.04053
G1 X63.989 Y84.82 E.01589
G1 X64.659 Y84.149 E.0251
; stop printing object double_snap_fit.stl_1 id:0 copy 0
M106 S170.85
;LAYER_CHANGE
;Z:0.448765
;HEIGHT:0.0987654
;BEFORE_LAYER_CHANGE
G92 E0.0
;0.448765


G1 E-2.24 F4200
;WIPE_START
G1 F7200
G1 X63.989 Y84.82 E-.52549
G1 X63.989 Y85.42 E-.33263
G1 X64.058 Y85.351 E-.05387
;WIPE_END
G1 E-.048 F4200
G1 Z.55 F720
;AFTER_LAYER_CHANGE
;0.448765
; printing object double_snap_fit.stl_1 id:0 copy 0
G1 X62.604 Y86.063 F9000
G1 Z.449 F720
G1 E3.2 F2400
;TYPE:Support material
;WIDTH:0.35
;HEIGHT:0.248765
G1 X61.444 Y86.063 E.03559
G1 X61.444 Y83.745 E.0711
G1 X62.604 Y83.745 E.03559
G1 X62.604 Y83.203 E.01663
G1 X62.855 Y82.952 E.0109
G1 X66.079 Y82.952 E.09891
G1 X66.079 Y81.428 E.04677
G1 X61.444 Y81.428 E.14221
G1 E-2.24 F4200
;WIPE_START
G1 F7200
G1 X63.089 Y81.428 E-.912
;WIPE_END
G1 E-.048 F4200
G1 Z.649 F720
G1 X70.715 Y81.428 F9000
G1 Z.449 F720
G1 E3.2 F2400
G1 X75.351 Y81.428 E.14221
G1 X75.351 Y82.952 E.04677
G1 X70.715 Y82.952 E.14221
G1 X70.715 Y81.587 E.04189
; stop printing object double_snap_fit.stl_1 id:0 copy 0
;LAYER_CHANGE
;Z:0.5
;HEIGHT:0.0512346
;BEFORE_LAYER_CHANGE
G92 E0.0
;0.5


G1 E-2.24 F4200
;WIPE_START
G1 F7200
G1 X70.715 Y82.952 E-.75678
G1 X70.995 Y82.952 E-.15522
;WIPE_END
G1 E-.048 F4200
G1 Z.649 F720
;AFTER_LAYER_CHANGE
;0.5
G1 X70.995 Y75.725 F9000
G1 Z.5 F720
G1 E3.2 F2400
;TYPE:Skirt/Brim
;WIDTH:0.42
;HEIGHT:0.15
G1 X78.299 Y75.725 E.17665
G1 X80.281 Y76.566 E.05206
G1 X85.014 Y81.468 E.16481
G1 X85.787 Y83.381 E.0499
G1 X85.787 Y93.381 E.24185
G1 X85.394 Y94.799 E.03557
G1 X84.328 Y95.812 E.03557
G1 X83.033 Y96.135 E.03229
G1 X63.033 Y96.135 E.4837
G1 X61.122 Y95.365 E.04981
G1 X56.585 Y90.996 E.15235
G1 X55.741 Y89.012 E.05214
G1 X55.741 Y78.479 E.25475
G1 X56.133 Y77.061 E.03557
G1 X57.2 Y76.048 E.03557
G1 X58.495 Y75.725 E.03229
G1 X70.935 Y75.725 E.30086
G1 X70.935 Y76.102 F9000
G1 F2400
G1 X78.299 Y76.102 E.17811
G1 X80.009 Y76.828 E.04493
G1 X84.743 Y81.73 E.16481
G1 X85.41 Y83.381 E.04307
G1 X85.41 Y93.381 E.24185
G1 X85.018 Y94.688 E.033
G1 X83.972 Y95.565 E.033
G1 X83.033 Y95.758 E.02321
G1 X63.033 Y95.758 E.4837
G1 X61.384 Y95.094 E.04299
G1 X56.846 Y90.725 E.15235
G1 X56.118 Y89.012 E.04501
G1 X56.118 Y78.479 E.25475
G1 X56.509 Y77.172 E.033
G1 X57.555 Y76.295 E.033
G1 X58.495 Y76.102 E.02321
G1 X70.875 Y76.102 E.29941
; printing object double_snap_fit.stl_1 id:0 copy 0
G1 E-2.24 F4200
;WIPE_START
G1 F7200
G1 X72.521 Y76.102 E-.912
;WIPE_END
G1 E-.048 F4200
G1 Z.7 F720
G1 X63.675 Y92.738 F9000
G1 Z.5 F720
G1 E3.2 F2400
M204 P800
;TYPE:Perimeter
;WIDTH:0.449999
G1 F3000
