; generated by PrusaSlicer 2.5.0+win64 on 2023-02-07 at 19:34:22 UTC


;
;

;
;
; 

; external perimeters extrusion width = 0.45mm
; perimeters extrusion width = 0.45mm
; infill extrusion width = 0.45mm
; solid infill extrusion width = 0.45mm
; top infill extrusion width = 0.40mm
; support material extrusion width = 0.35mm
; first layer extrusion width = 0.42mm

M73 P0 R18
M201 X2500 Y2500 Z400 E5000 ; sets maximum accelerations, mm/sec^2
M203 X180 Y180 Z12 E80 ; sets maximum feedrates, mm / sec
M204 P1250 R1250 T2500 ; sets acceleration (P, T) and retract acceleration (R), mm/sec^2
M205 X8.00 Y8.00 Z2.00 E10.00 ; sets the jerk limits, mm/sec
M205 S0 T0 ; sets the minimum extruding and travel feed rate, mm/sec
M107
;TYPE:Custom
M862.3 P "MINI" ; printer model check
G90 ; use absolute coordinates
M83 ; extruder relative mode
M104 S170 ; set extruder temp for bed leveling
M140 S60 ; set bed temp
M109 R170 ; wait for bed leveling temp
M190 S60 ; wait for bed temp
M204 T1250 ; set travel acceleration
G28 ; home all without mesh bed level
G29 ; mesh bed leveling 
M204 T2500 ; restore travel acceleration
M104 S215 ; set extruder temp
G92 E0
G1 Y-2 X179 F2400
G1 Z3 F720
M109 S215 ; wait for extruder temp

; intro line
G1 X170 F1000
G1 Z0.2 F720
G1 X110 E8 F900
G1 X40 E10 F700
G92 E0

M221 S95 ; set flow
G21 ; set units to millimeters
G90 ; use absolute coordinates
M83 ; use relative distances for extrusion
M900 K0.2 ; Filament gcode LA 1.5
; ; Filament gcode LA 1.0
M107
;LAYER_CHANGE
;Z:0.2
;HEIGHT:0.2
;BEFORE_LAYER_CHANGE
G92 E0.0
;0.2


G1 E-3.2 F4200
M73 P1 R18
G1 Z.2 F720
;AFTER_LAYER_CHANGE
;0.2
G1 Z.4
G1 X63.705 Y82.569 F9000
G1 Z.2 F720
G1 E3.2 F2400
M204 P800
;TYPE:Skirt/Brim
;WIDTH:0.42
G1 F1200
G1 X65 Y82.246 E.04186
G1 X85 Y82.246 E.62709
G1 X86.417 Y82.639 E.04612
G1 X87.431 Y83.705 E.04612
G1 X87.754 Y85 E.04186
G1 X87.754 Y95 E.31354
G1 X87.361 Y96.417 E.04612
G1 X86.295 Y97.431 E.04612
G1 X85 Y97.754 E.04186
G1 X65 Y97.754 E.62709
G1 X63.583 Y97.361 E.04612
G1 X62.569 Y96.295 E.04612
G1 X62.246 Y95 E.04186
G1 X62.246 Y85 E.31354
G1 X62.639 Y83.583 E.04612
G1 X63.661 Y82.611 E.04424
M204 P1000
G1 X63.927 Y82.928 F9000
M204 P800
G1 F1200
G1 X64.06 Y82.817 E.00544
G1 X65 Y82.623 E.03008
G1 X85 Y82.623 E.62709
G1 X86.307 Y83.015 E.04278
G1 X87.183 Y84.06 E.04278
G1 X87.377 Y85 E.03008
G1 X87.377 Y95 E.31354
G1 X86.985 Y96.307 E.04278
G1 X85.94 Y97.183 E.04278
G1 X85 Y97.377 E.03008
G1 X65 Y97.377 E.62709
G1 X63.693 Y96.985 E.04278
M73 P2 R18
G1 X62.817 Y95.94 E.04278
G1 X62.623 Y95 E.03008
G1 X62.623 Y85 E.31354
G1 X63.015 Y83.693 E.04278
G1 X63.881 Y82.967 E.03546
M204 P1000
; printing object double_snap_fit.stl_1 id:0 copy 0
G1 E-2.24 F4200
;WIPE_START
G1 F7200
G1 X64.06 Y82.817 E-.12943
G1 X65 Y82.623 E-.53172
G1 X65.453 Y82.623 E-.25085
;WIPE_END
G1 E-.048 F4200
G1 Z.4 F720
G1 X65.787 Y94.213 F9000
G1 Z.2 F720
G1 E3.2 F2400
M204 P800
;TYPE:Perimeter
;WIDTH:0.419999
G1 F1200
G1 X65.787 Y85.787 E.26419
G1 X84.213 Y85.787 E.57773
G1 X84.213 Y94.213 E.26419
G1 X65.847 Y94.213 E.57585
M204 P1000
G1 X65.41 Y94.59 F9000
M204 P800
;TYPE:External perimeter
G1 F1200
G1 X65.41 Y85.41 E.28783
G1 X84.59 Y85.41 E.60137
G1 X84.59 Y94.59 E.28783
G1 X65.47 Y94.59 E.59949
M204 P1000
G1 X65.556 Y94.218 F9000
G1 E-2.24 F4200
;WIPE_START
G1 F7200
G1 X65.459 Y92.944 E-.912
;WIPE_END
G1 E-.048 F4200
G1 Z.4 F720
G1 X83.327 Y85.9 F9000
G1 Z.2 F720
G1 E3.2 F2400
M204 P800
;TYPE:Solid infill
;WIDTH:0.424969
G1 F1200
G1 X83.93 Y86.503 E.0271
G1 X83.93 Y87.044 E.01716
G1 X82.956 Y86.07 E.04375
G1 X82.416 Y86.07 E.01716
G1 X83.93 Y87.584 E.06802
G1 X83.93 Y88.124 E.01716
G1 X81.876 Y86.07 E.09229
G1 X81.335 Y86.07 E.01716
G1 X83.93 Y88.665 E.11657
G1 X83.93 Y89.205 E.01716
G1 X80.795 Y86.07 E.14084
G1 X80.255 Y86.07 E.01716
G1 X83.93 Y89.745 E.16511
G1 X83.93 Y90.285 E.01716
G1 X79.715 Y86.07 E.18939
G1 X79.174 Y86.07 E.01716
G1 X83.93 Y90.826 E.21366
G1 X83.93 Y91.366 E.01716
G1 X78.634 Y86.07 E.23793
G1 X78.094 Y86.07 E.01716
G1 X83.93 Y91.906 E.26221
G1 X83.93 Y92.447 E.01716
G1 X77.553 Y86.07 E.28648
G1 X77.013 Y86.07 E.01716
M73 P3 R18
G1 X83.93 Y92.987 E.31075
G1 X83.93 Y93.527 E.01716
G1 X76.473 Y86.07 E.33503
G1 X75.932 Y86.07 E.01716
G1 X83.793 Y93.93 E.35313
G1 X83.252 Y93.93 E.01716
G1 X75.392 Y86.07 E.35313
G1 X74.852 Y86.07 E.01716
G1 X82.712 Y93.93 E.35313
G1 X82.172 Y93.93 E.01716
G1 X74.312 Y86.07 E.35313
G1 X73.771 Y86.07 E.01716
G1 X81.632 Y93.93 E.35313
G1 X81.091 Y93.93 E.01716
G1 X73.231 Y86.07 E.35313
G1 X72.691 Y86.07 E.01716
G1 X80.551 Y93.93 E.35313
G1 X80.011 Y93.93 E.01716
G1 X72.15 Y86.07 E.35313
G1 X71.61 Y86.07 E.01716
G1 X79.47 Y93.93 E.35313
G1 X78.93 Y93.93 E.01716
G1 X71.07 Y86.07 E.35313
G1 X70.53 Y86.07 E.01716
G1 X78.39 Y93.93 E.35313
G1 X77.849 Y93.93 E.01716
G1 X69.989 Y86.07 E.35313
G1 X69.449 Y86.07 E.01716
G1 X77.309 Y93.93 E.35313
G1 X76.769 Y93.93 E.01716
G1 X68.909 Y86.07 E.35313
G1 X68.368 Y86.07 E.01716
G1 X76.229 Y93.93 E.35313
G1 X75.688 Y93.93 E.01716
G1 X67.828 Y86.07 E.35313
G1 X67.288 Y86.07 E.01716
G1 X75.148 Y93.93 E.35313
G1 X74.608 Y93.93 E.01716
M73 P4 R18
G1 X66.747 Y86.07 E.35313
G1 X66.207 Y86.07 E.01716
G1 X74.067 Y93.93 E.35313
G1 X73.527 Y93.93 E.01716
G1 X66.07 Y86.473 E.33502
G1 X66.07 Y87.013 E.01716
G1 X72.987 Y93.93 E.31075
G1 X72.446 Y93.93 E.01716
G1 X66.07 Y87.554 E.28648
G1 X66.07 Y88.094 E.01716
G1 X71.906 Y93.93 E.2622
G1 X71.366 Y93.93 E.01716
G1 X66.07 Y88.634 E.23793
G1 X66.07 Y89.174 E.01716
M73 P4 R17
G1 X70.826 Y93.93 E.21365
G1 X70.285 Y93.93 E.01716
G1 X66.07 Y89.715 E.18938
G1 X66.07 Y90.255 E.01716
G1 X69.745 Y93.93 E.16511
G1 X69.205 Y93.93 E.01716
G1 X66.07 Y90.795 E.14083
G1 X66.07 Y91.336 E.01716
G1 X68.664 Y93.93 E.11656
G1 X68.124 Y93.93 E.01716
G1 X66.07 Y91.876 E.09229
G1 X66.07 Y92.416 E.01716
G1 X67.584 Y93.93 E.06801
G1 X67.043 Y93.93 E.01716
G1 X66.07 Y92.957 E.04374
G1 X66.07 Y93.497 E.01716
G1 X66.673 Y94.1 E.02709
M204 P1000
; stop printing object double_snap_fit.stl_1 id:0 copy 0
M106 S84.15
;LAYER_CHANGE
;Z:0.45
;HEIGHT:0.25
;BEFORE_LAYER_CHANGE
G92 E0.0
;0.45


G1 E-2.24 F4200
;WIPE_START
G1 F7200
G1 X66.07 Y93.497 E-.47257
G1 X66.07 Y92.957 E-.29942
G1 X66.249 Y93.135 E-.14001
;WIPE_END
G1 E-.048 F4200
G1 Z.4 F720
G1 Z.45
;AFTER_LAYER_CHANGE
;0.45
G1 Z.65
G1 X62.246 Y93.135 F9000
G1 Z.45 F720
G1 E3.2 F2400
;TYPE:Skirt/Brim
;WIDTH:0.42
G1 X62.246 Y85 E.30977
G1 X62.639 Y83.583 E.05601
G1 X63.705 Y82.569 E.05601
G1 X65 Y82.246 E.05083
G1 X85 Y82.246 E.76155
G1 X86.417 Y82.639 E.05601
G1 X87.431 Y83.705 E.05601
G1 X87.754 Y85 E.05083
G1 X87.754 Y95 E.38078
G1 X87.361 Y96.417 E.05601
G1 X86.295 Y97.431 E.05601
G1 X85 Y97.754 E.05083
G1 X65 Y97.754 E.76155
G1 X63.583 Y97.361 E.05601
G1 X62.569 Y96.295 E.05601
G1 X62.246 Y95 E.05083
G1 X62.246 Y93.195 E.06872
G1 X62.623 Y93.195 F9000
G1 F2400
G1 X62.623 Y85 E.31205
G1 X63.015 Y83.693 E.05195
G1 X64.06 Y82.817 E.05195
G1 X65 Y82.623 E.03654
G1 X85 Y82.623 E.76155
G1 X86.307 Y83.015 E.05195
G1 X87.183 Y84.06 E.05195
G1 X87.377 Y85 E.03654
G1 X87.377 Y95 E.38078
G1 X86.985 Y96.307 E.05195
G1 X85.94 Y97.183 E.05195
G1 X85 Y97.377 E.03654
G1 X65 Y97.377 E.76155
G1 X63.693 Y96.985 E.05195
G1 X62.817 Y95.94 E.05195
G1 X62.623 Y95 E.03654
G1 X62.623 Y93.255 E.06644
; printing object double_snap_fit.stl_1 id:0 copy 0
G1 E-2.24 F4200
;WIPE_START
G1 F7200
G1 X62.623 Y91.609 E-.912
;WIPE_END
G1 E-.048 F4200
G1 Z.65 F720
G1 X65.621 Y94.379 F9000
G1 Z.45 F720
G1 E3.2 F2400
M204 P800
;TYPE:Perimeter
;WIDTH:0.449999
G1 F3084
G1 X65.621 Y85.621 E.36076
G1 X84.379 Y85.621 E.77272
G1 X84.379 Y94.379 E.36076
G1 X65.681 Y94.379 E.77025
M204 P1000
M73 P5 R17
G1 X65.225 Y94.775 F9000
M204 P800
;TYPE:External perimeter
G1 F2400
G1 X65.225 Y85.225 E.39342
G1 X84.775 Y85.225 E.80538
G1 X84.775 Y94.775 E.39342
G1 X65.285 Y94.775 E.8029
M204 P1000
G1 X65.37 Y94.402 F9000
G1 E-2.24 F4200
;WIPE_START
G1 F7200
G1 X65.275 Y93.129 E-.912
;WIPE_END
G1 E-.048 F4200
G1 Z.65 F720
G1 X84.26 Y93.452 F9000
G1 Z.45 F720
G1 E3.2 F2400
;TYPE:Solid infill
;WIDTH:0.453139
G1 F3084
G1 X83.63 Y94.081 E.03697
G1 X83.065 Y94.081 E.02346
G1 X84.081 Y93.065 E.05967
G1 X84.081 Y92.5 E.02346
G1 X82.5 Y94.081 E.09284
G1 X81.935 Y94.081 E.02346
G1 X84.081 Y91.935 E.12602
G1 X84.081 Y91.37 E.02346
G1 X81.37 Y94.081 E.15919
G1 X80.805 Y94.081 E.02346
G1 X84.081 Y90.805 E.19237
G1 X84.081 Y90.24 E.02346
G1 X80.24 Y94.081 E.22554
G1 X79.675 Y94.081 E.02346
G1 X84.081 Y89.675 E.25872
G1 X84.081 Y89.111 E.02346
G1 X79.111 Y94.081 E.29189
G1 X78.546 Y94.081 E.02346
G1 X84.081 Y88.546 E.32507
G1 X84.081 Y87.981 E.02346
G1 X77.981 Y94.081 E.35825
G1 X77.416 Y94.081 E.02346
G1 X84.081 Y87.416 E.39142
G1 X84.081 Y86.851 E.02346
G1 X76.851 Y94.081 E.4246
G1 X76.286 Y94.081 E.02346
G1 X84.081 Y86.286 E.45777
G1 X84.081 Y85.919 E.01524
G1 X83.884 Y85.919 E.00822
G1 X75.721 Y94.081 E.47933
G1 X75.156 Y94.081 E.02346
G1 X83.319 Y85.919 E.47933
G1 X82.754 Y85.919 E.02346
G1 X74.591 Y94.081 E.47933
G1 X74.026 Y94.081 E.02346
G1 X82.189 Y85.919 E.47933
G1 X81.624 Y85.919 E.02346
G1 X73.461 Y94.081 E.47933
G1 X72.896 Y94.081 E.02346
G1 X81.059 Y85.919 E.47933
G1 X80.494 Y85.919 E.02346
G1 X72.331 Y94.081 E.47933
G1 X71.766 Y94.081 E.02346
G1 X79.929 Y85.919 E.47933
G1 X79.364 Y85.919 E.02346
G1 X71.201 Y94.081 E.47933
G1 X70.636 Y94.081 E.02346
G1 X78.799 Y85.919 E.47933
G1 X78.234 Y85.919 E.02346
G1 X70.071 Y94.081 E.47933
G1 X69.506 Y94.081 E.02346
G1 X77.669 Y85.919 E.47933
G1 X77.104 Y85.919 E.02346
G1 X68.941 Y94.081 E.47933
G1 X68.376 Y94.081 E.02346
G1 X76.539 Y85.919 E.47933
G1 X75.974 Y85.919 E.02346
G1 X67.811 Y94.081 E.47933
G1 X67.246 Y94.081 E.02346
G1 X75.409 Y85.919 E.47933
G1 X74.844 Y85.919 E.02346
G1 X66.681 Y94.081 E.47933
G1 X66.116 Y94.081 E.02346
G1 X74.279 Y85.919 E.47933
G1 X73.714 Y85.919 E.02346
G1 X65.919 Y93.714 E.45777
G1 X65.919 Y93.149 E.02346
G1 X73.149 Y85.919 E.42459
G1 X72.584 Y85.919 E.02346
G1 X65.919 Y92.584 E.39142
G1 X65.919 Y92.019 E.02346
G1 X72.019 Y85.919 E.35824
G1 X71.454 Y85.919 E.02346
M73 P6 R17
G1 X65.919 Y91.454 E.32506
G1 X65.919 Y90.889 E.02346
G1 X70.889 Y85.919 E.29189
G1 X70.324 Y85.919 E.02346
G1 X65.919 Y90.324 E.25871
G1 X65.919 Y89.759 E.02346
G1 X69.759 Y85.919 E.22554
G1 X69.194 Y85.919 E.02346
G1 X65.919 Y89.194 E.19236
G1 X65.919 Y88.63 E.02346
G1 X68.63 Y85.919 E.15919
G1 X68.065 Y85.919 E.02346
G1 X65.919 Y88.065 E.12601
G1 X65.919 Y87.5 E.02346
G1 X67.5 Y85.919 E.09284
G1 X66.935 Y85.919 E.02346
G1 X65.919 Y86.935 E.05966
G1 X65.919 Y86.37 E.02346
G1 X66.548 Y85.74 E.03696
; stop printing object double_snap_fit.stl_1 id:0 copy 0
M106 S170.85
;LAYER_CHANGE
;Z:0.7
;HEIGHT:0.25
;BEFORE_LAYER_CHANGE
G92 E0.0
;0.7


G1 E-2.24 F4200
;WIPE_START
G1 F7200
G1 X65.919 Y86.37 E-.49329
G1 X65.919 Y86.935 E-.31308
G1 X66.053 Y86.8 E-.10562
;WIPE_END
G1 E-.048 F4200
G1 Z.65 F720
G1 Z.7
;AFTER_LAYER_CHANGE
;0.7
G1 Z.9
G1 X62.246 Y86.8 F9000
G1 Z.7 F720
G1 E3.2 F2400
;TYPE:Skirt/Brim
;WIDTH:0.42
G1 X62.246 Y85 E.06853
G1 X62.639 Y83.583 E.05601
G1 X63.705 Y82.569 E.05601
G1 X65 Y82.246 E.05083
G1 X85 Y82.246 E.76155
G1 X86.417 Y82.639 E.05601
G1 X87.431 Y83.705 E.05601
G1 X87.754 Y85 E.05083
G1 X87.754 Y95 E.38078
G1 X87.361 Y96.417 E.05601
G1 X86.295 Y97.431 E.05601
G1 X85 Y97.754 E.05083
G1 X65 Y97.754 E.76155
G1 X63.583 Y97.361 E.05601
G1 X62.569 Y96.295 E.05601
G1 X62.246 Y95 E.05083
G1 X62.246 Y86.86 E.30996
G1 X62.623 Y86.86 F9000
G1 F2400
G1 X62.623 Y85 E.07082
G1 X63.015 Y83.693 E.05195
G1 X64.06 Y82.817 E.05195
G1 X65 Y82.623 E.03654
G1 X85 Y82.623 E.76155
G1 X86.307 Y83.015 E.05195
G1 X87.183 Y84.06 E.05195
G1 X87.377 Y85 E.03654
G1 X87.377 Y95 E.38078
G1 X86.985 Y96.307 E.05195
G1 X85.94 Y97.183 E.05195
G1 X85 Y97.377 E.03654
G1 X65 Y97.377 E.76155
G1 X63.693 Y96.985 E.05195
G1 X62.817 Y95.94 E.05195
G1 X62.623 Y95 E.03654
G1 X62.623 Y86.92 E.30767
; printing object double_snap_fit.stl_1 id:0 copy 0
G1 E-2.24 F4200
;WIPE_START
G1 F7200
G1 X62.623 Y85.274 E-.912
;WIPE_END
G1 E-.048 F4200
G1 Z.9 F720
G1 X65.621 Y94.379 F9000
G1 Z.7 F720
G1 E3.2 F2400
M204 P800
;TYPE:Perimeter
;WIDTH:0.449999
G1 F3100
G1 X65.621 Y85.621 E.36076
G1 X84.379 Y85.621 E.77272
G1 X84.379 Y94.379 E.36076
G1 X65.681 Y94.379 E.77025
M204 P1000
G1 X65.225 Y94.775 F9000
M204 P800
;TYPE:External perimeter
G1 F2400
G1 X65.225 Y85.225 E.39342
G1 X84.775 Y85.225 E.80538
G1 X84.775 Y94.775 E.39342
G1 X65.285 Y94.775 E.8029
M204 P1000
G1 X65.37 Y94.402 F9000
G1 E-2.24 F4200
;WIPE_START
G1 F7200
G1 X65.275 Y93.129 E-.912
;WIPE_END
G1 E-.048 F4200
G1 Z.9 F720
G1 X83.452 Y85.74 F9000
G1 Z.7 F720
G1 E3.2 F2400
;TYPE:Solid infill
;WIDTH:0.453139
G1 F3100
G1 X84.081 Y86.37 E.03697
G1 X84.081 Y86.935 E.02346
G1 X83.065 Y85.919 E.05967
G1 X82.5 Y85.919 E.02346
G1 X84.081 Y87.5 E.09284
G1 X84.081 Y88.065 E.02346
G1 X81.935 Y85.919 E.12602
G1 X81.37 Y85.919 E.02346
G1 X84.081 Y88.63 E.15919
G1 X84.081 Y89.195 E.02346
G1 X80.805 Y85.919 E.19237
G1 X80.24 Y85.919 E.02346
G1 X84.081 Y89.76 E.22554
G1 X84.081 Y90.325 E.02346
G1 X79.675 Y85.919 E.25872
G1 X79.111 Y85.919 E.02346
G1 X84.081 Y90.889 E.29189
G1 X84.081 Y91.454 E.02346
G1 X78.546 Y85.919 E.32507
G1 X77.981 Y85.919 E.02346
M73 P7 R17
G1 X84.081 Y92.019 E.35825
G1 X84.081 Y92.584 E.02346
G1 X77.416 Y85.919 E.39142
G1 X76.851 Y85.919 E.02346
G1 X84.081 Y93.149 E.4246
G1 X84.081 Y93.714 E.02346
G1 X76.286 Y85.919 E.45777
G1 X75.721 Y85.919 E.02346
G1 X83.884 Y94.081 E.47933
G1 X83.319 Y94.081 E.02346
G1 X75.156 Y85.919 E.47933
G1 X74.591 Y85.919 E.02346
G1 X82.754 Y94.081 E.47933
G1 X82.189 Y94.081 E.02346
G1 X74.026 Y85.919 E.47933
G1 X73.461 Y85.919 E.02346
G1 X81.624 Y94.081 E.47933
G1 X81.059 Y94.081 E.02346
G1 X72.896 Y85.919 E.47933
G1 X72.331 Y85.919 E.02346
G1 X80.494 Y94.081 E.47933
G1 X79.929 Y94.081 E.02346
G1 X71.766 Y85.919 E.47933
G1 X71.201 Y85.919 E.02346
G1 X79.364 Y94.081 E.47933
G1 X78.799 Y94.081 E.02346
G1 X70.636 Y85.919 E.47933
G1 X70.071 Y85.919 E.02346
G1 X78.234 Y94.081 E.47933
G1 X77.669 Y94.081 E.02346
G1 X69.506 Y85.919 E.47933
G1 X68.941 Y85.919 E.02346
G1 X77.104 Y94.081 E.47933
G1 X76.539 Y94.081 E.02346
G1 X68.376 Y85.919 E.47933
G1 X67.811 Y85.919 E.02346
G1 X75.974 Y94.081 E.47933
G1 X75.409 Y94.081 E.02346
G1 X67.246 Y85.919 E.47933
G1 X66.681 Y85.919 E.02346
G1 X74.844 Y94.081 E.47933
G1 X74.279 Y94.081 E.02346
G1 X66.116 Y85.919 E.47933
G1 X65.919 Y85.919 E.00821
G1 X65.919 Y86.286 E.01525
G1 X73.714 Y94.081 E.45777
G1 X73.149 Y94.081 E.02346
G1 X65.919 Y86.851 E.42459
G1 X65.919 Y87.416 E.02346
G1 X72.584 Y94.081 E.39142
G1 X72.019 Y94.081 E.02346
G1 X65.919 Y87.981 E.35824
G1 X65.919 Y88.546 E.02346
G1 X71.454 Y94.081 E.32506
G1 X70.889 Y94.081 E.02346
G1 X65.919 Y89.111 E.29189
G1 X65.919 Y89.676 E.02346
G1 X70.324 Y94.081 E.25871
G1 X69.759 Y94.081 E.02346
G1 X65.919 Y90.241 E.22554
G1 X65.919 Y90.806 E.02346
G1 X69.194 Y94.081 E.19236
G1 X68.63 Y94.081 E.02346
G1 X65.919 Y91.37 E.15919
G1 X65.919 Y91.935 E.02346
G1 X68.065 Y94.081 E.12601
G1 X67.5 Y94.081 E.02346
G1 X65.919 Y92.5 E.09284
G1 X65.919 Y93.065 E.02346
G1 X66.935 Y94.081 E.05966
G1 X66.37 Y94.081 E.02346
G1 X65.74 Y93.452 E.03696
; stop printing object double_snap_fit.stl_1 id:0 copy 0
M106 S255
;LAYER_CHANGE
;Z:0.95
;HEIGHT:0.25
;BEFORE_LAYER_CHANGE
G92 E0.0
;0.95


G1 E-2.24 F4200
;WIPE_START
G1 F7200
G1 X66.37 Y94.081 E-.49329
G1 X66.935 Y94.081 E-.31308
G1 X66.8 Y93.947 E-.10562
;WIPE_END
G1 E-.048 F4200
G1 Z.9 F720
G1 Z.95
;AFTER_LAYER_CHANGE
;0.95
; printing object double_snap_fit.stl_1 id:0 copy 0
G1 X65.621 Y94.379 F9000
G1 E3.2 F2400
M204 P800
;TYPE:Perimeter
;WIDTH:0.449999
G1 F2137
G1 X65.621 Y85.621 E.36076
G1 X84.379 Y85.621 E.77272
G1 X84.379 Y94.379 E.36076
G1 X65.681 Y94.379 E.77025
M204 P1000
G1 X65.225 Y94.775 F9000
M204 P800
;TYPE:External perimeter
G1 F2137
G1 X65.225 Y85.225 E.39342
G1 X84.775 Y85.225 E.80538
G1 X84.775 Y94.775 E.39342
M73 P8 R17
G1 X65.285 Y94.775 E.8029
M204 P1000
G1 X65.37 Y94.402 F9000
G1 E-2.24 F4200
;WIPE_START
G1 F7200
G1 X65.275 Y93.129 E-.912
;WIPE_END
G1 E-.048 F4200
G1 Z1.15 F720
G1 X84.26 Y93.452 F9000
G1 Z.95 F720
