; generated by PrusaSlicer 2.5.0+win64 on 2023-02-11 at 21:50:06 UTC


;
;

;
;
; 

; external perimeters extrusion width = 0.45mm
; perimeters extrusion width = 0.45mm
; infill extrusion width = 0.45mm
; solid infill extrusion width = 0.45mm
; top infill extrusion width = 0.40mm
; first layer extrusion width = 0.42mm

; external perimeters extrusion width = 0.45mm
; perimeters extrusion width = 0.45mm
; infill extrusion width = 0.45mm
; solid infill extrusion width = 0.45mm
; top infill extrusion width = 0.40mm
; first layer extrusion width = 0.42mm

M73 P0 R14
M201 X2500 Y2500 Z400 E5000 ; sets maximum accelerations, mm/sec^2
M203 X180 Y180 Z12 E80 ; sets maximum feedrates, mm / sec
M204 P1250 R1250 T2500 ; sets acceleration (P, T) and retract acceleration (R), mm/sec^2
M205 X8.00 Y8.00 Z2.00 E10.00 ; sets the jerk limits, mm/sec
M205 S0 T0 ; sets the minimum extruding and travel feed rate, mm/sec
M107
;TYPE:Custom
M862.3 P "MINI" ; printer model check
G90 ; use absolute coordinates
M83 ; extruder relative mode
M104 S170 ; set extruder temp for bed leveling
M140 S60 ; set bed temp
M109 R170 ; wait for bed leveling temp
M190 S60 ; wait for bed temp
M204 T1250 ; set travel acceleration
G28 ; home all without mesh bed level
G29 ; mesh bed leveling 
M204 T2500 ; restore travel acceleration
M104 S215 ; set extruder temp
G92 E0
G1 Y-2 X179 F2400
G1 Z3 F720
M109 S215 ; wait for extruder temp

; intro line
G1 X170 F1000
G1 Z0.2 F720
G1 X110 E8 F900
G1 X40 E10 F700
G92 E0

M221 S95 ; set flow
G21 ; set units to millimeters
G90 ; use absolute coordinates
M83 ; use relative distances for extrusion
M900 K0.2 ; Filament gcode LA 1.5
; ; Filament gcode LA 1.0
M107
;LAYER_CHANGE
;Z:0.2
;HEIGHT:0.2
;BEFORE_LAYER_CHANGE
G92 E0.0
;0.2


M73 P1 R14
G1 E-3.2 F4200
G1 Z.2 F720
;AFTER_LAYER_CHANGE
;0.2
G1 Z.4
G1 X78.578 Y82.69 F9000
G1 Z.2 F720
G1 E3.2 F2400
M204 P800
;TYPE:Skirt/Brim
;WIDTH:0.42
G1 F1200
G1 X78.705 Y82.569 E.0055
G1 X80 Y82.246 E.04186
G1 X100 Y82.246 E.62709
G1 X101.417 Y82.639 E.04612
M73 P2 R14
G1 X102.431 Y83.705 E.04612
G1 X102.754 Y85 E.04186
G1 X102.754 Y95 E.31354
G1 X102.361 Y96.417 E.04612
G1 X101.295 Y97.431 E.04612
G1 X100 Y97.754 E.04186
G1 X80 Y97.754 E.62709
G1 X78.583 Y97.361 E.04612
G1 X77.569 Y96.295 E.04612
G1 X77.246 Y95 E.04186
G1 X77.246 Y85 E.31354
G1 X77.639 Y83.583 E.04612
G1 X78.534 Y82.732 E.03873
M204 P1000
G1 X78.793 Y83.041 F9000
M204 P800
G1 F1200
G1 X79.06 Y82.817 E.01093
G1 X80 Y82.623 E.03008
G1 X100 Y82.623 E.62709
G1 X101.307 Y83.015 E.04278
G1 X102.183 Y84.06 E.04278
G1 X102.377 Y85 E.03008
G1 X102.377 Y95 E.31354
G1 X101.985 Y96.307 E.04278
G1 X100.94 Y97.183 E.04278
G1 X100 Y97.377 E.03008
G1 X80 Y97.377 E.62709
G1 X78.693 Y96.985 E.04278
G1 X77.817 Y95.94 E.04278
G1 X77.623 Y95 E.03008
G1 X77.623 Y85 E.31354
G1 X78.015 Y83.693 E.04278
G1 X78.747 Y83.079 E.02997
M204 P1000
; printing object plug_socket_glue.stl_2 id:1 copy 0
G1 E-2.24 F4200
;WIPE_START
G1 F7200
G1 X79.06 Y82.817 E-.22649
G1 X80 Y82.623 E-.53172
G1 X80.278 Y82.623 E-.15379
;WIPE_END
G1 E-.048 F4200
G1 Z.4 F720
G1 X99.213 Y94.213 F9000
G1 Z.2 F720
G1 E3.2 F2400
M204 P800
;TYPE:Perimeter
;WIDTH:0.419999
G1 F1200
G1 X92.787 Y94.213 E.20148
G1 X92.787 Y85.787 E.26419
G1 X99.213 Y85.787 E.20148
G1 X99.213 Y94.153 E.2623
M204 P1000
G1 X99.59 Y94.59 F9000
M204 P800
;TYPE:External perimeter
M73 P3 R14
G1 F1200
G1 X92.41 Y94.59 E.22512
G1 X92.41 Y85.41 E.28783
G1 X99.59 Y85.41 E.22512
G1 X99.59 Y94.53 E.28595
M204 P1000
G1 X99.208 Y94.471 F9000
M73 P3 R13
G1 E-2.24 F4200
;WIPE_START
G1 F7200
G1 X97.944 Y94.544 E-.912
;WIPE_END
G1 E-.048 F4200
G1 Z.4 F720
G1 X98.333 Y85.9 F9000
G1 Z.2 F720
G1 E3.2 F2400
M204 P800
;TYPE:Solid infill
;WIDTH:0.421998
G1 F1200
G1 X98.93 Y86.497 E.0266
G1 X98.93 Y87.033 E.0169
G1 X97.967 Y86.07 E.04294
G1 X97.431 Y86.07 E.0169
G1 X98.93 Y87.569 E.06684
G1 X98.93 Y88.105 E.0169
G1 X96.895 Y86.07 E.09073
G1 X96.359 Y86.07 E.0169
G1 X98.93 Y88.641 E.11463
G1 X98.93 Y89.178 E.0169
G1 X95.822 Y86.07 E.13853
G1 X95.286 Y86.07 E.0169
G1 X98.93 Y89.714 E.16243
G1 X98.93 Y90.25 E.0169
G1 X94.75 Y86.07 E.18632
G1 X94.214 Y86.07 E.0169
G1 X98.93 Y90.786 E.21022
G1 X98.93 Y91.322 E.0169
G1 X93.678 Y86.07 E.23412
G1 X93.142 Y86.07 E.0169
G1 X98.93 Y91.858 E.25801
G1 X98.93 Y92.394 E.0169
G1 X93.07 Y86.534 E.26123
G1 X93.07 Y87.07 E.0169
G1 X98.93 Y92.93 E.26123
G1 X98.93 Y93.466 E.0169
G1 X93.07 Y87.606 E.26123
G1 X93.07 Y88.142 E.0169
G1 X98.858 Y93.93 E.25801
G1 X98.322 Y93.93 E.0169
G1 X93.07 Y88.678 E.23411
G1 X93.07 Y89.214 E.0169
G1 X97.786 Y93.93 E.21021
G1 X97.25 Y93.93 E.0169
G1 X93.07 Y89.75 E.18632
G1 X93.07 Y90.287 E.0169
G1 X96.713 Y93.93 E.16242
G1 X96.177 Y93.93 E.0169
G1 X93.07 Y90.823 E.13852
G1 X93.07 Y91.359 E.0169
G1 X95.641 Y93.93 E.11462
G1 X95.105 Y93.93 E.0169
M73 P4 R13
G1 X93.07 Y91.895 E.09073
G1 X93.07 Y92.431 E.0169
G1 X94.569 Y93.93 E.06683
G1 X94.033 Y93.93 E.0169
G1 X93.07 Y92.967 E.04293
G1 X93.07 Y93.503 E.0169
G1 X93.667 Y94.1 E.0266
M204 P1000
; stop printing object plug_socket_glue.stl_2 id:1 copy 0
; printing object plug_socket_glue.stl_1 id:0 copy 0
G1 E-2.24 F4200
;WIPE_START
G1 F7200
G1 X93.07 Y93.503 E-.46765
G1 X93.07 Y92.967 E-.29709
G1 X93.258 Y93.155 E-.14727
;WIPE_END
G1 E-.048 F4200
G1 Z.4 F720
G1 X87.213 Y94.213 F9000
G1 Z.2 F720
G1 E3.2 F2400
M204 P800
;TYPE:Perimeter
;WIDTH:0.419999
G1 F1200
G1 X80.787 Y94.213 E.20148
G1 X80.787 Y85.787 E.26419
G1 X87.213 Y85.787 E.20148
G1 X87.213 Y94.153 E.2623
M204 P1000
G1 X87.59 Y94.59 F9000
M204 P800
;TYPE:External perimeter
G1 F1200
G1 X80.41 Y94.59 E.22512
G1 X80.41 Y85.41 E.28783
G1 X87.59 Y85.41 E.22512
G1 X87.59 Y94.53 E.28595
M204 P1000
G1 X87.208 Y94.471 F9000
G1 E-2.24 F4200
;WIPE_START
G1 F7200
G1 X85.944 Y94.544 E-.912
;WIPE_END
G1 E-.048 F4200
G1 Z.4 F720
G1 X86.333 Y85.9 F9000
G1 Z.2 F720
G1 E3.2 F2400
M204 P800
;TYPE:Solid infill
;WIDTH:0.421998
G1 F1200
G1 X86.93 Y86.497 E.0266
G1 X86.93 Y87.033 E.0169
G1 X85.967 Y86.07 E.04294
G1 X85.431 Y86.07 E.0169
G1 X86.93 Y87.569 E.06684
G1 X86.93 Y88.105 E.0169
G1 X84.895 Y86.07 E.09073
G1 X84.359 Y86.07 E.0169
G1 X86.93 Y88.641 E.11463
G1 X86.93 Y89.178 E.0169
G1 X83.822 Y86.07 E.13853
G1 X83.286 Y86.07 E.0169
G1 X86.93 Y89.714 E.16243
G1 X86.93 Y90.25 E.0169
G1 X82.75 Y86.07 E.18632
G1 X82.214 Y86.07 E.0169
G1 X86.93 Y90.786 E.21022
G1 X86.93 Y91.322 E.0169
G1 X81.678 Y86.07 E.23412
G1 X81.142 Y86.07 E.0169
G1 X86.93 Y91.858 E.25801
G1 X86.93 Y92.394 E.0169
G1 X81.07 Y86.534 E.26123
G1 X81.07 Y87.07 E.0169
G1 X86.93 Y92.93 E.26123
G1 X86.93 Y93.466 E.0169
G1 X81.07 Y87.606 E.26123
G1 X81.07 Y88.142 E.0169
M73 P5 R13
G1 X86.858 Y93.93 E.25801
G1 X86.322 Y93.93 E.0169
G1 X81.07 Y88.678 E.23411
G1 X81.07 Y89.214 E.0169
G1 X85.786 Y93.93 E.21021
G1 X85.25 Y93.93 E.0169
G1 X81.07 Y89.75 E.18632
G1 X81.07 Y90.287 E.0169
G1 X84.713 Y93.93 E.16242
G1 X84.177 Y93.93 E.0169
G1 X81.07 Y90.823 E.13852
G1 X81.07 Y91.359 E.0169
G1 X83.641 Y93.93 E.11462
G1 X83.105 Y93.93 E.0169
G1 X81.07 Y91.895 E.09073
G1 X81.07 Y92.431 E.0169
G1 X82.569 Y93.93 E.06683
G1 X82.033 Y93.93 E.0169
G1 X81.07 Y92.967 E.04293
G1 X81.07 Y93.503 E.0169
G1 X81.667 Y94.1 E.0266
M204 P1000
; stop printing object plug_socket_glue.stl_1 id:0 copy 0
M106 S84.15
;LAYER_CHANGE
;Z:0.4
;HEIGHT:0.2
;BEFORE_LAYER_CHANGE
G92 E0.0
;0.4


G1 E-2.24 F4200
;WIPE_START
G1 F7200
G1 X81.07 Y93.503 E-.46765
G1 X81.07 Y92.967 E-.29709
G1 X81.258 Y93.155 E-.14727
;WIPE_END
G1 E-.048 F4200
G1 Z.4 F720
;AFTER_LAYER_CHANGE
;0.4
G1 Z.6
G1 X77.246 Y93.155 F9000
G1 Z.4 F720
G1 E3.2 F2400
;TYPE:Skirt/Brim
;WIDTH:0.42
G1 X77.246 Y85 E.25569
G1 X77.639 Y83.583 E.04612
G1 X78.705 Y82.569 E.04612
G1 X80 Y82.246 E.04186
G1 X100 Y82.246 E.62709
G1 X101.417 Y82.639 E.04612
G1 X102.431 Y83.705 E.04612
G1 X102.754 Y85 E.04186
G1 X102.754 Y95 E.31354
G1 X102.361 Y96.417 E.04612
G1 X101.295 Y97.431 E.04612
G1 X100 Y97.754 E.04186
G1 X80 Y97.754 E.62709
G1 X78.583 Y97.361 E.04612
G1 X77.569 Y96.295 E.04612
G1 X77.246 Y95 E.04186
G1 X77.246 Y93.215 E.05597
G1 X77.623 Y93.215 F9000
G1 F2400
G1 X77.623 Y85 E.25757
G1 X78.015 Y83.693 E.04278
G1 X79.06 Y82.817 E.04278
G1 X80 Y82.623 E.03008
G1 X100 Y82.623 E.62709
G1 X101.307 Y83.015 E.04278
G1 X102.183 Y84.06 E.04278
G1 X102.377 Y85 E.03008
G1 X102.377 Y95 E.31354
G1 X101.985 Y96.307 E.04278
G1 X100.94 Y97.183 E.04278
G1 X100 Y97.377 E.03008
G1 X80 Y97.377 E.62709
G1 X78.693 Y96.985 E.04278
G1 X77.817 Y95.94 E.04278
G1 X77.623 Y95 E.03008
G1 X77.623 Y93.275 E.05409
; printing object plug_socket_glue.stl_2 id:1 copy 0
G1 E-2.24 F4200
;WIPE_START
G1 F7200
G1 X77.623 Y91.629 E-.912
;WIPE_END
G1 E-.048 F4200
G1 Z.6 F720
G1 X99.368 Y94.368 F9000
G1 Z.4 F720
G1 E3.2 F2400
M204 P800
;TYPE:Perimeter
;WIDTH:0.449999
G1 F1500
G1 X92.632 Y94.368 E.228
G1 X92.632 Y85.632 E.2957
G1 X99.368 Y85.632 E.228
M73 P6 R13
G1 X99.368 Y94.308 E.29367
M204 P1000
G1 X99.775 Y94.775 F9000
M204 P800
;TYPE:External perimeter
G1 F1500
G1 X92.225 Y94.775 E.25556
G1 X92.225 Y85.225 E.32326
G1 X99.775 Y85.225 E.25556
G1 X99.775 Y94.715 E.32122
M204 P1000
G1 X99.393 Y94.657 F9000
G1 X99.246 Y93.417
;TYPE:Solid infill
;WIDTH:0.452623
G1 F3373
G1 X98.601 Y94.063 E.03109
G1 X98.021 Y94.063 E.01974
G1 X99.063 Y93.021 E.05018
G1 X99.063 Y92.442 E.01974
G1 X97.442 Y94.063 E.07809
G1 X96.862 Y94.063 E.01974
G1 X99.063 Y91.862 E.10601
G1 X99.063 Y91.283 E.01974
G1 X96.283 Y94.063 E.13392
G1 X95.703 Y94.063 E.01974
G1 X99.063 Y90.703 E.16184
G1 X99.063 Y90.124 E.01974
G1 X95.124 Y94.063 E.18975
G1 X94.545 Y94.063 E.01974
G1 X99.063 Y89.545 E.21767
G1 X99.063 Y88.965 E.01974
G1 X93.965 Y94.063 E.24558
G1 X93.386 Y94.063 E.01974
G1 X99.063 Y88.386 E.2735
G1 X99.063 Y87.806 E.01974
G1 X92.937 Y93.932 E.2951
G1 X92.937 Y93.352 E.01974
G1 X99.063 Y87.227 E.2951
G1 X99.063 Y86.648 E.01974
G1 X92.937 Y92.773 E.2951
G1 X92.937 Y92.193 E.01974
G1 X99.063 Y86.068 E.2951
G1 X99.063 Y85.937 E.00446
G1 X98.614 Y85.937 E.01528
G1 X92.937 Y91.614 E.27349
G1 X92.937 Y91.035 E.01974
G1 X98.035 Y85.937 E.24557
G1 X97.455 Y85.937 E.01974
G1 X92.937 Y90.455 E.21766
G1 X92.937 Y89.876 E.01974
G1 X96.876 Y85.937 E.18975
G1 X96.296 Y85.937 E.01974
G1 X92.937 Y89.296 E.16183
G1 X92.937 Y88.717 E.01974
G1 X95.717 Y85.937 E.13392
G1 X95.138 Y85.937 E.01974
G1 X92.937 Y88.138 E.106
G1 X92.937 Y87.558 E.01974
G1 X94.558 Y85.937 E.07809
G1 X93.979 Y85.937 E.01974
G1 X92.937 Y86.979 E.05017
G1 X92.937 Y86.399 E.01974
G1 X93.583 Y85.754 E.03108
; stop printing object plug_socket_glue.stl_2 id:1 copy 0
; printing object plug_socket_glue.stl_1 id:0 copy 0
G1 E-2.24 F4200
;WIPE_START
G1 F7200
G1 X92.937 Y86.399 E-.50562
G1 X92.937 Y86.979 E-.32109
G1 X93.046 Y86.87 E-.08529
;WIPE_END
G1 E-.048 F4200
G1 Z.6 F720
G1 X87.368 Y94.368 F9000
G1 Z.4 F720
G1 E3.2 F2400
M204 P800
;TYPE:Perimeter
;WIDTH:0.449999
G1 F1500
G1 X80.632 Y94.368 E.228
G1 X80.632 Y85.632 E.2957
G1 X87.368 Y85.632 E.228
G1 X87.368 Y94.308 E.29367
M204 P1000
G1 X87.775 Y94.775 F9000
M204 P800
;TYPE:External perimeter
G1 F1500
G1 X80.225 Y94.775 E.25556
G1 X80.225 Y85.225 E.32326
G1 X87.775 Y85.225 E.25556
G1 X87.775 Y94.715 E.32122
M204 P1000
M73 P7 R13
G1 X87.393 Y94.657 F9000
G1 X87.246 Y93.417
;TYPE:Solid infill
;WIDTH:0.452623
G1 F3373
G1 X86.601 Y94.063 E.03109
G1 X86.021 Y94.063 E.01974
G1 X87.063 Y93.021 E.05018
G1 X87.063 Y92.442 E.01974
G1 X85.442 Y94.063 E.07809
G1 X84.862 Y94.063 E.01974
G1 X87.063 Y91.862 E.10601
G1 X87.063 Y91.283 E.01974
G1 X84.283 Y94.063 E.13392
G1 X83.703 Y94.063 E.01974
G1 X87.063 Y90.703 E.16184
G1 X87.063 Y90.124 E.01974
G1 X83.124 Y94.063 E.18975
G1 X82.545 Y94.063 E.01974
G1 X87.063 Y89.545 E.21767
G1 X87.063 Y88.965 E.01974
G1 X81.965 Y94.063 E.24558
G1 X81.386 Y94.063 E.01974
G1 X87.063 Y88.386 E.2735
G1 X87.063 Y87.806 E.01974
G1 X80.937 Y93.932 E.2951
G1 X80.937 Y93.352 E.01974
G1 X87.063 Y87.227 E.2951
G1 X87.063 Y86.648 E.01974
G1 X80.937 Y92.773 E.2951
G1 X80.937 Y92.193 E.01974
G1 X87.063 Y86.068 E.2951
G1 X87.063 Y85.937 E.00446
G1 X86.614 Y85.937 E.01528
G1 X80.937 Y91.614 E.27349
G1 X80.937 Y91.035 E.01974
G1 X86.035 Y85.937 E.24557
G1 X85.455 Y85.937 E.01974
G1 X80.937 Y90.455 E.21766
G1 X80.937 Y89.876 E.01974
G1 X84.876 Y85.937 E.18975
G1 X84.296 Y85.937 E.01974
G1 X80.937 Y89.296 E.16183
G1 X80.937 Y88.717 E.01974
G1 X83.717 Y85.937 E.13392
G1 X83.138 Y85.937 E.01974
G1 X80.937 Y88.138 E.106
G1 X80.937 Y87.558 E.01974
G1 X82.558 Y85.937 E.07809
G1 X81.979 Y85.937 E.01974
G1 X80.937 Y86.979 E.05017
G1 X80.937 Y86.399 E.01974
G1 X81.583 Y85.754 E.03108
; stop printing object plug_socket_glue.stl_1 id:0 copy 0
M106 S170.85
;LAYER_CHANGE
;Z:0.6
;HEIGHT:0.2
;BEFORE_LAYER_CHANGE
G92 E0.0
;0.6


G1 E-2.24 F4200
;WIPE_START
G1 F7200
G1 X80.937 Y86.399 E-.50562
G1 X80.937 Y86.979 E-.32109
G1 X81.046 Y86.87 E-.08529
;WIPE_END
G1 E-.048 F4200
G1 Z.6 F720
;AFTER_LAYER_CHANGE
;0.6
G1 Z.8
G1 X77.246 Y86.87 F9000
G1 Z.6 F720
G1 E3.2 F2400
;TYPE:Skirt/Brim
;WIDTH:0.42
G1 X77.246 Y85 E.05863
G1 X77.639 Y83.583 E.04612
G1 X78.705 Y82.569 E.04612
G1 X80 Y82.246 E.04186
G1 X100 Y82.246 E.62709
G1 X101.417 Y82.639 E.04612
G1 X102.431 Y83.705 E.04612
G1 X102.754 Y85 E.04186
G1 X102.754 Y95 E.31354
G1 X102.361 Y96.417 E.04612
G1 X101.295 Y97.431 E.04612
G1 X100 Y97.754 E.04186
G1 X80 Y97.754 E.62709
G1 X78.583 Y97.361 E.04612
G1 X77.569 Y96.295 E.04612
G1 X77.246 Y95 E.04186
G1 X77.246 Y86.93 E.25303
G1 X77.623 Y86.93 F9000
G1 F2400
G1 X77.623 Y85 E.06051
G1 X78.015 Y83.693 E.04278
G1 X79.06 Y82.817 E.04278
G1 X80 Y82.623 E.03008
G1 X100 Y82.623 E.62709
G1 X101.307 Y83.015 E.04278
G1 X102.183 Y84.06 E.04278
G1 X102.377 Y85 E.03008
G1 X102.377 Y95 E.31354
G1 X101.985 Y96.307 E.04278
G1 X100.94 Y97.183 E.04278
G1 X100 Y97.377 E.03008
G1 X80 Y97.377 E.62709
G1 X78.693 Y96.985 E.04278
G1 X77.817 Y95.94 E.04278
G1 X77.623 Y95 E.03008
M73 P8 R13
G1 X77.623 Y86.99 E.25115
; printing object plug_socket_glue.stl_2 id:1 copy 0
G1 E-2.24 F4200
;WIPE_START
G1 F7200
G1 X77.623 Y85.344 E-.912
;WIPE_END
G1 E-.048 F4200
G1 Z.8 F720
G1 X99.368 Y94.368 F9000
G1 Z.6 F720
G1 E3.2 F2400
M204 P800
;TYPE:Perimeter
;WIDTH:0.449999
G1 F1500
G1 X92.632 Y94.368 E.228
G1 X92.632 Y85.632 E.2957
G1 X99.368 Y85.632 E.228
G1 X99.368 Y94.308 E.29367
M204 P1000
G1 X99.775 Y94.775 F9000
M204 P800
;TYPE:External perimeter
G1 F1500
G1 X92.225 Y94.775 E.25556
G1 X92.225 Y85.225 E.32326
G1 X99.775 Y85.225 E.25556
G1 X99.775 Y94.715 E.32122
M204 P1000
G1 X99.393 Y94.657 F9000
G1 E-2.24 F4200
;WIPE_START
G1 F7200
G1 X98.129 Y94.728 E-.912
;WIPE_END
G1 E-.048 F4200
G1 Z.8 F720
G1 X98.417 Y85.754 F9000
G1 Z.6 F720
G1 E3.2 F2400
;TYPE:Solid infill
;WIDTH:0.452623
G1 F3798
G1 X99.063 Y86.399 E.03109
G1 X99.063 Y86.979 E.01974
G1 X98.021 Y85.937 E.05018
G1 X97.442 Y85.937 E.01974
G1 X99.063 Y87.558 E.07809
G1 X99.063 Y88.138 E.01974
G1 X96.862 Y85.937 E.10601
G1 X96.283 Y85.937 E.01974
G1 X99.063 Y88.717 E.13392
G1 X99.063 Y89.297 E.01974
G1 X95.703 Y85.937 E.16184
G1 X95.124 Y85.937 E.01974
G1 X99.063 Y89.876 E.18975
G1 X99.063 Y90.455 E.01974
G1 X94.545 Y85.937 E.21767
G1 X93.965 Y85.937 E.01974
G1 X99.063 Y91.035 E.24558
G1 X99.063 Y91.614 E.01974
G1 X93.386 Y85.937 E.2735
G1 X92.937 Y85.937 E.01528
G1 X92.937 Y86.068 E.00446
G1 X99.063 Y92.194 E.2951
G1 X99.063 Y92.773 E.01974
G1 X92.937 Y86.648 E.2951
G1 X92.937 Y87.227 E.01974
G1 X99.063 Y93.352 E.2951
G1 X99.063 Y93.932 E.01974
G1 X92.937 Y87.807 E.2951
G1 X92.937 Y88.386 E.01974
G1 X98.614 Y94.063 E.27349
G1 X98.035 Y94.063 E.01974
G1 X92.937 Y88.965 E.24557
G1 X92.937 Y89.545 E.01974
G1 X97.455 Y94.063 E.21766
G1 X96.876 Y94.063 E.01974
G1 X92.937 Y90.124 E.18975
G1 X92.937 Y90.704 E.01974
G1 X96.296 Y94.063 E.16183
G1 X95.717 Y94.063 E.01974
G1 X92.937 Y91.283 E.13392
G1 X92.937 Y91.862 E.01974
G1 X95.138 Y94.063 E.106
G1 X94.558 Y94.063 E.01974
G1 X92.937 Y92.442 E.07809
G1 X92.937 Y93.021 E.01974
G1 X93.979 Y94.063 E.05017
G1 X93.399 Y94.063 E.01974
G1 X92.754 Y93.417 E.03108
; stop printing object plug_socket_glue.stl_2 id:1 copy 0
; printing object plug_socket_glue.stl_1 id:0 copy 0
G1 E-2.24 F4200
;WIPE_START
G1 F7200
