; generated by PrusaSlicer 2.5.0+win64 on 2023-02-11 at 22:20:48 UTC


;
;

;
;
; 

; external perimeters extrusion width = 0.45mm
; perimeters extrusion width = 0.45mm
; infill extrusion width = 0.45mm
; solid infill extrusion width = 0.45mm
; top infill extrusion width = 0.40mm
; first layer extrusion width = 0.42mm

M73 P0 R7
M201 X2500 Y2500 Z400 E5000 ; sets maximum accelerations, mm/sec^2
M203 X180 Y180 Z12 E80 ; sets maximum feedrates, mm / sec
M204 P1250 R1250 T2500 ; sets acceleration (P, T) and retract acceleration (R), mm/sec^2
M205 X8.00 Y8.00 Z2.00 E10.00 ; sets the jerk limits, mm/sec
M205 S0 T0 ; sets the minimum extruding and travel feed rate, mm/sec
M107
;TYPE:Custom
M862.3 P "MINI" ; printer model check
G90 ; use absolute coordinates
M83 ; extruder relative mode
M104 S170 ; set extruder temp for bed leveling
M140 S60 ; set bed temp
M109 R170 ; wait for bed leveling temp
M190 S60 ; wait for bed temp
M204 T1250 ; set travel acceleration
G28 ; home all without mesh bed level
G29 ; mesh bed leveling 
M204 T2500 ; restore travel acceleration
M104 S215 ; set extruder temp
G92 E0
G1 Y-2 X179 F2400
G1 Z3 F720
M109 S215 ; wait for extruder temp

; intro line
G1 X170 F1000
M73 P1 R7
G1 Z0.2 F720
G1 X110 E8 F900
G1 X40 E10 F700
G92 E0

M221 S95 ; set flow
G21 ; set units to millimeters
G90 ; use absolute coordinates
M83 ; use relative distances for extrusion
M900 K0.2 ; Filament gcode LA 1.5
; ; Filament gcode LA 1.0
M107
;LAYER_CHANGE
;Z:0.2
;HEIGHT:0.2
;BEFORE_LAYER_CHANGE
G92 E0.0
;0.2


M73 P2 R7
G1 E-3.2 F4200
M73 P3 R7
G1 Z.2 F720
;AFTER_LAYER_CHANGE
;0.2
G1 Z.4
G1 X89.262 Y83.48 F9000
G1 Z.2 F720
G1 E3.2 F2400
M204 P800
;TYPE:Skirt/Brim
;WIDTH:0.42
G1 F1200
G1 X90.344 Y82.342 E.04923
G1 X92 Y81.869 E.054
G1 X100 Y81.869 E.25083
G1 X101.52 Y82.262 E.04923
G1 X102.658 Y83.344 E.04923
G1 X103.131 Y85 E.054
G1 X103.131 Y95 E.31354
G1 X102.738 Y96.52 E.04923
G1 X101.656 Y97.658 E.04923
G1 X100 Y98.131 E.054
G1 X92 Y98.131 E.25083
G1 X90.48 Y97.738 E.04923
M73 P4 R7
G1 X89.342 Y96.656 E.04923
G1 X88.869 Y95 E.054
G1 X88.869 Y85 E.31354
G1 X89.247 Y83.538 E.04735
M204 P1000
G1 X89.622 Y83.642 F9000
M204 P800
G1 F1200
G1 X89.639 Y83.583 E.00193
G1 X90.705 Y82.569 E.04612
G1 X92 Y82.246 E.04186
G1 X100 Y82.246 E.25083
G1 X101.417 Y82.639 E.04612
G1 X102.431 Y83.705 E.04612
G1 X102.754 Y85 E.04186
G1 X102.754 Y95 E.31354
G1 X102.361 Y96.417 E.04612
G1 X101.295 Y97.431 E.04612
G1 X100 Y97.754 E.04186
G1 X92 Y97.754 E.25083
G1 X90.583 Y97.361 E.04612
G1 X89.569 Y96.295 E.04612
G1 X89.246 Y95 E.04186
G1 X89.246 Y85 E.31354
G1 X89.606 Y83.7 E.0423
M204 P1000
G1 X89.979 Y83.812 F9000
M204 P800
G1 F1200
G1 X90.015 Y83.693 E.00388
G1 X91.06 Y82.817 E.04278
G1 X92 Y82.623 E.03008
G1 X100 Y82.623 E.25083
G1 X101.307 Y83.015 E.04278
G1 X102.183 Y84.06 E.04278
G1 X102.377 Y85 E.03008
G1 X102.377 Y95 E.31354
M73 P5 R7
G1 X101.985 Y96.307 E.04278
G1 X100.94 Y97.183 E.04278
G1 X100 Y97.377 E.03008
G1 X92 Y97.377 E.25083
G1 X90.693 Y96.985 E.04278
G1 X89.817 Y95.94 E.04278
G1 X89.623 Y95 E.03008
G1 X89.623 Y85 E.31354
G1 X89.962 Y83.869 E.03702
M204 P1000
; printing object plug_socket_glue.stl_2 id:0 copy 0
G1 E-2.24 F4200
;WIPE_START
G1 F7200
G1 X90.015 Y83.693 E-.10186
G1 X91.06 Y82.817 E-.75612
G1 X91.156 Y82.797 E-.05402
;WIPE_END
G1 E-.048 F4200
G1 Z.4 F720
G1 X99.213 Y94.213 F9000
G1 Z.2 F720
G1 E3.2 F2400
M204 P800
;TYPE:Perimeter
;WIDTH:0.419999
G1 F1200
G1 X92.787 Y94.213 E.20148
G1 X92.787 Y85.787 E.26419
G1 X99.213 Y85.787 E.20148
G1 X99.213 Y94.153 E.2623
M204 P1000
G1 X99.59 Y94.59 F9000
M204 P800
;TYPE:External perimeter
G1 F1200
G1 X92.41 Y94.59 E.22512
G1 X92.41 Y85.41 E.28783
G1 X99.59 Y85.41 E.22512
M73 P6 R7
G1 X99.59 Y94.53 E.28595
M204 P1000
G1 X99.208 Y94.471 F9000
G1 E-2.24 F4200
;WIPE_START
G1 F7200
G1 X97.944 Y94.544 E-.912
;WIPE_END
G1 E-.048 F4200
G1 Z.4 F720
G1 X98.333 Y85.9 F9000
G1 Z.2 F720
G1 E3.2 F2400
M204 P800
;TYPE:Solid infill
;WIDTH:0.421998
G1 F1200
G1 X98.93 Y86.497 E.0266
G1 X98.93 Y87.033 E.0169
G1 X97.967 Y86.07 E.04294
G1 X97.431 Y86.07 E.0169
G1 X98.93 Y87.569 E.06684
G1 X98.93 Y88.105 E.0169
G1 X96.895 Y86.07 E.09073
G1 X96.359 Y86.07 E.0169
G1 X98.93 Y88.641 E.11463
G1 X98.93 Y89.178 E.0169
G1 X95.822 Y86.07 E.13853
G1 X95.286 Y86.07 E.0169
G1 X98.93 Y89.714 E.16243
G1 X98.93 Y90.25 E.0169
G1 X94.75 Y86.07 E.18632
G1 X94.214 Y86.07 E.0169
G1 X98.93 Y90.786 E.21022
G1 X98.93 Y91.322 E.0169
G1 X93.678 Y86.07 E.23412
G1 X93.142 Y86.07 E.0169
G1 X98.93 Y91.858 E.25801
G1 X98.93 Y92.394 E.0169
G1 X93.07 Y86.534 E.26123
G1 X93.07 Y87.07 E.0169
M73 P7 R7
G1 X98.93 Y92.93 E.26123
G1 X98.93 Y93.466 E.0169
G1 X93.07 Y87.606 E.26123
G1 X93.07 Y88.142 E.0169
G1 X98.858 Y93.93 E.25801
G1 X98.322 Y93.93 E.0169
G1 X93.07 Y88.678 E.23411
G1 X93.07 Y89.214 E.0169
G1 X97.786 Y93.93 E.21021
G1 X97.25 Y93.93 E.0169
M73 P7 R6
G1 X93.07 Y89.75 E.18632
G1 X93.07 Y90.287 E.0169
G1 X96.713 Y93.93 E.16242
G1 X96.177 Y93.93 E.0169
G1 X93.07 Y90.823 E.13852
G1 X93.07 Y91.359 E.0169
G1 X95.641 Y93.93 E.11462
G1 X95.105 Y93.93 E.0169
G1 X93.07 Y91.895 E.09073
G1 X93.07 Y92.431 E.0169
G1 X94.569 Y93.93 E.06683
G1 X94.033 Y93.93 E.0169
G1 X93.07 Y92.967 E.04293
G1 X93.07 Y93.503 E.0169
G1 X93.667 Y94.1 E.0266
M204 P1000
; stop printing object plug_socket_glue.stl_2 id:0 copy 0
M106 S84.15
;LAYER_CHANGE
;Z:0.45
;HEIGHT:0.25
;BEFORE_LAYER_CHANGE
G92 E0.0
;0.45


G1 E-2.24 F4200
;WIPE_START
G1 F7200
G1 X93.07 Y93.503 E-.46765
G1 X93.07 Y92.967 E-.29709
G1 X93.258 Y93.155 E-.14727
;WIPE_END
G1 E-.048 F4200
G1 Z.4 F720
G1 Z.45
;AFTER_LAYER_CHANGE
;0.45
G1 Z.65
G1 X88.869 Y93.155 F9000
G1 Z.45 F720
G1 E3.2 F2400
;TYPE:Skirt/Brim
;WIDTH:0.42
G1 F1525
G1 X88.869 Y85 E.31052
G1 X89.262 Y83.48 E.05978
M73 P8 R6
G1 X90.344 Y82.342 E.05978
G1 X92 Y81.869 E.06558
G1 X100 Y81.869 E.30462
G1 X101.52 Y82.262 E.05978
G1 X102.658 Y83.344 E.05978
G1 X103.131 Y85 E.06558
G1 X103.131 Y95 E.38078
G1 X102.738 Y96.52 E.05978
G1 X101.656 Y97.658 E.05978
G1 X100 Y98.131 E.06558
G1 X92 Y98.131 E.30462
G1 X90.48 Y97.738 E.05978
G1 X89.342 Y96.656 E.05978
G1 X88.869 Y95 E.06558
G1 X88.869 Y93.215 E.06797
G1 X89.246 Y93.215 F9000
G1 F1525
G1 X89.246 Y85 E.3128
G1 X89.639 Y83.583 E.05601
G1 X90.705 Y82.569 E.05601
G1 X92 Y82.246 E.05083
G1 X100 Y82.246 E.30462
G1 X101.417 Y82.639 E.05601
G1 X102.431 Y83.705 E.05601
G1 X102.754 Y85 E.05083
G1 X102.754 Y95 E.38078
G1 X102.361 Y96.417 E.05601
G1 X101.295 Y97.431 E.05601
G1 X100 Y97.754 E.05083
G1 X92 Y97.754 E.30462
G1 X90.583 Y97.361 E.05601
G1 X89.569 Y96.295 E.05601
G1 X89.246 Y95 E.05083
G1 X89.246 Y93.275 E.06569
G1 X89.623 Y93.275 F9000
G1 F1525
G1 X89.623 Y85 E.31509
G1 X90.015 Y83.693 E.05195
M73 P9 R6
G1 X91.06 Y82.817 E.05195
G1 X92 Y82.623 E.03654
G1 X100 Y82.623 E.30462
G1 X101.307 Y83.015 E.05195
G1 X102.183 Y84.06 E.05195
G1 X102.377 Y85 E.03654
G1 X102.377 Y95 E.38078
G1 X101.985 Y96.307 E.05195
G1 X100.94 Y97.183 E.05195
G1 X100 Y97.377 E.03654
G1 X92 Y97.377 E.30462
G1 X90.693 Y96.985 E.05195
G1 X89.817 Y95.94 E.05195
G1 X89.623 Y95 E.03654
G1 X89.623 Y93.335 E.0634
; printing object plug_socket_glue.stl_2 id:0 copy 0
G1 E-2.24 F4200
;WIPE_START
G1 F7200
G1 X89.623 Y91.689 E-.912
;WIPE_END
G1 E-.048 F4200
G1 Z.65 F720
G1 X99.379 Y94.379 F9000
G1 Z.45 F720
G1 E3.2 F2400
M204 P800
;TYPE:Perimeter
;WIDTH:0.449999
G1 F1500
G1 X92.621 Y94.379 E.27837
G1 X92.621 Y85.621 E.36076
G1 X99.379 Y85.621 E.27837
G1 X99.379 Y94.319 E.35829
M204 P1000
G1 X99.775 Y94.775 F9000
M204 P800
;TYPE:External perimeter
G1 F1500
G1 X92.225 Y94.775 E.31103
G1 X92.225 Y85.225 E.39342
G1 X99.775 Y85.225 E.31103
G1 X99.775 Y94.715 E.39095
M204 P1000
G1 X99.393 Y94.657 F9000
M73 P10 R6
G1 X99.26 Y93.427
;TYPE:Solid infill
;WIDTH:0.464812
G1 F1525
G1 X98.605 Y94.081 E.03954
G1 X98.024 Y94.081 E.02485
G1 X99.081 Y93.024 E.06391
G1 X99.081 Y92.443 E.02485
G1 X97.443 Y94.081 E.09905
G1 X96.861 Y94.081 E.02485
G1 X99.081 Y91.861 E.13419
G1 X99.081 Y91.28 E.02485
G1 X96.28 Y94.081 E.16933
G1 X95.698 Y94.081 E.02485
G1 X99.081 Y90.698 E.20448
G1 X99.081 Y90.117 E.02485
G1 X95.117 Y94.081 E.23962
G1 X94.535 Y94.081 E.02485
G1 X99.081 Y89.535 E.27476
G1 X99.081 Y88.954 E.02485
G1 X93.954 Y94.081 E.3099
G1 X93.372 Y94.081 E.02485
G1 X99.081 Y88.372 E.34504
G1 X99.081 Y87.791 E.02485
G1 X92.919 Y93.954 E.37246
G1 X92.919 Y93.372 E.02485
G1 X99.081 Y87.209 E.37246
G1 X99.081 Y86.628 E.02485
G1 X92.919 Y92.791 E.37246
G1 X92.919 Y92.209 E.02485
G1 X99.081 Y86.046 E.37246
G1 X99.081 Y85.919 E.00546
G1 X98.628 Y85.919 E.01939
G1 X92.919 Y91.628 E.34504
G1 X92.919 Y91.046 E.02485
G1 X98.046 Y85.919 E.30989
G1 X97.465 Y85.919 E.02485
M73 P11 R6
G1 X92.919 Y90.465 E.27475
G1 X92.919 Y89.883 E.02485
G1 X96.883 Y85.919 E.23961
G1 X96.302 Y85.919 E.02485
G1 X92.919 Y89.302 E.20447
G1 X92.919 Y88.72 E.02485
G1 X95.72 Y85.919 E.16933
G1 X95.139 Y85.919 E.02485
G1 X92.919 Y88.139 E.13418
G1 X92.919 Y87.557 E.02485
G1 X94.557 Y85.919 E.09904
G1 X93.976 Y85.919 E.02485
G1 X92.919 Y86.976 E.0639
G1 X92.919 Y86.394 E.02485
G1 X93.573 Y85.74 E.03954
; stop printing object plug_socket_glue.stl_2 id:0 copy 0
M106 S170.85
;LAYER_CHANGE
;Z:0.7
;HEIGHT:0.25
;BEFORE_LAYER_CHANGE
G92 E0.0
;0.7


G1 E-2.24 F4200
;WIPE_START
G1 F7200
G1 X92.919 Y86.394 E-.51268
G1 X92.919 Y86.976 E-.32223
G1 X93.017 Y86.878 E-.07709
;WIPE_END
G1 E-.048 F4200
G1 Z.65 F720
G1 Z.7
;AFTER_LAYER_CHANGE
;0.7
G1 Z.9
G1 X88.869 Y86.878 F9000
G1 Z.7 F720
G1 E3.2 F2400
;TYPE:Skirt/Brim
;WIDTH:0.42
G1 F1575
G1 X88.869 Y85 E.07149
G1 X89.262 Y83.48 E.05978
G1 X90.344 Y82.342 E.05978
G1 X92 Y81.869 E.06558
G1 X100 Y81.869 E.30462
G1 X101.52 Y82.262 E.05978
G1 X102.658 Y83.344 E.05978
G1 X103.131 Y85 E.06558
G1 X103.131 Y95 E.38078
G1 X102.738 Y96.52 E.05978
G1 X101.656 Y97.658 E.05978
G1 X100 Y98.131 E.06558
G1 X92 Y98.131 E.30462
G1 X90.48 Y97.738 E.05978
G1 X89.342 Y96.656 E.05978
G1 X88.869 Y95 E.06558
G1 X88.869 Y86.938 E.307
G1 X89.246 Y86.938 F9000
G1 F1575
G1 X89.246 Y85 E.07378
G1 X89.639 Y83.583 E.05601
G1 X90.705 Y82.569 E.05601
G1 X92 Y82.246 E.05083
G1 X100 Y82.246 E.30462
G1 X101.417 Y82.639 E.05601
M73 P12 R6
G1 X102.431 Y83.705 E.05601
G1 X102.754 Y85 E.05083
G1 X102.754 Y95 E.38078
G1 X102.361 Y96.417 E.05601
G1 X101.295 Y97.431 E.05601
G1 X100 Y97.754 E.05083
G1 X92 Y97.754 E.30462
G1 X90.583 Y97.361 E.05601
G1 X89.569 Y96.295 E.05601
G1 X89.246 Y95 E.05083
G1 X89.246 Y86.998 E.30472
G1 X89.623 Y86.998 F9000
G1 F1575
G1 X89.623 Y85 E.07606
G1 X90.015 Y83.693 E.05195
G1 X91.06 Y82.817 E.05195
G1 X92 Y82.623 E.03654
G1 X100 Y82.623 E.30462
G1 X101.307 Y83.015 E.05195
G1 X102.183 Y84.06 E.05195
G1 X102.377 Y85 E.03654
G1 X102.377 Y95 E.38078
G1 X101.985 Y96.307 E.05195
G1 X100.94 Y97.183 E.05195
G1 X100 Y97.377 E.03654
G1 X92 Y97.377 E.30462
G1 X90.693 Y96.985 E.05195
G1 X89.817 Y95.94 E.05195
G1 X89.623 Y95 E.03654
G1 X89.623 Y87.058 E.30243
; printing object plug_socket_glue.stl_2 id:0 copy 0
G1 E-2.24 F4200
;WIPE_START
G1 F7200
G1 X89.623 Y85.412 E-.912
;WIPE_END
G1 E-.048 F4200
G1 Z.9 F720
G1 X99.379 Y94.379 F9000
G1 Z.7 F720
G1 E3.2 F2400
M204 P800
;TYPE:Perimeter
;WIDTH:0.449999
G1 F1500
G1 X92.621 Y94.379 E.27837
G1 X92.621 Y85.621 E.36076
G1 X99.379 Y85.621 E.27837
M73 P13 R6
G1 X99.379 Y94.319 E.35829
M204 P1000
G1 X99.775 Y94.775 F9000
M204 P800
;TYPE:External perimeter
G1 F1500
G1 X92.225 Y94.775 E.31103
G1 X92.225 Y85.225 E.39342
G1 X99.775 Y85.225 E.31103
G1 X99.775 Y94.715 E.39095
M204 P1000
G1 X99.393 Y94.657 F9000
G1 E-2.24 F4200
;WIPE_START
G1 F7200
G1 X98.129 Y94.728 E-.912
;WIPE_END
G1 E-.048 F4200
G1 Z.9 F720
G1 X98.427 Y85.74 F9000
G1 Z.7 F720
G1 E3.2 F2400
;TYPE:Solid infill
;WIDTH:0.464812
G1 F1575
G1 X99.081 Y86.395 E.03954
G1 X99.081 Y86.976 E.02485
G1 X98.024 Y85.919 E.06391
G1 X97.443 Y85.919 E.02485
G1 X99.081 Y87.557 E.09905
G1 X99.081 Y88.139 E.02485
G1 X96.861 Y85.919 E.13419
G1 X96.28 Y85.919 E.02485
G1 X99.081 Y88.72 E.16933
G1 X99.081 Y89.302 E.02485
G1 X95.698 Y85.919 E.20448
G1 X95.117 Y85.919 E.02485
G1 X99.081 Y89.883 E.23962
G1 X99.081 Y90.465 E.02485
G1 X94.535 Y85.919 E.27476
G1 X93.954 Y85.919 E.02485
G1 X99.081 Y91.046 E.3099
G1 X99.081 Y91.628 E.02485
M73 P14 R6
G1 X93.372 Y85.919 E.34504
G1 X92.919 Y85.919 E.01939
G1 X92.919 Y86.046 E.00546
G1 X99.081 Y92.209 E.37246
G1 X99.081 Y92.791 E.02485
G1 X92.919 Y86.628 E.37246
G1 X92.919 Y87.209 E.02485
G1 X99.081 Y93.372 E.37246
G1 X99.081 Y93.954 E.02485
G1 X92.919 Y87.791 E.37246
G1 X92.919 Y88.372 E.02485
G1 X98.628 Y94.081 E.34504
G1 X98.046 Y94.081 E.02485
G1 X92.919 Y88.954 E.30989
G1 X92.919 Y89.535 E.02485
G1 X97.465 Y94.081 E.27475
G1 X96.883 Y94.081 E.02485
G1 X92.919 Y90.117 E.23961
G1 X92.919 Y90.698 E.02485
G1 X96.302 Y94.081 E.20447
G1 X95.72 Y94.081 E.02485
G1 X92.919 Y91.28 E.16933
G1 X92.919 Y91.861 E.02485
G1 X95.139 Y94.081 E.13418
G1 X94.557 Y94.081 E.02485
G1 X92.919 Y92.443 E.09904
G1 X92.919 Y93.024 E.02485
G1 X93.976 Y94.081 E.0639
G1 X93.394 Y94.081 E.02485
G1 X92.74 Y93.427 E.03954
; stop printing object plug_socket_glue.stl_2 id:0 copy 0
M106 S255
;LAYER_CHANGE
;Z:0.95
;HEIGHT:0.25
;BEFORE_LAYER_CHANGE
G92 E0.0
;0.95


G1 E-2.24 F4200
;WIPE_START
G1 F7200
G1 X93.394 Y94.081 E-.51267
G1 X93.976 Y94.081 E-.32223
G1 X93.878 Y93.983 E-.07709
;WIPE_END
G1 E-.048 F4200
G1 Z.9 F720
G1 Z.95
;AFTER_LAYER_CHANGE
;0.95
; printing object plug_socket_glue.stl_2 id:0 copy 0
G1 Z1.15
G1 X99.379 Y94.379 F9000
G1 Z.95 F720
G1 E3.2 F2400
M204 P800
;TYPE:Perimeter
;WIDTH:0.449999
G1 F900
G1 X92.621 Y94.379 E.27837
G1 X92.621 Y85.621 E.36076
M73 P15 R6
G1 X99.379 Y85.621 E.27837
G1 X99.379 Y94.319 E.35829
M204 P1000
G1 X99.775 Y94.775 F9000
M204 P800
;TYPE:External perimeter
G1 F900
G1 X92.225 Y94.775 E.31103
G1 X92.225 Y85.225 E.39342
G1 X99.775 Y85.225 E.31103
G1 X99.775 Y94.715 E.39095
M204 P1000
G1 X99.393 Y94.657 F9000
G1 X99.26 Y93.427
;TYPE:Solid infill
;WIDTH:0.464812
G1 F900
G1 X98.605 Y94.081 E.03954
G1 X98.024 Y94.081 E.02485
G1 X99.081 Y93.024 E.06391
G1 X99.081 Y92.443 E.02485
M73 P16 R6
G1 X97.443 Y94.081 E.09905
G1 X96.861 Y94.081 E.02485
G1 X99.081 Y91.861 E.13419
G1 X99.081 Y91.28 E.02485
G1 X96.28 Y94.081 E.16933
G1 X95.698 Y94.081 E.02485
G1 X99.081 Y90.698 E.20448
G1 X99.081 Y90.117 E.02485
G1 X95.117 Y94.081 E.23962
G1 X94.535 Y94.081 E.02485
G1 X99.081 Y89.535 E.27476
G1 X99.081 Y88.954 E.02485
G1 X93.954 Y94.081 E.3099
G1 X93.372 Y94.081 E.02485
G1 X99.081 Y88.372 E.34504
G1 X99.081 Y87.791 E.02485
G1 X92.919 Y93.954 E.37246
G1 X92.919 Y93.372 E.02485
G1 X99.081 Y87.209 E.37246
G1 X99.081 Y86.628 E.02485
G1 X92.919 Y92.791 E.37246
G1 X92.919 Y92.209 E.02485
M73 P17 R6
G1 X99.081 Y86.046 E.37246
G1 X99.081 Y85.919 E.00546
G1 X98.628 Y85.919 E.01939
G1 X92.919 Y91.628 E.34504
G1 X92.919 Y91.046 E.02485
G1 X98.046 Y85.919 E.30989
G1 X97.465 Y85.919 E.02485
G1 X92.919 Y90.465 E.27475
G1 X92.919 Y89.883 E.02485
G1 X96.883 Y85.919 E.23961
G1 X96.302 Y85.919 E.02485
G1 X92.919 Y89.302 E.20447
G1 X92.919 Y88.72 E.02485
G1 X95.72 Y85.919 E.16933
G1 X95.139 Y85.919 E.02485
G1 X92.919 Y88.139 E.13418
G1 X92.919 Y87.557 E.02485
G1 X94.557 Y85.919 E.09904
G1 X93.976 Y85.919 E.02485
G1 X92.919 Y86.976 E.0639
G1 X92.919 Y86.394 E.02485
G1 X93.573 Y85.74 E.03954
; stop printing object plug_socket_glue.stl_2 id:0 copy 0
;LAYER_CHANGE
;Z:1.2
;HEIGHT:0.25
;BEFORE_LAYER_CHANGE
G92 E0.0
;1.2


G1 E-2.24 F4200
;WIPE_START
G1 F7200
M73 P18 R6
G1 X92.919 Y86.394 E-.51268
G1 X92.919 Y86.976 E-.32223
G1 X93.017 Y86.878 E-.07709
;WIPE_END
G1 E-.048 F4200
G1 Z1.15 F720
G1 Z1.2
;AFTER_LAYER_CHANGE
;1.2
; printing object plug_socket_glue.stl_2 id:0 copy 0
G1 Z1.4
G1 X99.379 Y94.379 F9000
G1 Z1.2 F720
G1 E3.2 F2400
M204 P800
;TYPE:Perimeter
;WIDTH:0.449999
G1 F900
G1 X92.621 Y94.379 E.27837
G1 X92.621 Y85.621 E.36076
G1 X99.379 Y85.621 E.27837
G1 X99.379 Y94.319 E.35829
M204 P1000
G1 X99.775 Y94.775 F9000
M204 P800
;TYPE:External perimeter
G1 F900
G1 X92.225 Y94.775 E.31103
G1 X92.225 Y85.225 E.39342
G1 X99.775 Y85.225 E.31103
G1 X99.775 Y94.715 E.39095
M204 P1000
G1 X99.393 Y94.657 F9000
M73 P19 R6
G1 E-2.24 F4200
;WIPE_START
G1 F7200
