; generated by PrusaSlicer 2.5.0+win64 on 2023-01-29 at 03:38:44 UTC


;
;

;
;
; 

; external perimeters extrusion width = 0.45mm
; perimeters extrusion width = 0.45mm
; infill extrusion width = 0.45mm
; solid infill extrusion width = 0.45mm
; top infill extrusion width = 0.40mm
; support material extrusion width = 0.35mm
; first layer extrusion width = 0.42mm

M73 P0 R12
M201 X2500 Y2500 Z400 E5000 ; sets maximum accelerations, mm/sec^2
M203 X180 Y180 Z12 E80 ; sets maximum feedrates, mm / sec
M204 P1250 R1250 T2500 ; sets acceleration (P, T) and retract acceleration (R), mm/sec^2
M205 X8.00 Y8.00 Z2.00 E10.00 ; sets the jerk limits, mm/sec
M205 S0 T0 ; sets the minimum extruding and travel feed rate, mm/sec
M107
;TYPE:Custom
M862.3 P "MINI" ; printer model check
G90 ; use absolute coordinates
M83 ; extruder relative mode
M104 S170 ; set extruder temp for bed leveling
M140 S60 ; set bed temp
M109 R170 ; wait for bed leveling temp
M190 S60 ; wait for bed temp
M204 T1250 ; set travel acceleration
G28 ; home all without mesh bed level
G29 ; mesh bed leveling 
M204 T2500 ; restore travel acceleration
M104 S215 ; set extruder temp
G92 E0
G1 Y-2 X179 F2400
G1 Z3 F720
M109 S215 ; wait for extruder temp

; intro line
G1 X170 F1000
G1 Z0.2 F720
G1 X110 E8 F900
G1 X40 E10 F700
G92 E0

M221 S95 ; set flow
G21 ; set units to millimeters
G90 ; use absolute coordinates
M83 ; use relative distances for extrusion
M900 K0.2 ; Filament gcode LA 1.5
; ; Filament gcode LA 1.0
M107
;LAYER_CHANGE
;Z:0.2
;HEIGHT:0.2
;BEFORE_LAYER_CHANGE
G92 E0.0
;0.2


M73 P1 R12
G1 E-3.2 F4200
M73 P2 R12
G1 Z.2 F720
;AFTER_LAYER_CHANGE
;0.2
G1 Z.4
G1 X41.396 Y58.279 F9000
G1 Z.2 F720
G1 E3.2 F2400
M204 P800
;TYPE:Skirt/Brim
;WIDTH:0.42
G1 F1200
G1 X42.335 Y58.086 E.03008
G1 X138.335 Y58.086 E3.01001
G1 X139.642 Y58.477 E.04278
G1 X140.519 Y59.523 E.04278
G1 X140.712 Y60.463 E.03008
G1 X140.688 Y68.802 E.26146
G1 X132.048 Y128.802 E1.90066
G1 X131.474 Y130.039 E.04278
M73 P3 R12
G1 X129.695 Y130.84 E.06116
G1 X50.975 Y130.84 E2.46821
G1 X49.668 Y130.448 E.04278
G1 X48.623 Y128.802 E.06116
G1 X39.983 Y68.802 E1.90066
G1 X39.958 Y60.463 E.26146
M73 P4 R12
G1 X40.35 Y59.156 E.04278
G1 X41.35 Y58.318 E.0409
M204 P1000
; printing object divider_prototype_006.stl id:0 copy 0
G1 E-2.24 F4200
;WIPE_START
G1 F7200
G1 X42.335 Y58.086 E-.56121
G1 X42.968 Y58.086 E-.35079
;WIPE_END
G1 E-.048 F4200
G1 Z.4 F720
G1 X94.042 Y121.236 F9000
G1 Z.2 F720
G1 E3.2 F2400
M204 P800
;TYPE:Perimeter
;WIDTH:0.419999
G1 F1200
G1 X94.114 Y121.25 E.00229
G1 X128.908 Y121.25 E1.09095
G1 X128.908 Y127.676 E.20148
G1 X51.762 Y127.676 E2.41885
G1 X51.762 Y121.25 E.20148
M73 P5 R12
G1 X86.557 Y121.25 E1.09095
G1 X86.655 Y121.241 E.00308
G1 X86.868 Y121.156 E.00721
G1 X87.05 Y120.962 E.00835
G1 X87.122 Y120.684 E.00899
G1 X87.113 Y68.137 E1.64758
G1 X87.009 Y67.902 E.00805
M73 P5 R11
G1 X86.774 Y67.719 E.00933
G1 X86.557 Y67.676 E.00696
G1 X43.122 Y67.676 E1.36185
G1 X43.122 Y61.25 E.20148
M73 P6 R11
G1 X137.548 Y61.25 E2.96065
G1 X137.548 Y67.676 E.20148
G1 X94.114 Y67.676 E1.36185
G1 X94.016 Y67.684 E.00308
M73 P7 R11
G1 X93.803 Y67.769 E.00721
G1 X93.621 Y67.964 E.00835
G1 X93.548 Y68.241 E.00899
G1 X93.548 Y120.684 E1.64431
G1 X93.558 Y120.789 E.00328
G1 X93.661 Y121.024 E.00805
G1 X93.896 Y121.206 E.00933
G1 X93.984 Y121.224 E.00279
M204 P1000
G1 X94.114 Y120.873 F9000
M204 P800
;TYPE:External perimeter
G1 F1200
G1 X129.285 Y120.873 E1.10277
G1 X129.285 Y128.053 E.22512
G1 X51.385 Y128.053 E2.4425
G1 X51.385 Y120.873 E.22512
M73 P8 R11
G1 X86.557 Y120.873 E1.10277
G1 X86.687 Y120.821 E.00439
G1 X86.745 Y120.684 E.00466
G1 X86.745 Y68.241 E1.64431
G1 X86.687 Y68.105 E.00466
G1 X86.557 Y68.053 E.00439
G1 X42.745 Y68.053 E1.37368
G1 X42.745 Y60.873 E.22512
M73 P9 R11
G1 X137.925 Y60.873 E2.9843
G1 X137.925 Y68.053 E.22512
G1 X94.114 Y68.053 E1.37368
G1 X93.984 Y68.105 E.00439
M73 P10 R11
G1 X93.925 Y68.241 E.00466
G1 X93.925 Y120.684 E1.64431
G1 X93.984 Y120.821 E.00466
G1 X94.058 Y120.851 E.00251
M204 P1000
G1 X94.217 Y121.259 F9000
G1 E-2.24 F4200
;WIPE_START
G1 F7200
G1 X95.704 Y120.852 E-.912
;WIPE_END
G1 E-.048 F4200
G1 Z.4 F720
G1 X136.671 Y61.363 F9000
G1 Z.2 F720
G1 E3.2 F2400
M204 P800
;TYPE:Solid infill
;WIDTH:0.420959
G1 F1200
G1 X137.266 Y61.958 E.02643
G1 X137.266 Y62.492 E.01681
G1 X136.306 Y61.533 E.04266
G1 X135.771 Y61.533 E.01681
G1 X137.266 Y63.027 E.06642
G1 X137.266 Y63.562 E.01681
G1 X135.237 Y61.533 E.09019
G1 X134.702 Y61.533 E.01681
G1 X137.266 Y64.096 E.11396
G1 X137.266 Y64.631 E.01681
G1 X134.167 Y61.533 E.13772
G1 X133.633 Y61.533 E.01681
G1 X137.266 Y65.165 E.16149
G1 X137.266 Y65.7 E.01681
G1 X133.098 Y61.533 E.18526
G1 X132.564 Y61.533 E.01681
G1 X137.266 Y66.235 E.20902
G1 X137.266 Y66.769 E.01681
G1 X132.029 Y61.533 E.23279
G1 X131.494 Y61.533 E.01681
G1 X137.266 Y67.304 E.25656
G1 X137.266 Y67.393 E.0028
G1 X136.82 Y67.393 E.01401
G1 X130.96 Y61.533 E.26051
G1 X130.425 Y61.533 E.01681
M73 P11 R11
G1 X136.285 Y67.393 E.26051
G1 X135.751 Y67.393 E.01681
G1 X129.89 Y61.533 E.26051
G1 X129.356 Y61.533 E.01681
G1 X135.216 Y67.393 E.26051
G1 X134.681 Y67.393 E.01681
G1 X128.821 Y61.533 E.26051
G1 X128.287 Y61.533 E.01681
G1 X134.147 Y67.393 E.26051
G1 X133.612 Y67.393 E.01681
G1 X127.752 Y61.533 E.26051
G1 X127.217 Y61.533 E.01681
G1 X133.078 Y67.393 E.26051
G1 X132.543 Y67.393 E.01681
G1 X126.683 Y61.533 E.26051
G1 X126.148 Y61.533 E.01681
G1 X132.008 Y67.393 E.26051
G1 X131.474 Y67.393 E.01681
G1 X125.613 Y61.533 E.26051
G1 X125.079 Y61.533 E.01681
G1 X130.939 Y67.393 E.26051
G1 X130.404 Y67.393 E.01681
G1 X124.544 Y61.533 E.26051
G1 X124.01 Y61.533 E.01681
G1 X129.87 Y67.393 E.26051
G1 X129.335 Y67.393 E.01681
G1 X123.475 Y61.533 E.26051
G1 X122.94 Y61.533 E.01681
G1 X128.801 Y67.393 E.26051
G1 X128.266 Y67.393 E.01681
G1 X122.406 Y61.533 E.26051
G1 X121.871 Y61.533 E.01681
G1 X127.731 Y67.393 E.26051
G1 X127.197 Y67.393 E.01681
M73 P12 R11
G1 X121.336 Y61.533 E.26051
G1 X120.802 Y61.533 E.01681
G1 X126.662 Y67.393 E.26051
G1 X126.127 Y67.393 E.01681
G1 X120.267 Y61.533 E.26051
G1 X119.732 Y61.533 E.01681
G1 X125.593 Y67.393 E.26051
G1 X125.058 Y67.393 E.01681
G1 X119.198 Y61.533 E.26051
G1 X118.663 Y61.533 E.01681
G1 X124.523 Y67.393 E.26051
G1 X123.989 Y67.393 E.01681
G1 X118.129 Y61.533 E.26051
G1 X117.594 Y61.533 E.01681
G1 X123.454 Y67.393 E.26051
G1 X122.92 Y67.393 E.01681
G1 X117.059 Y61.533 E.26051
G1 X116.525 Y61.533 E.01681
G1 X122.385 Y67.393 E.26051
G1 X121.85 Y67.393 E.01681
G1 X115.99 Y61.533 E.26051
G1 X115.455 Y61.533 E.01681
G1 X121.316 Y67.393 E.26051
G1 X120.781 Y67.393 E.01681
G1 X114.921 Y61.533 E.26051
G1 X114.386 Y61.533 E.01681
G1 X120.246 Y67.393 E.26051
G1 X119.712 Y67.393 E.01681
G1 X113.852 Y61.533 E.26051
G1 X113.317 Y61.533 E.01681
G1 X119.177 Y67.393 E.26051
G1 X118.643 Y67.393 E.01681
G1 X112.782 Y61.533 E.26051
G1 X112.248 Y61.533 E.01681
M73 P13 R11
G1 X118.108 Y67.393 E.26051
G1 X117.573 Y67.393 E.01681
G1 X111.713 Y61.533 E.26051
G1 X111.178 Y61.533 E.01681
G1 X117.039 Y67.393 E.26051
G1 X116.504 Y67.393 E.01681
G1 X110.644 Y61.533 E.26051
G1 X110.109 Y61.533 E.01681
G1 X115.969 Y67.393 E.26051
G1 X115.435 Y67.393 E.01681
G1 X109.575 Y61.533 E.26051
G1 X109.04 Y61.533 E.01681
G1 X114.9 Y67.393 E.26051
G1 X114.366 Y67.393 E.01681
G1 X108.505 Y61.533 E.26051
G1 X107.971 Y61.533 E.01681
G1 X113.831 Y67.393 E.26051
G1 X113.296 Y67.393 E.01681
G1 X107.436 Y61.533 E.26051
G1 X106.901 Y61.533 E.01681
M73 P13 R10
G1 X112.762 Y67.393 E.26051
G1 X112.227 Y67.393 E.01681
G1 X106.367 Y61.533 E.26051
G1 X105.832 Y61.533 E.01681
G1 X111.692 Y67.393 E.26051
G1 X111.158 Y67.393 E.01681
G1 X105.298 Y61.533 E.26051
G1 X104.763 Y61.533 E.01681
G1 X110.623 Y67.393 E.26051
G1 X110.089 Y67.393 E.01681
G1 X104.228 Y61.533 E.26051
G1 X103.694 Y61.533 E.01681
M73 P14 R10
G1 X109.554 Y67.393 E.26051
G1 X109.019 Y67.393 E.01681
G1 X103.159 Y61.533 E.26051
G1 X102.624 Y61.533 E.01681
G1 X108.485 Y67.393 E.26051
G1 X107.95 Y67.393 E.01681
G1 X102.09 Y61.533 E.26051
G1 X101.555 Y61.533 E.01681
G1 X107.415 Y67.393 E.26051
G1 X106.881 Y67.393 E.01681
G1 X101.021 Y61.533 E.26051
G1 X100.486 Y61.533 E.01681
G1 X106.346 Y67.393 E.26051
G1 X105.812 Y67.393 E.01681
G1 X99.951 Y61.533 E.26051
G1 X99.417 Y61.533 E.01681
G1 X105.277 Y67.393 E.26051
G1 X104.742 Y67.393 E.01681
G1 X98.882 Y61.533 E.26051
G1 X98.347 Y61.533 E.01681
G1 X104.208 Y67.393 E.26051
G1 X103.673 Y67.393 E.01681
G1 X97.813 Y61.533 E.26051
G1 X97.278 Y61.533 E.01681
G1 X103.138 Y67.393 E.26051
G1 X102.604 Y67.393 E.01681
G1 X96.743 Y61.533 E.26051
G1 X96.209 Y61.533 E.01681
G1 X102.069 Y67.393 E.26051
G1 X101.534 Y67.393 E.01681
G1 X95.674 Y61.533 E.26051
G1 X95.14 Y61.533 E.01681
G1 X101 Y67.393 E.26051
G1 X100.465 Y67.393 E.01681
M73 P15 R10
G1 X94.605 Y61.533 E.26051
G1 X94.07 Y61.533 E.01681
G1 X99.931 Y67.393 E.26051
G1 X99.396 Y67.393 E.01681
G1 X93.536 Y61.533 E.26051
G1 X93.001 Y61.533 E.01681
G1 X98.861 Y67.393 E.26051
G1 X98.327 Y67.393 E.01681
G1 X92.466 Y61.533 E.26051
G1 X91.932 Y61.533 E.01681
G1 X97.792 Y67.393 E.26051
G1 X97.257 Y67.393 E.01681
G1 X91.397 Y61.533 E.26051
G1 X90.863 Y61.533 E.01681
G1 X96.723 Y67.393 E.26051
G1 X96.188 Y67.393 E.01681
G1 X90.328 Y61.533 E.26051
G1 X89.793 Y61.533 E.01681
G1 X95.654 Y67.393 E.26051
G1 X95.119 Y67.393 E.01681
G1 X89.259 Y61.533 E.26051
G1 X88.724 Y61.533 E.01681
G1 X94.584 Y67.393 E.26051
G1 X94.055 Y67.398 E.01664
G1 X88.189 Y61.533 E.26075
G1 X87.655 Y61.533 E.01681
G1 X93.652 Y67.53 E.2666
G1 X93.526 Y67.628 E.00502
G1 X93.391 Y67.803 E.00695
G1 X87.12 Y61.533 E.27875
G1 X86.586 Y61.533 E.01681
G1 X93.268 Y68.215 E.29705
G1 X93.266 Y68.747 E.01674
G1 X86.051 Y61.533 E.32072
G1 X85.516 Y61.533 E.01681
M73 P16 R10
G1 X93.266 Y69.282 E.34449
G1 X93.266 Y69.817 E.01681
G1 X84.982 Y61.533 E.36825
G1 X84.447 Y61.533 E.01681
G1 X93.266 Y70.351 E.39202
G1 X93.266 Y70.886 E.01681
G1 X83.912 Y61.533 E.41579
G1 X83.378 Y61.533 E.01681
G1 X93.266 Y71.42 E.43955
G1 X93.266 Y71.955 E.01681
G1 X82.843 Y61.533 E.46332
G1 X82.309 Y61.533 E.01681
G1 X93.266 Y72.49 E.48709
G1 X93.266 Y73.024 E.01681
G1 X81.774 Y61.533 E.51085
G1 X81.239 Y61.533 E.01681
G1 X93.266 Y73.559 E.53462
G1 X93.266 Y74.094 E.01681
G1 X87.405 Y68.233 E.26053
G1 X87.391 Y68.082 E.00478
G1 X87.298 Y67.825 E.00857
G1 X87.144 Y67.628 E.00784
G1 X87.024 Y67.533 E.00484
G1 X86.883 Y67.458 E.00501
G1 X86.725 Y67.409 E.0052
G1 X86.565 Y67.393 E.00504
G1 X80.705 Y61.533 E.26053
G1 X80.17 Y61.533 E.01681
M73 P17 R10
G1 X86.03 Y67.393 E.26051
G1 X85.496 Y67.393 E.01681
G1 X79.635 Y61.533 E.26051
G1 X79.101 Y61.533 E.01681
G1 X84.961 Y67.393 E.26051
G1 X84.426 Y67.393 E.01681
G1 X78.566 Y61.533 E.26051
G1 X78.032 Y61.533 E.01681
G1 X83.892 Y67.393 E.26051
G1 X83.357 Y67.393 E.01681
G1 X77.497 Y61.533 E.26051
G1 X76.962 Y61.533 E.01681
G1 X82.823 Y67.393 E.26051
G1 X82.288 Y67.393 E.01681
G1 X76.428 Y61.533 E.26051
G1 X75.893 Y61.533 E.01681
G1 X81.753 Y67.393 E.26051
G1 X81.219 Y67.393 E.01681
G1 X75.358 Y61.533 E.26051
G1 X74.824 Y61.533 E.01681
G1 X80.684 Y67.393 E.26051
G1 X80.149 Y67.393 E.01681
G1 X74.289 Y61.533 E.26051
G1 X73.754 Y61.533 E.01681
G1 X79.615 Y67.393 E.26051
G1 X79.08 Y67.393 E.01681
G1 X73.22 Y61.533 E.26051
G1 X72.685 Y61.533 E.01681
G1 X78.545 Y67.393 E.26051
G1 X78.011 Y67.393 E.01681
G1 X72.151 Y61.533 E.26051
G1 X71.616 Y61.533 E.01681
M73 P18 R10
G1 X77.476 Y67.393 E.26051
G1 X76.942 Y67.393 E.01681
G1 X71.081 Y61.533 E.26051
G1 X70.547 Y61.533 E.01681
G1 X76.407 Y67.393 E.26051
G1 X75.872 Y67.393 E.01681
G1 X70.012 Y61.533 E.26051
G1 X69.477 Y61.533 E.01681
G1 X75.338 Y67.393 E.26051
G1 X74.803 Y67.393 E.01681
G1 X68.943 Y61.533 E.26051
G1 X68.408 Y61.533 E.01681
G1 X74.268 Y67.393 E.26051
G1 X73.734 Y67.393 E.01681
G1 X67.874 Y61.533 E.26051
G1 X67.339 Y61.533 E.01681
G1 X73.199 Y67.393 E.26051
G1 X72.665 Y67.393 E.01681
G1 X66.804 Y61.533 E.26051
G1 X66.27 Y61.533 E.01681
G1 X72.13 Y67.393 E.26051
G1 X71.595 Y67.393 E.01681
G1 X65.735 Y61.533 E.26051
G1 X65.2 Y61.533 E.01681
G1 X71.061 Y67.393 E.26051
G1 X70.526 Y67.393 E.01681
G1 X64.666 Y61.533 E.26051
G1 X64.131 Y61.533 E.01681
G1 X69.991 Y67.393 E.26051
G1 X69.457 Y67.393 E.01681
G1 X63.597 Y61.533 E.26051
G1 X63.062 Y61.533 E.01681
G1 X68.922 Y67.393 E.26051
G1 X68.388 Y67.393 E.01681
M73 P19 R10
G1 X62.527 Y61.533 E.26051
G1 X61.993 Y61.533 E.01681
G1 X67.853 Y67.393 E.26051
G1 X67.318 Y67.393 E.01681
G1 X61.458 Y61.533 E.26051
G1 X60.923 Y61.533 E.01681
G1 X66.784 Y67.393 E.26051
G1 X66.249 Y67.393 E.01681
G1 X60.389 Y61.533 E.26051
G1 X59.854 Y61.533 E.01681
G1 X65.714 Y67.393 E.26051
G1 X65.18 Y67.393 E.01681
G1 X59.32 Y61.533 E.26051
G1 X58.785 Y61.533 E.01681
G1 X64.645 Y67.393 E.26051
G1 X64.111 Y67.393 E.01681
G1 X58.25 Y61.533 E.26051
G1 X57.716 Y61.533 E.01681
G1 X63.576 Y67.393 E.26051
G1 X63.041 Y67.393 E.01681
G1 X57.181 Y61.533 E.26051
G1 X56.646 Y61.533 E.01681
G1 X62.507 Y67.393 E.26051
G1 X61.972 Y67.393 E.01681
G1 X56.112 Y61.533 E.26051
G1 X55.577 Y61.533 E.01681
G1 X61.437 Y67.393 E.26051
G1 X60.903 Y67.393 E.01681
G1 X55.043 Y61.533 E.26051
G1 X54.508 Y61.533 E.01681
G1 X60.368 Y67.393 E.26051
G1 X59.834 Y67.393 E.01681
G1 X53.973 Y61.533 E.26051
G1 X53.439 Y61.533 E.01681
M73 P20 R10
G1 X59.299 Y67.393 E.26051
G1 X58.764 Y67.393 E.01681
G1 X52.904 Y61.533 E.26051
G1 X52.369 Y61.533 E.01681
G1 X58.23 Y67.393 E.26051
G1 X57.695 Y67.393 E.01681
G1 X51.835 Y61.533 E.26051
G1 X51.3 Y61.533 E.01681
G1 X57.16 Y67.393 E.26051
G1 X56.626 Y67.393 E.01681
G1 X50.765 Y61.533 E.26051
G1 X50.231 Y61.533 E.01681
G1 X56.091 Y67.393 E.26051
G1 X55.556 Y67.393 E.01681
G1 X49.696 Y61.533 E.26051
G1 X49.162 Y61.533 E.01681
G1 X55.022 Y67.393 E.26051
G1 X54.487 Y67.393 E.01681
G1 X48.627 Y61.533 E.26051
G1 X48.092 Y61.533 E.01681
G1 X53.953 Y67.393 E.26051
G1 X53.418 Y67.393 E.01681
G1 X47.558 Y61.533 E.26051
G1 X47.023 Y61.533 E.01681
G1 X52.883 Y67.393 E.26051
G1 X52.349 Y67.393 E.01681
G1 X46.488 Y61.533 E.26051
G1 X45.954 Y61.533 E.01681
G1 X51.814 Y67.393 E.26051
G1 X51.279 Y67.393 E.01681
G1 X45.419 Y61.533 E.26051
G1 X44.885 Y61.533 E.01681
G1 X50.745 Y67.393 E.26051
G1 X50.21 Y67.393 E.01681
M73 P21 R10
G1 X44.35 Y61.533 E.26051
G1 X43.815 Y61.533 E.01681
G1 X49.676 Y67.393 E.26051
G1 X49.141 Y67.393 E.01681
G1 X43.405 Y61.657 E.25498
G1 X43.405 Y62.192 E.01681
G1 X48.606 Y67.393 E.23121
G1 X48.072 Y67.393 E.01681
G1 X43.405 Y62.727 E.20744
G1 X43.405 Y63.261 E.01681
G1 X47.537 Y67.393 E.18368
G1 X47.002 Y67.393 E.01681
G1 X43.405 Y63.796 E.15991
G1 X43.405 Y64.33 E.01681
G1 X46.468 Y67.393 E.13614
G1 X45.933 Y67.393 E.01681
G1 X43.405 Y64.865 E.11238
G1 X43.405 Y65.4 E.01681
G1 X45.399 Y67.393 E.08861
G1 X44.864 Y67.393 E.01681
G1 X43.405 Y65.934 E.06484
M73 P21 R9
G1 X43.405 Y66.469 E.01681
G1 X44.329 Y67.393 E.04108
G1 X43.795 Y67.393 E.01681
G1 X43.236 Y66.834 E.02485
M204 P1000
G1 E-2.24 F4200
;WIPE_START
G1 F7200
G1 X43.795 Y67.393 E-.43816
G1 X44.329 Y67.393 E-.29627
G1 X44.103 Y67.166 E-.17756
;WIPE_END
G1 E-.048 F4200
G1 Z.4 F720
G1 X87.236 Y68.598 F9000
G1 Z.2 F720
G1 E3.2 F2400
M204 P800
G1 F1200
G1 X93.266 Y74.628 E.26806
G1 X93.266 Y75.163 E.01681
G1 X87.405 Y69.303 E.26051
G1 X87.405 Y69.837 E.01681
G1 X93.266 Y75.697 E.26051
G1 X93.266 Y76.232 E.01681
G1 X87.405 Y70.372 E.26051
G1 X87.405 Y70.906 E.01681
G1 X93.266 Y76.767 E.26051
G1 X93.266 Y77.301 E.01681
G1 X87.405 Y71.441 E.26051
G1 X87.405 Y71.976 E.01681
G1 X93.266 Y77.836 E.26051
G1 X93.266 Y78.371 E.01681
M73 P22 R9
G1 X87.405 Y72.51 E.26051
G1 X87.405 Y73.045 E.01681
G1 X93.266 Y78.905 E.26051
G1 X93.266 Y79.44 E.01681
G1 X87.405 Y73.58 E.26051
G1 X87.405 Y74.114 E.01681
G1 X93.266 Y79.974 E.26051
G1 X93.266 Y80.509 E.01681
G1 X87.405 Y74.649 E.26051
G1 X87.405 Y75.183 E.01681
G1 X93.266 Y81.044 E.26051
G1 X93.266 Y81.578 E.01681
G1 X87.405 Y75.718 E.26051
G1 X87.405 Y76.253 E.01681
G1 X93.266 Y82.113 E.26051
G1 X93.266 Y82.648 E.01681
G1 X87.405 Y76.787 E.26051
G1 X87.405 Y77.322 E.01681
G1 X93.266 Y83.182 E.26051
G1 X93.266 Y83.717 E.01681
G1 X87.405 Y77.857 E.26051
