; generated by PrusaSlicer 2.5.0+win64 on 2023-01-29 at 00:29:53 UTC


;
;

;
;
; 

; external perimeters extrusion width = 0.45mm
; perimeters extrusion width = 0.45mm
; infill extrusion width = 0.45mm
; solid infill extrusion width = 0.45mm
; top infill extrusion width = 0.40mm
; support material extrusion width = 0.35mm
; first layer extrusion width = 0.42mm

M73 P0 R14
M201 X2500 Y2500 Z400 E5000 ; sets maximum accelerations, mm/sec^2
M203 X180 Y180 Z12 E80 ; sets maximum feedrates, mm / sec
M204 P1250 R1250 T2500 ; sets acceleration (P, T) and retract acceleration (R), mm/sec^2
M205 X8.00 Y8.00 Z2.00 E10.00 ; sets the jerk limits, mm/sec
M205 S0 T0 ; sets the minimum extruding and travel feed rate, mm/sec
M107
;TYPE:Custom
M862.3 P "MINI" ; printer model check
G90 ; use absolute coordinates
M83 ; extruder relative mode
M104 S170 ; set extruder temp for bed leveling
M140 S60 ; set bed temp
M109 R170 ; wait for bed leveling temp
M190 S60 ; wait for bed temp
M204 T1250 ; set travel acceleration
G28 ; home all without mesh bed level
G29 ; mesh bed leveling 
M204 T2500 ; restore travel acceleration
M104 S215 ; set extruder temp
G92 E0
G1 Y-2 X179 F2400
G1 Z3 F720
M109 S215 ; wait for extruder temp

; intro line
G1 X170 F1000
G1 Z0.2 F720
G1 X110 E8 F900
G1 X40 E10 F700
G92 E0

M221 S95 ; set flow
G21 ; set units to millimeters
G90 ; use absolute coordinates
M83 ; use relative distances for extrusion
M900 K0.2 ; Filament gcode LA 1.5
; ; Filament gcode LA 1.0
M107
;LAYER_CHANGE
;Z:0.2
;HEIGHT:0.2
;BEFORE_LAYER_CHANGE
G92 E0.0
;0.2


M73 P1 R14
G1 E-3.2 F4200
M73 P1 R13
G1 Z.2 F720
;AFTER_LAYER_CHANGE
;0.2
G1 Z.4
G1 X41.106 Y63.562 F9000
G1 Z.2 F720
G1 E3.2 F2400
M204 P800
;TYPE:Skirt/Brim
;WIDTH:0.42
G1 F1200
G1 X42.045 Y63.369 E.03008
G1 X138.045 Y63.369 E3.01001
G1 X139.352 Y63.76 E.04278
M73 P2 R13
G1 X140.229 Y64.806 E.04278
G1 X140.423 Y65.746 E.03008
G1 X140.423 Y135.746 E2.1948
G1 X140.031 Y137.053 E.04278
G1 X138.985 Y137.929 E.04278
G1 X138.045 Y138.123 E.03008
G1 X42.045 Y138.123 E3.01001
G1 X40.738 Y137.731 E.04278
M73 P3 R13
G1 X39.862 Y136.686 E.04278
G1 X39.668 Y135.746 E.03008
G1 X39.668 Y65.746 E2.1948
G1 X40.06 Y64.439 E.04278
G1 X41.06 Y63.601 E.0409
M204 P1000
; printing object divider_prototype_004.stl id:0 copy 0
G1 E-2.24 F4200
;WIPE_START
G1 F7200
G1 X42.045 Y63.369 E-.56121
G1 X42.678 Y63.369 E-.35079
;WIPE_END
G1 E-.048 F4200
G1 Z.4 F720
G1 X108.147 Y126.612 F9000
G1 Z.2 F720
M73 P4 R13
G1 E3.2 F2400
M204 P800
;TYPE:Perimeter
;WIDTH:0.57773
G1 F1200
G1 X108.309 Y126.592 E.00722
;WIDTH:0.538298
G1 X108.47 Y126.572 E.00669
;WIDTH:0.498865
G1 X108.631 Y126.553 E.00615
;WIDTH:0.459432
G1 X108.792 Y126.533 E.00562
;WIDTH:0.419999
G1 X110.274 Y126.533 E.04646
;WIDTH:0.461874
G1 X110.426 Y126.554 E.00537
;WIDTH:0.503748
G1 X110.579 Y126.575 E.0059
;WIDTH:0.545622
G1 X110.732 Y126.596 E.00644
;WIDTH:0.587496
G1 X110.884 Y126.617 E.00698
G1 X110.792 Y126.703 E.00573
;WIDTH:0.545622
G1 X110.699 Y126.789 E.00529
;WIDTH:0.503748
G1 X110.606 Y126.875 E.00485
;WIDTH:0.461874
G1 X110.514 Y126.961 E.00441
;WIDTH:0.419999
G1 X109.127 Y129.23 E.08338
G1 X108.713 Y129.23 E.01298
G1 X108.713 Y127.274 E.06134
G1 X108.6 Y126.917 E.01175
;WIDTH:0.459432
G1 X108.487 Y126.841 E.00473
;WIDTH:0.498865
G1 X108.374 Y126.764 E.00517
;WIDTH:0.538298
G1 X108.261 Y126.688 E.00562
;WIDTH:0.57773
G1 X108.197 Y126.645 E.0034
M204 P1000
G1 E-2.24 F4200
;WIPE_START
G1 F7200
G1 X108.309 Y126.592 E-.06841
G1 X108.47 Y126.572 E-.08995
G1 X108.631 Y126.553 E-.08995
G1 X108.792 Y126.533 E-.08995
G1 X109.827 Y126.533 E-.57372
;WIPE_END
G1 E-.048 F4200
G1 Z.4 F720
G1 X106.111 Y126.68 F9000
G1 Z.2 F720
G1 E3.2 F2400
M204 P800
;WIDTH:0.59128
G1 F1200
G1 X105.705 Y127.001 E.02357
G1 X105.698 Y127.128 E.00584
;WIDTH:0.554086
G1 X105.69 Y127.256 E.00545
;WIDTH:0.516891
G1 X105.69 Y128.782 E.06011
;WIDTH:0.523339
G1 X105.704 Y129.201 E.01675
;WIDTH:0.488893
G1 X105.721 Y129.472 E.01007
;WIDTH:0.454446
G1 X105.738 Y129.743 E.00929
;WIDTH:0.419999
G1 X105.748 Y134.489 E.14882
;WIDTH:0.425614
G1 X106.304 Y134.956 E.02312
G1 X105.356 Y134.959 E.03018
;WIDTH:0.434228
G1 X104.506 Y134.952 E.02764
G1 X104.964 Y134.489 E.02117
;WIDTH:0.419999
G1 X104.973 Y132.862 E.051
G1 X104.791 Y132.446 E.01425
G1 X104.667 Y132.36 E.00474
;WIDTH:0.458546
G1 X104.52 Y132.319 E.00527
;WIDTH:0.497092
G1 X104.373 Y132.279 E.00576
;WIDTH:0.535638
G1 X104.226 Y132.239 E.00625
G1 X104.304 Y132.199 E.0036
;WIDTH:0.509011
G1 X104.383 Y132.16 E.00341
;WIDTH:0.482384
G1 X104.478 Y132.06 E.00504
;WIDTH:0.451192
G1 X104.573 Y131.96 E.00468
;WIDTH:0.419999
G1 X104.646 Y131.828 E.00474
G1 X104.683 Y131.625 E.00647
G1 X104.683 Y130.1 E.04782
G1 X104.654 Y129.92 E.00572
G1 X104.484 Y129.669 E.00951
;WIDTH:0.466745
G1 X104.392 Y129.612 E.0038
;WIDTH:0.51349
G1 X104.301 Y129.555 E.00422
;WIDTH:0.560235
G1 X104.209 Y129.498 E.00464
;WIDTH:0.60698
G1 X104.118 Y129.441 E.00506
G1 X104.312 Y129.397 E.00933
;WIDTH:0.560235
G1 X104.506 Y129.353 E.00856
;WIDTH:0.51349
G1 X104.7 Y129.31 E.00778
;WIDTH:0.466745
G1 X104.894 Y129.266 E.00701
;WIDTH:0.454446
G1 X104.999 Y129.14 E.00562
;WIDTH:0.488893
G1 X105.105 Y129.014 E.00609
;WIDTH:0.523339
G1 X105.21 Y128.888 E.00656
G1 X105.216 Y128.782 E.00427
;WIDTH:0.516891
G1 X105.216 Y127.256 E.06011
;WIDTH:0.554086
G1 X105.208 Y127.128 E.00545
;WIDTH:0.59128
G1 X105.201 Y127.001 E.00584
G1 X104.602 Y126.612 E.03255
G1 X106.192 Y126.617 E.07249
G1 X106.158 Y126.643 E.00195
M204 P1000
G1 E-2.24 F4200
;WIPE_START
G1 F7200
G1 X105.705 Y127.001 E-.31975
G1 X105.698 Y127.128 E-.07101
G1 X105.69 Y127.256 E-.07101
G1 X105.69 Y128.069 E-.45024
;WIPE_END
G1 E-.048 F4200
G1 Z.4 F720
G1 X98.705 Y134.956 F9000
G1 Z.2 F720
G1 E3.2 F2400
M204 P800
;WIDTH:0.425614
G1 F1200
G1 X97.568 Y134.959 E.03618
;WIDTH:0.419999
G1 X95.984 Y134.959 E.04966
;WIDTH:0.459418
G1 X95.601 Y134.939 E.0133
;WIDTH:0.498836
G1 X95.217 Y134.919 E.01456
G1 X95.284 Y134.896 E.00268
;WIDTH:0.484703
G1 X95.681 Y134.75 E.01555
;WIDTH:0.452351
G1 X96.078 Y134.604 E.01441
;WIDTH:0.419999
G1 X96.756 Y134.151 E.02555
G1 X97.254 Y133.527 E.02504
;WIDTH:0.458181
G1 X97.367 Y133.285 E.00923
;WIDTH:0.496363
G1 X97.479 Y133.042 E.01008
;WIDTH:0.534545
G1 X97.592 Y132.8 E.01093
G1 X97.652 Y132.006 E.03256
;WIDTH:0.523932
G1 X97.614 Y131.445 E.02248
G1 X97.55 Y131.276 E.00723
;WIDTH:0.489288
G1 X97.485 Y131.107 E.00671
;WIDTH:0.454644
G1 X97.421 Y130.938 E.00619
;WIDTH:0.419999
G1 X97.186 Y130.454 E.01686
G1 X96.863 Y130.022 E.01692
G1 X96.464 Y129.664 E.01679
G1 X96.001 Y129.386 E.01695
G1 X95.486 Y129.19 E.01729
G1 X94.936 Y129.079 E.01759
G1 X94.396 Y129.045 E.01696
G1 X93.515 Y129.045 E.02764
G1 X93.515 Y127.256 E.05609
G1 X93.415 Y126.936 E.01052
G1 X93.152 Y126.728 E.01052
G1 X92.949 Y126.691 E.00646
G1 X91.106 Y126.691 E.05779
G1 X90.98 Y126.705 E.00396
G1 X90.773 Y126.799 E.00713
G1 X90.593 Y127.018 E.00891
G1 X90.54 Y127.256 E.00765
G1 X90.54 Y130.949 E.11579
;WIDTH:0.465955
G1 X90.517 Y131.24 E.01026
;WIDTH:0.511911
G1 X90.494 Y131.531 E.01138
G1 X90.502 Y132.148 E.02407
;WIDTH:0.534538
G1 X90.483 Y132.828 E.0278
G1 X90.496 Y132.95 E.00503
;WIDTH:0.507459
G1 X90.51 Y133.073 E.00476
;WIDTH:0.480379
G1 X90.525 Y133.388 E.01148
;WIDTH:0.450189
G1 X90.54 Y133.703 E.01069
;WIDTH:0.419999
G1 X90.54 Y134.388 E.02145
;WIDTH:0.425614
G1 X91.106 Y134.956 E.02552
G1 X89.969 Y134.959 E.03618
;WIDTH:0.419999
G1 X88.385 Y134.959 E.04966
;WIDTH:0.459418
G1 X88.001 Y134.939 E.0133
;WIDTH:0.498836
G1 X87.618 Y134.919 E.01456
G1 X87.685 Y134.896 E.00268
;WIDTH:0.484703
G1 X88.082 Y134.75 E.01555
;WIDTH:0.452351
G1 X88.479 Y134.604 E.01441
;WIDTH:0.419999
G1 X89.157 Y134.151 E.02555
G1 X89.655 Y133.527 E.02504
;WIDTH:0.458179
G1 X89.768 Y133.285 E.00923
;WIDTH:0.496359
G1 X89.88 Y133.042 E.01008
;WIDTH:0.534538
G1 X89.993 Y132.8 E.01093
G1 X90.053 Y132.006 E.03256
;WIDTH:0.523924
G1 X90.015 Y131.445 E.02248
G1 X89.95 Y131.276 E.00723
;WIDTH:0.489283
G1 X89.886 Y131.107 E.00671
;WIDTH:0.454641
G1 X89.822 Y130.938 E.00619
;WIDTH:0.419999
G1 X89.587 Y130.454 E.01686
G1 X89.264 Y130.022 E.01692
G1 X88.865 Y129.664 E.01679
G1 X88.402 Y129.386 E.01695
G1 X87.887 Y129.19 E.01729
G1 X87.337 Y129.079 E.01759
G1 X86.797 Y129.045 E.01696
G1 X85.915 Y129.045 E.02764
G1 X85.903 Y127.139 E.05976
G1 X85.757 Y126.864 E.00978
;WIDTH:0.460763
G1 X85.655 Y126.8 E.00417
;WIDTH:0.501527
G1 X85.553 Y126.737 E.00458
;WIDTH:0.542291
G1 X85.452 Y126.673 E.00499
;WIDTH:0.583054
G1 X85.35 Y126.609 E.00539
G1 X85.443 Y126.533 E.00539
;WIDTH:0.542291
G1 X85.535 Y126.457 E.00499
;WIDTH:0.501527
G1 X85.628 Y126.381 E.00458
;WIDTH:0.460763
G1 X85.721 Y126.305 E.00417
;WIDTH:0.419999
G1 X85.799 Y126.159 E.00516
G1 X85.833 Y125.967 E.00611
G1 X85.833 Y75.524 E1.5816
G1 X85.823 Y75.42 E.00328
G1 X85.719 Y75.185 E.00805
G1 X85.533 Y75.025 E.00769
G1 X85.267 Y74.959 E.0086
G1 X42.833 Y74.959 E1.3305
G1 X42.833 Y66.533 E.26419
M73 P5 R13
G1 X137.258 Y66.533 E2.96065
G1 X137.258 Y74.959 E.26419
G1 X94.824 Y74.959 E1.3305
G1 X94.73 Y74.967 E.00295
M73 P6 R13
G1 X94.485 Y75.072 E.00838
G1 X94.331 Y75.247 E.00731
G1 X94.258 Y75.524 E.00899
G1 X94.258 Y125.967 E1.5816
G1 X94.358 Y126.288 E.01052
G1 X94.621 Y126.495 E.01052
G1 X94.824 Y126.533 E.00646
G1 X98.06 Y126.533 E.10148
;WIDTH:0.461874
G1 X98.193 Y126.554 E.00469
;WIDTH:0.503748
G1 X98.327 Y126.575 E.00516
;WIDTH:0.545622
G1 X98.46 Y126.596 E.00563
;WIDTH:0.587496
G1 X98.593 Y126.617 E.0061
G1 X98.508 Y126.692 E.00514
;WIDTH:0.545622
G1 X98.423 Y126.767 E.00474
;WIDTH:0.503748
G1 X98.337 Y126.842 E.00435
;WIDTH:0.461874
G1 X98.252 Y126.917 E.00395
;WIDTH:0.419999
G1 X98.139 Y127.256 E.01122
G1 X98.139 Y130.949 E.11579
;WIDTH:0.465959
G1 X98.116 Y131.24 E.01026
;WIDTH:0.511918
G1 X98.093 Y131.531 E.01138
G1 X98.102 Y132.148 E.02407
;WIDTH:0.534545
G1 X98.082 Y132.828 E.0278
G1 X98.096 Y132.95 E.00503
;WIDTH:0.507464
G1 X98.109 Y133.073 E.00476
;WIDTH:0.480382
G1 X98.124 Y133.388 E.01148
;WIDTH:0.450191
G1 X98.139 Y133.703 E.01069
;WIDTH:0.419999
G1 X98.139 Y134.388 E.02145
;WIDTH:0.425614
G1 X98.663 Y134.913 E.02361
M204 P1000
G1 E-2.24 F4200
;WIPE_START
G1 F7200
G1 X97.568 Y134.959 E-.60707
G1 X97.018 Y134.959 E-.30493
;WIPE_END
G1 E-.048 F4200
G1 Z.4 F720
G1 X91.106 Y127.068 F9000
G1 Z.2 F720
G1 E3.2 F2400
M204 P800
;TYPE:External perimeter
;WIDTH:0.419999
G1 F1200
G1 X92.949 Y127.068 E.05779
G1 X93.104 Y127.15 E.0055
G1 X93.138 Y127.256 E.00351
G1 X93.137 Y129.422 E.06791
G1 X94.396 Y129.422 E.03946
G1 X94.912 Y129.455 E.0162
G1 X95.407 Y129.559 E.01588
G1 X95.892 Y129.752 E.01637
G1 X96.293 Y130.006 E.01489
G1 X96.63 Y130.326 E.01456
G1 X96.898 Y130.704 E.01454
G1 X97.09 Y131.128 E.0146
G1 X97.203 Y131.583 E.01468
G1 X97.24 Y132.053 E.01479
G1 X97.161 Y132.75 E.02199
G1 X96.906 Y133.383 E.02139
G1 X96.47 Y133.906 E.02135
G1 X95.879 Y134.284 E.022
G1 X95.167 Y134.504 E.02338
G1 X94.357 Y134.575 E.02549
G1 X91.106 Y134.576 E.10194
G1 X90.917 Y134.388 E.00836
G1 X90.917 Y127.256 E.2236
G1 X90.962 Y127.135 E.00405
G1 X91.051 Y127.093 E.0031
M204 P1000
G1 X91.209 Y126.681 F9000
G1 E-2.24 F4200
;WIPE_START
G1 F7200
G1 X92.697 Y127.071 E-.912
;WIPE_END
G1 E-.048 F4200
G1 Z.4 F720
G1 X95.217 Y134.919 F9000
G1 Z.2 F720
G1 E3.2 F2400
M204 P800
;TYPE:Perimeter
;WIDTH:0.498836
G1 F1200
G1 X94.803 Y134.937 E.01572
;WIDTH:0.463204
G1 X94.388 Y134.955 E.01449
;WIDTH:0.427572
G1 X94.341 Y134.956 E.00151
;WIDTH:0.425614
G1 X91.106 Y134.956 E.10296
M204 P1000
G1 E-2.24 F4200
;WIPE_START
G1 F7200
G1 X92.751 Y134.956 E-.912
;WIPE_END
G1 E-.048 F4200
G1 Z.4 F720
G1 X83.3 Y126.7 F9000
G1 Z.2 F720
G1 E3.2 F2400
M204 P800
;WIDTH:0.545622
G1 F1200
G1 X83.224 Y126.767 E.00421
;WIDTH:0.503748
G1 X83.139 Y126.842 E.00435
;WIDTH:0.461874
G1 X83.054 Y126.917 E.00395
;WIDTH:0.419999
G1 X82.941 Y127.256 E.01122
G1 X82.941 Y134.388 E.2236
;WIDTH:0.425614
G1 X83.506 Y134.956 E.02552
G1 X82.37 Y134.959 E.03618
;WIDTH:0.419999
G1 X80.168 Y134.959 E.06903
;WIDTH:0.439862
G1 X79.122 Y134.949 E.03453
G1 X79.22 Y134.92 E.00337
;WIDTH:0.434679
G1 X80.247 Y134.51 E.03604
;WIDTH:0.419999
G1 X80.974 Y133.964 E.02849
G1 X81.318 Y133.533 E.01728
G1 X81.702 Y132.966 E.02147
G1 X82.05 Y131.944 E.03388
G1 X82.154 Y130.913 E.03247
G1 X82.095 Y130.028 E.0278
G1 X81.92 Y129.29 E.0238
G1 X81.628 Y128.606 E.02333
G1 X81.22 Y127.995 E.02302
G1 X80.708 Y127.486 E.02264
G1 X80.105 Y127.089 E.02264
G1 X79.432 Y126.808 E.02288
;WIDTH:0.462622
G1 X79.225 Y126.737 E.00762
;WIDTH:0.505244
G1 X79.018 Y126.667 E.00839
;WIDTH:0.547866
G1 X78.812 Y126.597 E.00916
G1 X79.029 Y126.576 E.00916
;WIDTH:0.505244
G1 X79.246 Y126.554 E.00839
;WIDTH:0.462622
G1 X79.463 Y126.533 E.00762
;WIDTH:0.419999
G1 X82.862 Y126.533 E.10656
;WIDTH:0.461874
G1 X82.995 Y126.554 E.00469
;WIDTH:0.503748
G1 X83.128 Y126.575 E.00516
;WIDTH:0.545622
G1 X83.261 Y126.596 E.00563
;WIDTH:0.587496
G1 X83.394 Y126.617 E.0061
G1 X83.345 Y126.66 E.00299
M204 P1000
G1 E-2.24 F4200
;WIPE_START
G1 F7200
G1 X83.224 Y126.767 E-.08912
G1 X83.139 Y126.842 E-.06287
G1 X83.054 Y126.917 E-.06287
G1 X82.941 Y127.256 E-.19824
G1 X82.941 Y128.157 E-.49889
;WIPE_END
G1 E-.048 F4200
G1 Z.4 F720
G1 X74.96 Y127.768 F9000
G1 Z.2 F720
G1 E3.2 F2400
M204 P800
;WIDTH:0.419999
G1 F1200
G1 X74.888 Y127.826 E.00289
G1 X74.354 Y128.573 E.02881
G1 X74.138 Y129.117 E.01833
M73 P7 R13
G1 X73.935 Y129.749 E.02081
G1 X73.829 Y130.797 E.03303
G1 X73.847 Y131.093 E.00929
;WIDTH:0.454528
G1 X73.947 Y132.091 E.03434
G1 X74.28 Y132.978 E.03243
;WIDTH:0.419999
G1 X74.586 Y133.437 E.01731
G1 X75.01 Y133.975 E.02145
G1 X75.88 Y134.594 E.03348
;WIDTH:0.433034
G1 X76.899 Y134.952 E.03504
G1 X76.756 Y134.955 E.00463
;WIDTH:0.428349
G1 X75.816 Y134.959 E.03014
;WIDTH:0.419999
G1 X70.603 Y134.971 E.16343
G1 X71.397 Y134.774 E.02565
G1 X72.096 Y134.419 E.02458
G1 X72.676 Y133.923 E.02394
G1 X73.118 Y133.308 E.02374
G1 X73.481 Y132.488 E.02811
;WIDTH:0.454528
G1 X73.542 Y132.187 E.01052
;WIDTH:0.460114
G1 X73.511 Y132.049 E.0049
G1 X73.113 Y131.714 E.01806
;WIDTH:0.419999
G1 X71.446 Y131.259 E.05417
G1 X71.032 Y131.304 E.01306
G1 X70.82 Y131.501 E.00908
G1 X70.603 Y131.976 E.01636
G1 X70.377 Y132.204 E.01008
G1 X69.987 Y132.353 E.01309
G1 X69.639 Y132.362 E.0109
G1 X69.231 Y132.284 E.01303
G1 X68.989 Y132.142 E.00881
G1 X68.805 Y131.91 E.00926
G1 X68.66 Y131.515 E.01319
G1 X68.593 Y130.948 E.0179
G1 X68.622 Y130.398 E.01728
G1 X68.714 Y129.998 E.01286
G1 X68.912 Y129.604 E.01384
G1 X69.11 Y129.432 E.00821
G1 X69.376 Y129.321 E.00903
G1 X69.734 Y129.28 E.01131
G1 X70.203 Y129.367 E.01495
G1 X70.513 Y129.591 E.01198
G1 X70.866 Y130.192 E.02187
G1 X71.092 Y130.486 E.01161
G1 X71.435 Y130.595 E.01128
G1 X71.626 Y130.559 E.00611
G1 X73.253 Y129.945 E.05452
G1 X73.566 Y129.649 E.0135
;WIDTH:0.416572
G1 X73.606 Y129.521 E.00418
;WIDTH:0.419999
G1 X73.556 Y129.157 E.01153
G1 X73.361 Y128.777 E.01337
G1 X73.035 Y128.191 E.02105
G1 X72.562 Y127.624 E.02315
G1 X71.952 Y127.157 E.02408
G1 X71.264 Y126.836 E.02381
;WIDTH:0.465894
G1 X71.053 Y126.758 E.0079
;WIDTH:0.511789
G1 X70.843 Y126.68 E.00875
;WIDTH:0.557684
G1 X70.633 Y126.602 E.00961
G1 X70.856 Y126.579 E.00961
;WIDTH:0.511789
G1 X71.079 Y126.556 E.00875
;WIDTH:0.465894
G1 X71.302 Y126.533 E.0079
;WIDTH:0.419999
G1 X75.776 Y126.533 E.14027
;WIDTH:0.464992
G1 X76.042 Y126.555 E.00937
;WIDTH:0.509984
G1 X76.308 Y126.578 E.01037
;WIDTH:0.554976
G1 X76.574 Y126.6 E.01137
;WIDTH:0.599968
G1 X76.84 Y126.623 E.01236
G1 X76.787 Y126.652 E.00283
;WIDTH:0.572036
G1 X76.733 Y126.681 E.00269
;WIDTH:0.544103
G1 X76.398 Y126.838 E.0154
;WIDTH:0.502735
G1 X76.063 Y126.994 E.01413
;WIDTH:0.461367
G1 X75.729 Y127.151 E.01286
;WIDTH:0.419999
G1 X75.007 Y127.731 E.02903
M204 P1000
G1 X75.195 Y128.046 F9000
M204 P800
;TYPE:External perimeter
G1 F1200
G1 X75.958 Y127.45 E.03035
G1 X76.887 Y127.092 E.03122
G1 X77.956 Y126.973 E.03372
G1 X78.682 Y127.022 E.0228
G1 X79.346 Y127.175 E.02136
G1 X79.956 Y127.435 E.0208
G1 X80.496 Y127.798 E.02041
G1 X80.95 Y128.258 E.02028
G1 X81.312 Y128.81 E.02068
G1 X81.572 Y129.433 E.02117
G1 X81.727 Y130.111 E.0218
G1 X81.779 Y130.843 E.02302
