; generated by PrusaSlicer 2.5.0+win64 on 2023-01-28 at 03:26:32 UTC


;
;

;
;
; 

; external perimeters extrusion width = 0.45mm
; perimeters extrusion width = 0.45mm
; infill extrusion width = 0.45mm
; solid infill extrusion width = 0.45mm
; top infill extrusion width = 0.40mm
; support material extrusion width = 0.35mm
; first layer extrusion width = 0.42mm

M73 P0 R11
M201 X2500 Y2500 Z400 E5000 ; sets maximum accelerations, mm/sec^2
M203 X180 Y180 Z12 E80 ; sets maximum feedrates, mm / sec
M204 P1250 R1250 T2500 ; sets acceleration (P, T) and retract acceleration (R), mm/sec^2
M205 X8.00 Y8.00 Z2.00 E10.00 ; sets the jerk limits, mm/sec
M205 S0 T0 ; sets the minimum extruding and travel feed rate, mm/sec
M107
;TYPE:Custom
M862.3 P "MINI" ; printer model check
G90 ; use absolute coordinates
M83 ; extruder relative mode
M104 S170 ; set extruder temp for bed leveling
M140 S60 ; set bed temp
M109 R170 ; wait for bed leveling temp
M190 S60 ; wait for bed temp
M204 T1250 ; set travel acceleration
G28 ; home all without mesh bed level
G29 ; mesh bed leveling 
M204 T2500 ; restore travel acceleration
M104 S215 ; set extruder temp
G92 E0
G1 Y-2 X179 F2400
G1 Z3 F720
M109 S215 ; wait for extruder temp

; intro line
G1 X170 F1000
G1 Z0.2 F720
G1 X110 E8 F900
G1 X40 E10 F700
G92 E0

M221 S95 ; set flow
G21 ; set units to millimeters
G90 ; use absolute coordinates
M83 ; use relative distances for extrusion
M900 K0.2 ; Filament gcode LA 1.5
; ; Filament gcode LA 1.0
M107
;LAYER_CHANGE
;Z:0.2
;HEIGHT:0.2
;BEFORE_LAYER_CHANGE
G92 E0.0
;0.2


M73 P1 R11
G1 E-3.2 F4200
M73 P2 R11
G1 Z.2 F720
;AFTER_LAYER_CHANGE
;0.2
G1 Z.4
G1 X38.56 Y52.817 F9000
G1 Z.2 F720
G1 E3.2 F2400
M204 P800
;TYPE:Skirt/Brim
;WIDTH:0.42
G1 F1200
G1 X39.5 Y52.623 E.03008
G1 X140.5 Y52.623 E3.16678
G1 X141.807 Y53.015 E.04278
G1 X142.683 Y54.06 E.04278
G1 X142.877 Y55 E.03008
G1 X142.877 Y125 E2.1948
M73 P3 R11
G1 X142.485 Y126.307 E.04278
G1 X141.44 Y127.183 E.04278
G1 X140.5 Y127.377 E.03008
G1 X39.5 Y127.377 E3.16678
G1 X38.193 Y126.985 E.04278
M73 P4 R11
G1 X37.317 Y125.94 E.04278
G1 X37.123 Y125 E.03008
G1 X37.123 Y55 E2.1948
G1 X37.515 Y53.693 E.04278
G1 X38.514 Y52.855 E.0409
M204 P1000
; printing object divider_prototype_002.stl id:0 copy 0
G1 E-2.24 F4200
;WIPE_START
G1 F7200
G1 X39.5 Y52.623 E-.56121
G1 X40.133 Y52.623 E-.35079
;WIPE_END
G1 E-.048 F4200
G1 Z.4 F720
G1 X95.48 Y119.574 F9000
G1 Z.2 F720
G1 E3.2 F2400
M204 P800
;TYPE:Perimeter
;WIDTH:0.375629
G1 F1200
G1 X95.605 Y119.226 E.01024
G1 X95.666 Y118.936 E.0082
G1 X95.483 Y118.759 E.00705
G1 X96.335 Y118.762 E.02356
G1 X95.812 Y119.152 E.01804
G1 X95.517 Y119.527 E.01322
M204 P1000
G1 E-2.24 F4200
;WIPE_START
G1 F7200
G1 X95.605 Y119.226 E-.17391
G1 X95.666 Y118.936 E-.16422
G1 X95.483 Y118.759 E-.1412
G1 X96.264 Y118.762 E-.43266
;WIPE_END
G1 E-.048 F4200
G1 Z.4 F720
G1 X91.853 Y118.78 F9000
G1 Z.2 F720
G1 E3.2 F2400
M204 P800
;WIDTH:0.419999
G1 F1200
G1 X93.157 Y118.782 E.04088
G1 X92.862 Y119.599 E.02724
G1 X92.149 Y119.599 E.02234
G1 X91.873 Y118.837 E.02543
M204 P1000
G1 E-2.24 F4200
;WIPE_START
G1 F7200
M73 P5 R11
G1 X93.157 Y118.782 E-.71183
G1 X93.034 Y119.122 E-.20017
;WIPE_END
G1 E-.048 F4200
G1 Z.4 F720
G1 X94.915 Y121.207 F9000
G1 Z.2 F720
G1 E3.2 F2400
M204 P800
G1 F1200
G1 X94.885 Y121.631 E.01331
G1 X94.988 Y122.536 E.02856
G1 X95.296 Y123.342 E.02707
G1 X95.687 Y123.877 E.02077
G1 X96.125 Y124.221 E.01745
G1 X93.754 Y124.238 E.07435
G1 X94.146 Y123.341 E.03068
G1 X94.894 Y121.264 E.06923
M204 P1000
G1 E-2.24 F4200
;WIPE_START
G1 F7200
G1 X94.885 Y121.631 E-.20344
G1 X94.988 Y122.536 E-.50473
G1 X95.119 Y122.879 E-.20383
;WIPE_END
G1 E-.048 F4200
G1 Z.4 F720
G1 X89.859 Y120.389 F9000
G1 Z.2 F720
G1 E3.2 F2400
M204 P800
G1 F1200
G1 X89.911 Y120.645 E.00818
G1 X90.07 Y121.17 E.01721
G1 X90.875 Y123.378 E.07368
G1 X91.254 Y124.238 E.02947
G1 X89.504 Y124.213 E.05487
G1 X87.592 Y124.232 E.05996
G1 X87.64 Y123.835 E.01252
G1 X87.689 Y123.055 E.02452
G1 X87.692 Y120.723 E.07311
G1 X88.619 Y120.718 E.02904
G1 X89.19 Y120.643 E.01807
G1 X89.747 Y120.552 E.01768
G1 X89.825 Y120.439 E.00432
M204 P1000
G1 E-2.24 F4200
;WIPE_START
G1 F7200
G1 X89.911 Y120.645 E-.12377
G1 X90.07 Y121.17 E-.30417
G1 X90.369 Y121.991 E-.48405
;WIPE_END
G1 E-.048 F4200
G1 Z.4 F720
G1 X85.15 Y120.607 F9000
G1 Z.2 F720
G1 E3.2 F2400
M204 P800
G1 F1200
G1 X85.119 Y121.555 E.02975
G1 X85.124 Y123.023 E.04601
G1 X85.191 Y124.129 E.03475
G1 X85.303 Y124.241 E.00497
G1 X83.996 Y124.213 E.04099
G1 X83.041 Y124.233 E.02996
G1 X83.133 Y123.055 E.03704
G1 X83.136 Y120.724 E.07309
G1 X84.231 Y120.706 E.03435
G1 X85.091 Y120.613 E.0271
M204 P1000
G1 E-2.24 F4200
;WIPE_START
G1 F7200
G1 X85.119 Y121.555 E-.52217
G1 X85.121 Y122.259 E-.38983
;WIPE_END
G1 E-.048 F4200
G1 Z.4 F720
G1 X85.221 Y119.048 F9000
G1 Z.2 F720
G1 E3.2 F2400
M204 P800
;TYPE:External perimeter
;WIDTH:0.420069
G1 F1200
G1 X85.219 Y120.056 E.03159
;WIDTH:0.419713
G1 X85.212 Y120.112 E.00177
;WIDTH:0.419999
G1 X85.051 Y120.243 E.00651
G1 X84.078 Y120.342 E.03067
G1 X82.759 Y120.348 E.04136
G1 X82.756 Y123.057 E.08496
G1 X82.71 Y123.758 E.02201
G1 X82.671 Y124.172 E.01305
G1 X82.499 Y124.281 E.00638
;WIDTH:0.416617
G1 X81.198 Y124.28 E.04045
;WIDTH:0.464114
G1 X81.101 Y124.255 E.00349
;WIDTH:0.513628
G1 X81.005 Y124.23 E.00389
G1 X81.005 Y124.162 E.00264
;WIDTH:0.470834
G1 X81.005 Y124.095 E.0024
;WIDTH:0.428039
G1 X81.001 Y119.008 E.16288
;WIDTH:0.457503
G1 X81.001 Y118.956 E.0018
;WIDTH:0.495037
G1 X81.001 Y118.904 E.00196
;WIDTH:0.53257
G1 X81.001 Y118.852 E.00213
G1 X81.09 Y118.829 E.00373
;WIDTH:0.488369
G1 X81.179 Y118.807 E.00339
;WIDTH:0.444167
G1 X81.784 Y118.783 E.02018
;WIDTH:0.428019
G1 X82.682 Y118.771 E.02877
;WIDTH:0.420106
G1 X82.686 Y118.771 E.00012
;WIDTH:0.422329
G1 X84.023 Y118.775 E.04218
;WIDTH:0.46535
G1 X85.054 Y118.838 E.0363
;WIDTH:0.50697
G1 X85.138 Y118.859 E.00331
;WIDTH:0.548589
G1 X85.221 Y118.88 E.0036
G1 X85.221 Y118.936 E.00236
;WIDTH:0.505749
G1 X85.221 Y118.988 E.00201
M204 P1000
G1 E-2.24 F4200
;WIPE_START
G1 F7200
G1 X85.219 Y120.056 E-.59151
G1 X85.212 Y120.112 E-.03128
G1 X85.051 Y120.243 E-.11512
G1 X84.739 Y120.275 E-.17409
;WIPE_END
G1 E-.048 F4200
G1 Z.4 F720
G1 X78.498 Y120.811 F9000
G1 Z.2 F720
G1 E3.2 F2400
M204 P800
;TYPE:Perimeter
;WIDTH:0.419999
G1 F1200
G1 X78.501 Y121.899 E.03412
G1 X77.345 Y118.782 E.10425
G1 X78.649 Y118.78 E.0409
G1 X78.506 Y118.951 E.00699
G1 X78.498 Y120.751 E.05645
M204 P1000
G1 E-2.24 F4200
;WIPE_START
G1 F7200
G1 X78.501 Y121.899 E-.63636
G1 X78.328 Y121.433 E-.27564
;WIPE_END
G1 E-.048 F4200
G1 Z.4 F720
G1 X80.624 Y118.904 F9000
G1 Z.2 F720
G1 E3.2 F2400
M204 P800
;TYPE:External perimeter
;WIDTH:0.495037
G1 F1200
G1 X80.624 Y118.956 E.00196
;WIDTH:0.457503
G1 X80.624 Y119.008 E.0018
;WIDTH:0.428039
G1 X80.62 Y124.095 E.16289
;WIDTH:0.470834
G1 X80.62 Y124.162 E.0024
;WIDTH:0.513628
G1 X80.62 Y124.23 E.00264
G1 X80.52 Y124.255 E.00403
;WIDTH:0.46404
G1 X80.42 Y124.28 E.00361
;WIDTH:0.431902
G1 X79.6 Y124.257 E.02654
;WIDTH:0.471133
G1 X79.414 Y124.226 E.00671
;WIDTH:0.510363
G1 X79.228 Y124.195 E.00732
;WIDTH:0.549593
G1 X79.043 Y124.164 E.00794
G1 X78.973 Y123.589 E.02439
;WIDTH:0.500285
G1 X78.903 Y123.014 E.02201
;WIDTH:0.450977
G1 X78.88 Y122.511 E.01709
;WIDTH:0.419999
G1 X78.883 Y118.957 E.11146
G1 X79.069 Y118.772 E.00822
;WIDTH:0.444131
G1 X80.443 Y118.807 E.04585
;WIDTH:0.488351
G1 X80.534 Y118.83 E.00346
;WIDTH:0.53257
G1 X80.617 Y118.85 E.00348
M204 P1000
G1 E-2.24 F4200
;WIPE_START
G1 F7200
G1 X80.624 Y118.956 E-.05902
G1 X80.624 Y119.008 E-.02892
G1 X80.623 Y120.495 E-.82406
;WIPE_END
G1 E-.048 F4200
G1 Z.4 F720
G1 X76.724 Y124.237 F9000
G1 Z.2 F720
G1 E3.2 F2400
M204 P800
;TYPE:Perimeter
;WIDTH:0.419999
G1 F1200
G1 X76.124 Y124.22 E.01881
G1 X75.593 Y124.232 E.01668
G1 X75.801 Y123.722 E.01728
G1 X76.164 Y122.599 E.03702
G1 X76.518 Y123.734 E.0373
G1 X76.701 Y124.182 E.01515
M204 P1000
G1 E-2.24 F4200
;WIPE_START
G1 F7200
G1 X76.124 Y124.22 E-.32041
G1 X75.593 Y124.232 E-.29475
G1 X75.796 Y123.737 E-.29683
;WIPE_END
G1 E-.048 F4200
G1 Z.4 F720
G1 X89.655 Y118.942 F9000
G1 Z.2 F720
M73 P6 R11
G1 E3.2 F2400
M204 P800
;TYPE:External perimeter
;WIDTH:0.572055
G1 F1200
G1 X89.661 Y119.088 E.00641
;WIDTH:0.533068
G1 X89.666 Y119.233 E.00594
;WIDTH:0.49408
G1 X89.672 Y119.379 E.00547
;WIDTH:0.455092
G1 X89.678 Y119.524 E.00499
;WIDTH:0.439819
G1 X89.755 Y120.014 E.01637
G1 X89.584 Y120.206 E.0085
;WIDTH:0.419999
G1 X88.617 Y120.341 E.0306
G1 X87.316 Y120.348 E.04079
G1 X87.312 Y123.054 E.08486
G1 X87.264 Y123.811 E.02377
G1 X87.217 Y124.192 E.01203
;WIDTH:0.41956
G1 X87.056 Y124.281 E.00577
;WIDTH:0.419987
G1 X85.745 Y124.279 E.04111
G1 X85.568 Y124.106 E.00776
G1 X85.5 Y122.996 E.03485
G1 X85.496 Y121.554 E.04521
G1 X85.525 Y120.685 E.02726
G1 X85.589 Y120.127 E.01761
;WIDTH:0.41688
G1 X85.592 Y120.057 E.00219
;WIDTH:0.420069
G1 X85.598 Y119.05 E.03159
;WIDTH:0.462909
G1 X85.598 Y118.993 E.00198
;WIDTH:0.505749
G1 X85.598 Y118.936 E.00218
;WIDTH:0.548589
G1 X85.598 Y118.88 E.00238
G1 X85.842 Y118.851 E.01032
;WIDTH:0.510864
G1 X86.085 Y118.822 E.00955
;WIDTH:0.473138
G1 X86.329 Y118.793 E.00878
;WIDTH:0.435412
G1 X87.236 Y118.772 E.0296
;WIDTH:0.42024
G1 X87.243 Y118.772 E.00023
;WIDTH:0.424984
G1 X88.581 Y118.779 E.0425
;WIDTH:0.458247
G1 X89.083 Y118.821 E.0174
;WIDTH:0.496183
G1 X89.274 Y118.862 E.00734
;WIDTH:0.534119
G1 X89.465 Y118.902 E.00796
;WIDTH:0.572055
G1 X89.597 Y118.93 E.00593
M204 P1000
G1 X89.982 Y118.944 F9000
M204 P800
G1 F1200
G1 X90.15 Y118.902 E.00759
;WIDTH:0.531791
G1 X90.317 Y118.86 E.00701
;WIDTH:0.491527
G1 X90.484 Y118.818 E.00643
;WIDTH:0.451263
G1 X91.012 Y118.788 E.01796
;WIDTH:0.431577
G1 X91.318 Y118.773 E.0099
;WIDTH:0.419999
G1 X91.494 Y118.896 E.00673
G1 X91.884 Y119.976 E.03601
G1 X93.127 Y119.976 E.03894
G1 X93.516 Y118.896 E.03601
G1 X93.694 Y118.773 E.00677
G1 X95.123 Y118.773 E.04483
G1 X95.312 Y118.952 E.00814
;WIDTH:0.461855
G1 X95.242 Y119.22 E.00965
;WIDTH:0.50371
G1 X95.173 Y119.488 E.01061
;WIDTH:0.545565
G1 X95.104 Y119.756 E.01158
G1 X94.815 Y120.552 E.03539
;WIDTH:0.542024
G1 X94.694 Y120.827 E.01247
;WIDTH:0.501349
G1 X94.573 Y121.102 E.01146
;WIDTH:0.460674
G1 X94.453 Y121.378 E.01044
;WIDTH:0.419999
G1 X93.846 Y123.062 E.05613
G1 X93.372 Y124.17 E.0378
G1 X93.199 Y124.28 E.00641
G1 X91.798 Y124.279 E.04392
G1 X91.636 Y124.17 E.00611
G1 X91.22 Y123.226 E.03237
G1 X90.424 Y121.041 E.0729
;WIDTH:0.439819
G1 X90.148 Y119.97 E.03651
G1 X90.043 Y119.473 E.01676
;WIDTH:0.430888
G1 X89.982 Y119.047 E.01386
;WIDTH:0.477944
G1 X89.982 Y119.013 E.00125
;WIDTH:0.525
G1 X89.982 Y119.004 E.00036
M204 P1000
G1 E-2.24 F4200
;WIPE_START
G1 F7200
G1 X90.15 Y118.902 E-.1087
G1 X90.317 Y118.86 E-.09557
G1 X90.484 Y118.818 E-.09557
G1 X91.012 Y118.788 E-.29314
G1 X91.318 Y118.773 E-.16985
G1 X91.494 Y118.896 E-.11891
G1 X91.512 Y118.948 E-.03028
;WIPE_END
G1 E-.048 F4200
G1 Z.4 F720
G1 X100.858 Y123.247 F9000
G1 Z.2 F720
G1 E3.2 F2400
M204 P800
;TYPE:Perimeter
;WIDTH:0.472506
G1 F1200
G1 X100.928 Y124.207 E.03437
G1 X100.155 Y124.193 E.02759
G1 X100.484 Y123.912 E.01543
G1 X100.828 Y123.299 E.02511
M204 P1000
G1 E-2.24 F4200
;WIPE_START
G1 F7200
G1 X100.928 Y124.207 E-.50588
G1 X100.195 Y124.193 E-.40612
;WIPE_END
G1 E-.048 F4200
G1 Z.4 F720
G1 X101.04 Y118.777 F9000
G1 Z.2 F720
G1 E3.2 F2400
M204 P800
;WIDTH:0.406288
G1 F1200
G1 X100.888 Y118.958 E.00716
G1 X100.887 Y119.356 E.01202
G1 X100.575 Y119.086 E.01247
G1 X100.082 Y118.78 E.01752
G1 X100.98 Y118.777 E.02713
M204 P1000
G1 E-2.24 F4200
;WIPE_START
G1 F7200
G1 X100.888 Y118.958 E-.11268
G1 X100.887 Y119.356 E-.22043
G1 X100.575 Y119.086 E-.2288
G1 X100.082 Y118.78 E-.32133
G1 X100.134 Y118.779 E-.02876
;WIPE_END
G1 E-.048 F4200
G1 Z.4 F720
G1 X100.5 Y122.031 F9000
G1 Z.2 F720
G1 E3.2 F2400
M204 P800
;TYPE:External perimeter
;WIDTH:0.559608
G1 F1200
G1 X100.306 Y122.009 E.00838
;WIDTH:0.516789
G1 X100.112 Y121.988 E.00769
;WIDTH:0.47397
G1 X99.918 Y121.966 E.00699
;WIDTH:0.431151
G1 X99.378 Y121.91 E.01752
;WIDTH:0.417511
G1 X99.022 Y121.936 E.01112
;WIDTH:0.419999
G1 X98.381 Y122.034 E.02033
G1 X98.018 Y122.049 E.01141
G1 X97.907 Y121.928 E.00515
G1 X97.895 Y121.316 E.01921
G1 X97.937 Y120.778 E.0169
G1 X98.009 Y120.648 E.00468
;WIDTH:0.418282
G1 X98.143 Y120.606 E.00435
;WIDTH:0.422971
G1 X98.655 Y120.648 E.01624
G1 X99.035 Y120.587 E.01216
G1 X99.035 Y120.479 E.00342
G1 X98.699 Y120.27 E.01249
G1 X98.171 Y120.232 E.01672
;WIDTH:0.418282
G1 X97.796 Y120.305 E.01195
;WIDTH:0.419031
G1 X97.539 Y120.441 E.00908
;WIDTH:0.419999
G1 X97.347 Y120.629 E.00844
G1 X97.208 Y120.876 E.00886
G1 X97.113 Y121.285 E.01318
G1 X97.092 Y121.61 E.01021
G1 X97.17 Y122.148 E.01705
G1 X97.324 Y122.476 E.01134
G1 X97.539 Y122.681 E.00932
G1 X97.834 Y122.784 E.00981
G1 X98.198 Y122.804 E.01141
G1 X98.572 Y122.733 E.01195
G1 X98.935 Y122.538 E.01292
G1 X99.289 Y122.28 E.01374
;WIDTH:0.430668
G1 X99.848 Y122.348 E.01813
;WIDTH:0.453327
G1 X100.42 Y122.451 E.01983
;WIDTH:0.503027
G1 X100.509 Y122.457 E.00344
;WIDTH:0.552727
G1 X100.599 Y122.463 E.00381
;WIDTH:0.602426
G1 X100.688 Y122.47 E.00418
G1 X100.71 Y122.594 E.00585
;WIDTH:0.558477
G1 X100.732 Y122.717 E.00539
;WIDTH:0.514527
G1 X100.44 Y123.201 E.02214
;WIDTH:0.467263
G1 X100.149 Y123.685 E.01992
;WIDTH:0.419999
G1 X100.057 Y123.788 E.00435
;WIDTH:0.427744
G1 X99.251 Y124.223 E.02929
G1 X99.174 Y124.245 E.00254
G1 X98.131 Y124.316 E.03346
;WIDTH:0.416988
G1 X97.347 Y124.28 E.02441
;WIDTH:0.419999
G1 X96.64 Y124.106 E.02285
G1 X96.035 Y123.698 E.02285
G1 X95.6 Y123.12 E.02269
G1 X95.344 Y122.412 E.02361
G1 X95.26 Y121.595 E.02575
;WIDTH:0.457819
G1 X95.266 Y121.321 E.00943
;WIDTH:0.495639
G1 X95.272 Y121.048 E.01029
;WIDTH:0.533459
G1 X95.278 Y120.775 E.01115
;WIDTH:0.536371
G1 X95.516 Y120.052 E.03122
G1 X95.672 Y119.861 E.01012
;WIDTH:0.497581
G1 X95.828 Y119.67 E.00933
;WIDTH:0.45879
G1 X95.983 Y119.478 E.00853
;WIDTH:0.419999
G1 X96.558 Y119.038 E.02268
;WIDTH:0.42355
G1 X97.077 Y118.852 E.01746
;WIDTH:0.426402
G1 X97.318 Y118.777 E.00805
G1 X97.993 Y118.742 E.02156
;WIDTH:0.421209
G1 X98.015 Y118.742 E.0007
;WIDTH:0.440188
G1 X99.014 Y118.794 E.03305
G1 X99.517 Y118.938 E.01729
;WIDTH:0.419999
G1 X99.95 Y119.127 E.01479
G1 X100.345 Y119.377 E.01466
G1 X100.701 Y119.685 E.01475
;WIDTH:0.448105
G1 X100.748 Y119.756 E.00288
;WIDTH:0.47621
G1 X100.794 Y119.828 E.00308
;WIDTH:0.476508
G1 X100.791 Y120.808 E.03533
;WIDTH:0.476892
G1 X100.791 Y120.821 E.00046
;WIDTH:0.50778
G1 X100.741 Y121.857 E.04008
;WIDTH:0.555103
G1 X100.717 Y121.955 E.0043
;WIDTH:0.602426
G1 X100.693 Y122.053 E.0047
G1 X100.559 Y122.038 E.00628
M204 P1000
G1 X100.409 Y122.204 F9000
G1 E-2.24 F4200
;WIPE_START
G1 F7200
G1 X100.306 Y122.009 E-.14134
G1 X100.112 Y121.988 E-.10809
G1 X99.918 Y121.966 E-.10809
G1 X99.378 Y121.91 E-.30082
G1 X99.022 Y121.936 E-.19781
G1 X98.922 Y121.951 E-.05586
;WIPE_END
G1 E-.048 F4200
G1 Z.4 F720
G1 X97.51 Y121.228 F9000
G1 Z.2 F720
G1 E3.2 F2400
M204 P800
;TYPE:Perimeter
;WIDTH:0.449654
G1 F1200
G1 X97.507 Y121.878 E.02198
G1 X97.598 Y122.18 E.01067
;WIDTH:0.449476
G1 X97.743 Y122.341 E.00733
G1 X98.026 Y122.431 E.01005
;WIDTH:0.409868
G1 X98.418 Y122.4 E.01199
M204 P1000
G1 E-2.24 F4200
;WIPE_START
G1 F7200
G1 X98.026 Y122.431 E-.21781
G1 X97.743 Y122.341 E-.16479
G1 X97.598 Y122.18 E-.12011
G1 X97.507 Y121.878 E-.17483
G1 X97.509 Y121.455 E-.23447
;WIPE_END
G1 E-.048 F4200
G1 Z.4 F720
G1 X40.287 Y124.213 F9000
G1 Z.2 F720
G1 E3.2 F2400
M204 P800
;WIDTH:0.419999
G1 F1200
G1 X40.287 Y55.787 E2.14544
G1 X139.713 Y55.787 E3.11742
M73 P7 R11
G1 X139.713 Y124.213 E2.14544
M73 P8 R10
G1 X106.987 Y124.213 E1.02609
G1 X106.096 Y124.233 E.02793
G1 X106.122 Y124.145 E.00287
G1 X106.173 Y123.576 E.01792
G1 X106.192 Y122.971 E.01897
G1 X106.153 Y122.745 E.00721
G1 X106.051 Y122.579 E.00609
G1 X105.847 Y122.486 E.00705
G1 X105.978 Y122.304 E.00705
G1 X105.99 Y122.191 E.00356
G1 X105.976 Y120.851 E.04204
G1 X105.889 Y120.691 E.00569
G1 X106.064 Y120.642 E.00569
G1 X106.273 Y120.415 E.00967
G1 X106.335 Y120.152 E.00848
