; generated by PrusaSlicer 2.5.0+win64 on 2023-01-29 at 22:46:24 UTC


;
;

;
;
; 

; external perimeters extrusion width = 0.45mm
; perimeters extrusion width = 0.45mm
; infill extrusion width = 0.45mm
; solid infill extrusion width = 0.45mm
; top infill extrusion width = 0.40mm
; support material extrusion width = 0.35mm
; first layer extrusion width = 0.42mm

; external perimeters extrusion width = 0.45mm
; perimeters extrusion width = 0.45mm
; infill extrusion width = 0.45mm
; solid infill extrusion width = 0.45mm
; top infill extrusion width = 0.40mm
; support material extrusion width = 0.35mm
; first layer extrusion width = 0.42mm

M73 P0 R22
M201 X2500 Y2500 Z400 E5000 ; sets maximum accelerations, mm/sec^2
M203 X180 Y180 Z12 E80 ; sets maximum feedrates, mm / sec
M204 P1250 R1250 T2500 ; sets acceleration (P, T) and retract acceleration (R), mm/sec^2
M205 X8.00 Y8.00 Z2.00 E10.00 ; sets the jerk limits, mm/sec
M205 S0 T0 ; sets the minimum extruding and travel feed rate, mm/sec
M107
;TYPE:Custom
M862.3 P "MINI" ; printer model check
G90 ; use absolute coordinates
M83 ; extruder relative mode
M104 S170 ; set extruder temp for bed leveling
M140 S60 ; set bed temp
M109 R170 ; wait for bed leveling temp
M190 S60 ; wait for bed temp
M204 T1250 ; set travel acceleration
G28 ; home all without mesh bed level
G29 ; mesh bed leveling 
M204 T2500 ; restore travel acceleration
M104 S215 ; set extruder temp
G92 E0
G1 Y-2 X179 F2400
G1 Z3 F720
M109 S215 ; wait for extruder temp

; intro line
G1 X170 F1000
G1 Z0.2 F720
G1 X110 E8 F900
G1 X40 E10 F700
G92 E0

M221 S95 ; set flow
G21 ; set units to millimeters
G90 ; use absolute coordinates
M83 ; use relative distances for extrusion
M900 K0.2 ; Filament gcode LA 1.5
; ; Filament gcode LA 1.0
M107
;LAYER_CHANGE
;Z:0.2
;HEIGHT:0.2
;BEFORE_LAYER_CHANGE
G92 E0.0
;0.2


M73 P0 R21
G1 E-3.2 F4200
M73 P1 R21
G1 Z.2 F720
;AFTER_LAYER_CHANGE
;0.2
G1 Z.4
G1 X8.341 Y13.699 F9000
G1 Z.2 F720
G1 E3.2 F2400
M204 P800
;TYPE:Skirt/Brim
;WIDTH:0.42
G1 F1200
G1 X9.281 Y13.505 E.03008
G1 X103.281 Y13.505 E2.9473
G1 X104.067 Y13.639 E.025
G1 X160.976 Y33.583 E1.89071
G1 X162.08 Y34.385 E.04278
G1 X162.566 Y35.826 E.04771
G1 X162.55 Y44.103 E.25953
G1 X155.5 Y104.103 E1.8942
G1 X154.959 Y105.356 E.04278
M73 P2 R21
G1 X153.139 Y106.203 E.06293
G1 X73.239 Y106.203 E2.50521
G1 X72.236 Y105.981 E.03224
G1 X29.427 Y86.037 E1.48073
G1 X28.189 Y84.673 E.05777
G1 X7.039 Y24.673 E1.99472
G1 X6.904 Y23.883 E.02514
G1 X6.904 Y15.883 E.25083
G1 X7.296 Y14.575 E.04278
G1 X8.295 Y13.738 E.0409
M204 P1000
; printing object divider_prototype_007.stl_1 id:0 copy 0
G1 E-2.24 F4200
;WIPE_START
G1 F7200
G1 X9.281 Y13.505 E-.56121
G1 X9.914 Y13.505 E-.35079
;WIPE_END
G1 E-.048 F4200
G1 Z.4 F720
G1 X116.896 Y96.599 F9000
G1 Z.2 F720
G1 E3.2 F2400
M204 P800
;TYPE:Perimeter
;WIDTH:0.419999
G1 F1200
G1 X116.968 Y96.613 E.00229
G1 X152.352 Y96.613 E1.10945
G1 X152.352 Y103.039 E.20148
M73 P3 R21
G1 X74.026 Y103.039 E2.45585
G1 X74.026 Y96.613 E.20148
G1 X109.411 Y96.613 E1.10945
G1 X109.509 Y96.605 E.00308
G1 X109.722 Y96.52 E.00721
G1 X109.904 Y96.325 E.00835
G1 X109.976 Y96.048 E.00899
G1 X109.967 Y43.5 E1.64758
G1 X109.863 Y43.265 E.00805
G1 X109.628 Y43.082 E.00933
G1 X109.411 Y43.039 E.00696
G1 X66.976 Y43.039 E1.3305
G1 X66.976 Y36.613 E.20148
G1 X159.402 Y36.613 E2.89794
G1 X159.402 Y43.039 E.20148
M73 P4 R21
G1 X116.968 Y43.039 E1.3305
G1 X116.87 Y43.047 E.00308
G1 X116.657 Y43.132 E.00721
G1 X116.475 Y43.327 E.00835
G1 X116.402 Y43.605 E.00899
G1 X116.402 Y96.048 E1.64431
G1 X116.412 Y96.152 E.00328
G1 X116.515 Y96.387 E.00805
G1 X116.75 Y96.57 E.00933
G1 X116.838 Y96.587 E.00279
M204 P1000
G1 X116.968 Y96.236 F9000
M204 P800
;TYPE:External perimeter
G1 F1200
G1 X152.729 Y96.236 E1.12127
G1 X152.729 Y103.416 E.22512
G1 X73.649 Y103.416 E2.47949
G1 X73.649 Y96.236 E.22512
M73 P5 R20
G1 X109.411 Y96.236 E1.12127
G1 X109.541 Y96.184 E.00439
G1 X109.599 Y96.048 E.00466
G1 X109.599 Y43.605 E1.64431
G1 X109.541 Y43.468 E.00466
G1 X109.411 Y43.416 E.00439
G1 X66.599 Y43.416 E1.34232
G1 X66.599 Y36.236 E.22512
G1 X159.779 Y36.236 E2.92159
G1 X159.779 Y43.416 E.22512
M73 P6 R20
G1 X116.968 Y43.416 E1.34232
G1 X116.838 Y43.468 E.00439
G1 X116.779 Y43.605 E.00466
G1 X116.779 Y96.048 E1.64431
G1 X116.838 Y96.184 E.00466
G1 X116.912 Y96.214 E.00251
M204 P1000
G1 X117.071 Y96.622 F9000
G1 E-2.24 F4200
;WIPE_START
G1 F7200
G1 X118.558 Y96.215 E-.912
;WIPE_END
G1 E-.048 F4200
G1 Z.4 F720
G1 X158.524 Y36.726 F9000
G1 Z.2 F720
G1 E3.2 F2400
M204 P800
;TYPE:Solid infill
;WIDTH:0.421271
G1 F1200
G1 X159.12 Y37.322 E.02648
G1 X159.12 Y37.857 E.01683
G1 X158.159 Y36.896 E.04274
G1 X157.624 Y36.896 E.01683
G1 X159.12 Y38.392 E.06655
G1 X159.12 Y38.927 E.01683
G1 X157.089 Y36.896 E.09035
G1 X156.554 Y36.896 E.01683
G1 X159.12 Y39.462 E.11416
G1 X159.12 Y39.997 E.01683
G1 X156.019 Y36.896 E.13796
G1 X155.483 Y36.896 E.01683
G1 X159.12 Y40.532 E.16177
G1 X159.12 Y41.067 E.01683
G1 X154.948 Y36.896 E.18558
G1 X154.413 Y36.896 E.01683
G1 X159.12 Y41.602 E.20938
G1 X159.12 Y42.137 E.01683
G1 X153.878 Y36.896 E.23319
G1 X153.343 Y36.896 E.01683
G1 X159.12 Y42.672 E.25699
G1 X159.12 Y42.756 E.00264
G1 X158.668 Y42.756 E.01419
G1 X152.808 Y36.896 E.26073
G1 X152.273 Y36.896 E.01683
G1 X158.133 Y42.756 E.26073
G1 X157.598 Y42.756 E.01683
G1 X151.738 Y36.896 E.26073
G1 X151.203 Y36.896 E.01683
G1 X157.063 Y42.756 E.26073
G1 X156.528 Y42.756 E.01683
G1 X150.668 Y36.896 E.26073
G1 X150.133 Y36.896 E.01683
G1 X155.993 Y42.756 E.26073
G1 X155.458 Y42.756 E.01683
G1 X149.598 Y36.896 E.26073
G1 X149.063 Y36.896 E.01683
G1 X154.923 Y42.756 E.26073
G1 X154.388 Y42.756 E.01683
M73 P7 R20
G1 X148.528 Y36.896 E.26073
G1 X147.993 Y36.896 E.01683
G1 X153.853 Y42.756 E.26073
G1 X153.318 Y42.756 E.01683
G1 X147.457 Y36.896 E.26073
G1 X146.922 Y36.896 E.01683
G1 X152.783 Y42.756 E.26073
G1 X152.248 Y42.756 E.01683
G1 X146.387 Y36.896 E.26073
G1 X145.852 Y36.896 E.01683
G1 X151.712 Y42.756 E.26073
G1 X151.177 Y42.756 E.01683
G1 X145.317 Y36.896 E.26073
G1 X144.782 Y36.896 E.01683
G1 X150.642 Y42.756 E.26073
G1 X150.107 Y42.756 E.01683
G1 X144.247 Y36.896 E.26073
G1 X143.712 Y36.896 E.01683
G1 X149.572 Y42.756 E.26073
G1 X149.037 Y42.756 E.01683
G1 X143.177 Y36.896 E.26073
G1 X142.642 Y36.896 E.01683
G1 X148.502 Y42.756 E.26073
G1 X147.967 Y42.756 E.01683
G1 X142.107 Y36.896 E.26073
G1 X141.572 Y36.896 E.01683
G1 X147.432 Y42.756 E.26073
G1 X146.897 Y42.756 E.01683
G1 X141.037 Y36.896 E.26073
G1 X140.502 Y36.896 E.01683
G1 X146.362 Y42.756 E.26073
G1 X145.827 Y42.756 E.01683
G1 X139.966 Y36.896 E.26073
G1 X139.431 Y36.896 E.01683
G1 X145.292 Y42.756 E.26073
G1 X144.757 Y42.756 E.01683
G1 X138.896 Y36.896 E.26073
G1 X138.361 Y36.896 E.01683
G1 X144.222 Y42.756 E.26073
G1 X143.686 Y42.756 E.01683
G1 X137.826 Y36.896 E.26073
G1 X137.291 Y36.896 E.01683
G1 X143.151 Y42.756 E.26073
G1 X142.616 Y42.756 E.01683
G1 X136.756 Y36.896 E.26073
G1 X136.221 Y36.896 E.01683
G1 X142.081 Y42.756 E.26073
G1 X141.546 Y42.756 E.01683
G1 X135.686 Y36.896 E.26073
G1 X135.151 Y36.896 E.01683
G1 X141.011 Y42.756 E.26073
G1 X140.476 Y42.756 E.01683
G1 X134.616 Y36.896 E.26073
G1 X134.081 Y36.896 E.01683
G1 X139.941 Y42.756 E.26073
G1 X139.406 Y42.756 E.01683
G1 X133.546 Y36.896 E.26073
G1 X133.011 Y36.896 E.01683
G1 X138.871 Y42.756 E.26073
M73 P8 R20
G1 X138.336 Y42.756 E.01683
G1 X132.476 Y36.896 E.26073
G1 X131.94 Y36.896 E.01683
G1 X137.801 Y42.756 E.26073
G1 X137.266 Y42.756 E.01683
G1 X131.405 Y36.896 E.26073
G1 X130.87 Y36.896 E.01683
G1 X136.731 Y42.756 E.26073
G1 X136.195 Y42.756 E.01683
G1 X130.335 Y36.896 E.26073
G1 X129.8 Y36.896 E.01683
G1 X135.66 Y42.756 E.26073
G1 X135.125 Y42.756 E.01683
G1 X129.265 Y36.896 E.26073
G1 X128.73 Y36.896 E.01683
G1 X134.59 Y42.756 E.26073
G1 X134.055 Y42.756 E.01683
G1 X128.195 Y36.896 E.26073
G1 X127.66 Y36.896 E.01683
G1 X133.52 Y42.756 E.26073
G1 X132.985 Y42.756 E.01683
G1 X127.125 Y36.896 E.26073
G1 X126.59 Y36.896 E.01683
G1 X132.45 Y42.756 E.26073
G1 X131.915 Y42.756 E.01683
G1 X126.055 Y36.896 E.26073
G1 X125.52 Y36.896 E.01683
G1 X131.38 Y42.756 E.26073
G1 X130.845 Y42.756 E.01683
G1 X124.985 Y36.896 E.26073
G1 X124.449 Y36.896 E.01683
G1 X130.31 Y42.756 E.26073
G1 X129.775 Y42.756 E.01683
G1 X123.914 Y36.896 E.26073
G1 X123.379 Y36.896 E.01683
G1 X129.24 Y42.756 E.26073
G1 X128.705 Y42.756 E.01683
G1 X122.844 Y36.896 E.26073
G1 X122.309 Y36.896 E.01683
G1 X128.169 Y42.756 E.26073
G1 X127.634 Y42.756 E.01683
G1 X121.774 Y36.896 E.26073
G1 X121.239 Y36.896 E.01683
G1 X127.099 Y42.756 E.26073
G1 X126.564 Y42.756 E.01683
G1 X120.704 Y36.896 E.26073
G1 X120.169 Y36.896 E.01683
G1 X126.029 Y42.756 E.26073
G1 X125.494 Y42.756 E.01683
G1 X119.634 Y36.896 E.26073
G1 X119.099 Y36.896 E.01683
G1 X124.959 Y42.756 E.26073
G1 X124.424 Y42.756 E.01683
G1 X118.564 Y36.896 E.26073
G1 X118.029 Y36.896 E.01683
G1 X123.889 Y42.756 E.26073
G1 X123.354 Y42.756 E.01683
G1 X117.494 Y36.896 E.26073
G1 X116.959 Y36.896 E.01683
M73 P9 R20
G1 X122.819 Y42.756 E.26073
G1 X122.284 Y42.756 E.01683
G1 X116.423 Y36.896 E.26073
G1 X115.888 Y36.896 E.01683
G1 X121.749 Y42.756 E.26073
G1 X121.214 Y42.756 E.01683
G1 X115.353 Y36.896 E.26073
G1 X114.818 Y36.896 E.01683
G1 X120.678 Y42.756 E.26073
G1 X120.143 Y42.756 E.01683
G1 X114.283 Y36.896 E.26073
G1 X113.748 Y36.896 E.01683
G1 X119.608 Y42.756 E.26073
G1 X119.073 Y42.756 E.01683
G1 X113.213 Y36.896 E.26073
G1 X112.678 Y36.896 E.01683
G1 X118.538 Y42.756 E.26073
G1 X118.003 Y42.756 E.01683
G1 X112.143 Y36.896 E.26073
G1 X111.608 Y36.896 E.01683
G1 X117.468 Y42.756 E.26073
G1 X116.936 Y42.759 E.01675
G1 X111.073 Y36.896 E.26085
G1 X110.538 Y36.896 E.01683
G1 X116.525 Y42.883 E.26638
G1 X116.38 Y42.992 E.00569
G1 X116.257 Y43.15 E.00632
G1 X110.003 Y36.896 E.27826
G1 X109.468 Y36.896 E.01683
G1 X116.124 Y43.552 E.29615
G1 X116.12 Y44.083 E.01669
G1 X108.932 Y36.896 E.31976
G1 X108.397 Y36.896 E.01683
M73 P9 R19
G1 X116.12 Y44.618 E.34357
G1 X116.12 Y45.153 E.01683
G1 X107.862 Y36.896 E.36737
G1 X107.327 Y36.896 E.01683
G1 X116.12 Y45.688 E.39118
G1 X116.12 Y46.223 E.01683
G1 X106.792 Y36.896 E.41498
G1 X106.257 Y36.896 E.01683
G1 X116.12 Y46.758 E.43879
G1 X116.12 Y47.293 E.01683
G1 X105.722 Y36.896 E.46259
G1 X105.187 Y36.896 E.01683
G1 X116.12 Y47.828 E.4864
G1 X116.12 Y48.364 E.01683
G1 X104.652 Y36.896 E.51021
G1 X104.117 Y36.896 E.01683
M73 P10 R19
G1 X116.12 Y48.899 E.53401
G1 X116.12 Y49.434 E.01683
G1 X110.257 Y43.571 E.26085
G1 X110.245 Y43.445 E.00398
G1 X110.152 Y43.189 E.00857
G1 X109.998 Y42.992 E.00785
G1 X109.878 Y42.896 E.00485
G1 X109.737 Y42.821 E.00501
G1 X109.579 Y42.773 E.00521
G1 X109.445 Y42.759 E.00423
G1 X103.582 Y36.896 E.26086
G1 X103.047 Y36.896 E.01683
G1 X108.907 Y42.756 E.26073
G1 X108.372 Y42.756 E.01683
G1 X102.512 Y36.896 E.26073
G1 X101.977 Y36.896 E.01683
G1 X107.837 Y42.756 E.26073
G1 X107.302 Y42.756 E.01683
G1 X101.442 Y36.896 E.26073
G1 X100.906 Y36.896 E.01683
G1 X106.767 Y42.756 E.26073
G1 X106.232 Y42.756 E.01683
G1 X100.371 Y36.896 E.26073
G1 X99.836 Y36.896 E.01683
G1 X105.697 Y42.756 E.26073
G1 X105.161 Y42.756 E.01683
G1 X99.301 Y36.896 E.26073
G1 X98.766 Y36.896 E.01683
G1 X104.626 Y42.756 E.26073
G1 X104.091 Y42.756 E.01683
G1 X98.231 Y36.896 E.26073
G1 X97.696 Y36.896 E.01683
G1 X103.556 Y42.756 E.26073
G1 X103.021 Y42.756 E.01683
G1 X97.161 Y36.896 E.26073
G1 X96.626 Y36.896 E.01683
G1 X102.486 Y42.756 E.26073
G1 X101.951 Y42.756 E.01683
G1 X96.091 Y36.896 E.26073
G1 X95.556 Y36.896 E.01683
G1 X101.416 Y42.756 E.26073
G1 X100.881 Y42.756 E.01683
G1 X95.021 Y36.896 E.26073
G1 X94.486 Y36.896 E.01683
G1 X100.346 Y42.756 E.26073
G1 X99.811 Y42.756 E.01683
G1 X93.951 Y36.896 E.26073
G1 X93.415 Y36.896 E.01683
G1 X99.276 Y42.756 E.26073
G1 X98.741 Y42.756 E.01683
G1 X92.88 Y36.896 E.26073
G1 X92.345 Y36.896 E.01683
G1 X98.206 Y42.756 E.26073
G1 X97.671 Y42.756 E.01683
G1 X91.81 Y36.896 E.26073
G1 X91.275 Y36.896 E.01683
G1 X97.135 Y42.756 E.26073
G1 X96.6 Y42.756 E.01683
G1 X90.74 Y36.896 E.26073
G1 X90.205 Y36.896 E.01683
G1 X96.065 Y42.756 E.26073
G1 X95.53 Y42.756 E.01683
M73 P11 R19
G1 X89.67 Y36.896 E.26073
G1 X89.135 Y36.896 E.01683
G1 X94.995 Y42.756 E.26073
G1 X94.46 Y42.756 E.01683
G1 X88.6 Y36.896 E.26073
G1 X88.065 Y36.896 E.01683
G1 X93.925 Y42.756 E.26073
G1 X93.39 Y42.756 E.01683
G1 X87.53 Y36.896 E.26073
G1 X86.995 Y36.896 E.01683
G1 X92.855 Y42.756 E.26073
G1 X92.32 Y42.756 E.01683
G1 X86.46 Y36.896 E.26073
G1 X85.925 Y36.896 E.01683
G1 X91.785 Y42.756 E.26073
G1 X91.25 Y42.756 E.01683
G1 X85.389 Y36.896 E.26073
G1 X84.854 Y36.896 E.01683
G1 X90.715 Y42.756 E.26073
G1 X90.18 Y42.756 E.01683
G1 X84.319 Y36.896 E.26073
G1 X83.784 Y36.896 E.01683
G1 X89.644 Y42.756 E.26073
G1 X89.109 Y42.756 E.01683
G1 X83.249 Y36.896 E.26073
G1 X82.714 Y36.896 E.01683
G1 X88.574 Y42.756 E.26073
G1 X88.039 Y42.756 E.01683
G1 X82.179 Y36.896 E.26073
G1 X81.644 Y36.896 E.01683
G1 X87.504 Y42.756 E.26073
G1 X86.969 Y42.756 E.01683
G1 X81.109 Y36.896 E.26073
G1 X80.574 Y36.896 E.01683
G1 X86.434 Y42.756 E.26073
G1 X85.899 Y42.756 E.01683
G1 X80.039 Y36.896 E.26073
G1 X79.504 Y36.896 E.01683
G1 X85.364 Y42.756 E.26073
G1 X84.829 Y42.756 E.01683
G1 X78.969 Y36.896 E.26073
G1 X78.434 Y36.896 E.01683
G1 X84.294 Y42.756 E.26073
G1 X83.759 Y42.756 E.01683
G1 X77.898 Y36.896 E.26073
G1 X77.363 Y36.896 E.01683
G1 X83.224 Y42.756 E.26073
G1 X82.689 Y42.756 E.01683
G1 X76.828 Y36.896 E.26073
G1 X76.293 Y36.896 E.01683
G1 X82.154 Y42.756 E.26073
G1 X81.618 Y42.756 E.01683
G1 X75.758 Y36.896 E.26073
G1 X75.223 Y36.896 E.01683
G1 X81.083 Y42.756 E.26073
G1 X80.548 Y42.756 E.01683
G1 X74.688 Y36.896 E.26073
G1 X74.153 Y36.896 E.01683
M73 P12 R19
G1 X80.013 Y42.756 E.26073
G1 X79.478 Y42.756 E.01683
G1 X73.618 Y36.896 E.26073
G1 X73.083 Y36.896 E.01683
G1 X78.943 Y42.756 E.26073
G1 X78.408 Y42.756 E.01683
G1 X72.548 Y36.896 E.26073
G1 X72.013 Y36.896 E.01683
G1 X77.873 Y42.756 E.26073
G1 X77.338 Y42.756 E.01683
G1 X71.478 Y36.896 E.26073
G1 X70.943 Y36.896 E.01683
G1 X76.803 Y42.756 E.26073
G1 X76.268 Y42.756 E.01683
G1 X70.408 Y36.896 E.26073
G1 X69.872 Y36.896 E.01683
G1 X75.733 Y42.756 E.26073
G1 X75.198 Y42.756 E.01683
G1 X69.337 Y36.896 E.26073
G1 X68.802 Y36.896 E.01683
G1 X74.663 Y42.756 E.26073
G1 X74.127 Y42.756 E.01683
G1 X68.267 Y36.896 E.26073
G1 X67.732 Y36.896 E.01683
G1 X73.592 Y42.756 E.26073
G1 X73.057 Y42.756 E.01683
G1 X67.259 Y36.958 E.25796
G1 X67.259 Y37.493 E.01683
G1 X72.522 Y42.756 E.23416
G1 X71.987 Y42.756 E.01683
G1 X67.259 Y38.028 E.21035
G1 X67.259 Y38.563 E.01683
G1 X71.452 Y42.756 E.18655
G1 X70.917 Y42.756 E.01683
G1 X67.259 Y39.098 E.16274
G1 X67.259 Y39.633 E.01683
G1 X70.382 Y42.756 E.13893
G1 X69.847 Y42.756 E.01683
G1 X67.259 Y40.169 E.11513
G1 X67.259 Y40.704 E.01683
G1 X69.312 Y42.756 E.09132
G1 X68.777 Y42.756 E.01683
G1 X67.259 Y41.239 E.06752
G1 X67.259 Y41.774 E.01683
G1 X68.242 Y42.756 E.04371
G1 X67.707 Y42.756 E.01683
G1 X67.09 Y42.139 E.02745
M204 P1000
G1 E-2.24 F4200
;WIPE_START
G1 F7200
G1 X67.707 Y42.756 E-.48361
G1 X68.242 Y42.756 E-.29652
G1 X68.073 Y42.588 E-.13187
;WIPE_END
G1 E-.048 F4200
G1 Z.4 F720
G1 X110.09 Y43.939 F9000
G1 Z.2 F720
G1 E3.2 F2400
M204 P800
G1 F1200
G1 X116.12 Y49.969 E.26828
G1 X116.12 Y50.504 E.01683
G1 X110.259 Y44.644 E.26073
G1 X110.259 Y45.179 E.01683
G1 X116.12 Y51.039 E.26073
G1 X116.12 Y51.574 E.01683
G1 X110.259 Y45.714 E.26073
G1 X110.259 Y46.249 E.01683
G1 X116.12 Y52.109 E.26073
G1 X116.12 Y52.644 E.01683
G1 X110.259 Y46.784 E.26073
G1 X110.259 Y47.319 E.01683
G1 X116.12 Y53.179 E.26073
G1 X116.12 Y53.714 E.01683
G1 X110.259 Y47.854 E.26073
G1 X110.259 Y48.389 E.01683
G1 X116.12 Y54.249 E.26073
G1 X116.12 Y54.784 E.01683
M73 P13 R19
G1 X110.259 Y48.924 E.26073
G1 X110.259 Y49.459 E.01683
G1 X116.12 Y55.319 E.26073
G1 X116.12 Y55.854 E.01683
G1 X110.259 Y49.994 E.26073
G1 X110.259 Y50.529 E.01683
G1 X116.12 Y56.39 E.26073
G1 X116.12 Y56.925 E.01683
G1 X110.259 Y51.064 E.26073
G1 X110.259 Y51.599 E.01683
G1 X116.12 Y57.46 E.26073
G1 X116.12 Y57.995 E.01683
