; generated by PrusaSlicer 2.5.0+win64 on 2023-01-30 at 00:39:44 UTC


;
;

;
;
; 

; external perimeters extrusion width = 0.45mm
; perimeters extrusion width = 0.45mm
; infill extrusion width = 0.45mm
; solid infill extrusion width = 0.45mm
; top infill extrusion width = 0.40mm
; support material extrusion width = 0.35mm
; first layer extrusion width = 0.42mm

; external perimeters extrusion width = 0.45mm
; perimeters extrusion width = 0.45mm
; infill extrusion width = 0.45mm
; solid infill extrusion width = 0.45mm
; top infill extrusion width = 0.40mm
; support material extrusion width = 0.35mm
; first layer extrusion width = 0.42mm

M73 P0 R29
M201 X2500 Y2500 Z400 E5000 ; sets maximum accelerations, mm/sec^2
M203 X180 Y180 Z12 E80 ; sets maximum feedrates, mm / sec
M204 P1250 R1250 T2500 ; sets acceleration (P, T) and retract acceleration (R), mm/sec^2
M205 X8.00 Y8.00 Z2.00 E10.00 ; sets the jerk limits, mm/sec
M205 S0 T0 ; sets the minimum extruding and travel feed rate, mm/sec
M107
;TYPE:Custom
M862.3 P "MINI" ; printer model check
G90 ; use absolute coordinates
M83 ; extruder relative mode
M104 S170 ; set extruder temp for bed leveling
M140 S60 ; set bed temp
M109 R170 ; wait for bed leveling temp
M190 S60 ; wait for bed temp
M204 T1250 ; set travel acceleration
G28 ; home all without mesh bed level
G29 ; mesh bed leveling 
M204 T2500 ; restore travel acceleration
M104 S215 ; set extruder temp
G92 E0
G1 Y-2 X179 F2400
G1 Z3 F720
M109 S215 ; wait for extruder temp

; intro line
G1 X170 F1000
G1 Z0.2 F720
G1 X110 E8 F900
G1 X40 E10 F700
G92 E0

M221 S95 ; set flow
G21 ; set units to millimeters
G90 ; use absolute coordinates
M83 ; use relative distances for extrusion
M900 K0.2 ; Filament gcode LA 1.5
; ; Filament gcode LA 1.0
M107
;LAYER_CHANGE
;Z:0.2
;HEIGHT:0.2
;BEFORE_LAYER_CHANGE
G92 E0.0
;0.2


G1 E-3.2 F4200
G1 Z.2 F720
;AFTER_LAYER_CHANGE
;0.2
G1 Z.4
G1 X3.362 Y6.595 F9000
G1 Z.2 F720
G1 E3.2 F2400
M204 P800
;TYPE:Skirt/Brim
;WIDTH:0.42
G1 F1200
G1 X4.302 Y6.401 E.03008
G1 X98.302 Y6.401 E2.9473
G1 X99.4 Y6.67 E.03543
M73 P1 R29
G1 X160.326 Y38.386 E2.15363
G1 X161.304 Y39.337 E.04278
G1 X161.605 Y40.494 E.0375
G1 X161.575 Y64.87 E.7643
G1 X154.525 Y108.87 E1.39719
G1 X153.932 Y110.099 E.04278
G1 X152.178 Y110.871 E.06008
G1 X72.278 Y110.871 E2.50521
G1 X70.945 Y110.462 E.04372
G1 X24.119 Y78.746 E1.77327
G1 X23.31 Y77.808 E.03885
G1 X2.16 Y33.808 E1.53069
G1 X1.925 Y32.778 E.03312
M73 P2 R29
G1 X1.925 Y8.778 E.7525
G1 X2.317 Y7.471 E.04278
G1 X3.316 Y6.633 E.0409
M204 P1000
; printing object divider_prototype_008.stl_1 id:0 copy 0
G1 E-2.24 F4200
;WIPE_START
G1 F7200
G1 X4.302 Y6.401 E-.56121
G1 X4.935 Y6.401 E-.35079
;WIPE_END
G1 E-.048 F4200
G1 Z.4 F720
G1 X55.009 Y69.551 F9000
G1 Z.2 F720
G1 E3.2 F2400
M204 P800
;TYPE:Perimeter
;WIDTH:0.419999
G1 F1200
G1 X55.081 Y69.565 E.00229
G1 X76.365 Y69.565 E.66736
G1 X76.365 Y75.991 E.20148
M73 P2 R28
G1 X26.239 Y75.991 E1.57166
G1 X26.239 Y69.565 E.20148
G1 X47.524 Y69.565 E.66736
G1 X47.621 Y69.557 E.00308
G1 X47.835 Y69.472 E.00721
G1 X48.017 Y69.277 E.00835
G1 X48.089 Y69 E.00899
G1 X48.089 Y32.557 E1.14264
G1 X48.082 Y32.464 E.00293
G1 X47.994 Y32.243 E.00744
G1 X47.777 Y32.051 E.0091
G1 X47.524 Y31.991 E.00815
G1 X5.089 Y31.991 E1.3305
G1 X5.089 Y25.565 E.20148
G1 X47.617 Y25.558 E1.33341
G1 X47.837 Y25.47 E.00744
G1 X48.03 Y25.253 E.0091
G1 X48.089 Y25 E.00815
G1 X48.089 Y16.557 E.26472
G1 X48.08 Y16.453 E.00328
G1 X47.976 Y16.217 E.00805
G1 X47.741 Y16.035 E.00933
G1 X47.524 Y15.991 E.00696
G1 X5.089 Y15.991 E1.3305
G1 X5.089 Y9.565 E.20148
M73 P3 R28
G1 X97.515 Y9.565 E2.89794
G1 X97.515 Y15.991 E.20148
G1 X55.081 Y15.991 E1.3305
G1 X54.983 Y16 E.00308
G1 X54.769 Y16.085 E.00721
G1 X54.588 Y16.28 E.00835
G1 X54.515 Y16.557 E.00899
G1 X54.517 Y25.049 E.26627
G1 X54.61 Y25.314 E.00879
G1 X54.828 Y25.506 E.0091
G1 X55.081 Y25.565 E.00815
G1 X97.515 Y25.565 E1.3305
G1 X97.515 Y31.991 E.20148
G1 X55.081 Y31.991 E1.3305
G1 X54.767 Y32.086 E.01028
G1 X54.575 Y32.304 E.0091
G1 X54.515 Y32.557 E.00815
G1 X54.515 Y69 E1.14264
G1 X54.525 Y69.104 E.00328
G1 X54.628 Y69.339 E.00805
G1 X54.863 Y69.522 E.00933
G1 X54.95 Y69.539 E.00279
M204 P1000
G1 X55.081 Y69.188 F9000
M204 P800
;TYPE:External perimeter
G1 F1200
G1 X76.742 Y69.188 E.67918
G1 X76.742 Y76.368 E.22512
G1 X25.862 Y76.368 E1.5953
G1 X25.862 Y69.188 E.22512
M73 P4 R28
G1 X47.524 Y69.188 E.67918
G1 X47.654 Y69.136 E.00439
G1 X47.712 Y69 E.00466
G1 X47.712 Y32.557 E1.14264
G1 X47.668 Y32.436 E.00402
G1 X47.524 Y32.368 E.00501
G1 X4.712 Y32.368 E1.34232
G1 X4.712 Y25.188 E.22512
G1 X47.524 Y25.188 E1.34232
G1 X47.644 Y25.145 E.00402
G1 X47.712 Y25 E.00501
G1 X47.712 Y16.557 E.26472
G1 X47.654 Y16.42 E.00466
G1 X47.524 Y16.368 E.00439
G1 X4.712 Y16.368 E1.34232
G1 X4.712 Y9.188 E.22512
G1 X97.892 Y9.188 E2.92159
G1 X97.892 Y16.368 E.22512
G1 X55.081 Y16.368 E1.34232
G1 X54.951 Y16.42 E.00439
M73 P5 R28
G1 X54.892 Y16.557 E.00466
G1 X54.892 Y25 E.26472
G1 X54.936 Y25.12 E.00402
G1 X55.081 Y25.188 E.00501
G1 X97.892 Y25.188 E1.34232
G1 X97.892 Y32.368 E.22512
G1 X55.081 Y32.368 E1.34232
G1 X54.96 Y32.412 E.00402
G1 X54.892 Y32.557 E.00501
G1 X54.892 Y69 E1.14264
G1 X54.951 Y69.136 E.00466
G1 X55.025 Y69.166 E.00251
M204 P1000
G1 X55.184 Y69.575 F9000
G1 E-2.24 F4200
;WIPE_START
G1 F7200
G1 X56.671 Y69.168 E-.912
;WIPE_END
G1 E-.048 F4200
G1 Z.4 F720
G1 X97.402 Y26.472 F9000
G1 Z.2 F720
G1 E3.2 F2400
M204 P800
;TYPE:Solid infill
;WIDTH:0.420753
G1 F1200
G1 X96.778 Y25.848 E.02774
G1 X96.243 Y25.848 E.01679
G1 X97.232 Y26.837 E.04395
G1 X97.232 Y27.371 E.01679
G1 X95.709 Y25.848 E.0677
G1 X95.174 Y25.848 E.01679
G1 X97.232 Y27.906 E.09144
G1 X97.232 Y28.44 E.01679
G1 X94.64 Y25.848 E.11519
G1 X94.105 Y25.847 E.01679
G1 X97.232 Y28.974 E.13894
G1 X97.232 Y29.509 E.01679
G1 X93.571 Y25.847 E.16268
G1 X93.036 Y25.847 E.01679
G1 X97.232 Y30.043 E.18643
G1 X97.232 Y30.577 E.01679
G1 X92.502 Y25.847 E.21018
G1 X91.967 Y25.847 E.01679
G1 X97.232 Y31.112 E.23392
G1 X97.232 Y31.646 E.01679
M73 P5 R27
G1 X91.433 Y25.847 E.25767
G1 X90.898 Y25.847 E.01679
G1 X96.76 Y31.708 E.26044
G1 X96.226 Y31.708 E.01679
G1 X90.364 Y25.847 E.26045
G1 X89.83 Y25.846 E.01679
G1 X95.692 Y31.708 E.26045
G1 X95.157 Y31.708 E.01679
G1 X89.295 Y25.846 E.26046
G1 X88.761 Y25.846 E.01679
G1 X94.623 Y31.708 E.26046
G1 X94.089 Y31.708 E.01679
G1 X88.226 Y25.846 E.26047
G1 X87.692 Y25.846 E.01679
G1 X93.554 Y31.708 E.26048
G1 X93.02 Y31.708 E.01679
G1 X87.157 Y25.846 E.26048
G1 X86.623 Y25.846 E.01679
G1 X92.486 Y31.708 E.26049
G1 X91.951 Y31.708 E.01679
G1 X86.088 Y25.845 E.26049
G1 X85.554 Y25.845 E.01679
G1 X91.417 Y31.708 E.2605
G1 X90.883 Y31.708 E.01679
G1 X85.019 Y25.845 E.2605
G1 X84.485 Y25.845 E.01679
M73 P6 R27
G1 X90.348 Y31.708 E.26051
G1 X89.814 Y31.708 E.01679
G1 X83.95 Y25.845 E.26052
G1 X83.416 Y25.845 E.01679
G1 X89.28 Y31.708 E.26052
G1 X88.745 Y31.708 E.01679
G1 X82.881 Y25.845 E.26053
G1 X82.347 Y25.845 E.01679
G1 X88.211 Y31.708 E.26053
G1 X87.677 Y31.708 E.01679
G1 X81.813 Y25.844 E.26054
G1 X81.278 Y25.844 E.01679
G1 X87.142 Y31.708 E.26054
G1 X86.608 Y31.708 E.01679
G1 X80.744 Y25.844 E.26055
G1 X80.209 Y25.844 E.01679
G1 X86.074 Y31.708 E.26056
G1 X85.539 Y31.708 E.01679
G1 X79.675 Y25.844 E.26056
G1 X79.14 Y25.844 E.01679
G1 X85.005 Y31.708 E.26057
G1 X84.471 Y31.708 E.01679
G1 X78.606 Y25.844 E.26057
G1 X78.071 Y25.844 E.01679
G1 X83.936 Y31.708 E.26058
G1 X83.402 Y31.708 E.01679
G1 X77.537 Y25.843 E.26059
G1 X77.002 Y25.843 E.01679
G1 X82.868 Y31.708 E.26059
G1 X82.333 Y31.708 E.01679
G1 X76.468 Y25.843 E.2606
G1 X75.933 Y25.843 E.01679
G1 X81.799 Y31.708 E.2606
G1 X81.265 Y31.708 E.01679
G1 X75.399 Y25.843 E.26061
G1 X74.864 Y25.843 E.01679
G1 X80.73 Y31.708 E.26061
G1 X80.196 Y31.708 E.01679
G1 X74.33 Y25.843 E.26062
G1 X73.796 Y25.843 E.01679
G1 X79.661 Y31.708 E.26063
G1 X79.127 Y31.708 E.01679
G1 X73.261 Y25.842 E.26063
G1 X72.727 Y25.842 E.01679
G1 X78.593 Y31.708 E.26064
G1 X78.058 Y31.708 E.01679
G1 X72.192 Y25.842 E.26064
G1 X71.658 Y25.842 E.01679
G1 X77.524 Y31.708 E.26065
G1 X76.99 Y31.708 E.01679
G1 X71.123 Y25.842 E.26065
G1 X70.589 Y25.842 E.01679
G1 X76.455 Y31.708 E.26066
G1 X75.921 Y31.708 E.01679
G1 X70.054 Y25.842 E.26067
G1 X69.52 Y25.841 E.01679
G1 X75.387 Y31.708 E.26067
G1 X74.852 Y31.708 E.01679
G1 X68.985 Y25.841 E.26068
G1 X68.451 Y25.841 E.01679
G1 X74.318 Y31.708 E.26068
G1 X73.784 Y31.708 E.01679
G1 X67.916 Y25.841 E.26069
G1 X67.382 Y25.841 E.01679
G1 X73.249 Y31.708 E.26069
G1 X72.715 Y31.708 E.01679
G1 X66.847 Y25.841 E.2607
G1 X66.313 Y25.841 E.01679
G1 X72.181 Y31.708 E.26071
G1 X71.646 Y31.708 E.01679
G1 X65.779 Y25.841 E.26071
G1 X65.244 Y25.84 E.01679
G1 X71.112 Y31.708 E.26072
G1 X70.578 Y31.708 E.01679
G1 X64.71 Y25.84 E.26072
G1 X64.175 Y25.84 E.01679
G1 X70.043 Y31.708 E.26073
G1 X69.509 Y31.708 E.01679
G1 X63.641 Y25.84 E.26073
M73 P7 R27
G1 X63.106 Y25.84 E.01679
G1 X68.975 Y31.708 E.26074
G1 X68.44 Y31.708 E.01679
G1 X62.572 Y25.84 E.26075
G1 X62.037 Y25.84 E.01679
G1 X67.906 Y31.708 E.26075
G1 X67.372 Y31.708 E.01679
G1 X61.503 Y25.84 E.26076
G1 X60.968 Y25.839 E.01679
G1 X66.837 Y31.708 E.26076
G1 X66.303 Y31.708 E.01679
G1 X60.434 Y25.839 E.26077
G1 X59.899 Y25.839 E.01679
G1 X65.769 Y31.708 E.26077
G1 X65.234 Y31.708 E.01679
G1 X59.365 Y25.839 E.26078
G1 X58.831 Y25.839 E.01679
G1 X64.7 Y31.708 E.26079
G1 X64.166 Y31.708 E.01679
G1 X58.296 Y25.839 E.26079
G1 X57.762 Y25.839 E.01679
G1 X63.631 Y31.708 E.2608
G1 X63.097 Y31.708 E.01679
G1 X57.227 Y25.838 E.2608
G1 X56.693 Y25.838 E.01679
G1 X62.563 Y31.708 E.26081
G1 X62.028 Y31.708 E.01679
G1 X56.158 Y25.838 E.26082
G1 X55.624 Y25.838 E.01679
G1 X61.664 Y31.878 E.26836
M204 P1000
G1 E-2.24 F4200
;WIPE_START
G1 F7200
G1 X60.5 Y30.714 E-.912
;WIPE_END
G1 E-.048 F4200
G1 Z.4 F720
G1 X96.638 Y9.679 F9000
G1 Z.2 F720
G1 E3.2 F2400
M204 P800
G1 F1200
G1 X97.232 Y10.273 E.0264
G1 X97.232 Y10.807 E.01679
G1 X96.273 Y9.848 E.0426
G1 X95.739 Y9.848 E.01679
G1 X97.232 Y11.341 E.06634
G1 X97.232 Y11.876 E.01679
G1 X95.205 Y9.848 E.09008
G1 X94.67 Y9.848 E.01679
G1 X97.232 Y12.41 E.11382
G1 X97.232 Y12.944 E.01679
G1 X94.136 Y9.848 E.13756
G1 X93.602 Y9.848 E.01679
G1 X97.232 Y13.479 E.1613
G1 X97.232 Y14.013 E.01679
G1 X93.067 Y9.848 E.18505
G1 X92.533 Y9.848 E.01679
G1 X97.232 Y14.547 E.20879
G1 X97.232 Y15.082 E.01679
G1 X91.999 Y9.848 E.23253
G1 X91.464 Y9.848 E.01679
G1 X97.232 Y15.616 E.25627
G1 X97.232 Y15.708 E.0029
G1 X96.79 Y15.708 E.01388
G1 X90.93 Y9.848 E.26037
G1 X90.396 Y9.848 E.01679
G1 X96.256 Y15.708 E.26037
G1 X95.722 Y15.708 E.01679
G1 X89.861 Y9.848 E.26037
G1 X89.327 Y9.848 E.01679
G1 X95.187 Y15.708 E.26037
G1 X94.653 Y15.708 E.01679
G1 X88.793 Y9.848 E.26037
G1 X88.258 Y9.848 E.01679
G1 X94.119 Y15.708 E.26037
G1 X93.584 Y15.708 E.01679
G1 X87.724 Y9.848 E.26037
G1 X87.19 Y9.848 E.01679
G1 X93.05 Y15.708 E.26037
G1 X92.516 Y15.708 E.01679
G1 X86.655 Y9.848 E.26037
G1 X86.121 Y9.848 E.01679
G1 X91.981 Y15.708 E.26037
G1 X91.447 Y15.708 E.01679
G1 X85.587 Y9.848 E.26037
G1 X85.052 Y9.848 E.01679
G1 X90.913 Y15.708 E.26037
G1 X90.378 Y15.708 E.01679
G1 X84.518 Y9.848 E.26037
G1 X83.984 Y9.848 E.01679
G1 X89.844 Y15.708 E.26037
G1 X89.31 Y15.708 E.01679
G1 X83.449 Y9.848 E.26037
G1 X82.915 Y9.848 E.01679
G1 X88.775 Y15.708 E.26037
G1 X88.241 Y15.708 E.01679
M73 P8 R27
G1 X82.381 Y9.848 E.26037
G1 X81.846 Y9.848 E.01679
G1 X87.707 Y15.708 E.26037
G1 X87.172 Y15.708 E.01679
G1 X81.312 Y9.848 E.26037
G1 X80.778 Y9.848 E.01679
G1 X86.638 Y15.708 E.26037
G1 X86.104 Y15.708 E.01679
G1 X80.243 Y9.848 E.26037
G1 X79.709 Y9.848 E.01679
G1 X85.569 Y15.708 E.26037
G1 X85.035 Y15.708 E.01679
G1 X79.175 Y9.848 E.26037
G1 X78.64 Y9.848 E.01679
G1 X84.501 Y15.708 E.26037
G1 X83.966 Y15.708 E.01679
G1 X78.106 Y9.848 E.26037
G1 X77.572 Y9.848 E.01679
G1 X83.432 Y15.708 E.26037
G1 X82.898 Y15.708 E.01679
G1 X77.037 Y9.848 E.26037
G1 X76.503 Y9.848 E.01679
G1 X82.363 Y15.708 E.26037
G1 X81.829 Y15.708 E.01679
G1 X75.969 Y9.848 E.26037
G1 X75.434 Y9.848 E.01679
G1 X81.295 Y15.708 E.26037
G1 X80.76 Y15.708 E.01679
G1 X74.9 Y9.848 E.26037
G1 X74.366 Y9.848 E.01679
G1 X80.226 Y15.708 E.26037
G1 X79.692 Y15.708 E.01679
G1 X73.831 Y9.848 E.26037
G1 X73.297 Y9.848 E.01679
G1 X79.157 Y15.708 E.26037
G1 X78.623 Y15.708 E.01679
G1 X72.763 Y9.848 E.26037
G1 X72.228 Y9.848 E.01679
G1 X78.089 Y15.708 E.26037
G1 X77.554 Y15.708 E.01679
G1 X71.694 Y9.848 E.26037
G1 X71.16 Y9.848 E.01679
G1 X77.02 Y15.708 E.26037
G1 X76.486 Y15.708 E.01679
G1 X70.625 Y9.848 E.26037
G1 X70.091 Y9.848 E.01679
G1 X75.951 Y15.708 E.26037
G1 X75.417 Y15.708 E.01679
G1 X69.557 Y9.848 E.26037
G1 X69.022 Y9.848 E.01679
G1 X74.883 Y15.708 E.26037
G1 X74.348 Y15.708 E.01679
G1 X68.488 Y9.848 E.26037
G1 X67.954 Y9.848 E.01679
G1 X73.814 Y15.708 E.26037
G1 X73.28 Y15.708 E.01679
G1 X67.419 Y9.848 E.26037
G1 X66.885 Y9.848 E.01679
G1 X72.745 Y15.708 E.26037
G1 X72.211 Y15.708 E.01679
G1 X66.351 Y9.848 E.26037
G1 X65.816 Y9.848 E.01679
G1 X71.677 Y15.708 E.26037
G1 X71.142 Y15.708 E.01679
G1 X65.282 Y9.848 E.26037
G1 X64.748 Y9.848 E.01679
G1 X70.608 Y15.708 E.26037
G1 X70.074 Y15.708 E.01679
G1 X64.213 Y9.848 E.26037
G1 X63.679 Y9.848 E.01679
G1 X69.539 Y15.708 E.26037
G1 X69.005 Y15.708 E.01679
G1 X63.145 Y9.848 E.26037
G1 X62.61 Y9.848 E.01679
G1 X68.471 Y15.708 E.26037
G1 X67.936 Y15.708 E.01679
G1 X62.076 Y9.848 E.26037
G1 X61.542 Y9.848 E.01679
M73 P9 R27
G1 X67.402 Y15.708 E.26037
G1 X66.868 Y15.708 E.01679
M73 P9 R26
G1 X61.007 Y9.848 E.26037
G1 X60.473 Y9.848 E.01679
G1 X66.333 Y15.708 E.26037
G1 X65.799 Y15.708 E.01679
G1 X59.939 Y9.848 E.26037
G1 X59.404 Y9.848 E.01679
G1 X65.265 Y15.708 E.26037
G1 X64.73 Y15.708 E.01679
G1 X58.87 Y9.848 E.26037
G1 X58.336 Y9.848 E.01679
G1 X64.196 Y15.708 E.26037
G1 X63.661 Y15.708 E.01679
G1 X57.801 Y9.848 E.26037
G1 X57.267 Y9.848 E.01679
G1 X63.127 Y15.708 E.26037
G1 X62.593 Y15.708 E.01679
G1 X56.733 Y9.848 E.26037
G1 X56.198 Y9.848 E.01679
G1 X62.058 Y15.708 E.26037
G1 X61.524 Y15.708 E.01679
G1 X55.664 Y9.848 E.26037
G1 X55.13 Y9.848 E.01679
G1 X60.99 Y15.708 E.26037
G1 X60.455 Y15.708 E.01679
G1 X54.595 Y9.848 E.26037
G1 X54.061 Y9.848 E.01679
G1 X59.921 Y15.708 E.26037
G1 X59.387 Y15.708 E.01679
G1 X53.527 Y9.848 E.26037
G1 X52.992 Y9.848 E.01679
G1 X58.852 Y15.708 E.26037
G1 X58.318 Y15.708 E.01679
G1 X52.458 Y9.848 E.26037
G1 X51.924 Y9.848 E.01679
G1 X57.784 Y15.708 E.26037
G1 X57.249 Y15.708 E.01679
G1 X51.389 Y9.848 E.26037
G1 X50.855 Y9.848 E.01679
G1 X56.715 Y15.708 E.26037
G1 X56.181 Y15.708 E.01679
G1 X50.321 Y9.848 E.26037
G1 X49.786 Y9.848 E.01679
G1 X55.646 Y15.708 E.26037
G1 X55.112 Y15.708 E.01679
G1 X49.252 Y9.848 E.26037
G1 X48.718 Y9.848 E.01679
G1 X54.681 Y15.812 E.26498
G1 X54.61 Y15.85 E.00253
G1 X54.394 Y16.06 E.00945
G1 X48.183 Y9.848 E.27597
G1 X47.649 Y9.848 E.01679
G1 X54.25 Y16.45 E.2933
G1 X54.232 Y16.548 E.00316
G1 X54.232 Y16.966 E.01312
G1 X47.115 Y9.848 E.31625
G1 X46.58 Y9.848 E.01679
G1 X54.233 Y17.501 E.34
G1 X54.233 Y18.035 E.01679
G1 X46.046 Y9.848 E.36375
G1 X45.512 Y9.848 E.01679
G1 X54.233 Y18.57 E.3875
G1 X54.233 Y19.104 E.01679
G1 X44.977 Y9.848 E.41125
G1 X44.443 Y9.848 E.01679
G1 X54.233 Y19.639 E.435
G1 X54.234 Y20.173 E.01679
G1 X43.908 Y9.848 E.45874
G1 X43.374 Y9.848 E.01679
G1 X54.234 Y20.708 E.48249
G1 X54.234 Y21.242 E.01679
M73 P10 R26
G1 X42.84 Y9.848 E.50624
G1 X42.305 Y9.848 E.01679
G1 X54.234 Y21.777 E.52999
G1 X54.234 Y22.311 E.01679
G1 X41.771 Y9.848 E.55374
G1 X41.237 Y9.848 E.01679
G1 X47.097 Y15.708 E.26037
G1 X46.563 Y15.708 E.01679
G1 X40.702 Y9.848 E.26037
G1 X40.168 Y9.848 E.01679
G1 X46.028 Y15.708 E.26037
G1 X45.494 Y15.708 E.01679
G1 X39.634 Y9.848 E.26037
G1 X39.099 Y9.848 E.01679
G1 X44.96 Y15.708 E.26037
G1 X44.425 Y15.708 E.01679
G1 X38.565 Y9.848 E.26037
G1 X38.031 Y9.848 E.01679
G1 X43.891 Y15.708 E.26037
G1 X43.357 Y15.708 E.01679
G1 X37.496 Y9.848 E.26037
G1 X36.962 Y9.848 E.01679
G1 X42.822 Y15.708 E.26037
G1 X42.288 Y15.708 E.01679
G1 X36.428 Y9.848 E.26037
G1 X35.893 Y9.848 E.01679
G1 X41.754 Y15.708 E.26037
