; generated by PrusaSlicer 2.5.0+win64 on 2023-01-29 at 03:06:24 UTC


;
;

;
;
; 

; external perimeters extrusion width = 0.45mm
; perimeters extrusion width = 0.45mm
; infill extrusion width = 0.45mm
; solid infill extrusion width = 0.45mm
; top infill extrusion width = 0.40mm
; support material extrusion width = 0.35mm
; first layer extrusion width = 0.42mm

M73 P0 R12
M201 X2500 Y2500 Z400 E5000 ; sets maximum accelerations, mm/sec^2
M203 X180 Y180 Z12 E80 ; sets maximum feedrates, mm / sec
M204 P1250 R1250 T2500 ; sets acceleration (P, T) and retract acceleration (R), mm/sec^2
M205 X8.00 Y8.00 Z2.00 E10.00 ; sets the jerk limits, mm/sec
M205 S0 T0 ; sets the minimum extruding and travel feed rate, mm/sec
M107
;TYPE:Custom
M862.3 P "MINI" ; printer model check
G90 ; use absolute coordinates
M83 ; extruder relative mode
M104 S170 ; set extruder temp for bed leveling
M140 S60 ; set bed temp
M109 R170 ; wait for bed leveling temp
M190 S60 ; wait for bed temp
M204 T1250 ; set travel acceleration
G28 ; home all without mesh bed level
G29 ; mesh bed leveling 
M204 T2500 ; restore travel acceleration
M104 S215 ; set extruder temp
G92 E0
G1 Y-2 X179 F2400
G1 Z3 F720
M109 S215 ; wait for extruder temp

; intro line
G1 X170 F1000
G1 Z0.2 F720
G1 X110 E8 F900
G1 X40 E10 F700
G92 E0

M221 S95 ; set flow
G21 ; set units to millimeters
G90 ; use absolute coordinates
M83 ; use relative distances for extrusion
M900 K0.2 ; Filament gcode LA 1.5
; ; Filament gcode LA 1.0
M107
;LAYER_CHANGE
;Z:0.2
;HEIGHT:0.2
;BEFORE_LAYER_CHANGE
G92 E0.0
;0.2


M73 P1 R12
G1 E-3.2 F4200
M73 P2 R12
G1 Z.2 F720
;AFTER_LAYER_CHANGE
;0.2
G1 Z.4
G1 X41.06 Y53.817 F9000
G1 Z.2 F720
G1 E3.2 F2400
M204 P800
;TYPE:Skirt/Brim
;WIDTH:0.42
G1 F1200
G1 X42 Y53.623 E.03008
G1 X138 Y53.623 E3.01001
G1 X139.307 Y54.015 E.04278
G1 X140.183 Y55.06 E.04278
G1 X140.377 Y56 E.03008
G1 X140.353 Y64.339 E.26146
G1 X131.713 Y124.339 E1.90066
G1 X131.139 Y125.577 E.04278
M73 P3 R12
G1 X129.36 Y126.377 E.06116
G1 X50.64 Y126.377 E2.46821
G1 X49.333 Y125.985 E.04278
G1 X48.287 Y124.339 E.06116
G1 X39.647 Y64.339 E1.90066
G1 X39.623 Y56 E.26146
M73 P4 R12
G1 X40.015 Y54.693 E.04278
G1 X41.014 Y53.855 E.0409
M204 P1000
; printing object divider_prototype_005.stl id:0 copy 0
G1 E-2.24 F4200
;WIPE_START
G1 F7200
G1 X42 Y53.623 E-.56121
G1 X42.633 Y53.623 E-.35079
;WIPE_END
G1 E-.048 F4200
G1 Z.4 F720
G1 X110.738 Y122.609 F9000
G1 Z.2 F720
G1 E3.2 F2400
M204 P800
;TYPE:Perimeter
;WIDTH:0.532419
G1 F1200
G1 X110.807 Y122.647 E.00322
G1 X111.062 Y122.692 E.01053
G1 X111.216 Y123.157 E.01993
G1 X110.386 Y123.169 E.03382
G1 X110.496 Y123.044 E.0068
G1 X110.708 Y122.661 E.01781
M204 P1000
G1 E-2.24 F4200
;WIPE_START
G1 F7200
G1 X110.807 Y122.647 E-.05521
G1 X111.062 Y122.692 E-.14337
G1 X111.216 Y123.157 E-.27138
G1 X110.419 Y123.169 E-.44204
;WIPE_END
G1 E-.048 F4200
G1 Z.4 F720
G1 X101.312 Y121.08 F9000
G1 Z.2 F720
G1 E3.2 F2400
M204 P800
;TYPE:External perimeter
;WIDTH:0.421946
G1 F1200
G1 X101.055 Y120.964 E.00889
G1 X101.257 Y120.802 E.00818
G1 X101.387 Y120.746 E.00444
;WIDTH:0.46987
G1 X101.645 Y120.709 E.00927
;WIDTH:0.517794
G1 X101.904 Y120.672 E.01031
G1 X101.839 Y120.735 E.00356
;WIDTH:0.495703
G1 X101.803 Y120.846 E.00441
;WIDTH:0.464057
G1 X101.766 Y120.957 E.0041
;WIDTH:0.432411
G1 X101.654 Y121.07 E.00516
;WIDTH:0.426398
G1 X101.376 Y121.13 E.00906
;WIDTH:0.421946
G1 X101.359 Y121.117 E.00068
M204 P1000
G1 E-2.24 F4200
;WIPE_START
G1 F7200
G1 X101.055 Y120.964 E-.18879
G1 X101.257 Y120.802 E-.14385
G1 X101.387 Y120.746 E-.07808
G1 X101.645 Y120.709 E-.14475
G1 X101.904 Y120.672 E-.14475
G1 X101.839 Y120.735 E-.04996
G1 X101.803 Y120.846 E-.06487
G1 X101.766 Y120.957 E-.06487
G1 X101.726 Y120.998 E-.03209
;WIPE_END
G1 E-.048 F4200
G1 Z.4 F720
G1 X101.613 Y119.211 F9000
G1 Z.2 F720
G1 E3.2 F2400
M204 P800
;WIDTH:0.435386
G1 F1200
G1 X101.351 Y119.426 E.01108
;WIDTH:0.458454
G1 X101.02 Y119.526 E.01194
;WIDTH:0.508084
G1 X100.863 Y119.545 E.00612
;WIDTH:0.557713
G1 X100.706 Y119.564 E.00678
;WIDTH:0.607342
G1 X100.548 Y119.583 E.00743
G1 X100.594 Y119.519 E.00367
;WIDTH:0.570725
G1 X100.639 Y119.455 E.00343
;WIDTH:0.534107
G1 X100.684 Y119.391 E.0032
;WIDTH:0.497489
G1 X100.697 Y119.309 E.00312
;WIDTH:0.463613
G1 X100.84 Y119.151 E.00748
;WIDTH:0.457735
G1 X101.204 Y119.081 E.01279
;WIDTH:0.435386
G1 X101.556 Y119.193 E.01206
M204 P1000
G1 E-2.24 F4200
;WIPE_START
G1 F7200
G1 X101.351 Y119.426 E-.17226
G1 X101.02 Y119.526 E-.19149
G1 X100.863 Y119.545 E-.08773
G1 X100.706 Y119.564 E-.08773
G1 X100.548 Y119.583 E-.08773
G1 X100.594 Y119.519 E-.04335
G1 X100.639 Y119.455 E-.04335
G1 X100.684 Y119.391 E-.04335
G1 X100.697 Y119.309 E-.04579
G1 X100.829 Y119.163 E-.1092
;WIPE_END
G1 E-.048 F4200
G1 Z.4 F720
G1 X87.499 Y122.602 F9000
G1 Z.2 F720
G1 E3.2 F2400
M204 P800
;TYPE:Perimeter
;WIDTH:0.530345
G1 F1200
G1 X87.629 Y122.663 E.00582
G1 X87.899 Y122.75 E.01151
;WIDTH:0.50919
G1 X88.417 Y122.747 E.02005
;WIDTH:0.492247
G1 X88.685 Y122.646 E.0107
;WIDTH:0.456123
G1 X88.953 Y122.545 E.00984
;WIDTH:0.419999
G1 X89.412 Y122.207 E.01788
G1 X89.74 Y121.74 E.01786
G1 X89.864 Y121.395 E.01153
G1 X89.975 Y121.574 E.00662
G1 X90.355 Y122.091 E.02011
G1 X90.901 Y122.489 E.02119
;WIDTH:0.452512
G1 X91.212 Y122.615 E.01145
;WIDTH:0.485025
G1 X91.524 Y122.741 E.01235
G1 X92.22 Y122.786 E.02564
;WIDTH:0.488481
G1 X92.764 Y122.737 E.02024
G1 X92.925 Y122.676 E.00636
;WIDTH:0.455831
G1 X93.536 Y122.36 E.02363
;WIDTH:0.419999
G1 X93.912 Y122.018 E.01593
G1 X94.175 Y121.612 E.01518
G1 X94.164 Y122.107 E.01555
G1 X94.266 Y122.444 E.01103
;WIDTH:0.458256
G1 X94.498 Y122.584 E.00935
;WIDTH:0.496513
G1 X94.729 Y122.724 E.01021
;WIDTH:0.498387
G1 X94.787 Y122.722 E.00217
;WIDTH:0.523604
G1 X95.174 Y122.694 E.01554
;WIDTH:0.54882
G1 X95.562 Y122.666 E.01636
;WIDTH:0.579119
G1 X95.843 Y122.604 E.01283
;WIDTH:0.609418
G1 X96.124 Y122.543 E.01355
G1 X96.337 Y122.605 E.01044
;WIDTH:0.578454
G1 X96.55 Y122.667 E.00987
;WIDTH:0.54749
G1 X96.869 Y122.696 E.01344
;WIDTH:0.529564
G1 X97.203 Y122.603 E.01405
G1 X97.16 Y123.042 E.01784
G1 X97.26 Y123.203 E.00769
G1 X96.744 Y123.176 E.02093
;WIDTH:0.56512
G1 X96.428 Y123.149 E.01376
;WIDTH:0.609418
G1 X96.112 Y123.122 E.01493
G1 X95.798 Y123.141 E.01484
;WIDTH:0.569943
G1 X95.483 Y123.161 E.01381
;WIDTH:0.530468
G1 X94.729 Y123.178 E.03058
;WIDTH:0.496513
G1 X94.135 Y123.196 E.02242
;WIDTH:0.458256
G1 X93.541 Y123.215 E.02053
;WIDTH:0.45424
G1 X93.166 Y123.198 E.01284
;WIDTH:0.488481
G1 X92.791 Y123.181 E.01391
G1 X92.067 Y123.197 E.02682
;WIDTH:0.455083
G1 X91.286 Y123.199 E.02677
;WIDTH:0.449881
G1 X90.767 Y123.214 E.01757
;WIDTH:0.419999
G1 X89.394 Y123.213 E.04305
;WIDTH:0.459254
G1 X88.984 Y123.201 E.01417
;WIDTH:0.498509
G1 X88.575 Y123.188 E.0155
;WIDTH:0.499373
G1 X87.985 Y123.207 E.02243
;WIDTH:0.530345
G1 X87.47 Y123.272 E.02101
G1 X87.511 Y122.948 E.01324
G1 X87.501 Y122.662 E.01161
M204 P1000
G1 E-2.24 F4200
;WIPE_START
G1 F7200
G1 X87.629 Y122.663 E-.07079
G1 X87.899 Y122.75 E-.15738
G1 X88.417 Y122.747 E-.28664
G1 X88.685 Y122.646 E-.15877
G1 X88.953 Y122.545 E-.15877
G1 X89.069 Y122.459 E-.07966
;WIPE_END
G1 E-.048 F4200
G1 Z.4 F720
G1 X71.151 Y118.627 F9000
G1 Z.2 F720
G1 E3.2 F2400
M204 P800
;WIDTH:0.419999
G1 F1200
G1 X70.852 Y118.204 E.01623
G1 X70.68 Y118.04 E.00747
G1 X70.163 Y117.678 E.0198
;WIDTH:0.469113
G1 X69.948 Y117.579 E.00837
;WIDTH:0.518227
G1 X69.734 Y117.481 E.00933
;WIDTH:0.56734
G1 X69.519 Y117.382 E.01029
G1 X68.795 Y117.336 E.03164
;WIDTH:0.567577
G1 X68.211 Y117.383 E.02555
G1 X68.137 Y117.416 E.00353
;WIDTH:0.536735
G1 X68.063 Y117.449 E.00333
;WIDTH:0.505893
G1 X67.744 Y117.607 E.01372
;WIDTH:0.462946
G1 X67.424 Y117.764 E.01244
;WIDTH:0.419999
G1 X67.008 Y118.09 E.01657
G1 X66.807 Y118.342 E.01012
G1 X66.812 Y118.037 E.00957
G1 X66.684 Y117.67 E.01219
;WIDTH:0.469852
G1 X66.539 Y117.576 E.00616
;WIDTH:0.519705
G1 X66.393 Y117.481 E.00688
;WIDTH:0.569557
G1 X66.247 Y117.387 E.0076
G1 X64.853 Y117.386 E.06104
;WIDTH:0.60956
G1 X64.582 Y117.423 E.01288
G1 X64.467 Y117.498 E.0065
G1 X64.351 Y117.423 E.0065
G1 X64.081 Y117.386 E.01283
;WIDTH:0.568388
G1 X62.685 Y117.386 E.06099
;WIDTH:0.602581
G1 X62.513 Y117.416 E.00816
;WIDTH:0.636832
G1 X62.34 Y117.447 E.00866
G1 X62.188 Y117.576 E.00987
G1 X62.036 Y117.447 E.00987
G1 X61.863 Y117.416 E.00866
;WIDTH:0.60256
G1 X61.691 Y117.386 E.00816
;WIDTH:0.568287
G1 X60.298 Y117.386 E.06082
;WIDTH:0.601553
G1 X60.128 Y117.415 E.00803
;WIDTH:0.634879
G1 X59.958 Y117.445 E.00851
G1 X59.808 Y117.571 E.00963
G1 X59.658 Y117.445 E.00963
G1 X59.487 Y117.415 E.00851
;WIDTH:0.601533
G1 X59.317 Y117.386 E.00803
;WIDTH:0.568186
G1 X57.921 Y117.386 E.06096
;WIDTH:0.574964
G1 X57.81 Y117.392 E.00493
G1 X57.725 Y117.465 E.00498
;WIDTH:0.536223
G1 X57.64 Y117.539 E.00462
;WIDTH:0.497482
G1 X57.554 Y117.612 E.00425
;WIDTH:0.458741
G1 X57.469 Y117.686 E.00389
;WIDTH:0.419999
G1 X57.356 Y118.025 E.01121
G1 X57.356 Y120.337 E.07248
G1 X57.107 Y119.988 E.01344
G1 X56.8 Y119.687 E.01346
G1 X56.438 Y119.449 E.01359
M73 P5 R12
G1 X56.034 Y119.278 E.01376
G1 X55.491 Y119.165 E.0174
G1 X54.708 Y119.151 E.02455
G1 X54.708 Y118.077 E.03369
G1 X54.591 Y117.682 E.01292
;WIDTH:0.469322
G1 X54.442 Y117.583 E.00635
;WIDTH:0.518644
G1 X54.292 Y117.484 E.00709
;WIDTH:0.567966
G1 X54.142 Y117.386 E.00783
G1 X52.699 Y117.386 E.06301
;WIDTH:0.57474
G1 X52.588 Y117.392 E.00492
G1 X52.514 Y117.453 E.00424
;WIDTH:0.536055
G1 X52.439 Y117.513 E.00393
;WIDTH:0.49737
G1 X52.365 Y117.574 E.00363
;WIDTH:0.458685
G1 X52.29 Y117.635 E.00332
;WIDTH:0.461177
G1 X52.231 Y117.732 E.00399
;WIDTH:0.502354
G1 X52.171 Y117.83 E.00438
;WIDTH:0.543531
G1 X52.111 Y117.928 E.00478
;WIDTH:0.584708
G1 X52.051 Y118.026 E.00517
;WIDTH:0.587712
G1 X52.056 Y122.07 E.1832
;WIDTH:0.599717
G1 X52.072 Y122.327 E.0119
G1 X52.105 Y122.424 E.00474
;WIDTH:0.554788
G1 X52.137 Y122.521 E.00436
;WIDTH:0.509858
G1 X52.169 Y122.618 E.00397
;WIDTH:0.464929
G1 X52.202 Y122.715 E.00359
;WIDTH:0.419999
G1 X52.246 Y123.158 E.01394
G1 X52.315 Y123.255 E.00374
G1 X51.427 Y123.217 E.02786
G1 X51.427 Y122.833 E.01201
;WIDTH:0.464929
G1 X51.45 Y122.714 E.00427
;WIDTH:0.509858
G1 X51.472 Y122.594 E.00473
;WIDTH:0.554788
G1 X51.494 Y122.474 E.00518
;WIDTH:0.599717
G1 X51.517 Y122.355 E.00564
G1 X51.511 Y122.071 E.01315
;WIDTH:0.587712
G1 X51.509 Y118.027 E.1832
;WIDTH:0.584707
G1 X51.489 Y117.841 E.00842
;WIDTH:0.54353
G1 X51.468 Y117.657 E.00772
;WIDTH:0.502353
G1 X51.448 Y117.472 E.00709
;WIDTH:0.461176
G1 X51.427 Y117.288 E.00645
;WIDTH:0.419999
G1 X51.427 Y116.787 E.01571
G1 X51.928 Y116.787 E.01571
;WIDTH:0.469302
G1 X52.185 Y116.812 E.00915
;WIDTH:0.518604
G1 X52.442 Y116.836 E.01021
;WIDTH:0.567966
G1 X52.699 Y116.861 E.01127
G1 X54.142 Y116.861 E.06301
G1 X54.439 Y116.836 E.01301
;WIDTH:0.518644
G1 X54.736 Y116.811 E.01179
;WIDTH:0.469322
G1 X55.033 Y116.787 E.01057
;WIDTH:0.419999
G1 X57.02 Y116.787 E.06229
;WIDTH:0.469376
G1 X57.32 Y116.811 E.01069
;WIDTH:0.518752
G1 X57.621 Y116.836 E.01193
;WIDTH:0.568186
G1 X57.921 Y116.861 E.01317
G1 X59.317 Y116.86 E.06096
;WIDTH:0.601533
M73 P5 R11
G1 X59.562 Y116.877 E.01142
;WIDTH:0.634879
G1 X59.808 Y116.894 E.0121
G1 X60.053 Y116.877 E.0121
;WIDTH:0.601554
G1 X60.298 Y116.86 E.01142
;WIDTH:0.568287
G1 X61.691 Y116.86 E.06082
;WIDTH:0.60256
G1 X61.939 Y116.877 E.0116
;WIDTH:0.636832
G1 X62.188 Y116.895 E.01231
G1 X62.437 Y116.877 E.01231
;WIDTH:0.602581
G1 X62.685 Y116.86 E.0116
;WIDTH:0.568404
G1 X64.854 Y116.86 E.09475
;WIDTH:0.569557
G1 X66.247 Y116.861 E.06104
G1 X66.635 Y116.836 E.01699
;WIDTH:0.519705
G1 X67.022 Y116.811 E.01538
;WIDTH:0.469852
G1 X67.409 Y116.786 E.01377
;WIDTH:0.469192
G1 X67.667 Y116.81 E.00919
;WIDTH:0.518385
G1 X67.925 Y116.835 E.01025
;WIDTH:0.567577
G1 X68.183 Y116.859 E.01131
G1 X68.951 Y116.844 E.03351
;WIDTH:0.56734
G1 X69.546 Y116.859 E.02596
G1 X69.661 Y116.838 E.00507
;WIDTH:0.524914
G1 X69.775 Y116.817 E.00466
;WIDTH:0.482487
G1 X70.049 Y116.801 E.01002
;WIDTH:0.451243
G1 X70.322 Y116.785 E.00931
;WIDTH:0.419999
G1 X72.348 Y116.785 E.0635
;WIDTH:0.46317
G1 X72.536 Y116.807 E.00661
;WIDTH:0.506341
G1 X72.724 Y116.828 E.00729
;WIDTH:0.549512
G1 X72.911 Y116.85 E.00797
G1 X73.448 Y116.844 E.02258
;WIDTH:0.566346
G1 X74.186 Y116.858 E.03216
G1 X74.319 Y116.833 E.00585
;WIDTH:0.517564
G1 X74.451 Y116.809 E.00531
;WIDTH:0.468782
G1 X74.583 Y116.784 E.00476
;WIDTH:0.419999
G1 X75.76 Y116.687 E.03703
G1 X75.624 Y117.211 E.01698
G1 X75.565 Y117.75 E.017
G1 X75.563 Y118.287 E.01683
G1 X75.146 Y117.861 E.01871
G1 X74.671 Y117.602 E.01696
;WIDTH:0.468782
G1 X74.488 Y117.526 E.00701
;WIDTH:0.517564
G1 X74.305 Y117.45 E.00782
;WIDTH:0.566346
G1 X74.122 Y117.374 E.00862
G1 X74.003 Y117.362 E.00523
;WIDTH:0.553446
G1 X73.433 Y117.337 E.02419
;WIDTH:0.549512
G1 X72.926 Y117.356 E.02139
G1 X72.758 Y117.411 E.00742
;WIDTH:0.506341
G1 X72.591 Y117.465 E.00679
;WIDTH:0.46317
G1 X72.423 Y117.52 E.00616
;WIDTH:0.419999
G1 X71.957 Y117.711 E.0158
G1 X71.549 Y118.021 E.01605
G1 X71.407 Y118.19 E.00694
G1 X71.181 Y118.576 E.01401
M204 P1000
G1 E-2.24 F4200
;WIPE_START
G1 F7200
G1 X70.852 Y118.204 E-.27479
G1 X70.68 Y118.04 E-.13207
G1 X70.163 Y117.678 E-.34997
G1 X69.948 Y117.579 E-.13082
G1 X69.908 Y117.561 E-.02434
;WIPE_END
G1 E-.048 F4200
G1 Z.4 F720
G1 X73.758 Y119.218 F9000
G1 Z.2 F720
G1 E3.2 F2400
M204 P800
;TYPE:External perimeter
;WIDTH:0.435386
G1 F1200
G1 X73.495 Y119.426 E.01094
;WIDTH:0.458454
G1 X73.164 Y119.526 E.01194
;WIDTH:0.508084
G1 X73.007 Y119.545 E.00612
;WIDTH:0.557714
G1 X72.85 Y119.564 E.00678
;WIDTH:0.607344
G1 X72.692 Y119.583 E.00743
G1 X72.738 Y119.519 E.00367
;WIDTH:0.570726
G1 X72.783 Y119.455 E.00343
;WIDTH:0.534108
G1 X72.828 Y119.391 E.0032
;WIDTH:0.497489
G1 X72.841 Y119.309 E.00312
;WIDTH:0.463614
G1 X72.984 Y119.151 E.00748
;WIDTH:0.457735
G1 X73.348 Y119.081 E.01279
;WIDTH:0.435386
G1 X73.701 Y119.199 E.01214
M204 P1000
G1 E-2.24 F4200
;WIPE_START
G1 F7200
G1 X73.495 Y119.426 E-.16989
G1 X73.164 Y119.526 E-.19149
G1 X73.007 Y119.545 E-.08773
G1 X72.85 Y119.564 E-.08773
G1 X72.692 Y119.583 E-.08773
G1 X72.738 Y119.519 E-.04335
G1 X72.783 Y119.455 E-.04335
G1 X72.828 Y119.391 E-.04335
G1 X72.841 Y119.309 E-.04578
G1 X72.976 Y119.16 E-.11157
;WIPE_END
G1 E-.048 F4200
G1 Z.4 F720
G1 X74.048 Y120.672 F9000
G1 Z.2 F720
G1 E3.2 F2400
M204 P800
;WIDTH:0.517798
G1 F1200
G1 X73.983 Y120.735 E.00356
;WIDTH:0.495698
G1 X73.947 Y120.846 E.00441
;WIDTH:0.464055
G1 X73.91 Y120.957 E.0041
;WIDTH:0.432411
G1 X73.798 Y121.07 E.00516
;WIDTH:0.426398
G1 X73.52 Y121.13 E.00906
;WIDTH:0.421946
G1 X73.456 Y121.08 E.00257
G1 X73.199 Y120.964 E.00889
G1 X73.401 Y120.802 E.00818
G1 X73.53 Y120.746 E.00444
;WIDTH:0.469872
G1 X73.789 Y120.709 E.00927
;WIDTH:0.517798
G1 X73.988 Y120.681 E.00794
M204 P1000
G1 E-2.24 F4200
;WIPE_START
G1 F7200
G1 X73.983 Y120.735 E-.03024
G1 X73.947 Y120.846 E-.06486
G1 X73.91 Y120.957 E-.06486
G1 X73.798 Y121.07 E-.08822
G1 X73.52 Y121.13 E-.15747
G1 X73.456 Y121.08 E-.04518
G1 X73.199 Y120.964 E-.15632
G1 X73.401 Y120.802 E-.14385
G1 X73.53 Y120.746 E-.07808
G1 X73.679 Y120.725 E-.08292
;WIPE_END
G1 E-.048 F4200
G1 Z.4 F720
G1 X66.621 Y123.338 F9000
G1 Z.2 F720
G1 E3.2 F2400
M204 P800
;TYPE:Perimeter
;WIDTH:0.419999
G1 F1200
G1 X66.743 Y122.894 E.01445
G1 X66.803 Y122.363 E.01673
G1 X66.801 Y121.814 E.01723
G1 X66.884 Y121.94 E.00475
G1 X67.156 Y122.189 E.01156
G1 X67.579 Y122.484 E.01617
;WIDTH:0.452683
G1 X67.903 Y122.612 E.01186
;WIDTH:0.485366
G1 X68.227 Y122.739 E.01281
G1 X68.938 Y122.786 E.02623
;WIDTH:0.48413
G1 X69.541 Y122.741 E.02217
G1 X69.68 Y122.7 E.00532
;WIDTH:0.464066
G1 X70.336 Y122.415 E.02505
;WIDTH:0.419999
G1 X70.877 Y121.974 E.02188
G1 X71.218 Y121.472 E.01905
G1 X71.4 Y121.853 E.01323
G1 X71.786 Y122.277 E.01798
G1 X72.277 Y122.564 E.01784
;WIDTH:0.450773
G1 X72.549 Y122.658 E.00976
;WIDTH:0.481546
G1 X72.822 Y122.751 E.0105
G1 X73.421 Y122.789 E.0219
;WIDTH:0.467683
G1 X73.945 Y122.766 E.01853
G1 X74.43 Y122.632 E.01777
;WIDTH:0.419999
G1 X74.884 Y122.423 E.0157
G1 X75.282 Y122.086 E.01633
