; generated by PrusaSlicer 2.5.0+win64 on 2023-01-29 at 21:25:33 UTC


;
;

;
;
; 

; external perimeters extrusion width = 0.45mm
; perimeters extrusion width = 0.45mm
; infill extrusion width = 0.45mm
; solid infill extrusion width = 0.45mm
; top infill extrusion width = 0.40mm
; support material extrusion width = 0.35mm
; first layer extrusion width = 0.42mm

M73 P0 R121
M201 X2500 Y2500 Z400 E5000 ; sets maximum accelerations, mm/sec^2
M203 X180 Y180 Z12 E80 ; sets maximum feedrates, mm / sec
M204 P1250 R1250 T2500 ; sets acceleration (P, T) and retract acceleration (R), mm/sec^2
M205 X8.00 Y8.00 Z2.00 E10.00 ; sets the jerk limits, mm/sec
M205 S0 T0 ; sets the minimum extruding and travel feed rate, mm/sec
M107
;TYPE:Custom
M862.3 P "MINI" ; printer model check
G90 ; use absolute coordinates
M83 ; extruder relative mode
M104 S170 ; set extruder temp for bed leveling
M140 S60 ; set bed temp
M109 R170 ; wait for bed leveling temp
M190 S60 ; wait for bed temp
M204 T1250 ; set travel acceleration
G28 ; home all without mesh bed level
G29 ; mesh bed leveling 
M204 T2500 ; restore travel acceleration
M104 S215 ; set extruder temp
G92 E0
G1 Y-2 X179 F2400
G1 Z3 F720
M109 S215 ; wait for extruder temp

; intro line
G1 X170 F1000
G1 Z0.2 F720
G1 X110 E8 F900
G1 X40 E10 F700
G92 E0

M221 S95 ; set flow
G21 ; set units to millimeters
G90 ; use absolute coordinates
M83 ; use relative distances for extrusion
M900 K0.2 ; Filament gcode LA 1.5
; ; Filament gcode LA 1.0
M107
;LAYER_CHANGE
;Z:0.2
;HEIGHT:0.2
;BEFORE_LAYER_CHANGE
G92 E0.0
;0.2


G1 E-3.2 F4200
G1 Z.2 F720
;AFTER_LAYER_CHANGE
;0.2
G1 Z.4
G1 X38.569 Y73.994 F9000
G1 Z.2 F720
G1 E3.2 F2400
M204 P800
;TYPE:Skirt/Brim
;WIDTH:0.42
G1 F1200
G1 X40.25 Y73.297 E.05704
G1 X139.751 Y73.297 E3.11978
G1 X141.431 Y73.994 E.05704
G1 X142.006 Y74.569 E.0255
G1 X142.703 Y76.25 E.05704
G1 X142.703 Y103.751 E.86227
G1 X142.006 Y105.431 E.05704
G1 X141.431 Y106.006 E.0255
G1 X139.751 Y106.703 E.05704
G1 X40.25 Y106.703 E3.11978
G1 X38.569 Y106.006 E.05704
G1 X37.994 Y105.431 E.0255
G1 X37.297 Y103.751 E.05704
G1 X37.297 Y76.25 E.86227
G1 X37.994 Y74.569 E.05704
G1 X38.526 Y74.036 E.02362
M204 P1000
; printing object set_box_mini_prototype_with_snap_fit_015.stl id:0 copy 0
G1 E-2.24 F4200
;WIPE_START
G1 F7200
G1 X40.039 Y73.388 E-.912
;WIPE_END
G1 E-.048 F4200
G1 Z.4 F720
G1 X139.063 Y76.937 F9000
G1 Z.2 F720
G1 E3.2 F2400
M204 P800
;TYPE:Perimeter
;WIDTH:0.419999
G1 F1200
G1 X139.063 Y103.063 E.81919
G1 X40.937 Y103.063 E3.07669
G1 X40.937 Y76.937 E.81919
G1 X139.003 Y76.937 E3.07481
M204 P1000
G1 X139.441 Y76.559 F9000
M204 P800
;TYPE:External perimeter
G1 F1200
G1 X139.441 Y103.441 E.84283
G1 X40.559 Y103.441 E3.10034
G1 X40.559 Y76.559 E.84283
G1 X139.381 Y76.559 E3.09846
M204 P1000
G1 X139.272 Y76.922 F9000
M73 P0 R120
G1 X138.187 Y77.05
M204 P800
;TYPE:Solid infill
;WIDTH:0.42048
G1 F1200
G1 X138.781 Y77.643 E.02635
G1 X138.781 Y78.177 E.01676
G1 X137.823 Y77.219 E.04253
G1 X137.289 Y77.219 E.01676
G1 X138.781 Y78.711 E.06623
G1 X138.781 Y79.245 E.01676
G1 X136.755 Y77.219 E.08994
G1 X136.221 Y77.219 E.01676
G1 X138.781 Y79.779 E.11365
G1 X138.781 Y80.313 E.01676
G1 X135.687 Y77.219 E.13735
G1 X135.153 Y77.219 E.01676
G1 X138.781 Y80.847 E.16106
G1 X138.781 Y81.381 E.01676
G1 X134.619 Y77.219 E.18477
G1 X134.085 Y77.219 E.01676
G1 X138.781 Y81.915 E.20847
G1 X138.781 Y82.449 E.01676
G1 X133.551 Y77.219 E.23218
G1 X133.017 Y77.219 E.01676
G1 X138.781 Y82.983 E.25589
G1 X138.781 Y83.517 E.01676
G1 X132.483 Y77.219 E.27959
G1 X131.949 Y77.219 E.01676
G1 X138.781 Y84.051 E.3033
G1 X138.781 Y84.585 E.01676
G1 X131.415 Y77.219 E.327
G1 X130.881 Y77.219 E.01676
G1 X138.781 Y85.119 E.35071
G1 X138.781 Y85.653 E.01676
G1 X130.347 Y77.219 E.37442
G1 X129.813 Y77.219 E.01676
G1 X138.781 Y86.187 E.39812
G1 X138.781 Y86.72 E.01676
G1 X129.28 Y77.219 E.42183
G1 X128.746 Y77.219 E.01676
G1 X138.781 Y87.254 E.44554
G1 X138.781 Y87.788 E.01676
G1 X128.212 Y77.219 E.46924
G1 X127.678 Y77.219 E.01676
G1 X138.781 Y88.322 E.49295
G1 X138.781 Y88.856 E.01676
G1 X127.144 Y77.219 E.51666
G1 X126.61 Y77.219 E.01676
G1 X138.781 Y89.39 E.54036
G1 X138.781 Y89.924 E.01676
G1 X126.076 Y77.219 E.56407
G1 X125.542 Y77.219 E.01676
G1 X138.781 Y90.458 E.58778
G1 X138.781 Y90.992 E.01676
G1 X125.008 Y77.219 E.61148
G1 X124.474 Y77.219 E.01676
G1 X138.781 Y91.526 E.63519
G1 X138.781 Y92.06 E.01676
G1 X123.94 Y77.219 E.65889
G1 X123.406 Y77.219 E.01676
G1 X138.781 Y92.594 E.6826
G1 X138.781 Y93.128 E.01676
M73 P1 R120
G1 X122.872 Y77.219 E.70631
G1 X122.338 Y77.219 E.01676
G1 X138.781 Y93.662 E.73001
G1 X138.781 Y94.196 E.01676
G1 X121.804 Y77.219 E.75372
G1 X121.27 Y77.219 E.01676
G1 X138.781 Y94.73 E.77743
G1 X138.781 Y95.264 E.01676
G1 X120.736 Y77.219 E.80113
G1 X120.202 Y77.219 E.01676
G1 X138.781 Y95.798 E.82484
G1 X138.781 Y96.332 E.01676
G1 X119.668 Y77.219 E.84855
G1 X119.134 Y77.219 E.01676
G1 X138.781 Y96.866 E.87225
G1 X138.781 Y97.399 E.01676
G1 X118.601 Y77.219 E.89596
G1 X118.067 Y77.219 E.01676
G1 X138.781 Y97.933 E.91967
G1 X138.781 Y98.467 E.01676
G1 X117.533 Y77.219 E.94337
G1 X116.999 Y77.219 E.01676
G1 X138.781 Y99.001 E.96708
G1 X138.781 Y99.535 E.01676
G1 X116.465 Y77.219 E.99078
G1 X115.931 Y77.219 E.01676
G1 X138.781 Y100.069 E1.01449
G1 X138.781 Y100.603 E.01676
G1 X115.397 Y77.219 E1.0382
G1 X114.863 Y77.219 E.01676
G1 X138.781 Y101.137 E1.0619
G1 X138.781 Y101.671 E.01676
G1 X114.329 Y77.219 E1.08561
G1 X113.795 Y77.219 E.01676
G1 X138.781 Y102.205 E1.10932
G1 X138.781 Y102.739 E.01676
G1 X113.261 Y77.219 E1.13302
G1 X112.727 Y77.219 E.01676
G1 X138.288 Y102.781 E1.13487
G1 X137.754 Y102.781 E.01676
G1 X112.193 Y77.219 E1.13487
G1 X111.659 Y77.219 E.01676
G1 X137.22 Y102.781 E1.13487
G1 X136.686 Y102.781 E.01676
G1 X111.125 Y77.219 E1.13487
G1 X110.591 Y77.219 E.01676
G1 X136.153 Y102.781 E1.13487
G1 X135.619 Y102.781 E.01676
G1 X110.057 Y77.219 E1.13487
G1 X109.523 Y77.219 E.01676
G1 X135.085 Y102.781 E1.13487
G1 X134.551 Y102.781 E.01676
G1 X108.989 Y77.219 E1.13487
G1 X108.455 Y77.219 E.01676
M73 P1 R119
G1 X134.017 Y102.781 E1.13487
G1 X133.483 Y102.781 E.01676
G1 X107.922 Y77.219 E1.13487
G1 X107.388 Y77.219 E.01676
G1 X132.949 Y102.781 E1.13487
G1 X132.415 Y102.781 E.01676
G1 X106.854 Y77.219 E1.13487
G1 X106.32 Y77.219 E.01676
G1 X131.881 Y102.781 E1.13487
G1 X131.347 Y102.781 E.01676
G1 X105.786 Y77.219 E1.13487
G1 X105.252 Y77.219 E.01676
G1 X130.813 Y102.781 E1.13487
G1 X130.279 Y102.781 E.01676
G1 X104.718 Y77.219 E1.13487
G1 X104.184 Y77.219 E.01676
G1 X129.745 Y102.781 E1.13487
G1 X129.211 Y102.781 E.01676
G1 X103.65 Y77.219 E1.13487
G1 X103.116 Y77.219 E.01676
G1 X128.677 Y102.781 E1.13487
G1 X128.143 Y102.781 E.01676
G1 X102.582 Y77.219 E1.13487
G1 X102.048 Y77.219 E.01676
G1 X127.609 Y102.781 E1.13487
G1 X127.075 Y102.781 E.01676
G1 X101.514 Y77.219 E1.13487
G1 X100.98 Y77.219 E.01676
G1 X126.541 Y102.781 E1.13487
G1 X126.007 Y102.781 E.01676
G1 X100.446 Y77.219 E1.13487
G1 X99.912 Y77.219 E.01676
M73 P2 R119
G1 X125.474 Y102.781 E1.13487
G1 X124.94 Y102.781 E.01676
G1 X99.378 Y77.219 E1.13487
G1 X98.844 Y77.219 E.01676
G1 X124.406 Y102.781 E1.13487
G1 X123.872 Y102.781 E.01676
G1 X98.31 Y77.219 E1.13487
G1 X97.776 Y77.219 E.01676
G1 X123.338 Y102.781 E1.13487
G1 X122.804 Y102.781 E.01676
G1 X97.243 Y77.219 E1.13487
G1 X96.709 Y77.219 E.01676
G1 X122.27 Y102.781 E1.13487
G1 X121.736 Y102.781 E.01676
G1 X96.175 Y77.219 E1.13487
G1 X95.641 Y77.219 E.01676
G1 X121.202 Y102.781 E1.13487
G1 X120.668 Y102.781 E.01676
G1 X95.107 Y77.219 E1.13487
G1 X94.573 Y77.219 E.01676
G1 X120.134 Y102.781 E1.13487
G1 X119.6 Y102.781 E.01676
G1 X94.039 Y77.219 E1.13487
G1 X93.505 Y77.219 E.01676
G1 X119.066 Y102.781 E1.13487
G1 X118.532 Y102.781 E.01676
G1 X92.971 Y77.219 E1.13487
G1 X92.437 Y77.219 E.01676
G1 X117.998 Y102.781 E1.13487
G1 X117.464 Y102.781 E.01676
G1 X91.903 Y77.219 E1.13487
G1 X91.369 Y77.219 E.01676
M73 P2 R118
G1 X116.93 Y102.781 E1.13487
G1 X116.396 Y102.781 E.01676
G1 X90.835 Y77.219 E1.13487
G1 X90.301 Y77.219 E.01676
G1 X115.862 Y102.781 E1.13487
G1 X115.328 Y102.781 E.01676
G1 X89.767 Y77.219 E1.13487
G1 X89.233 Y77.219 E.01676
G1 X114.795 Y102.781 E1.13487
G1 X114.261 Y102.781 E.01676
G1 X88.699 Y77.219 E1.13487
G1 X88.165 Y77.219 E.01676
G1 X113.727 Y102.781 E1.13487
G1 X113.193 Y102.781 E.01676
G1 X87.631 Y77.219 E1.13487
G1 X87.097 Y77.219 E.01676
G1 X112.659 Y102.781 E1.13487
G1 X112.125 Y102.781 E.01676
G1 X86.564 Y77.219 E1.13487
G1 X86.03 Y77.219 E.01676
G1 X111.591 Y102.781 E1.13487
G1 X111.057 Y102.781 E.01676
G1 X85.496 Y77.219 E1.13487
G1 X84.962 Y77.219 E.01676
G1 X110.523 Y102.781 E1.13487
G1 X109.989 Y102.781 E.01676
G1 X84.428 Y77.219 E1.13487
G1 X83.894 Y77.219 E.01676
G1 X109.455 Y102.781 E1.13487
G1 X108.921 Y102.781 E.01676
G1 X83.36 Y77.219 E1.13487
G1 X82.826 Y77.219 E.01676
G1 X108.387 Y102.781 E1.13487
G1 X107.853 Y102.781 E.01676
G1 X82.292 Y77.219 E1.13487
G1 X81.758 Y77.219 E.01676
G1 X107.319 Y102.781 E1.13487
G1 X106.785 Y102.781 E.01676
G1 X81.224 Y77.219 E1.13487
G1 X80.69 Y77.219 E.01676
G1 X106.251 Y102.781 E1.13487
G1 X105.717 Y102.781 E.01676
G1 X80.156 Y77.219 E1.13487
G1 X79.622 Y77.219 E.01676
G1 X105.183 Y102.781 E1.13487
G1 X104.649 Y102.781 E.01676
G1 X79.088 Y77.219 E1.13487
G1 X78.554 Y77.219 E.01676
M73 P3 R118
G1 X104.116 Y102.781 E1.13487
G1 X103.582 Y102.781 E.01676
G1 X78.02 Y77.219 E1.13487
G1 X77.486 Y77.219 E.01676
G1 X103.048 Y102.781 E1.13487
G1 X102.514 Y102.781 E.01676
G1 X76.952 Y77.219 E1.13487
G1 X76.418 Y77.219 E.01676
G1 X101.98 Y102.781 E1.13487
G1 X101.446 Y102.781 E.01676
G1 X75.885 Y77.219 E1.13487
G1 X75.351 Y77.219 E.01676
G1 X100.912 Y102.781 E1.13487
G1 X100.378 Y102.781 E.01676
G1 X74.817 Y77.219 E1.13487
G1 X74.283 Y77.219 E.01676
G1 X99.844 Y102.781 E1.13487
G1 X99.31 Y102.781 E.01676
M73 P3 R117
G1 X73.749 Y77.219 E1.13487
G1 X73.215 Y77.219 E.01676
G1 X98.776 Y102.781 E1.13487
G1 X98.242 Y102.781 E.01676
G1 X72.681 Y77.219 E1.13487
G1 X72.147 Y77.219 E.01676
G1 X97.708 Y102.781 E1.13487
G1 X97.174 Y102.781 E.01676
G1 X71.613 Y77.219 E1.13487
G1 X71.079 Y77.219 E.01676
G1 X96.64 Y102.781 E1.13487
G1 X96.106 Y102.781 E.01676
G1 X70.545 Y77.219 E1.13487
G1 X70.011 Y77.219 E.01676
G1 X95.572 Y102.781 E1.13487
G1 X95.038 Y102.781 E.01676
G1 X69.477 Y77.219 E1.13487
G1 X68.943 Y77.219 E.01676
G1 X94.504 Y102.781 E1.13487
G1 X93.97 Y102.781 E.01676
G1 X68.409 Y77.219 E1.13487
G1 X67.875 Y77.219 E.01676
G1 X93.436 Y102.781 E1.13487
G1 X92.903 Y102.781 E.01676
G1 X67.341 Y77.219 E1.13487
G1 X66.807 Y77.219 E.01676
G1 X92.369 Y102.781 E1.13487
G1 X91.835 Y102.781 E.01676
G1 X66.273 Y77.219 E1.13487
G1 X65.739 Y77.219 E.01676
G1 X91.301 Y102.781 E1.13487
G1 X90.767 Y102.781 E.01676
G1 X65.205 Y77.219 E1.13487
G1 X64.672 Y77.219 E.01676
G1 X90.233 Y102.781 E1.13487
G1 X89.699 Y102.781 E.01676
G1 X64.138 Y77.219 E1.13487
G1 X63.604 Y77.219 E.01676
G1 X89.165 Y102.781 E1.13487
G1 X88.631 Y102.781 E.01676
G1 X63.07 Y77.219 E1.13487
G1 X62.536 Y77.219 E.01676
G1 X88.097 Y102.781 E1.13487
G1 X87.563 Y102.781 E.01676
G1 X62.002 Y77.219 E1.13487
G1 X61.468 Y77.219 E.01676
G1 X87.029 Y102.781 E1.13487
G1 X86.495 Y102.781 E.01676
G1 X60.934 Y77.219 E1.13487
G1 X60.4 Y77.219 E.01676
G1 X85.961 Y102.781 E1.13487
G1 X85.427 Y102.781 E.01676
G1 X59.866 Y77.219 E1.13487
G1 X59.332 Y77.219 E.01676
G1 X84.893 Y102.781 E1.13487
G1 X84.359 Y102.781 E.01676
G1 X58.798 Y77.219 E1.13487
G1 X58.264 Y77.219 E.01676
G1 X83.825 Y102.781 E1.13487
G1 X83.291 Y102.781 E.01676
G1 X57.73 Y77.219 E1.13487
G1 X57.196 Y77.219 E.01676
M73 P4 R117
G1 X82.757 Y102.781 E1.13487
G1 X82.224 Y102.781 E.01676
M73 P4 R116
G1 X56.662 Y77.219 E1.13487
G1 X56.128 Y77.219 E.01676
G1 X81.69 Y102.781 E1.13487
G1 X81.156 Y102.781 E.01676
G1 X55.594 Y77.219 E1.13487
G1 X55.06 Y77.219 E.01676
G1 X80.622 Y102.781 E1.13487
G1 X80.088 Y102.781 E.01676
G1 X54.526 Y77.219 E1.13487
G1 X53.993 Y77.219 E.01676
G1 X79.554 Y102.781 E1.13487
G1 X79.02 Y102.781 E.01676
G1 X53.459 Y77.219 E1.13487
G1 X52.925 Y77.219 E.01676
G1 X78.486 Y102.781 E1.13487
G1 X77.952 Y102.781 E.01676
G1 X52.391 Y77.219 E1.13487
G1 X51.857 Y77.219 E.01676
G1 X77.418 Y102.781 E1.13487
G1 X76.884 Y102.781 E.01676
G1 X51.323 Y77.219 E1.13487
G1 X50.789 Y77.219 E.01676
G1 X76.35 Y102.781 E1.13487
G1 X75.816 Y102.781 E.01676
G1 X50.255 Y77.219 E1.13487
G1 X49.721 Y77.219 E.01676
G1 X75.282 Y102.781 E1.13487
G1 X74.748 Y102.781 E.01676
G1 X49.187 Y77.219 E1.13487
G1 X48.653 Y77.219 E.01676
G1 X74.214 Y102.781 E1.13487
G1 X73.68 Y102.781 E.01676
G1 X48.119 Y77.219 E1.13487
G1 X47.585 Y77.219 E.01676
G1 X73.146 Y102.781 E1.13487
G1 X72.612 Y102.781 E.01676
G1 X47.051 Y77.219 E1.13487
G1 X46.517 Y77.219 E.01676
G1 X72.078 Y102.781 E1.13487
G1 X71.545 Y102.781 E.01676
G1 X45.983 Y77.219 E1.13487
G1 X45.449 Y77.219 E.01676
G1 X71.011 Y102.781 E1.13487
G1 X70.477 Y102.781 E.01676
G1 X44.915 Y77.219 E1.13487
G1 X44.381 Y77.219 E.01676
G1 X69.943 Y102.781 E1.13487
G1 X69.409 Y102.781 E.01676
G1 X43.847 Y77.219 E1.13487
G1 X43.314 Y77.219 E.01676
G1 X68.875 Y102.781 E1.13487
G1 X68.341 Y102.781 E.01676
G1 X42.78 Y77.219 E1.13487
G1 X42.246 Y77.219 E.01676
G1 X67.807 Y102.781 E1.13487
G1 X67.273 Y102.781 E.01676
G1 X41.712 Y77.219 E1.13487
G1 X41.219 Y77.219 E.01546
G1 X41.219 Y77.261 E.00131
G1 X66.739 Y102.781 E1.13302
G1 X66.205 Y102.781 E.01676
G1 X41.219 Y77.795 E1.10932
G1 X41.219 Y78.329 E.01676
G1 X65.671 Y102.781 E1.08561
G1 X65.137 Y102.781 E.01676
G1 X41.219 Y78.863 E1.0619
G1 X41.219 Y79.397 E.01676
M73 P4 R115
G1 X64.603 Y102.781 E1.0382
G1 X64.069 Y102.781 E.01676
G1 X41.219 Y79.931 E1.01449
G1 X41.219 Y80.465 E.01676
G1 X63.535 Y102.781 E.99078
G1 X63.001 Y102.781 E.01676
G1 X41.219 Y80.999 E.96708
G1 X41.219 Y81.533 E.01676
G1 X62.467 Y102.781 E.94337
G1 X61.933 Y102.781 E.01676
G1 X41.219 Y82.067 E.91967
G1 X41.219 Y82.601 E.01676
M73 P5 R115
G1 X61.399 Y102.781 E.89596
G1 X60.866 Y102.781 E.01676
G1 X41.219 Y83.134 E.87225
G1 X41.219 Y83.668 E.01676
G1 X60.332 Y102.781 E.84855
G1 X59.798 Y102.781 E.01676
G1 X41.219 Y84.202 E.82484
G1 X41.219 Y84.736 E.01676
G1 X59.264 Y102.781 E.80113
G1 X58.73 Y102.781 E.01676
G1 X41.219 Y85.27 E.77743
G1 X41.219 Y85.804 E.01676
G1 X58.196 Y102.781 E.75372
G1 X57.662 Y102.781 E.01676
G1 X41.219 Y86.338 E.73001
G1 X41.219 Y86.872 E.01676
G1 X57.128 Y102.781 E.70631
G1 X56.594 Y102.781 E.01676
G1 X41.219 Y87.406 E.6826
G1 X41.219 Y87.94 E.01676
G1 X56.06 Y102.781 E.65889
G1 X55.526 Y102.781 E.01676
G1 X41.219 Y88.474 E.63519
G1 X41.219 Y89.008 E.01676
G1 X54.992 Y102.781 E.61148
G1 X54.458 Y102.781 E.01676
G1 X41.219 Y89.542 E.58778
G1 X41.219 Y90.076 E.01676
G1 X53.924 Y102.781 E.56407
G1 X53.39 Y102.781 E.01676
G1 X41.219 Y90.61 E.54036
G1 X41.219 Y91.144 E.01676
G1 X52.856 Y102.781 E.51666
G1 X52.322 Y102.781 E.01676
G1 X41.219 Y91.678 E.49295
G1 X41.219 Y92.212 E.01676
G1 X51.788 Y102.781 E.46924
G1 X51.254 Y102.781 E.01676
G1 X41.219 Y92.746 E.44554
G1 X41.219 Y93.28 E.01676
G1 X50.72 Y102.781 E.42183
G1 X50.187 Y102.781 E.01676
G1 X41.219 Y93.813 E.39812
G1 X41.219 Y94.347 E.01676
G1 X49.653 Y102.781 E.37442
G1 X49.119 Y102.781 E.01676
G1 X41.219 Y94.881 E.35071
G1 X41.219 Y95.415 E.01676
G1 X48.585 Y102.781 E.327
G1 X48.051 Y102.781 E.01676
G1 X41.219 Y95.949 E.3033
G1 X41.219 Y96.483 E.01676
G1 X47.517 Y102.781 E.27959
G1 X46.983 Y102.781 E.01676
G1 X41.219 Y97.017 E.25589
G1 X41.219 Y97.551 E.01676
G1 X46.449 Y102.781 E.23218
G1 X45.915 Y102.781 E.01676
G1 X41.219 Y98.085 E.20847
G1 X41.219 Y98.619 E.01676
G1 X45.381 Y102.781 E.18477
G1 X44.847 Y102.781 E.01676
G1 X41.219 Y99.153 E.16106
G1 X41.219 Y99.687 E.01676
G1 X44.313 Y102.781 E.13735
G1 X43.779 Y102.781 E.01676
G1 X41.219 Y100.221 E.11365
G1 X41.219 Y100.755 E.01676
G1 X43.245 Y102.781 E.08994
G1 X42.711 Y102.781 E.01676
G1 X41.219 Y101.289 E.06623
G1 X41.219 Y101.823 E.01676
G1 X42.177 Y102.781 E.04253
G1 X41.643 Y102.781 E.01676
G1 X41.05 Y102.187 E.02635
M204 P1000
; stop printing object set_box_mini_prototype_with_snap_fit_015.stl id:0 copy 0
M106 S84.15
