; generated by PrusaSlicer 2.5.0+win64 on 2023-01-27 at 22:34:44 UTC


;
;

;
;
; 

; external perimeters extrusion width = 0.45mm
; perimeters extrusion width = 0.45mm
; infill extrusion width = 0.45mm
; solid infill extrusion width = 0.45mm
; top infill extrusion width = 0.40mm
; support material extrusion width = 0.35mm
; first layer extrusion width = 0.42mm

M73 P0 R75
M201 X2500 Y2500 Z400 E5000 ; sets maximum accelerations, mm/sec^2
M203 X180 Y180 Z12 E80 ; sets maximum feedrates, mm / sec
M204 P1250 R1250 T2500 ; sets acceleration (P, T) and retract acceleration (R), mm/sec^2
M205 X8.00 Y8.00 Z2.00 E10.00 ; sets the jerk limits, mm/sec
M205 S0 T0 ; sets the minimum extruding and travel feed rate, mm/sec
M107
;TYPE:Custom
M862.3 P "MINI" ; printer model check
G90 ; use absolute coordinates
M83 ; extruder relative mode
M104 S170 ; set extruder temp for bed leveling
M140 S60 ; set bed temp
M109 R170 ; wait for bed leveling temp
M190 S60 ; wait for bed temp
M204 T1250 ; set travel acceleration
G28 ; home all without mesh bed level
G29 ; mesh bed leveling 
M204 T2500 ; restore travel acceleration
M104 S215 ; set extruder temp
G92 E0
G1 Y-2 X179 F2400
G1 Z3 F720
M109 S215 ; wait for extruder temp

; intro line
G1 X170 F1000
G1 Z0.2 F720
G1 X110 E8 F900
G1 X40 E10 F700
G92 E0

M221 S95 ; set flow
G21 ; set units to millimeters
G90 ; use absolute coordinates
M83 ; use relative distances for extrusion
M900 K0.2 ; Filament gcode LA 1.5
; ; Filament gcode LA 1.0
M107
;LAYER_CHANGE
;Z:0.2
;HEIGHT:0.2
;BEFORE_LAYER_CHANGE
G92 E0.0
;0.2


G1 E-3.2 F4200
M73 P0 R74
G1 Z.2 F720
;AFTER_LAYER_CHANGE
;0.2
G1 Z.4
G1 X76.019 Y96.495 F9000
G1 Z.2 F720
G1 E3.2 F2400
M204 P800
;TYPE:Skirt/Brim
;WIDTH:0.42
G1 F1200
G1 X77.7 Y95.798 E.05704
G1 X102.301 Y95.798 E.77135
G1 X103.982 Y96.495 E.05704
G1 X104.557 Y97.07 E.0255
G1 X105.18 Y98.164 E.03947
G1 X112.427 Y126.614 E.92053
G1 X112.501 Y127.201 E.01854
G1 X112.501 Y141.67 E.45366
G1 X112.109 Y142.977 E.04278
G1 X111.063 Y143.853 E.04278
G1 X110.123 Y144.047 E.03008
G1 X69.877 Y144.047 E1.26192
G1 X68.569 Y143.655 E.04278
G1 X67.693 Y142.61 E.04278
G1 X67.499 Y141.67 E.03008
G1 X67.499 Y127.201 E.45366
G1 X67.573 Y126.614 E.01855
G1 X74.822 Y98.164 E.92054
G1 X75.444 Y97.07 E.03947
G1 X75.977 Y96.537 E.02362
M204 P1000
; printing object set_box_mini_prototype_with_snap_fit_010.stl_2 id:0 copy 0
G1 E-2.24 F4200
;WIPE_START
G1 F7200
G1 X77.489 Y95.889 E-.912
;WIPE_END
G1 E-.048 F4200
G1 Z.4 F720
G1 X77.12 Y129.449 F9000
G1 Z.2 F720
G1 E3.2 F2400
M204 P800
;TYPE:Support material
G1 F1200
G1 X77.401 Y129.731 E.01247
G1 X102.6 Y129.731 E.79009
G1 X102.881 Y129.449 E.01247
G1 X102.881 Y122.905 E.2052
G1 X105.827 Y122.905 E.09237
G1 X105.827 Y127.201 E.13471
G1 X110.123 Y127.201 E.13471
G1 X110.123 Y141.67 E.45366
G1 X95.655 Y141.67 E.45366
G1 X95.655 Y133.077 E.26942
G1 X84.345 Y133.077 E.35459
G1 X84.345 Y141.67 E.26942
G1 X69.877 Y141.67 E.45366
G1 X69.877 Y127.201 E.45366
G1 X74.173 Y127.201 E.13471
G1 X74.173 Y122.905 E.13471
G1 X77.12 Y122.905 E.09241
G1 X77.12 Y129.393 E.20343
M204 P1000
G1 E-2.24 F4200
;WIPE_START
G1 F7200
G1 X77.12 Y127.747 E-.912
;WIPE_END
G1 E-.048 F4200
G1 Z.4 F720
G1 X109.692 Y141.5 F9000
G1 Z.2 F720
G1 E3.2 F2400
M204 P800
G1 F1200
G1 X109.692 Y127.54 E.4377
G1 X109.273 Y127.54 E.01314
G1 X109.273 Y141.33 E.43238
G1 X108.854 Y141.33 E.01314
G1 X108.854 Y127.54 E.43238
G1 X108.435 Y127.54 E.01314
G1 X108.435 Y141.33 E.43238
G1 X108.016 Y141.33 E.01314
G1 X108.016 Y127.54 E.43238
G1 X107.597 Y127.54 E.01314
G1 X107.597 Y141.33 E.43238
G1 X107.178 Y141.33 E.01314
G1 X107.178 Y127.54 E.43238
G1 X106.759 Y127.54 E.01314
G1 X106.759 Y141.33 E.43238
G1 X106.34 Y141.33 E.01314
G1 X106.34 Y127.54 E.43238
G1 X105.921 Y127.54 E.01314
G1 X105.921 Y141.33 E.43238
G1 X105.502 Y141.33 E.01314
G1 X105.488 Y123.244 E.56709
G1 X105.083 Y123.244 E.01269
G1 X105.083 Y141.33 E.56709
G1 X104.664 Y141.33 E.01314
G1 X104.664 Y123.244 E.56709
G1 X104.245 Y123.244 E.01314
G1 X104.245 Y141.33 E.56709
G1 X103.826 Y141.33 E.01314
G1 X103.826 Y123.244 E.56709
G1 X103.407 Y123.244 E.01314
M73 P1 R74
G1 X103.407 Y141.33 E.56709
G1 X102.988 Y141.33 E.01314
G1 X102.988 Y129.822 E.36084
G1 X102.74 Y130.07 E.01099
G1 X102.569 Y130.07 E.00536
G1 X102.569 Y141.33 E.35307
G1 X102.15 Y141.33 E.01314
G1 X102.15 Y130.07 E.35307
G1 X101.731 Y130.07 E.01314
G1 X101.731 Y141.33 E.35307
G1 X101.312 Y141.33 E.01314
G1 X101.312 Y130.07 E.35307
G1 X100.893 Y130.07 E.01314
G1 X100.893 Y141.33 E.35307
G1 X100.474 Y141.33 E.01314
G1 X100.474 Y130.07 E.35307
G1 X100.055 Y130.07 E.01314
G1 X100.055 Y141.33 E.35307
G1 X99.636 Y141.33 E.01314
G1 X99.636 Y130.07 E.35307
G1 X99.217 Y130.07 E.01314
G1 X99.217 Y141.33 E.35307
G1 X98.799 Y141.33 E.01314
G1 X98.799 Y130.07 E.35307
G1 X98.38 Y130.07 E.01314
G1 X98.38 Y141.33 E.35307
G1 X97.961 Y141.33 E.01314
G1 X97.961 Y130.07 E.35307
G1 X97.542 Y130.07 E.01314
G1 X97.542 Y141.33 E.35307
G1 X97.123 Y141.33 E.01314
G1 X97.123 Y130.07 E.35307
G1 X96.704 Y130.07 E.01314
G1 X96.704 Y141.33 E.35307
G1 X96.285 Y141.33 E.01314
G1 X96.285 Y130.07 E.35307
G1 X95.866 Y130.07 E.01314
G1 X95.866 Y132.738 E.08365
G1 X95.447 Y132.738 E.01314
G1 X95.447 Y130.07 E.08365
G1 X95.028 Y130.07 E.01314
G1 X95.028 Y132.738 E.08365
G1 X94.609 Y132.738 E.01314
G1 X94.609 Y130.07 E.08365
G1 X94.19 Y130.07 E.01314
G1 X94.19 Y132.738 E.08365
G1 X93.771 Y132.738 E.01314
G1 X93.771 Y130.07 E.08365
G1 X93.352 Y130.07 E.01314
G1 X93.352 Y132.738 E.08365
G1 X92.933 Y132.738 E.01314
G1 X92.933 Y130.07 E.08365
G1 X92.514 Y130.07 E.01314
G1 X92.514 Y132.738 E.08365
G1 X92.095 Y132.738 E.01314
G1 X92.095 Y130.07 E.08365
G1 X91.676 Y130.07 E.01314
G1 X91.676 Y132.738 E.08365
G1 X91.257 Y132.738 E.01314
G1 X91.257 Y130.07 E.08365
G1 X90.838 Y130.07 E.01314
G1 X90.838 Y132.738 E.08365
G1 X90.419 Y132.738 E.01314
G1 X90.419 Y130.07 E.08365
G1 X90 Y130.07 E.01314
G1 X90 Y132.738 E.08365
G1 X89.581 Y132.738 E.01314
G1 X89.581 Y130.07 E.08365
G1 X89.162 Y130.07 E.01314
G1 X89.162 Y132.738 E.08365
G1 X88.743 Y132.738 E.01314
G1 X88.743 Y130.07 E.08365
G1 X88.324 Y130.07 E.01314
G1 X88.324 Y132.738 E.08365
G1 X87.905 Y132.738 E.01314
G1 X87.905 Y130.07 E.08365
G1 X87.486 Y130.07 E.01314
G1 X87.486 Y132.738 E.08365
G1 X87.067 Y132.738 E.01314
G1 X87.067 Y130.07 E.08365
G1 X86.648 Y130.07 E.01314
G1 X86.648 Y132.738 E.08365
G1 X86.229 Y132.738 E.01314
G1 X86.229 Y130.07 E.08365
G1 X85.81 Y130.07 E.01314
G1 X85.81 Y132.738 E.08365
G1 X85.391 Y132.738 E.01314
G1 X85.391 Y130.07 E.08365
G1 X84.972 Y130.07 E.01314
G1 X84.972 Y132.738 E.08365
G1 X84.553 Y132.738 E.01314
G1 X84.553 Y130.07 E.08365
G1 X84.134 Y130.07 E.01314
G1 X84.134 Y132.738 E.08365
G1 X84.006 Y132.738 E.00402
G1 X84.006 Y141.33 E.26942
G1 X83.715 Y141.33 E.00911
G1 X83.715 Y130.07 E.35307
G1 X83.296 Y130.07 E.01314
G1 X83.296 Y141.33 E.35307
G1 X82.877 Y141.33 E.01314
G1 X82.877 Y130.07 E.35307
G1 X82.458 Y130.07 E.01314
G1 X82.458 Y141.33 E.35307
G1 X82.039 Y141.33 E.01314
G1 X82.039 Y130.07 E.35307
G1 X81.62 Y130.07 E.01314
G1 X81.62 Y141.33 E.35307
G1 X81.201 Y141.33 E.01314
G1 X81.201 Y130.07 E.35307
G1 X80.783 Y130.07 E.01314
G1 X80.783 Y141.33 E.35307
G1 X80.364 Y141.33 E.01314
G1 X80.364 Y130.07 E.35307
G1 X79.945 Y130.07 E.01314
G1 X79.945 Y141.33 E.35307
G1 X79.526 Y141.33 E.01314
G1 X79.526 Y130.07 E.35307
G1 X79.107 Y130.07 E.01314
G1 X79.107 Y141.33 E.35307
G1 X78.688 Y141.33 E.01314
G1 X78.688 Y130.07 E.35307
G1 X78.269 Y130.07 E.01314
G1 X78.269 Y141.33 E.35307
G1 X77.85 Y141.33 E.01314
G1 X77.85 Y130.07 E.35307
G1 X77.431 Y130.07 E.01314
G1 X77.431 Y141.33 E.35307
G1 X77.012 Y141.33 E.01314
G1 X77.012 Y129.821 E.36087
G1 X76.781 Y129.59 E.01025
G1 X76.781 Y123.244 E.19897
G1 X76.593 Y123.244 E.00589
G1 X76.593 Y141.33 E.56709
G1 X76.174 Y141.33 E.01314
G1 X76.174 Y123.244 E.56709
G1 X75.755 Y123.244 E.01314
M73 P1 R73
G1 X75.755 Y141.33 E.56709
G1 X75.336 Y141.33 E.01314
G1 X75.336 Y123.244 E.56709
G1 X74.917 Y123.244 E.01314
G1 X74.917 Y141.33 E.56709
G1 X74.498 Y141.33 E.01314
G1 X74.498 Y127.54 E.43238
G1 X74.079 Y127.54 E.01314
G1 X74.079 Y141.33 E.43238
G1 X73.66 Y141.33 E.01314
G1 X73.66 Y127.54 E.43238
G1 X73.241 Y127.54 E.01314
G1 X73.241 Y141.33 E.43238
G1 X72.822 Y141.33 E.01314
G1 X72.822 Y127.54 E.43238
G1 X72.403 Y127.54 E.01314
G1 X72.403 Y141.33 E.43238
G1 X71.984 Y141.33 E.01314
G1 X71.984 Y127.54 E.43238
G1 X71.565 Y127.54 E.01314
G1 X71.565 Y141.33 E.43238
G1 X71.146 Y141.33 E.01314
G1 X71.146 Y127.54 E.43238
G1 X70.727 Y127.54 E.01314
G1 X70.727 Y141.33 E.43238
G1 X70.308 Y141.33 E.01314
G1 X70.308 Y127.371 E.4377
M204 P1000
G1 E-2.24 F4200
;WIPE_START
G1 F7200
G1 X70.308 Y129.016 E-.912
;WIPE_END
G1 E-.048 F4200
G1 Z.4 F720
G1 X101.614 Y128.463 F9000
G1 Z.2 F720
G1 E3.2 F2400
M204 P800
;TYPE:Perimeter
;WIDTH:0.419999
G1 F1200
G1 X78.387 Y128.463 E.72826
G1 X78.387 Y99.438 E.91008
G1 X101.614 Y99.438 E.72826
G1 X101.614 Y128.403 E.9082
M204 P1000
G1 X101.991 Y128.841 F9000
M204 P800
;TYPE:External perimeter
M73 P2 R73
G1 F1200
G1 X78.01 Y128.841 E.75191
G1 X78.01 Y99.06 E.93373
G1 X101.991 Y99.06 E.75191
G1 X101.991 Y128.781 E.93185
M204 P1000
G1 X101.609 Y128.723 F9000
G1 E-2.24 F4200
;WIPE_START
G1 F7200
G1 X100.345 Y128.785 E-.912
;WIPE_END
G1 E-.048 F4200
G1 Z.4 F720
G1 X100.736 Y99.551 F9000
G1 Z.2 F720
G1 E3.2 F2400
M204 P800
;TYPE:Solid infill
;WIDTH:0.421081
G1 F1200
G1 X101.331 Y100.146 E.02645
G1 X101.331 Y100.68 E.01682
G1 X100.371 Y99.72 E.04269
G1 X99.836 Y99.72 E.01682
G1 X101.331 Y101.215 E.06647
G1 X101.331 Y101.75 E.01682
G1 X99.302 Y99.72 E.09025
G1 X98.767 Y99.72 E.01682
G1 X101.331 Y102.285 E.11404
G1 X101.331 Y102.82 E.01682
G1 X98.232 Y99.72 E.13782
G1 X97.697 Y99.72 E.01682
G1 X101.331 Y103.354 E.1616
G1 X101.331 Y103.889 E.01682
G1 X97.162 Y99.72 E.18538
G1 X96.628 Y99.72 E.01682
G1 X101.331 Y104.424 E.20916
G1 X101.331 Y104.959 E.01682
G1 X96.093 Y99.72 E.23295
G1 X95.558 Y99.72 E.01682
G1 X101.331 Y105.494 E.25673
G1 X101.331 Y106.028 E.01682
G1 X95.023 Y99.72 E.28051
G1 X94.488 Y99.72 E.01682
G1 X101.331 Y106.563 E.30429
G1 X101.331 Y107.098 E.01682
G1 X93.954 Y99.72 E.32807
G1 X93.419 Y99.72 E.01682
G1 X101.331 Y107.633 E.35186
G1 X101.331 Y108.168 E.01682
G1 X92.884 Y99.72 E.37564
G1 X92.349 Y99.72 E.01682
G1 X101.331 Y108.702 E.39942
G1 X101.331 Y109.237 E.01682
G1 X91.814 Y99.72 E.4232
G1 X91.28 Y99.72 E.01682
G1 X101.331 Y109.772 E.44698
G1 X101.331 Y110.307 E.01682
G1 X90.745 Y99.72 E.47076
G1 X90.21 Y99.72 E.01682
G1 X101.331 Y110.842 E.49455
G1 X101.331 Y111.376 E.01682
G1 X89.675 Y99.72 E.51833
G1 X89.14 Y99.72 E.01682
G1 X101.331 Y111.911 E.54211
G1 X101.331 Y112.446 E.01682
G1 X88.606 Y99.72 E.56589
G1 X88.071 Y99.72 E.01682
G1 X101.331 Y112.981 E.58967
G1 X101.331 Y113.516 E.01682
G1 X87.536 Y99.72 E.61346
G1 X87.001 Y99.72 E.01682
G1 X101.331 Y114.05 E.63724
G1 X101.331 Y114.585 E.01682
G1 X86.466 Y99.72 E.66102
G1 X85.932 Y99.72 E.01682
G1 X101.331 Y115.12 E.6848
G1 X101.331 Y115.655 E.01682
G1 X85.397 Y99.72 E.70858
G1 X84.862 Y99.72 E.01682
G1 X101.331 Y116.19 E.73237
G1 X101.331 Y116.724 E.01682
G1 X84.327 Y99.72 E.75615
G1 X83.792 Y99.72 E.01682
G1 X101.331 Y117.259 E.77993
G1 X101.331 Y117.794 E.01682
G1 X83.258 Y99.72 E.80371
G1 X82.723 Y99.72 E.01682
G1 X101.331 Y118.329 E.82749
G1 X101.331 Y118.864 E.01682
G1 X82.188 Y99.72 E.85128
G1 X81.653 Y99.72 E.01682
G1 X101.331 Y119.398 E.87506
G1 X101.331 Y119.933 E.01682
G1 X81.118 Y99.72 E.89884
G1 X80.584 Y99.72 E.01682
G1 X101.331 Y120.468 E.92262
G1 X101.331 Y121.003 E.01682
G1 X80.049 Y99.72 E.9464
G1 X79.514 Y99.72 E.01682
G1 X101.331 Y121.538 E.97019
G1 X101.331 Y122.072 E.01682
G1 X78.979 Y99.72 E.99397
G1 X78.67 Y99.72 E.00972
G1 X78.67 Y99.946 E.00709
G1 X101.331 Y122.607 E1.00772
G1 X101.331 Y123.142 E.01682
M73 P2 R72
G1 X78.67 Y100.481 E1.00772
G1 X78.67 Y101.016 E.01682
M73 P3 R72
G1 X101.331 Y123.677 E1.00772
G1 X101.331 Y124.212 E.01682
G1 X78.67 Y101.55 E1.00772
G1 X78.67 Y102.085 E.01682
G1 X101.331 Y124.746 E1.00772
G1 X101.331 Y125.281 E.01682
G1 X78.67 Y102.62 E1.00772
G1 X78.67 Y103.155 E.01682
G1 X101.331 Y125.816 E1.00772
G1 X101.331 Y126.351 E.01682
G1 X78.67 Y103.69 E1.00772
G1 X78.67 Y104.224 E.01682
G1 X101.331 Y126.886 E1.00772
G1 X101.331 Y127.42 E.01682
G1 X78.67 Y104.759 E1.00772
G1 X78.67 Y105.294 E.01682
G1 X101.331 Y127.955 E1.00772
G1 X101.331 Y128.181 E.00709
G1 X101.022 Y128.181 E.00973
G1 X78.67 Y105.829 E.99396
G1 X78.67 Y106.364 E.01682
G1 X100.487 Y128.181 E.97018
G1 X99.952 Y128.181 E.01682
G1 X78.67 Y106.898 E.9464
G1 X78.67 Y107.433 E.01682
G1 X99.417 Y128.181 E.92262
G1 X98.883 Y128.181 E.01682
G1 X78.67 Y107.968 E.89883
G1 X78.67 Y108.503 E.01682
G1 X98.348 Y128.181 E.87505
G1 X97.813 Y128.181 E.01682
G1 X78.67 Y109.038 E.85127
G1 X78.67 Y109.572 E.01682
G1 X97.278 Y128.181 E.82749
G1 X96.743 Y128.181 E.01682
G1 X78.67 Y110.107 E.80371
G1 X78.67 Y110.642 E.01682
G1 X96.209 Y128.181 E.77992
G1 X95.674 Y128.181 E.01682
G1 X78.67 Y111.177 E.75614
G1 X78.67 Y111.712 E.01682
G1 X95.139 Y128.181 E.73236
G1 X94.604 Y128.181 E.01682
G1 X78.67 Y112.246 E.70858
G1 X78.67 Y112.781 E.01682
G1 X94.069 Y128.181 E.6848
G1 X93.535 Y128.181 E.01682
G1 X78.67 Y113.316 E.66101
G1 X78.67 Y113.851 E.01682
G1 X93 Y128.181 E.63723
G1 X92.465 Y128.181 E.01682
G1 X78.67 Y114.386 E.61345
G1 X78.67 Y114.92 E.01682
G1 X91.93 Y128.181 E.58967
G1 X91.395 Y128.181 E.01682
G1 X78.67 Y115.455 E.56589
G1 X78.67 Y115.99 E.01682
G1 X90.861 Y128.181 E.54211
G1 X90.326 Y128.181 E.01682
G1 X78.67 Y116.525 E.51832
G1 X78.67 Y117.06 E.01682
G1 X89.791 Y128.181 E.49454
G1 X89.256 Y128.181 E.01682
G1 X78.67 Y117.594 E.47076
G1 X78.67 Y118.129 E.01682
G1 X88.721 Y128.181 E.44698
G1 X88.187 Y128.181 E.01682
G1 X78.67 Y118.664 E.4232
G1 X78.67 Y119.199 E.01682
G1 X87.652 Y128.181 E.39941
G1 X87.117 Y128.181 E.01682
M73 P4 R72
G1 X78.67 Y119.734 E.37563
G1 X78.67 Y120.268 E.01682
G1 X86.582 Y128.181 E.35185
G1 X86.047 Y128.181 E.01682
G1 X78.67 Y120.803 E.32807
G1 X78.67 Y121.338 E.01682
G1 X85.513 Y128.181 E.30429
G1 X84.978 Y128.181 E.01682
G1 X78.67 Y121.873 E.2805
G1 X78.67 Y122.408 E.01682
G1 X84.443 Y128.181 E.25672
G1 X83.908 Y128.181 E.01682
G1 X78.67 Y122.942 E.23294
G1 X78.67 Y123.477 E.01682
G1 X83.373 Y128.181 E.20916
G1 X82.839 Y128.181 E.01682
G1 X78.67 Y124.012 E.18538
G1 X78.67 Y124.547 E.01682
G1 X82.304 Y128.181 E.16159
G1 X81.769 Y128.181 E.01682
G1 X78.67 Y125.082 E.13781
G1 X78.67 Y125.616 E.01682
G1 X81.234 Y128.181 E.11403
G1 X80.699 Y128.181 E.01682
G1 X78.67 Y126.151 E.09025
G1 X78.67 Y126.686 E.01682
G1 X80.165 Y128.181 E.06647
G1 X79.63 Y128.181 E.01682
G1 X78.67 Y127.221 E.04268
G1 X78.67 Y127.756 E.01682
G1 X79.265 Y128.35 E.02645
M204 P1000
; stop printing object set_box_mini_prototype_with_snap_fit_010.stl_2 id:0 copy 0
M106 S84.15
;LAYER_CHANGE
;Z:0.442857
;HEIGHT:0.242857
;BEFORE_LAYER_CHANGE
G92 E0.0
;0.442857


G1 E-2.24 F4200
;WIPE_START
G1 F7200
G1 X78.67 Y127.756 E-.46611
G1 X78.67 Y127.221 E-.29637
G1 X78.861 Y127.412 E-.14952
;WIPE_END
G1 E-.048 F4200
G1 Z.4 F720
G1 Z.443
;AFTER_LAYER_CHANGE
;0.442857
; printing object set_box_mini_prototype_with_snap_fit_010.stl_2 id:0 copy 0
G1 Z.643
G1 X77.111 Y129.991 F9000
G1 Z.443 F720
G1 E3.2 F2400
;TYPE:Support material
;WIDTH:0.35
G1 X77.111 Y129.669 E.00969
G1 X102.889 Y129.669 E.77532
G1 E-2.24 F4200
;WIPE_START
G1 F7200
G1 X101.243 Y129.669 E-.912
;WIPE_END
G1 E-.048 F4200
G1 Z.643 F720
G1 X107.185 Y138.732 F9000
G1 Z.443 F720
G1 E3.2 F2400
G1 X98.593 Y138.732 E.25844
G1 X98.593 Y134.435 E.12922
G1 X107.185 Y134.435 E.25844
G1 X107.185 Y130.139 E.12922
G1 X72.815 Y130.139 E1.03376
G1 X72.815 Y134.435 E.12922
G1 X81.407 Y134.435 E.25844
G1 X81.407 Y138.732 E.12922
G1 X72.815 Y138.732 E.25844
; stop printing object set_box_mini_prototype_with_snap_fit_010.stl_2 id:0 copy 0
;LAYER_CHANGE
;Z:0.45
;HEIGHT:0.00714284
;BEFORE_LAYER_CHANGE
G92 E0.0
;0.45


G1 E-2.24 F4200
;WIPE_START
G1 F7200
G1 X74.46 Y138.732 E-.912
;WIPE_END
G1 E-.048 F4200
G1 Z.643 F720
;AFTER_LAYER_CHANGE
;0.45
G1 X74.46 Y144.047 F9000
G1 Z.45 F720
