; generated by PrusaSlicer 2.5.0+win64 on 2023-01-28 at 04:45:58 UTC


;
;

;
;
; 

; external perimeters extrusion width = 0.45mm
; perimeters extrusion width = 0.45mm
; infill extrusion width = 0.45mm
; solid infill extrusion width = 0.45mm
; top infill extrusion width = 0.40mm
; support material extrusion width = 0.35mm
; first layer extrusion width = 0.42mm

; external perimeters extrusion width = 0.45mm
; perimeters extrusion width = 0.45mm
; infill extrusion width = 0.45mm
; solid infill extrusion width = 0.45mm
; top infill extrusion width = 0.40mm
; support material extrusion width = 0.35mm
; first layer extrusion width = 0.42mm

M73 P0 R109
M201 X2500 Y2500 Z400 E5000 ; sets maximum accelerations, mm/sec^2
M203 X180 Y180 Z12 E80 ; sets maximum feedrates, mm / sec
M204 P1250 R1250 T2500 ; sets acceleration (P, T) and retract acceleration (R), mm/sec^2
M205 X8.00 Y8.00 Z2.00 E10.00 ; sets the jerk limits, mm/sec
M205 S0 T0 ; sets the minimum extruding and travel feed rate, mm/sec
M107
;TYPE:Custom
M862.3 P "MINI" ; printer model check
G90 ; use absolute coordinates
M83 ; extruder relative mode
M104 S170 ; set extruder temp for bed leveling
M140 S60 ; set bed temp
M109 R170 ; wait for bed leveling temp
M190 S60 ; wait for bed temp
M204 T1250 ; set travel acceleration
G28 ; home all without mesh bed level
G29 ; mesh bed leveling 
M204 T2500 ; restore travel acceleration
M104 S215 ; set extruder temp
G92 E0
G1 Y-2 X179 F2400
G1 Z3 F720
M109 S215 ; wait for extruder temp

; intro line
G1 X170 F1000
G1 Z0.2 F720
G1 X110 E8 F900
G1 X40 E10 F700
G92 E0

M221 S95 ; set flow
G21 ; set units to millimeters
G90 ; use absolute coordinates
M83 ; use relative distances for extrusion
M900 K0.2 ; Filament gcode LA 1.5
; ; Filament gcode LA 1.0
M107
;LAYER_CHANGE
;Z:0.2
;HEIGHT:0.2
;BEFORE_LAYER_CHANGE
G92 E0.0
;0.2


G1 E-3.2 F4200
G1 Z.2 F720
;AFTER_LAYER_CHANGE
;0.2
G1 Z.4
G1 X38.165 Y45.842 F9000
G1 Z.2 F720
G1 E3.2 F2400
M204 P800
;TYPE:Skirt/Brim
;WIDTH:0.42
G1 F1200
G1 X39.846 Y45.146 E.05704
G1 X139.847 Y45.146 E3.13546
G1 X141.528 Y45.842 E.05704
G1 X142.103 Y46.417 E.0255
G1 X142.799 Y48.098 E.05704
G1 X142.796 Y63.23 E.47447
G1 X138.12 Y147.606 E2.6496
G1 X137.657 Y148.889 E.04278
G1 X136.564 Y149.706 E.04278
G1 X135.747 Y149.851 E.02603
G1 X39.747 Y149.851 E3.01001
G1 X38.44 Y149.46 E.04278
M73 P0 R108
G1 X37.564 Y148.414 E.04278
G1 X37.37 Y147.488 E.02967
G1 X36.894 Y63.112 E2.64558
G1 X36.894 Y48.098 E.47077
G1 X37.59 Y46.417 E.05704
G1 X38.123 Y45.884 E.02362
M204 P1000
; printing object set_box_mini_prototype_with_snap_fit_012.stl_1 id:0 copy 0
G1 E-2.24 F4200
;WIPE_START
G1 F7200
G1 X39.636 Y45.236 E-.912
;WIPE_END
G1 E-.048 F4200
G1 Z.4 F720
G1 X139.16 Y48.785 F9000
G1 Z.2 F720
G1 E3.2 F2400
M204 P800
;TYPE:Perimeter
;WIDTH:0.419999
G1 F1200
G1 X139.16 Y62.412 E.42726
G1 X40.533 Y62.412 E3.09237
G1 X40.533 Y48.785 E.42726
G1 X139.1 Y48.785 E3.09049
M204 P1000
G1 X139.537 Y48.408 F9000
M204 P800
;TYPE:External perimeter
G1 F1200
G1 X139.537 Y62.789 E.45091
G1 X40.156 Y62.789 E3.11602
G1 X40.156 Y48.408 E.45091
G1 X139.477 Y48.408 E3.11414
M204 P1000
G1 X139.354 Y48.763 F9000
G1 X139.047 Y49.663
M204 P800
;TYPE:Solid infill
;WIDTH:0.42143
G1 F1200
G1 X138.452 Y49.068 E.02651
G1 X137.916 Y49.068 E.01685
G1 X138.877 Y50.029 E.04278
G1 X138.877 Y50.564 E.01685
G1 X137.381 Y49.068 E.06661
G1 X136.846 Y49.068 E.01685
G1 X138.877 Y51.099 E.09044
G1 X138.877 Y51.635 E.01685
G1 X136.31 Y49.068 E.11426
G1 X135.775 Y49.068 E.01685
G1 X138.877 Y52.17 E.13809
G1 X138.877 Y52.705 E.01685
G1 X135.24 Y49.068 E.16191
G1 X134.704 Y49.068 E.01685
G1 X138.877 Y53.241 E.18574
G1 X138.877 Y53.776 E.01685
G1 X134.169 Y49.068 E.20957
G1 X133.634 Y49.068 E.01685
G1 X138.877 Y54.311 E.23339
G1 X138.877 Y54.846 E.01685
G1 X133.099 Y49.068 E.25722
G1 X132.563 Y49.068 E.01685
G1 X138.877 Y55.382 E.28104
G1 X138.877 Y55.917 E.01685
G1 X132.028 Y49.068 E.30487
G1 X131.493 Y49.068 E.01685
G1 X138.877 Y56.452 E.32869
G1 X138.877 Y56.988 E.01685
G1 X130.957 Y49.068 E.35252
G1 X130.422 Y49.068 E.01685
G1 X138.877 Y57.523 E.37635
G1 X138.877 Y58.058 E.01685
M73 P1 R108
G1 X129.887 Y49.068 E.40017
G1 X129.352 Y49.068 E.01685
G1 X138.877 Y58.594 E.424
G1 X138.877 Y59.129 E.01685
G1 X128.816 Y49.068 E.44782
G1 X128.281 Y49.068 E.01685
G1 X138.877 Y59.664 E.47165
G1 X138.877 Y60.199 E.01685
G1 X127.746 Y49.068 E.49548
G1 X127.21 Y49.068 E.01685
G1 X138.877 Y60.735 E.5193
G1 X138.877 Y61.27 E.01685
G1 X126.675 Y49.068 E.54313
G1 X126.14 Y49.068 E.01685
G1 X138.877 Y61.805 E.56695
G1 X138.877 Y62.129 E.01018
G1 X138.666 Y62.129 E.00666
G1 X125.604 Y49.068 E.58135
G1 X125.069 Y49.068 E.01685
G1 X138.13 Y62.129 E.58135
G1 X137.595 Y62.129 E.01685
G1 X124.534 Y49.068 E.58135
G1 X123.999 Y49.068 E.01685
G1 X137.06 Y62.129 E.58135
G1 X136.525 Y62.129 E.01685
G1 X123.463 Y49.068 E.58135
G1 X122.928 Y49.068 E.01685
G1 X135.989 Y62.129 E.58135
G1 X135.454 Y62.129 E.01685
G1 X122.393 Y49.068 E.58135
G1 X121.857 Y49.068 E.01685
G1 X134.919 Y62.129 E.58135
G1 X134.383 Y62.129 E.01685
G1 X121.322 Y49.068 E.58135
G1 X120.787 Y49.068 E.01685
G1 X133.848 Y62.129 E.58135
G1 X133.313 Y62.129 E.01685
G1 X120.252 Y49.068 E.58135
G1 X119.716 Y49.068 E.01685
G1 X132.777 Y62.129 E.58135
G1 X132.242 Y62.129 E.01685
G1 X119.181 Y49.068 E.58135
G1 X118.646 Y49.068 E.01685
G1 X131.707 Y62.129 E.58135
G1 X131.172 Y62.129 E.01685
G1 X118.11 Y49.068 E.58135
G1 X117.575 Y49.068 E.01685
G1 X130.636 Y62.129 E.58135
G1 X130.101 Y62.129 E.01685
M73 P1 R107
G1 X117.04 Y49.068 E.58135
G1 X116.504 Y49.068 E.01685
G1 X129.566 Y62.129 E.58135
G1 X129.03 Y62.129 E.01685
G1 X115.969 Y49.068 E.58135
G1 X115.434 Y49.068 E.01685
G1 X128.495 Y62.129 E.58135
G1 X127.96 Y62.129 E.01685
G1 X114.899 Y49.068 E.58135
G1 X114.363 Y49.068 E.01685
G1 X127.425 Y62.129 E.58135
G1 X126.889 Y62.129 E.01685
G1 X113.828 Y49.068 E.58135
G1 X113.293 Y49.068 E.01685
G1 X126.354 Y62.129 E.58135
G1 X125.819 Y62.129 E.01685
G1 X112.757 Y49.068 E.58135
G1 X112.222 Y49.068 E.01685
G1 X125.283 Y62.129 E.58135
G1 X124.748 Y62.129 E.01685
G1 X111.687 Y49.068 E.58135
G1 X111.152 Y49.068 E.01685
G1 X124.213 Y62.129 E.58135
G1 X123.677 Y62.129 E.01685
G1 X110.616 Y49.068 E.58135
G1 X110.081 Y49.068 E.01685
G1 X123.142 Y62.129 E.58135
G1 X122.607 Y62.129 E.01685
G1 X109.546 Y49.068 E.58135
G1 X109.01 Y49.068 E.01685
G1 X122.072 Y62.129 E.58135
G1 X121.536 Y62.129 E.01685
G1 X108.475 Y49.068 E.58135
G1 X107.94 Y49.068 E.01685
G1 X121.001 Y62.129 E.58135
G1 X120.466 Y62.129 E.01685
G1 X107.404 Y49.068 E.58135
G1 X106.869 Y49.068 E.01685
G1 X119.93 Y62.129 E.58135
G1 X119.395 Y62.129 E.01685
G1 X106.334 Y49.068 E.58135
G1 X105.799 Y49.068 E.01685
G1 X118.86 Y62.129 E.58135
G1 X118.325 Y62.129 E.01685
G1 X105.263 Y49.068 E.58135
G1 X104.728 Y49.068 E.01685
G1 X117.789 Y62.129 E.58135
G1 X117.254 Y62.129 E.01685
G1 X104.193 Y49.068 E.58135
G1 X103.657 Y49.068 E.01685
G1 X116.719 Y62.129 E.58135
G1 X116.183 Y62.129 E.01685
G1 X103.122 Y49.068 E.58135
G1 X102.587 Y49.068 E.01685
G1 X115.648 Y62.129 E.58135
G1 X115.113 Y62.129 E.01685
G1 X102.052 Y49.068 E.58135
G1 X101.516 Y49.068 E.01685
G1 X114.577 Y62.129 E.58135
G1 X114.042 Y62.129 E.01685
G1 X100.981 Y49.068 E.58135
G1 X100.446 Y49.068 E.01685
G1 X113.507 Y62.129 E.58135
G1 X112.972 Y62.129 E.01685
G1 X99.91 Y49.068 E.58135
G1 X99.375 Y49.068 E.01685
G1 X112.436 Y62.129 E.58135
G1 X111.901 Y62.129 E.01685
G1 X98.84 Y49.068 E.58135
G1 X98.304 Y49.068 E.01685
G1 X111.366 Y62.129 E.58135
G1 X110.83 Y62.129 E.01685
G1 X97.769 Y49.068 E.58135
G1 X97.234 Y49.068 E.01685
G1 X110.295 Y62.129 E.58135
G1 X109.76 Y62.129 E.01685
G1 X96.699 Y49.068 E.58135
G1 X96.163 Y49.068 E.01685
G1 X109.225 Y62.129 E.58135
G1 X108.689 Y62.129 E.01685
G1 X95.628 Y49.068 E.58135
G1 X95.093 Y49.068 E.01685
G1 X108.154 Y62.129 E.58135
G1 X107.619 Y62.129 E.01685
G1 X94.557 Y49.068 E.58135
G1 X94.022 Y49.068 E.01685
G1 X107.083 Y62.129 E.58135
G1 X106.548 Y62.129 E.01685
G1 X93.487 Y49.068 E.58135
G1 X92.952 Y49.068 E.01685
M73 P2 R107
G1 X106.013 Y62.129 E.58135
G1 X105.477 Y62.129 E.01685
G1 X92.416 Y49.068 E.58135
G1 X91.881 Y49.068 E.01685
G1 X104.942 Y62.129 E.58135
G1 X104.407 Y62.129 E.01685
G1 X91.346 Y49.068 E.58135
G1 X90.81 Y49.068 E.01685
G1 X103.872 Y62.129 E.58135
G1 X103.336 Y62.129 E.01685
G1 X90.275 Y49.068 E.58135
G1 X89.74 Y49.068 E.01685
G1 X102.801 Y62.129 E.58135
G1 X102.266 Y62.129 E.01685
G1 X89.204 Y49.068 E.58135
G1 X88.669 Y49.068 E.01685
G1 X101.73 Y62.129 E.58135
G1 X101.195 Y62.129 E.01685
G1 X88.134 Y49.068 E.58135
G1 X87.599 Y49.068 E.01685
G1 X100.66 Y62.129 E.58135
G1 X100.125 Y62.129 E.01685
G1 X87.063 Y49.068 E.58135
G1 X86.528 Y49.068 E.01685
G1 X99.589 Y62.129 E.58135
G1 X99.054 Y62.129 E.01685
G1 X85.993 Y49.068 E.58135
G1 X85.457 Y49.068 E.01685
G1 X98.519 Y62.129 E.58135
G1 X97.983 Y62.129 E.01685
G1 X84.922 Y49.068 E.58135
G1 X84.387 Y49.068 E.01685
G1 X97.448 Y62.129 E.58135
G1 X96.913 Y62.129 E.01685
M73 P2 R106
G1 X83.852 Y49.068 E.58135
G1 X83.316 Y49.068 E.01685
G1 X96.377 Y62.129 E.58135
G1 X95.842 Y62.129 E.01685
G1 X82.781 Y49.068 E.58135
G1 X82.246 Y49.068 E.01685
G1 X95.307 Y62.129 E.58135
G1 X94.772 Y62.129 E.01685
G1 X81.71 Y49.068 E.58135
G1 X81.175 Y49.068 E.01685
G1 X94.236 Y62.129 E.58135
G1 X93.701 Y62.129 E.01685
G1 X80.64 Y49.068 E.58135
G1 X80.104 Y49.068 E.01685
G1 X93.166 Y62.129 E.58135
G1 X92.63 Y62.129 E.01685
G1 X79.569 Y49.068 E.58135
G1 X79.034 Y49.068 E.01685
G1 X92.095 Y62.129 E.58135
G1 X91.56 Y62.129 E.01685
G1 X78.499 Y49.068 E.58135
G1 X77.963 Y49.068 E.01685
G1 X91.025 Y62.129 E.58135
G1 X90.489 Y62.129 E.01685
G1 X77.428 Y49.068 E.58135
G1 X76.893 Y49.068 E.01685
G1 X89.954 Y62.129 E.58135
G1 X89.419 Y62.129 E.01685
G1 X76.357 Y49.068 E.58135
G1 X75.822 Y49.068 E.01685
G1 X88.883 Y62.129 E.58135
G1 X88.348 Y62.129 E.01685
G1 X75.287 Y49.068 E.58135
G1 X74.752 Y49.068 E.01685
G1 X87.813 Y62.129 E.58135
G1 X87.278 Y62.129 E.01685
G1 X74.216 Y49.068 E.58135
G1 X73.681 Y49.068 E.01685
G1 X86.742 Y62.129 E.58135
G1 X86.207 Y62.129 E.01685
G1 X73.146 Y49.068 E.58135
G1 X72.61 Y49.068 E.01685
G1 X85.672 Y62.129 E.58135
G1 X85.136 Y62.129 E.01685
G1 X72.075 Y49.068 E.58135
G1 X71.54 Y49.068 E.01685
G1 X84.601 Y62.129 E.58135
G1 X84.066 Y62.129 E.01685
G1 X71.004 Y49.068 E.58135
G1 X70.469 Y49.068 E.01685
G1 X83.53 Y62.129 E.58135
G1 X82.995 Y62.129 E.01685
G1 X69.934 Y49.068 E.58135
G1 X69.399 Y49.068 E.01685
G1 X82.46 Y62.129 E.58135
G1 X81.925 Y62.129 E.01685
G1 X68.863 Y49.068 E.58135
G1 X68.328 Y49.068 E.01685
G1 X81.389 Y62.129 E.58135
G1 X80.854 Y62.129 E.01685
G1 X67.793 Y49.068 E.58135
G1 X67.257 Y49.068 E.01685
G1 X80.319 Y62.129 E.58135
G1 X79.783 Y62.129 E.01685
G1 X66.722 Y49.068 E.58135
G1 X66.187 Y49.068 E.01685
G1 X79.248 Y62.129 E.58135
G1 X78.713 Y62.129 E.01685
G1 X65.652 Y49.068 E.58135
G1 X65.116 Y49.068 E.01685
G1 X78.178 Y62.129 E.58135
G1 X77.642 Y62.129 E.01685
G1 X64.581 Y49.068 E.58135
G1 X64.046 Y49.068 E.01685
G1 X77.107 Y62.129 E.58135
G1 X76.572 Y62.129 E.01685
G1 X63.51 Y49.068 E.58135
G1 X62.975 Y49.068 E.01685
G1 X76.036 Y62.129 E.58135
G1 X75.501 Y62.129 E.01685
G1 X62.44 Y49.068 E.58135
G1 X61.904 Y49.068 E.01685
G1 X74.966 Y62.129 E.58135
G1 X74.43 Y62.129 E.01685
G1 X61.369 Y49.068 E.58135
G1 X60.834 Y49.068 E.01685
G1 X73.895 Y62.129 E.58135
G1 X73.36 Y62.129 E.01685
G1 X60.299 Y49.068 E.58135
G1 X59.763 Y49.068 E.01685
G1 X72.825 Y62.129 E.58135
G1 X72.289 Y62.129 E.01685
G1 X59.228 Y49.068 E.58135
G1 X58.693 Y49.068 E.01685
G1 X71.754 Y62.129 E.58135
G1 X71.219 Y62.129 E.01685
G1 X58.157 Y49.068 E.58135
G1 X57.622 Y49.068 E.01685
G1 X70.683 Y62.129 E.58135
G1 X70.148 Y62.129 E.01685
G1 X57.087 Y49.068 E.58135
G1 X56.552 Y49.068 E.01685
G1 X69.613 Y62.129 E.58135
G1 X69.078 Y62.129 E.01685
M73 P3 R106
G1 X56.016 Y49.068 E.58135
G1 X55.481 Y49.068 E.01685
G1 X68.542 Y62.129 E.58135
G1 X68.007 Y62.129 E.01685
G1 X54.946 Y49.068 E.58135
G1 X54.41 Y49.068 E.01685
G1 X67.472 Y62.129 E.58135
G1 X66.936 Y62.129 E.01685
G1 X53.875 Y49.068 E.58135
G1 X53.34 Y49.068 E.01685
G1 X66.401 Y62.129 E.58135
G1 X65.866 Y62.129 E.01685
G1 X52.804 Y49.068 E.58135
G1 X52.269 Y49.068 E.01685
G1 X65.33 Y62.129 E.58135
G1 X64.795 Y62.129 E.01685
G1 X51.734 Y49.068 E.58135
G1 X51.199 Y49.068 E.01685
G1 X64.26 Y62.129 E.58135
G1 X63.725 Y62.129 E.01685
M73 P3 R105
G1 X50.663 Y49.068 E.58135
G1 X50.128 Y49.068 E.01685
G1 X63.189 Y62.129 E.58135
G1 X62.654 Y62.129 E.01685
G1 X49.593 Y49.068 E.58135
G1 X49.057 Y49.068 E.01685
G1 X62.119 Y62.129 E.58135
G1 X61.583 Y62.129 E.01685
G1 X48.522 Y49.068 E.58135
G1 X47.987 Y49.068 E.01685
G1 X61.048 Y62.129 E.58135
G1 X60.513 Y62.129 E.01685
G1 X47.452 Y49.068 E.58135
G1 X46.916 Y49.068 E.01685
G1 X59.978 Y62.129 E.58135
G1 X59.442 Y62.129 E.01685
G1 X46.381 Y49.068 E.58135
G1 X45.846 Y49.068 E.01685
G1 X58.907 Y62.129 E.58135
G1 X58.372 Y62.129 E.01685
G1 X45.31 Y49.068 E.58135
G1 X44.775 Y49.068 E.01685
G1 X57.836 Y62.129 E.58135
G1 X57.301 Y62.129 E.01685
G1 X44.24 Y49.068 E.58135
G1 X43.704 Y49.068 E.01685
G1 X56.766 Y62.129 E.58135
G1 X56.23 Y62.129 E.01685
G1 X43.169 Y49.068 E.58135
G1 X42.634 Y49.068 E.01685
G1 X55.695 Y62.129 E.58135
G1 X55.16 Y62.129 E.01685
G1 X42.099 Y49.068 E.58135
G1 X41.563 Y49.068 E.01685
G1 X54.625 Y62.129 E.58135
G1 X54.089 Y62.129 E.01685
G1 X41.028 Y49.068 E.58135
G1 X40.816 Y49.068 E.00667
G1 X40.816 Y49.391 E.01018
G1 X53.554 Y62.129 E.56696
G1 X53.019 Y62.129 E.01685
G1 X40.816 Y49.926 E.54313
G1 X40.816 Y50.462 E.01685
G1 X52.483 Y62.129 E.5193
G1 X51.948 Y62.129 E.01685
G1 X40.816 Y50.997 E.49548
G1 X40.816 Y51.532 E.01685
G1 X51.413 Y62.129 E.47165
G1 X50.878 Y62.129 E.01685
G1 X40.816 Y52.068 E.44783
G1 X40.816 Y52.603 E.01685
G1 X50.342 Y62.129 E.424
G1 X49.807 Y62.129 E.01685
G1 X40.816 Y53.138 E.40018
G1 X40.816 Y53.673 E.01685
G1 X49.272 Y62.129 E.37635
G1 X48.736 Y62.129 E.01685
G1 X40.816 Y54.209 E.35252
G1 X40.816 Y54.744 E.01685
G1 X48.201 Y62.129 E.3287
G1 X47.666 Y62.129 E.01685
G1 X40.816 Y55.279 E.30487
G1 X40.816 Y55.815 E.01685
G1 X47.13 Y62.129 E.28105
G1 X46.595 Y62.129 E.01685
G1 X40.816 Y56.35 E.25722
G1 X40.816 Y56.885 E.01685
G1 X46.06 Y62.129 E.23339
G1 X45.525 Y62.129 E.01685
G1 X40.816 Y57.42 E.20957
G1 X40.816 Y57.956 E.01685
G1 X44.989 Y62.129 E.18574
G1 X44.454 Y62.129 E.01685
G1 X40.816 Y58.491 E.16192
G1 X40.816 Y59.026 E.01685
G1 X43.919 Y62.129 E.13809
G1 X43.383 Y62.129 E.01685
G1 X40.816 Y59.562 E.11427
G1 X40.816 Y60.097 E.01685
G1 X42.848 Y62.129 E.09044
G1 X42.313 Y62.129 E.01685
G1 X40.816 Y60.632 E.06661
G1 X40.816 Y61.168 E.01685
G1 X41.778 Y62.129 E.04279
G1 X41.242 Y62.129 E.01685
G1 X40.647 Y61.533 E.02651
M204 P1000
; stop printing object set_box_mini_prototype_with_snap_fit_012.stl_1 id:0 copy 0
; printing object set_box_mini_prototype_with_snap_fit_012.stl_2 id:1 copy 0
G1 E-2.24 F4200
;WIPE_START
G1 F7200
G1 X41.242 Y62.129 E-.46685
G1 X41.778 Y62.129 E-.29664
G1 X41.588 Y61.939 E-.14851
;WIPE_END
G1 E-.048 F4200
G1 Z.4 F720
G1 X67.869 Y146.684 F9000
G1 Z.2 F720
G1 E3.2 F2400
M204 P800
;TYPE:Perimeter
;WIDTH:0.425614
G1 F1200
G1 X67.036 Y146.687 E.0265
;WIDTH:0.419999
G1 X65.583 Y146.687 E.04557
;WIDTH:0.434228
G1 X64.85 Y146.68 E.02385
G1 X65.29 Y146.287 E.0192
;WIDTH:0.419999
G1 X66.312 Y143.077 E.10564
G1 X67.33 Y146.287 E.10558
;WIDTH:0.425614
G1 X67.821 Y146.649 E.01942
M204 P1000
G1 E-2.24 F4200
;WIPE_START
G1 F7200
G1 X67.036 Y146.687 E-.43524
G1 X66.176 Y146.687 E-.47676
;WIPE_END
G1 E-.048 F4200
G1 Z.4 F720
G1 X73.09 Y146.638 F9000
G1 Z.2 F720
G1 E3.2 F2400
M204 P800
;WIDTH:0.434228
G1 F1200
G1 X73.426 Y146.397 E.01345
;WIDTH:0.466714
G1 X73.465 Y146.327 E.00283
;WIDTH:0.506952
G1 X73.504 Y146.257 E.0031
;WIDTH:0.54719
G1 X73.543 Y146.186 E.00337
;WIDTH:0.587428
G1 X73.581 Y146.116 E.00364
G1 X73.626 Y146.186 E.00377
;WIDTH:0.54719
G1 X73.671 Y146.257 E.00349
;WIDTH:0.506952
G1 X73.715 Y146.327 E.00321
;WIDTH:0.466714
G1 X73.76 Y146.397 E.00294
;WIDTH:0.426475
G1 X74.254 Y146.684 E.01823
G1 X73.593 Y146.684 E.02108
;WIDTH:0.434228
G1 X73.031 Y146.68 E.01829
