; generated by PrusaSlicer 2.5.0+win64 on 2023-01-21 at 01:58:19 UTC


;
;

;
;
; 

; external perimeters extrusion width = 0.45mm
; perimeters extrusion width = 0.45mm
; infill extrusion width = 0.45mm
; solid infill extrusion width = 0.45mm
; top infill extrusion width = 0.40mm
; support material extrusion width = 0.35mm
; first layer extrusion width = 0.42mm

; external perimeters extrusion width = 0.45mm
; perimeters extrusion width = 0.45mm
; infill extrusion width = 0.45mm
; solid infill extrusion width = 0.45mm
; top infill extrusion width = 0.40mm
; support material extrusion width = 0.35mm
; first layer extrusion width = 0.42mm

M73 P0 R147
M201 X2500 Y2500 Z400 E5000 ; sets maximum accelerations, mm/sec^2
M203 X180 Y180 Z12 E80 ; sets maximum feedrates, mm / sec
M204 P1250 R1250 T2500 ; sets acceleration (P, T) and retract acceleration (R), mm/sec^2
M205 X8.00 Y8.00 Z2.00 E10.00 ; sets the jerk limits, mm/sec
M205 S0 T0 ; sets the minimum extruding and travel feed rate, mm/sec
M107
;TYPE:Custom
M862.3 P "MINI" ; printer model check
G90 ; use absolute coordinates
M83 ; extruder relative mode
M104 S170 ; set extruder temp for bed leveling
M140 S60 ; set bed temp
M109 R170 ; wait for bed leveling temp
M190 S60 ; wait for bed temp
M204 T1250 ; set travel acceleration
G28 ; home all without mesh bed level
G29 ; mesh bed leveling 
M204 T2500 ; restore travel acceleration
M104 S215 ; set extruder temp
G92 E0
G1 Y-2 X179 F2400
G1 Z3 F720
M109 S215 ; wait for extruder temp

; intro line
G1 X170 F1000
G1 Z0.2 F720
G1 X110 E8 F900
G1 X40 E10 F700
G92 E0

M221 S95 ; set flow
G21 ; set units to millimeters
G90 ; use absolute coordinates
M83 ; use relative distances for extrusion
M900 K0.2 ; Filament gcode LA 1.5
; ; Filament gcode LA 1.0
M107
;LAYER_CHANGE
;Z:0.2
;HEIGHT:0.2
;BEFORE_LAYER_CHANGE
G92 E0.0
;0.2


G1 E-3.2 F4200
G1 Z.2 F720
;AFTER_LAYER_CHANGE
;0.2
G1 Z.4
G1 X54.923 Y47.253 F9000
G1 Z.2 F720
G1 E3.2 F2400
M204 P800
;TYPE:Skirt/Brim
;WIDTH:0.42
G1 F1200
G1 X55.968 Y46.376 E.04278
G1 X56.908 Y46.183 E.03008
G1 X90.34 Y46.183 E1.04825
G1 X91.648 Y46.574 E.04278
G1 X92.524 Y47.62 E.04278
G1 X92.718 Y48.56 E.03008
G1 X92.717 Y141.085 E2.90106
G1 X92.325 Y142.392 E.04278
G1 X91.28 Y143.268 E.04278
G1 X90.34 Y143.462 E.03008
G1 X56.908 Y143.462 E1.04825
G1 X55.601 Y143.07 E.04278
G1 X54.724 Y142.024 E.04278
G1 X54.531 Y141.085 E.03008
G1 X54.531 Y48.56 E2.90106
G1 X54.905 Y47.31 E.0409
M204 P1000
; printing object set_box_mini_prototype_with_snap_fit_009.stl_1 id:0 copy 0
G1 E-2.24 F4200
;WIPE_START
G1 F7200
G1 X55.968 Y46.376 E-.78411
G1 X56.194 Y46.33 E-.12789
;WIPE_END
G1 E-.048 F4200
G1 Z.4 F720
G1 X90.34 Y61.325 F9000
G1 Z.2 F720
G1 E3.2 F2400
M204 P800
;TYPE:Support material
G1 F1200
G1 X86.355 Y61.325 E.12497
G1 X86.355 Y52.031 E.29141
G1 X86.074 Y51.749 E.01247
G1 X61.175 Y51.749 E.78068
G1 X60.894 Y52.031 E.01247
G1 X60.894 Y61.325 E.29141
G1 X56.908 Y61.325 E.12497
G1 X56.908 Y48.56 E.40024
G1 X90.34 Y48.56 E1.04825
G1 X90.34 Y61.268 E.39847
M204 P1000
G1 X89.964 Y61.155 F9000
M204 P800
G1 F1200
G1 X89.964 Y48.899 E.38428
G1 X89.545 Y48.899 E.01314
G1 X89.545 Y60.986 E.37896
G1 X89.126 Y60.986 E.01314
G1 X89.126 Y48.899 E.37896
G1 X88.707 Y48.899 E.01314
G1 X88.707 Y60.986 E.37896
G1 X88.289 Y60.986 E.01314
G1 X88.289 Y48.899 E.37896
G1 X87.87 Y48.899 E.01314
G1 X87.87 Y60.986 E.37896
G1 X87.451 Y60.986 E.01314
G1 X87.451 Y48.899 E.37896
G1 X87.032 Y48.899 E.01314
G1 X87.032 Y60.986 E.37896
G1 X86.694 Y60.986 E.01058
G1 X86.694 Y51.89 E.28518
G1 X86.613 Y51.809 E.00362
G1 X86.613 Y48.899 E.09122
G1 X86.194 Y48.899 E.01314
G1 X86.194 Y51.41 E.07873
G1 X85.775 Y51.41 E.01314
G1 X85.775 Y48.899 E.07873
G1 X85.356 Y48.899 E.01314
G1 X85.356 Y51.41 E.07873
G1 X84.937 Y51.41 E.01314
G1 X84.937 Y48.899 E.07873
G1 X84.518 Y48.899 E.01314
G1 X84.518 Y51.41 E.07873
G1 X84.099 Y51.41 E.01314
G1 X84.099 Y48.899 E.07873
G1 X83.68 Y48.899 E.01314
G1 X83.68 Y51.41 E.07873
G1 X83.261 Y51.41 E.01314
G1 X83.261 Y48.899 E.07873
G1 X82.842 Y48.899 E.01314
G1 X82.842 Y51.41 E.07873
G1 X82.423 Y51.41 E.01314
G1 X82.423 Y48.899 E.07873
G1 X82.004 Y48.899 E.01314
G1 X82.004 Y51.41 E.07873
G1 X81.585 Y51.41 E.01314
G1 X81.585 Y48.899 E.07873
G1 X81.166 Y48.899 E.01314
G1 X81.166 Y51.41 E.07873
G1 X80.747 Y51.41 E.01314
G1 X80.747 Y48.899 E.07873
G1 X80.328 Y48.899 E.01314
G1 X80.328 Y51.41 E.07873
G1 X79.909 Y51.41 E.01314
G1 X79.909 Y48.899 E.07873
G1 X79.49 Y48.899 E.01314
G1 X79.49 Y51.41 E.07873
G1 X79.071 Y51.41 E.01314
G1 X79.071 Y48.899 E.07873
G1 X78.652 Y48.899 E.01314
G1 X78.652 Y51.41 E.07873
G1 X78.233 Y51.41 E.01314
G1 X78.233 Y48.899 E.07873
G1 X77.814 Y48.899 E.01314
G1 X77.814 Y51.41 E.07873
G1 X77.395 Y51.41 E.01314
G1 X77.395 Y48.899 E.07873
G1 X76.976 Y48.899 E.01314
G1 X76.976 Y51.41 E.07873
G1 X76.557 Y51.41 E.01314
G1 X76.557 Y48.899 E.07873
G1 X76.138 Y48.899 E.01314
G1 X76.138 Y51.41 E.07873
G1 X75.719 Y51.41 E.01314
G1 X75.719 Y48.899 E.07873
G1 X75.3 Y48.899 E.01314
G1 X75.3 Y51.41 E.07873
G1 X74.881 Y51.41 E.01314
G1 X74.881 Y48.899 E.07873
G1 X74.462 Y48.899 E.01314
M73 P0 R146
G1 X74.462 Y51.41 E.07873
G1 X74.043 Y51.41 E.01314
G1 X74.043 Y48.899 E.07873
G1 X73.624 Y48.899 E.01314
G1 X73.624 Y51.41 E.07873
G1 X73.205 Y51.41 E.01314
G1 X73.205 Y48.899 E.07873
G1 X72.786 Y48.899 E.01314
G1 X72.786 Y51.41 E.07873
G1 X72.367 Y51.41 E.01314
G1 X72.367 Y48.899 E.07873
G1 X71.948 Y48.899 E.01314
G1 X71.948 Y51.41 E.07873
G1 X71.529 Y51.41 E.01314
G1 X71.529 Y48.899 E.07873
G1 X71.11 Y48.899 E.01314
G1 X71.11 Y51.41 E.07873
G1 X70.691 Y51.41 E.01314
G1 X70.691 Y48.899 E.07873
G1 X70.272 Y48.899 E.01314
G1 X70.272 Y51.41 E.07873
G1 X69.854 Y51.41 E.01314
G1 X69.854 Y48.899 E.07873
G1 X69.435 Y48.899 E.01314
G1 X69.435 Y51.41 E.07873
G1 X69.016 Y51.41 E.01314
G1 X69.016 Y48.899 E.07873
G1 X68.597 Y48.899 E.01314
G1 X68.597 Y51.41 E.07873
G1 X68.178 Y51.41 E.01314
G1 X68.178 Y48.899 E.07873
G1 X67.759 Y48.899 E.01314
G1 X67.759 Y51.41 E.07873
G1 X67.34 Y51.41 E.01314
G1 X67.34 Y48.899 E.07873
G1 X66.921 Y48.899 E.01314
G1 X66.921 Y51.41 E.07873
G1 X66.502 Y51.41 E.01314
G1 X66.502 Y48.899 E.07873
G1 X66.083 Y48.899 E.01314
G1 X66.083 Y51.41 E.07873
G1 X65.664 Y51.41 E.01314
G1 X65.664 Y48.899 E.07873
G1 X65.245 Y48.899 E.01314
G1 X65.245 Y51.41 E.07873
G1 X64.826 Y51.41 E.01314
G1 X64.826 Y48.899 E.07873
G1 X64.407 Y48.899 E.01314
G1 X64.407 Y51.41 E.07873
G1 X63.988 Y51.41 E.01314
G1 X63.988 Y48.899 E.07873
G1 X63.569 Y48.899 E.01314
G1 X63.569 Y51.41 E.07873
G1 X63.15 Y51.41 E.01314
G1 X63.15 Y48.899 E.07873
G1 X62.731 Y48.899 E.01314
G1 X62.731 Y51.41 E.07873
G1 X62.312 Y51.41 E.01314
G1 X62.312 Y48.899 E.07873
G1 X61.893 Y48.899 E.01314
G1 X61.893 Y51.41 E.07873
G1 X61.474 Y51.41 E.01314
G1 X61.474 Y48.899 E.07873
G1 X61.055 Y48.899 E.01314
G1 X61.055 Y51.41 E.07873
G1 X61.034 Y51.41 E.00065
G1 X60.636 Y51.809 E.01767
G1 X60.636 Y48.899 E.09122
G1 X60.217 Y48.899 E.01314
G1 X60.217 Y60.986 E.37896
G1 X59.798 Y60.986 E.01314
G1 X59.798 Y48.899 E.37896
G1 X59.379 Y48.899 E.01314
G1 X59.379 Y60.986 E.37896
G1 X58.96 Y60.986 E.01314
G1 X58.96 Y48.899 E.37896
G1 X58.541 Y48.899 E.01314
G1 X58.541 Y60.986 E.37896
G1 X58.122 Y60.986 E.01314
G1 X58.122 Y48.899 E.37896
G1 X57.703 Y48.899 E.01314
G1 X57.703 Y60.986 E.37896
G1 X57.284 Y60.986 E.01314
G1 X57.284 Y48.729 E.38428
M204 P1000
G1 E-2.24 F4200
;WIPE_START
G1 F7200
G1 X57.284 Y50.375 E-.912
;WIPE_END
G1 E-.048 F4200
G1 Z.4 F720
G1 X62.161 Y53.017 F9000
G1 Z.2 F720
G1 E3.2 F2400
M204 P800
;TYPE:Perimeter
;WIDTH:0.419999
G1 F1200
G1 X85.088 Y53.017 E.71885
G1 X85.088 Y72.042 E.59654
G1 X62.161 Y72.042 E.71885
G1 X62.161 Y53.077 E.59466
M204 P1000
G1 X61.784 Y52.639 F9000
M204 P800
;TYPE:External perimeter
G1 F1200
G1 X85.465 Y52.639 E.7425
G1 X85.465 Y72.419 E.62019
G1 X61.784 Y72.419 E.7425
G1 X61.784 Y52.699 E.61831
M204 P1000
G1 X62.173 Y52.731 F9000
G1 E-2.24 F4200
;WIPE_START
G1 F7200
G1 X63.43 Y52.695 E-.912
;WIPE_END
G1 E-.048 F4200
G1 Z.4 F720
G1 X84.202 Y53.13 F9000
G1 Z.2 F720
G1 E3.2 F2400
M204 P800
;TYPE:Solid infill
;WIDTH:0.424717
G1 F1200
G1 X84.805 Y53.732 E.02705
G1 X84.805 Y54.272 E.01714
G1 X83.832 Y53.299 E.04368
G1 X83.292 Y53.299 E.01714
G1 X84.805 Y54.812 E.06792
G1 X84.805 Y55.352 E.01714
G1 X82.752 Y53.299 E.09216
G1 X82.212 Y53.299 E.01714
G1 X84.805 Y55.892 E.1164
G1 X84.805 Y56.432 E.01714
G1 X81.672 Y53.299 E.14064
G1 X81.132 Y53.299 E.01714
G1 X84.805 Y56.972 E.16488
G1 X84.805 Y57.512 E.01714
G1 X80.592 Y53.299 E.18913
G1 X80.052 Y53.299 E.01714
G1 X84.805 Y58.052 E.21337
G1 X84.805 Y58.592 E.01714
G1 X79.513 Y53.299 E.23761
G1 X78.973 Y53.299 E.01714
G1 X84.805 Y59.132 E.26185
G1 X84.805 Y59.672 E.01714
G1 X78.433 Y53.299 E.28609
G1 X77.893 Y53.299 E.01714
G1 X84.805 Y60.212 E.31033
G1 X84.805 Y60.752 E.01714
G1 X77.353 Y53.299 E.33458
G1 X76.813 Y53.299 E.01714
G1 X84.805 Y61.291 E.35882
G1 X84.805 Y61.831 E.01714
G1 X76.273 Y53.299 E.38306
G1 X75.733 Y53.299 E.01714
G1 X84.805 Y62.371 E.4073
G1 X84.805 Y62.911 E.01714
G1 X75.193 Y53.299 E.43154
G1 X74.653 Y53.299 E.01714
G1 X84.805 Y63.451 E.45578
G1 X84.805 Y63.991 E.01714
G1 X74.113 Y53.299 E.48002
G1 X73.573 Y53.299 E.01714
G1 X84.805 Y64.531 E.50427
G1 X84.805 Y65.071 E.01714
G1 X73.033 Y53.299 E.52851
G1 X72.493 Y53.299 E.01714
G1 X84.805 Y65.611 E.55275
G1 X84.805 Y66.151 E.01714
G1 X71.953 Y53.299 E.57699
G1 X71.413 Y53.299 E.01714
G1 X84.805 Y66.691 E.60123
G1 X84.805 Y67.231 E.01714
G1 X70.873 Y53.299 E.62547
G1 X70.334 Y53.299 E.01714
G1 X84.805 Y67.771 E.64971
G1 X84.805 Y68.311 E.01714
G1 X69.794 Y53.299 E.67396
G1 X69.254 Y53.299 E.01714
G1 X84.805 Y68.851 E.6982
G1 X84.805 Y69.391 E.01714
G1 X68.714 Y53.299 E.72244
G1 X68.174 Y53.299 E.01714
G1 X84.805 Y69.931 E.74668
G1 X84.805 Y70.47 E.01714
G1 X67.634 Y53.299 E.77092
G1 X67.094 Y53.299 E.01714
G1 X84.805 Y71.01 E.79516
G1 X84.805 Y71.55 E.01714
M73 P1 R146
G1 X66.554 Y53.299 E.8194
G1 X66.014 Y53.299 E.01714
G1 X84.474 Y71.76 E.8288
G1 X83.934 Y71.76 E.01714
G1 X65.474 Y53.299 E.8288
G1 X64.934 Y53.299 E.01714
G1 X83.394 Y71.76 E.8288
G1 X82.854 Y71.76 E.01714
G1 X64.394 Y53.299 E.8288
G1 X63.854 Y53.299 E.01714
G1 X82.314 Y71.76 E.8288
G1 X81.775 Y71.76 E.01714
G1 X63.314 Y53.299 E.8288
G1 X62.774 Y53.299 E.01714
G1 X81.235 Y71.76 E.8288
G1 X80.695 Y71.76 E.01714
G1 X62.444 Y53.509 E.8194
G1 X62.444 Y54.049 E.01714
G1 X80.155 Y71.76 E.79516
G1 X79.615 Y71.76 E.01714
G1 X62.444 Y54.589 E.77092
G1 X62.444 Y55.128 E.01714
G1 X79.075 Y71.76 E.74668
G1 X78.535 Y71.76 E.01714
G1 X62.444 Y55.668 E.72244
G1 X62.444 Y56.208 E.01714
G1 X77.995 Y71.76 E.69819
G1 X77.455 Y71.76 E.01714
M73 P1 R145
G1 X62.444 Y56.748 E.67395
G1 X62.444 Y57.288 E.01714
G1 X76.915 Y71.76 E.64971
G1 X76.375 Y71.76 E.01714
G1 X62.444 Y57.828 E.62547
G1 X62.444 Y58.368 E.01714
G1 X75.835 Y71.76 E.60123
G1 X75.295 Y71.76 E.01714
G1 X62.444 Y58.908 E.57699
G1 X62.444 Y59.448 E.01714
G1 X74.755 Y71.76 E.55275
G1 X74.215 Y71.76 E.01714
G1 X62.444 Y59.988 E.5285
G1 X62.444 Y60.528 E.01714
G1 X73.675 Y71.76 E.50426
G1 X73.135 Y71.76 E.01714
G1 X62.444 Y61.068 E.48002
G1 X62.444 Y61.608 E.01714
G1 X72.595 Y71.76 E.45578
G1 X72.056 Y71.76 E.01714
G1 X62.444 Y62.148 E.43154
G1 X62.444 Y62.688 E.01714
G1 X71.516 Y71.76 E.4073
G1 X70.976 Y71.76 E.01714
G1 X62.444 Y63.228 E.38306
G1 X62.444 Y63.768 E.01714
G1 X70.436 Y71.76 E.35881
G1 X69.896 Y71.76 E.01714
G1 X62.444 Y64.308 E.33457
G1 X62.444 Y64.847 E.01714
G1 X69.356 Y71.76 E.31033
G1 X68.816 Y71.76 E.01714
G1 X62.444 Y65.387 E.28609
G1 X62.444 Y65.927 E.01714
G1 X68.276 Y71.76 E.26185
G1 X67.736 Y71.76 E.01714
G1 X62.444 Y66.467 E.23761
G1 X62.444 Y67.007 E.01714
G1 X67.196 Y71.76 E.21336
G1 X66.656 Y71.76 E.01714
G1 X62.444 Y67.547 E.18912
G1 X62.444 Y68.087 E.01714
G1 X66.116 Y71.76 E.16488
G1 X65.576 Y71.76 E.01714
G1 X62.444 Y68.627 E.14064
G1 X62.444 Y69.167 E.01714
G1 X65.036 Y71.76 E.1164
G1 X64.496 Y71.76 E.01714
G1 X62.444 Y69.707 E.09216
G1 X62.444 Y70.247 E.01714
G1 X63.956 Y71.76 E.06792
G1 X63.416 Y71.76 E.01714
G1 X62.444 Y70.787 E.04367
G1 X62.444 Y71.327 E.01714
G1 X63.046 Y71.929 E.02705
M204 P1000
; stop printing object set_box_mini_prototype_with_snap_fit_009.stl_1 id:0 copy 0
; printing object set_box_mini_prototype_with_snap_fit_009.stl_2 id:1 copy 0
G1 E-2.24 F4200
;WIPE_START
G1 F7200
G1 X62.444 Y71.327 E-.47221
G1 X62.444 Y70.787 E-.29922
G1 X62.623 Y70.966 E-.14057
;WIPE_END
G1 E-.048 F4200
G1 Z.4 F720
G1 X60.894 Y128.804 F9000
G1 Z.2 F720
G1 E3.2 F2400
M204 P800
;TYPE:Support material
;WIDTH:0.42
G1 F1200
G1 X61.175 Y129.085 E.01247
G1 X86.074 Y129.085 E.78068
G1 X86.355 Y128.804 E.01247
G1 X86.355 Y123.727 E.15919
G1 X90.34 Y123.727 E.12495
G1 X90.34 Y141.085 E.54424
G1 X79.871 Y141.085 E.32824
G1 X79.871 Y131.899 E.288
G1 X67.376 Y131.899 E.39176
G1 X67.376 Y141.085 E.288
G1 X56.908 Y141.085 E.32824
G1 X56.908 Y123.727 E.54424
G1 X60.894 Y123.727 E.12498
G1 X60.894 Y128.747 E.15741
M204 P1000
G1 E-2.24 F4200
;WIPE_START
G1 F7200
G1 X60.894 Y127.102 E-.912
;WIPE_END
G1 E-.048 F4200
G1 Z.4 F720
G1 X89.964 Y140.915 F9000
G1 Z.2 F720
G1 E3.2 F2400
M204 P800
G1 F1200
G1 X89.964 Y124.066 E.52828
G1 X89.545 Y124.066 E.01314
G1 X89.545 Y140.745 E.52296
G1 X89.126 Y140.745 E.01314
G1 X89.126 Y124.066 E.52296
G1 X88.707 Y124.066 E.01314
G1 X88.707 Y140.745 E.52296
G1 X88.288 Y140.745 E.01314
G1 X88.288 Y124.066 E.52296
G1 X87.869 Y124.066 E.01314
G1 X87.869 Y140.745 E.52296
G1 X87.45 Y140.745 E.01314
G1 X87.45 Y124.066 E.52296
G1 X87.031 Y124.066 E.01314
G1 X87.031 Y140.745 E.52296
G1 X86.612 Y140.745 E.01314
G1 X86.612 Y129.026 E.36744
G1 X86.214 Y129.424 E.01764
G1 X86.193 Y129.424 E.00066
G1 X86.193 Y140.745 E.35496
G1 X85.774 Y140.745 E.01314
G1 X85.774 Y129.424 E.35496
G1 X85.355 Y129.424 E.01314
G1 X85.355 Y140.745 E.35496
G1 X84.936 Y140.745 E.01314
G1 X84.936 Y129.424 E.35496
G1 X84.517 Y129.424 E.01314
G1 X84.517 Y140.745 E.35496
G1 X84.098 Y140.745 E.01314
G1 X84.098 Y129.424 E.35496
G1 X83.679 Y129.424 E.01314
G1 X83.679 Y140.745 E.35496
G1 X83.26 Y140.745 E.01314
G1 X83.26 Y129.424 E.35496
G1 X82.841 Y129.424 E.01314
G1 X82.841 Y140.745 E.35496
G1 X82.422 Y140.745 E.01314
G1 X82.422 Y129.424 E.35496
G1 X82.003 Y129.424 E.01314
G1 X82.003 Y140.745 E.35496
G1 X81.584 Y140.745 E.01314
G1 X81.584 Y129.424 E.35496
G1 X81.165 Y129.424 E.01314
G1 X81.165 Y140.745 E.35496
G1 X80.746 Y140.745 E.01314
G1 X80.746 Y129.424 E.35496
G1 X80.327 Y129.424 E.01314
G1 X80.327 Y140.745 E.35496
G1 X80.211 Y140.745 E.00367
G1 X80.211 Y131.56 E.288
G1 X79.908 Y131.56 E.00947
G1 X79.908 Y129.424 E.06696
G1 X79.489 Y129.424 E.01314
G1 X79.489 Y131.56 E.06696
G1 X79.071 Y131.56 E.01314
G1 X79.071 Y129.424 E.06696
G1 X78.652 Y129.424 E.01314
G1 X78.652 Y131.56 E.06696
G1 X78.233 Y131.56 E.01314
G1 X78.233 Y129.424 E.06696
G1 X77.814 Y129.424 E.01314
G1 X77.814 Y131.56 E.06696
G1 X77.395 Y131.56 E.01314
G1 X77.395 Y129.424 E.06696
G1 X76.976 Y129.424 E.01314
G1 X76.976 Y131.56 E.06696
G1 X76.557 Y131.56 E.01314
G1 X76.557 Y129.424 E.06696
G1 X76.138 Y129.424 E.01314
G1 X76.138 Y131.56 E.06696
G1 X75.719 Y131.56 E.01314
G1 X75.719 Y129.424 E.06696
G1 X75.3 Y129.424 E.01314
G1 X75.3 Y131.56 E.06696
G1 X74.881 Y131.56 E.01314
G1 X74.881 Y129.424 E.06696
G1 X74.462 Y129.424 E.01314
G1 X74.462 Y131.56 E.06696
G1 X74.043 Y131.56 E.01314
G1 X74.043 Y129.424 E.06696
G1 X73.624 Y129.424 E.01314
G1 X73.624 Y131.56 E.06696
G1 X73.205 Y131.56 E.01314
G1 X73.205 Y129.424 E.06696
G1 X72.786 Y129.424 E.01314
G1 X72.786 Y131.56 E.06696
G1 X72.367 Y131.56 E.01314
G1 X72.367 Y129.424 E.06696
G1 X71.948 Y129.424 E.01314
G1 X71.948 Y131.56 E.06696
G1 X71.529 Y131.56 E.01314
G1 X71.529 Y129.424 E.06696
G1 X71.11 Y129.424 E.01314
G1 X71.11 Y131.56 E.06696
G1 X70.691 Y131.56 E.01314
G1 X70.691 Y129.424 E.06696
G1 X70.272 Y129.424 E.01314
G1 X70.272 Y131.56 E.06696
G1 X69.853 Y131.56 E.01314
G1 X69.853 Y129.424 E.06696
G1 X69.434 Y129.424 E.01314
G1 X69.434 Y131.56 E.06696
G1 X69.015 Y131.56 E.01314
G1 X69.015 Y129.424 E.06696
G1 X68.596 Y129.424 E.01314
G1 X68.596 Y131.56 E.06696
