; generated by PrusaSlicer 2.5.0+win64 on 2023-01-14 at 22:05:36 UTC


;
;

;
;
; 

; external perimeters extrusion width = 0.45mm
; perimeters extrusion width = 0.45mm
; infill extrusion width = 0.45mm
; solid infill extrusion width = 0.45mm
; top infill extrusion width = 0.40mm
; first layer extrusion width = 0.42mm

M73 P0 R115
M201 X2500 Y2500 Z400 E5000 ; sets maximum accelerations, mm/sec^2
M203 X180 Y180 Z12 E80 ; sets maximum feedrates, mm / sec
M204 P1250 R1250 T2500 ; sets acceleration (P, T) and retract acceleration (R), mm/sec^2
M205 X8.00 Y8.00 Z2.00 E10.00 ; sets the jerk limits, mm/sec
M205 S0 T0 ; sets the minimum extruding and travel feed rate, mm/sec
M107
;TYPE:Custom
M862.3 P "MINI" ; printer model check
G90 ; use absolute coordinates
M83 ; extruder relative mode
M104 S170 ; set extruder temp for bed leveling
M140 S60 ; set bed temp
M109 R170 ; wait for bed leveling temp
M190 S60 ; wait for bed temp
M204 T1250 ; set travel acceleration
G28 ; home all without mesh bed level
G29 ; mesh bed leveling 
M204 T2500 ; restore travel acceleration
M104 S215 ; set extruder temp
G92 E0
G1 Y-2 X179 F2400
G1 Z3 F720
M109 S215 ; wait for extruder temp

; intro line
G1 X170 F1000
G1 Z0.2 F720
G1 X110 E8 F900
G1 X40 E10 F700
G92 E0

M221 S95 ; set flow
G21 ; set units to millimeters
G90 ; use absolute coordinates
M83 ; use relative distances for extrusion
M900 K0.2 ; Filament gcode LA 1.5
; ; Filament gcode LA 1.0
M107
;LAYER_CHANGE
;Z:0.2
;HEIGHT:0.2
;BEFORE_LAYER_CHANGE
G92 E0.0
;0.2


M73 P0 R114
G1 E-3.2 F4200
G1 Z.2 F720
;AFTER_LAYER_CHANGE
;0.2
G1 Z.4
G1 X55.531 Y66.26 F9000
G1 Z.2 F720
G1 E3.2 F2400
M204 P800
;TYPE:Skirt/Brim
;WIDTH:0.42
G1 F1200
G1 X56.06 Y65.817 E.02167
G1 X56.875 Y65.626 E.02624
G1 X94.875 Y63.626 E1.19311
G1 X123 Y63.623 E.88184
G1 X124.307 Y64.015 E.04278
G1 X125.183 Y65.06 E.04278
G1 X125.377 Y66 E.03008
G1 X125.377 Y114 E1.50501
G1 X124.985 Y115.307 E.04278
G1 X123.94 Y116.183 E.04278
G1 X123 Y116.377 E.03008
G1 X94.875 Y116.374 E.88184
G1 X56.875 Y114.374 E1.19311
G1 X55.59 Y113.914 E.04278
G1 X54.77 Y112.824 E.04278
G1 X54.623 Y112 E.02624
G1 X54.623 Y68 E1.37959
G1 X55.015 Y66.693 E.04278
G1 X55.485 Y66.299 E.01923
M204 P1000
; printing object set_box_mini_prototype_with_snap_fit_000.stl id:0 copy 0
G1 E-2.24 F4200
;WIPE_START
G1 F7200
G1 X56.06 Y65.817 E-.41618
G1 X56.875 Y65.626 E-.4637
G1 X56.933 Y65.623 E-.03211
;WIPE_END
G1 E-.048 F4200
G1 Z.4 F720
G1 X95.787 Y113.213 F9000
G1 Z.2 F720
G1 E3.2 F2400
M204 P800
;TYPE:Perimeter
;WIDTH:0.419999
G1 F1200
G1 X95.787 Y66.787 E1.45565
G1 X122.213 Y66.787 E.82856
G1 X122.213 Y113.213 E1.45565
G1 X95.847 Y113.213 E.82668
M204 P1000
G1 X95.41 Y113.59 F9000
M204 P800
;TYPE:External perimeter
G1 F1200
G1 X95.41 Y66.41 E1.47929
G1 X122.59 Y66.41 E.85221
G1 X122.59 Y113.59 E1.47929
G1 X95.47 Y113.59 E.85033
M204 P1000
G1 X95.479 Y113.196 F9000
G1 E-2.24 F4200
;WIPE_START
G1 F7200
G1 X95.468 Y111.944 E-.912
;WIPE_END
G1 E-.048 F4200
G1 Z.4 F720
G1 X121.332 Y66.9 F9000
G1 Z.2 F720
G1 E3.2 F2400
M204 P800
;TYPE:Solid infill
;WIDTH:0.422529
G1 F1200
G1 X121.93 Y67.498 E.02669
G1 X121.93 Y68.035 E.01695
G1 X120.965 Y67.07 E.04308
G1 X120.428 Y67.07 E.01695
G1 X121.93 Y68.572 E.06705
G1 X121.93 Y69.109 E.01695
G1 X119.891 Y67.07 E.09101
G1 X119.354 Y67.07 E.01695
G1 X121.93 Y69.646 E.11498
G1 X121.93 Y70.182 E.01695
G1 X118.818 Y67.07 E.13894
G1 X118.281 Y67.07 E.01695
G1 X121.93 Y70.719 E.1629
G1 X121.93 Y71.256 E.01695
G1 X117.744 Y67.07 E.18687
G1 X117.207 Y67.07 E.01695
G1 X121.93 Y71.793 E.21083
G1 X121.93 Y72.33 E.01695
G1 X116.67 Y67.07 E.2348
G1 X116.133 Y67.07 E.01695
G1 X121.93 Y72.867 E.25876
G1 X121.93 Y73.403 E.01695
G1 X115.597 Y67.07 E.28273
G1 X115.06 Y67.07 E.01695
G1 X121.93 Y73.94 E.30669
G1 X121.93 Y74.477 E.01695
G1 X114.523 Y67.07 E.33065
G1 X113.986 Y67.07 E.01695
G1 X121.93 Y75.014 E.35462
G1 X121.93 Y75.551 E.01695
G1 X113.449 Y67.07 E.37858
G1 X112.912 Y67.07 E.01695
G1 X121.93 Y76.088 E.40255
G1 X121.93 Y76.625 E.01695
G1 X112.375 Y67.07 E.42651
G1 X111.839 Y67.07 E.01695
G1 X121.93 Y77.161 E.45048
G1 X121.93 Y77.698 E.01695
G1 X111.302 Y67.07 E.47444
G1 X110.765 Y67.07 E.01695
G1 X121.93 Y78.235 E.49841
G1 X121.93 Y78.772 E.01695
G1 X110.228 Y67.07 E.52237
G1 X109.691 Y67.07 E.01695
G1 X121.93 Y79.309 E.54633
G1 X121.93 Y79.846 E.01695
G1 X109.154 Y67.07 E.5703
G1 X108.618 Y67.07 E.01695
G1 X121.93 Y80.382 E.59426
G1 X121.93 Y80.919 E.01695
G1 X108.081 Y67.07 E.61823
G1 X107.544 Y67.07 E.01695
G1 X121.93 Y81.456 E.64219
G1 X121.93 Y81.993 E.01695
G1 X107.007 Y67.07 E.66616
G1 X106.47 Y67.07 E.01695
G1 X121.93 Y82.53 E.69012
G1 X121.93 Y83.067 E.01695
G1 X105.933 Y67.07 E.71409
G1 X105.396 Y67.07 E.01695
G1 X121.93 Y83.604 E.73805
G1 X121.93 Y84.14 E.01695
G1 X104.86 Y67.07 E.76201
G1 X104.323 Y67.07 E.01695
G1 X121.93 Y84.677 E.78598
G1 X121.93 Y85.214 E.01695
G1 X103.786 Y67.07 E.80994
G1 X103.249 Y67.07 E.01695
G1 X121.93 Y85.751 E.83391
M73 P0 R113
G1 X121.93 Y86.288 E.01695
M73 P1 R113
G1 X102.712 Y67.07 E.85787
G1 X102.175 Y67.07 E.01695
G1 X121.93 Y86.825 E.88184
G1 X121.93 Y87.362 E.01695
G1 X101.638 Y67.07 E.9058
G1 X101.102 Y67.07 E.01695
G1 X121.93 Y87.898 E.92977
G1 X121.93 Y88.435 E.01695
G1 X100.565 Y67.07 E.95373
G1 X100.028 Y67.07 E.01695
G1 X121.93 Y88.972 E.97769
G1 X121.93 Y89.509 E.01695
G1 X99.491 Y67.07 E1.00166
G1 X98.954 Y67.07 E.01695
G1 X121.93 Y90.046 E1.02562
G1 X121.93 Y90.583 E.01695
G1 X98.417 Y67.07 E1.04959
G1 X97.881 Y67.07 E.01695
G1 X121.93 Y91.119 E1.07355
G1 X121.93 Y91.656 E.01695
G1 X97.344 Y67.07 E1.09752
G1 X96.807 Y67.07 E.01695
G1 X121.93 Y92.193 E1.12148
G1 X121.93 Y92.73 E.01695
G1 X96.27 Y67.07 E1.14545
G1 X96.07 Y67.07 E.00632
G1 X96.07 Y67.407 E.01063
G1 X121.93 Y93.267 E1.15438
G1 X121.93 Y93.804 E.01695
G1 X96.07 Y67.943 E1.15438
G1 X96.07 Y68.48 E.01695
G1 X121.93 Y94.341 E1.15438
G1 X121.93 Y94.877 E.01695
G1 X96.07 Y69.017 E1.15438
G1 X96.07 Y69.554 E.01695
G1 X121.93 Y95.414 E1.15438
G1 X121.93 Y95.951 E.01695
G1 X96.07 Y70.091 E1.15438
G1 X96.07 Y70.628 E.01695
G1 X121.93 Y96.488 E1.15438
G1 X121.93 Y97.025 E.01695
G1 X96.07 Y71.165 E1.15438
G1 X96.07 Y71.701 E.01695
G1 X121.93 Y97.562 E1.15438
G1 X121.93 Y98.098 E.01695
G1 X96.07 Y72.238 E1.15438
G1 X96.07 Y72.775 E.01695
G1 X121.93 Y98.635 E1.15438
G1 X121.93 Y99.172 E.01695
G1 X96.07 Y73.312 E1.15438
G1 X96.07 Y73.849 E.01695
G1 X121.93 Y99.709 E1.15438
G1 X121.93 Y100.246 E.01695
G1 X96.07 Y74.386 E1.15438
G1 X96.07 Y74.922 E.01695
G1 X121.93 Y100.783 E1.15438
G1 X121.93 Y101.32 E.01695
G1 X96.07 Y75.459 E1.15438
G1 X96.07 Y75.996 E.01695
G1 X121.93 Y101.856 E1.15438
G1 X121.93 Y102.393 E.01695
G1 X96.07 Y76.533 E1.15438
G1 X96.07 Y77.07 E.01695
G1 X121.93 Y102.93 E1.15438
G1 X121.93 Y103.467 E.01695
G1 X96.07 Y77.607 E1.15438
G1 X96.07 Y78.144 E.01695
G1 X121.93 Y104.004 E1.15438
G1 X121.93 Y104.541 E.01695
M73 P1 R112
G1 X96.07 Y78.68 E1.15438
G1 X96.07 Y79.217 E.01695
G1 X121.93 Y105.078 E1.15438
G1 X121.93 Y105.614 E.01695
G1 X96.07 Y79.754 E1.15438
G1 X96.07 Y80.291 E.01695
G1 X121.93 Y106.151 E1.15438
G1 X121.93 Y106.688 E.01695
G1 X96.07 Y80.828 E1.15438
G1 X96.07 Y81.365 E.01695
M73 P2 R112
G1 X121.93 Y107.225 E1.15438
G1 X121.93 Y107.762 E.01695
G1 X96.07 Y81.901 E1.15438
G1 X96.07 Y82.438 E.01695
G1 X121.93 Y108.299 E1.15438
G1 X121.93 Y108.835 E.01695
G1 X96.07 Y82.975 E1.15438
G1 X96.07 Y83.512 E.01695
G1 X121.93 Y109.372 E1.15438
G1 X121.93 Y109.909 E.01695
G1 X96.07 Y84.049 E1.15438
G1 X96.07 Y84.586 E.01695
G1 X121.93 Y110.446 E1.15438
G1 X121.93 Y110.983 E.01695
G1 X96.07 Y85.123 E1.15438
G1 X96.07 Y85.659 E.01695
G1 X121.93 Y111.52 E1.15438
G1 X121.93 Y112.057 E.01695
G1 X96.07 Y86.196 E1.15438
G1 X96.07 Y86.733 E.01695
G1 X121.93 Y112.593 E1.15438
G1 X121.93 Y112.93 E.01063
G1 X121.73 Y112.93 E.00632
G1 X96.07 Y87.27 E1.14545
G1 X96.07 Y87.807 E.01695
G1 X121.193 Y112.93 E1.12148
G1 X120.656 Y112.93 E.01695
G1 X96.07 Y88.344 E1.09752
G1 X96.07 Y88.881 E.01695
G1 X120.119 Y112.93 E1.07355
G1 X119.583 Y112.93 E.01695
G1 X96.07 Y89.417 E1.04959
G1 X96.07 Y89.954 E.01695
G1 X119.046 Y112.93 E1.02563
G1 X118.509 Y112.93 E.01695
G1 X96.07 Y90.491 E1.00166
G1 X96.07 Y91.028 E.01695
G1 X117.972 Y112.93 E.9777
G1 X117.435 Y112.93 E.01695
G1 X96.07 Y91.565 E.95373
G1 X96.07 Y92.102 E.01695
G1 X116.898 Y112.93 E.92977
G1 X116.362 Y112.93 E.01695
G1 X96.07 Y92.638 E.9058
G1 X96.07 Y93.175 E.01695
G1 X115.825 Y112.93 E.88184
G1 X115.288 Y112.93 E.01695
G1 X96.07 Y93.712 E.85787
G1 X96.07 Y94.249 E.01695
G1 X114.751 Y112.93 E.83391
G1 X114.214 Y112.93 E.01695
G1 X96.07 Y94.786 E.80995
G1 X96.07 Y95.323 E.01695
G1 X113.677 Y112.93 E.78598
G1 X113.14 Y112.93 E.01695
G1 X96.07 Y95.86 E.76202
G1 X96.07 Y96.396 E.01695
G1 X112.604 Y112.93 E.73805
G1 X112.067 Y112.93 E.01695
G1 X96.07 Y96.933 E.71409
G1 X96.07 Y97.47 E.01695
M73 P2 R111
G1 X111.53 Y112.93 E.69012
G1 X110.993 Y112.93 E.01695
G1 X96.07 Y98.007 E.66616
G1 X96.07 Y98.544 E.01695
G1 X110.456 Y112.93 E.64219
G1 X109.919 Y112.93 E.01695
G1 X96.07 Y99.081 E.61823
G1 X96.07 Y99.617 E.01695
G1 X109.383 Y112.93 E.59427
G1 X108.846 Y112.93 E.01695
G1 X96.07 Y100.154 E.5703
G1 X96.07 Y100.691 E.01695
G1 X108.309 Y112.93 E.54634
G1 X107.772 Y112.93 E.01695
G1 X96.07 Y101.228 E.52237
G1 X96.07 Y101.765 E.01695
G1 X107.235 Y112.93 E.49841
G1 X106.698 Y112.93 E.01695
G1 X96.07 Y102.302 E.47444
G1 X96.07 Y102.839 E.01695
G1 X106.161 Y112.93 E.45048
G1 X105.625 Y112.93 E.01695
G1 X96.07 Y103.375 E.42651
G1 X96.07 Y103.912 E.01695
G1 X105.088 Y112.93 E.40255
G1 X104.551 Y112.93 E.01695
G1 X96.07 Y104.449 E.37859
G1 X96.07 Y104.986 E.01695
G1 X104.014 Y112.93 E.35462
G1 X103.477 Y112.93 E.01695
G1 X96.07 Y105.523 E.33066
G1 X96.07 Y106.06 E.01695
G1 X102.94 Y112.93 E.30669
G1 X102.404 Y112.93 E.01695
G1 X96.07 Y106.596 E.28273
G1 X96.07 Y107.133 E.01695
G1 X101.867 Y112.93 E.25876
G1 X101.33 Y112.93 E.01695
G1 X96.07 Y107.67 E.2348
G1 X96.07 Y108.207 E.01695
G1 X100.793 Y112.93 E.21083
G1 X100.256 Y112.93 E.01695
G1 X96.07 Y108.744 E.18687
G1 X96.07 Y109.281 E.01695
G1 X99.719 Y112.93 E.16291
G1 X99.182 Y112.93 E.01695
G1 X96.07 Y109.818 E.13894
G1 X96.07 Y110.354 E.01695
G1 X98.646 Y112.93 E.11498
G1 X98.109 Y112.93 E.01695
G1 X96.07 Y110.891 E.09101
G1 X96.07 Y111.428 E.01695
G1 X97.572 Y112.93 E.06705
G1 X97.035 Y112.93 E.01695
G1 X96.07 Y111.965 E.04308
G1 X96.07 Y112.502 E.01695
G1 X96.668 Y113.1 E.02669
M204 P1000
G1 E-2.24 F4200
;WIPE_START
G1 F7200
G1 X96.07 Y112.502 E-.46865
G1 X96.07 Y111.965 E-.2975
G1 X96.256 Y112.151 E-.14584
;WIPE_END
G1 E-.048 F4200
G1 Z.4 F720
G1 X80.213 Y111.213 F9000
G1 Z.2 F720
G1 E3.2 F2400
M204 P800
;TYPE:Perimeter
;WIDTH:0.419999
G1 F1200
G1 X57.787 Y111.213 E.70315
G1 X57.787 Y68.787 E1.33023
M73 P3 R111
G1 X80.213 Y68.787 E.70315
G1 X80.213 Y111.153 E1.32835
M204 P1000
G1 X80.59 Y111.59 F9000
M204 P800
;TYPE:External perimeter
G1 F1200
G1 X57.41 Y111.59 E.72679
G1 X57.41 Y68.41 E1.35388
G1 X80.59 Y68.41 E.72679
G1 X80.59 Y111.53 E1.352
M204 P1000
G1 X80.216 Y111.449 F9000
G1 E-2.24 F4200
;WIPE_START
G1 F7200
G1 X78.944 Y111.534 E-.912
;WIPE_END
G1 E-.048 F4200
G1 Z.4 F720
G1 X79.332 Y68.9 F9000
G1 Z.2 F720
G1 E3.2 F2400
M204 P800
;TYPE:Solid infill
;WIDTH:0.42284
G1 F1200
G1 X79.93 Y69.499 E.02674
G1 X79.93 Y70.036 E.01697
G1 X78.964 Y69.07 E.04317
G1 X78.427 Y69.07 E.01697
G1 X79.93 Y70.573 E.06717
G1 X79.93 Y71.111 E.01697
G1 X77.889 Y69.07 E.09117
G1 X77.352 Y69.07 E.01697
G1 X79.93 Y71.648 E.11518
G1 X79.93 Y72.185 E.01697
G1 X76.815 Y69.07 E.13918
G1 X76.277 Y69.07 E.01697
G1 X79.93 Y72.723 E.16318
G1 X79.93 Y73.26 E.01697
G1 X75.74 Y69.07 E.18719
G1 X75.203 Y69.07 E.01697
G1 X79.93 Y73.797 E.21119
G1 X79.93 Y74.334 E.01697
G1 X74.666 Y69.07 E.2352
G1 X74.128 Y69.07 E.01697
G1 X79.93 Y74.872 E.2592
G1 X79.93 Y75.409 E.01697
G1 X73.591 Y69.07 E.2832
G1 X73.054 Y69.07 E.01697
G1 X79.93 Y75.946 E.30721
G1 X79.93 Y76.484 E.01697
G1 X72.516 Y69.07 E.33121
G1 X71.979 Y69.07 E.01697
G1 X79.93 Y77.021 E.35521
G1 X79.93 Y77.558 E.01697
G1 X71.442 Y69.07 E.37922
G1 X70.905 Y69.07 E.01697
G1 X79.93 Y78.095 E.40322
G1 X79.93 Y78.633 E.01697
G1 X70.367 Y69.07 E.42723
G1 X69.83 Y69.07 E.01697
G1 X79.93 Y79.17 E.45123
G1 X79.93 Y79.707 E.01697
G1 X69.293 Y69.07 E.47523
G1 X68.755 Y69.07 E.01697
G1 X79.93 Y80.245 E.49924
G1 X79.93 Y80.782 E.01697
G1 X68.218 Y69.07 E.52324
G1 X67.681 Y69.07 E.01697
G1 X79.93 Y81.319 E.54724
G1 X79.93 Y81.856 E.01697
G1 X67.144 Y69.07 E.57125
G1 X66.606 Y69.07 E.01697
G1 X79.93 Y82.394 E.59525
G1 X79.93 Y82.931 E.01697
G1 X66.069 Y69.07 E.61926
G1 X65.532 Y69.07 E.01697
G1 X79.93 Y83.468 E.64326
G1 X79.93 Y84.006 E.01697
G1 X64.994 Y69.07 E.66726
G1 X64.457 Y69.07 E.01697
G1 X79.93 Y84.543 E.69127
G1 X79.93 Y85.08 E.01697
G1 X63.92 Y69.07 E.71527
G1 X63.383 Y69.07 E.01697
G1 X79.93 Y85.617 E.73927
G1 X79.93 Y86.155 E.01697
G1 X62.845 Y69.07 E.76328
G1 X62.308 Y69.07 E.01697
G1 X79.93 Y86.692 E.78728
G1 X79.93 Y87.229 E.01697
G1 X61.771 Y69.07 E.81128
G1 X61.233 Y69.07 E.01697
G1 X79.93 Y87.767 E.83529
G1 X79.93 Y88.304 E.01697
G1 X60.696 Y69.07 E.85929
G1 X60.159 Y69.07 E.01697
G1 X79.93 Y88.841 E.8833
G1 X79.93 Y89.378 E.01697
M73 P3 R110
G1 X59.622 Y69.07 E.9073
G1 X59.084 Y69.07 E.01697
G1 X79.93 Y89.916 E.9313
G1 X79.93 Y90.453 E.01697
G1 X58.547 Y69.07 E.95531
G1 X58.07 Y69.07 E.01507
G1 X58.07 Y69.13 E.0019
G1 X79.93 Y90.99 E.97662
G1 X79.93 Y91.528 E.01697
G1 X58.07 Y69.667 E.97662
G1 X58.07 Y70.205 E.01697
G1 X79.93 Y92.065 E.97662
G1 X79.93 Y92.602 E.01697
G1 X58.07 Y70.742 E.97662
G1 X58.07 Y71.279 E.01697
G1 X79.93 Y93.139 E.97662
G1 X79.93 Y93.677 E.01697
G1 X58.07 Y71.816 E.97662
G1 X58.07 Y72.354 E.01697
G1 X79.93 Y94.214 E.97662
G1 X79.93 Y94.751 E.01697
G1 X58.07 Y72.891 E.97662
G1 X58.07 Y73.428 E.01697
G1 X79.93 Y95.289 E.97662
G1 X79.93 Y95.826 E.01697
G1 X58.07 Y73.966 E.97662
G1 X58.07 Y74.503 E.01697
G1 X79.93 Y96.363 E.97662
G1 X79.93 Y96.9 E.01697
G1 X58.07 Y75.04 E.97662
G1 X58.07 Y75.578 E.01697
G1 X79.93 Y97.438 E.97662
G1 X79.93 Y97.975 E.01697
G1 X58.07 Y76.115 E.97662
G1 X58.07 Y76.652 E.01697
G1 X79.93 Y98.512 E.97662
G1 X79.93 Y99.05 E.01697
M73 P4 R110
G1 X58.07 Y77.189 E.97662
G1 X58.07 Y77.727 E.01697
G1 X79.93 Y99.587 E.97662
G1 X79.93 Y100.124 E.01697
G1 X58.07 Y78.264 E.97662
G1 X58.07 Y78.801 E.01697
G1 X79.93 Y100.661 E.97662
G1 X79.93 Y101.199 E.01697
G1 X58.07 Y79.339 E.97662
G1 X58.07 Y79.876 E.01697
G1 X79.93 Y101.736 E.97662
G1 X79.93 Y102.273 E.01697
G1 X58.07 Y80.413 E.97662
G1 X58.07 Y80.95 E.01697
G1 X79.93 Y102.811 E.97662
G1 X79.93 Y103.348 E.01697
G1 X58.07 Y81.488 E.97662
G1 X58.07 Y82.025 E.01697
G1 X79.93 Y103.885 E.97662
G1 X79.93 Y104.423 E.01697
G1 X58.07 Y82.562 E.97662
G1 X58.07 Y83.1 E.01697
G1 X79.93 Y104.96 E.97662
G1 X79.93 Y105.497 E.01697
G1 X58.07 Y83.637 E.97662
G1 X58.07 Y84.174 E.01697
G1 X79.93 Y106.034 E.97662
G1 X79.93 Y106.572 E.01697
G1 X58.07 Y84.711 E.97662
G1 X58.07 Y85.249 E.01697
G1 X79.93 Y107.109 E.97662
G1 X79.93 Y107.646 E.01697
G1 X58.07 Y85.786 E.97662
G1 X58.07 Y86.323 E.01697
G1 X79.93 Y108.184 E.97662
G1 X79.93 Y108.721 E.01697
G1 X58.07 Y86.861 E.97662
G1 X58.07 Y87.398 E.01697
G1 X79.93 Y109.258 E.97662
G1 X79.93 Y109.795 E.01697
M73 P4 R109
G1 X58.07 Y87.935 E.97662
G1 X58.07 Y88.472 E.01697
G1 X79.93 Y110.333 E.97662
G1 X79.93 Y110.87 E.01697
G1 X58.07 Y89.01 E.97662
G1 X58.07 Y89.547 E.01697
G1 X79.453 Y110.93 E.95531
G1 X78.916 Y110.93 E.01697
G1 X58.07 Y90.084 E.9313
G1 X58.07 Y90.622 E.01697
G1 X78.378 Y110.93 E.9073
G1 X77.841 Y110.93 E.01697
G1 X58.07 Y91.159 E.8833
G1 X58.07 Y91.696 E.01697
G1 X77.304 Y110.93 E.85929
G1 X76.767 Y110.93 E.01697
G1 X58.07 Y92.233 E.83529
G1 X58.07 Y92.771 E.01697
G1 X76.229 Y110.93 E.81128
G1 X75.692 Y110.93 E.01697
G1 X58.07 Y93.308 E.78728
G1 X58.07 Y93.845 E.01697
G1 X75.155 Y110.93 E.76328
G1 X74.617 Y110.93 E.01697
G1 X58.07 Y94.383 E.73927
G1 X58.07 Y94.92 E.01697
G1 X74.08 Y110.93 E.71527
G1 X73.543 Y110.93 E.01697
G1 X58.07 Y95.457 E.69127
G1 X58.07 Y95.994 E.01697
G1 X73.006 Y110.93 E.66726
G1 X72.468 Y110.93 E.01697
G1 X58.07 Y96.532 E.64326
