; generated by PrusaSlicer 2.5.0+win64 on 2023-01-15 at 01:16:33 UTC


;
;

;
;
; 

; external perimeters extrusion width = 0.45mm
; perimeters extrusion width = 0.45mm
; infill extrusion width = 0.45mm
; solid infill extrusion width = 0.45mm
; top infill extrusion width = 0.40mm
; support material extrusion width = 0.35mm
; first layer extrusion width = 0.42mm

; external perimeters extrusion width = 0.45mm
; perimeters extrusion width = 0.45mm
; infill extrusion width = 0.45mm
; solid infill extrusion width = 0.45mm
; top infill extrusion width = 0.40mm
; support material extrusion width = 0.35mm
; first layer extrusion width = 0.42mm

; external perimeters extrusion width = 0.45mm
; perimeters extrusion width = 0.45mm
; infill extrusion width = 0.45mm
; solid infill extrusion width = 0.45mm
; top infill extrusion width = 0.40mm
; support material extrusion width = 0.35mm
; first layer extrusion width = 0.42mm

M73 P0 R33
M201 X2500 Y2500 Z400 E5000 ; sets maximum accelerations, mm/sec^2
M203 X180 Y180 Z12 E80 ; sets maximum feedrates, mm / sec
M204 P1250 R1250 T2500 ; sets acceleration (P, T) and retract acceleration (R), mm/sec^2
M205 X8.00 Y8.00 Z2.00 E10.00 ; sets the jerk limits, mm/sec
M205 S0 T0 ; sets the minimum extruding and travel feed rate, mm/sec
M107
;TYPE:Custom
M862.3 P "MINI" ; printer model check
G90 ; use absolute coordinates
M83 ; extruder relative mode
M104 S170 ; set extruder temp for bed leveling
M140 S60 ; set bed temp
M109 R170 ; wait for bed leveling temp
M190 S60 ; wait for bed temp
M204 T1250 ; set travel acceleration
G28 ; home all without mesh bed level
G29 ; mesh bed leveling 
M204 T2500 ; restore travel acceleration
M104 S215 ; set extruder temp
G92 E0
G1 Y-2 X179 F2400
G1 Z3 F720
M109 S215 ; wait for extruder temp

; intro line
G1 X170 F1000
G1 Z0.2 F720
G1 X110 E8 F900
G1 X40 E10 F700
G92 E0

M221 S95 ; set flow
G21 ; set units to millimeters
G90 ; use absolute coordinates
M83 ; use relative distances for extrusion
M900 K0.2 ; Filament gcode LA 1.5
; ; Filament gcode LA 1.0
M107
;LAYER_CHANGE
;Z:0.2
;HEIGHT:0.2
;BEFORE_LAYER_CHANGE
G92 E0.0
;0.2


G1 E-3.2 F4200
M73 P0 R32
G1 Z.2 F720
;AFTER_LAYER_CHANGE
;0.2
G1 Z.4
G1 X75.559 Y45.62 F9000
G1 Z.2 F720
G1 E3.2 F2400
M204 P800
;TYPE:Skirt/Brim
;WIDTH:0.42
G1 F1200
G1 X76.605 Y44.744 E.04278
G1 X77.544 Y44.55 E.03008
G1 X101.545 Y44.553 E.7525
G1 X102.851 Y44.944 E.04278
G1 X103.728 Y45.99 E.04278
G1 X103.921 Y46.889 E.02884
G1 X104.377 Y73.74 E.84199
G1 X104.377 Y87.78 E.44023
G1 X103.374 Y106.35 E.58309
G1 X102.912 Y107.634 E.04278
M73 P1 R32
G1 X101.82 Y108.452 E.04278
G1 X101 Y108.598 E.02612
G1 X79 Y108.598 E.68979
G1 X77.693 Y108.206 E.04278
G1 X76.817 Y107.161 E.04278
G1 X76.626 Y106.35 E.02612
G1 X75.623 Y87.816 E.58195
G1 X75.166 Y57.927 E.93726
G1 X75.167 Y46.927 E.3449
G1 X75.542 Y45.678 E.0409
M204 P1000
; printing object set_box_mini_prototype_with_snap_fit_001.stl_2 id:2 copy 0
G1 E-2.24 F4200
;WIPE_START
G1 F7200
G1 X76.605 Y44.744 E-.78411
G1 X76.831 Y44.697 E-.12789
;WIPE_END
G1 E-.048 F4200
G1 Z.4 F720
G1 X94.81 Y58.409 F9000
G1 Z.2 F720
G1 E3.2 F2400
M204 P800
;TYPE:Support material
G1 F1200
G1 X94.81 Y66.648 E.25833
G1 X84.277 Y66.648 E.33026
G1 X84.277 Y58.408 E.25836
G1 X94.754 Y58.409 E.32849
M204 P1000
G1 X88.063 Y60.23 F9000
M204 P800
G1 F1200
G1 X88.063 Y61.79 E.04892
G1 X88.344 Y62.071 E.01247
G1 X90.742 Y62.071 E.07518
G1 X91.023 Y61.79 E.01247
G1 X91.023 Y60.23 E.04892
G1 X90.742 Y59.949 E.01247
G1 X88.344 Y59.949 E.07518
G1 X88.103 Y60.19 E.01069
M204 P1000
G1 E-2.24 F4200
;WIPE_START
G1 F7200
G1 X88.344 Y59.949 E-.18902
G1 X89.649 Y59.949 E-.72298
;WIPE_END
G1 E-.048 F4200
G1 Z.4 F720
G1 X94.153 Y66.478 F9000
G1 Z.2 F720
G1 E3.2 F2400
M204 P800
G1 F1200
G1 X94.153 Y58.748 E.24237
G1 X93.734 Y58.748 E.01314
G1 X93.734 Y66.309 E.23705
G1 X93.315 Y66.309 E.01314
G1 X93.315 Y58.748 E.23705
G1 X92.896 Y58.748 E.01314
G1 X92.896 Y66.309 E.23705
G1 X92.477 Y66.309 E.01314
G1 X92.477 Y58.748 E.23706
G1 X92.058 Y58.748 E.01314
G1 X92.058 Y66.309 E.23706
G1 X91.639 Y66.309 E.01314
G1 X91.639 Y58.748 E.23706
G1 X91.22 Y58.748 E.01314
G1 X91.22 Y66.309 E.23706
G1 X90.801 Y66.309 E.01314
G1 X90.801 Y62.411 E.12223
G1 X90.382 Y62.411 E.01314
G1 X90.382 Y66.309 E.12223
G1 X89.963 Y66.309 E.01314
G1 X89.963 Y62.411 E.12223
G1 X89.544 Y62.41 E.01314
G1 X89.544 Y66.309 E.12223
G1 X89.125 Y66.309 E.01314
G1 X89.125 Y62.41 E.12223
G1 X88.706 Y62.41 E.01314
G1 X88.706 Y66.309 E.12223
G1 X88.287 Y66.309 E.01314
G1 X88.287 Y62.241 E.12755
M204 P1000
G1 E-2.24 F4200
;WIPE_START
G1 F7200
G1 X88.287 Y63.886 E-.912
;WIPE_END
G1 E-.048 F4200
G1 Z.4 F720
G1 X90.801 Y59.779 F9000
G1 Z.2 F720
G1 E3.2 F2400
M204 P800
G1 F1200
G1 X90.801 Y58.748 E.03232
G1 X90.382 Y58.748 E.01314
G1 X90.382 Y59.609 E.027
G1 X89.963 Y59.609 E.01314
G1 X89.963 Y58.748 E.027
G1 X89.544 Y58.748 E.01314
G1 X89.544 Y59.609 E.027
G1 X89.125 Y59.609 E.01314
G1 X89.125 Y58.748 E.027
G1 X88.706 Y58.748 E.01314
G1 X88.706 Y59.609 E.027
G1 X88.287 Y59.609 E.01314
G1 X88.287 Y58.748 E.027
G1 X87.868 Y58.748 E.01314
G1 X87.868 Y66.309 E.23707
G1 X87.449 Y66.309 E.01314
G1 X87.449 Y58.748 E.23707
G1 X87.03 Y58.748 E.01314
G1 X87.03 Y66.309 E.23707
G1 X86.611 Y66.309 E.01314
G1 X86.611 Y58.748 E.23707
G1 X86.192 Y58.748 E.01314
G1 X86.192 Y66.309 E.23707
G1 X85.773 Y66.309 E.01314
G1 X85.773 Y58.748 E.23707
G1 X85.354 Y58.748 E.01314
G1 X85.354 Y66.309 E.23708
G1 X84.935 Y66.309 E.01314
G1 X84.935 Y58.578 E.2424
M204 P1000
G1 E-2.24 F4200
;WIPE_START
G1 F7200
G1 X84.935 Y60.224 E-.912
;WIPE_END
G1 E-.048 F4200
G1 Z.4 F720
G1 X90.333 Y60.639 F9000
G1 Z.2 F720
G1 E3.2 F2400
M204 P800
;TYPE:External perimeter
;WIDTH:0.419999
G1 F1200
G1 X90.333 Y61.381 E.02328
G1 X88.753 Y61.381 E.04954
G1 X88.753 Y60.639 E.02328
G1 X90.273 Y60.639 E.04766
M204 P1000
G1 X90.186 Y61.011 F9000
G1 X89.962 Y61.01
M204 P800
;TYPE:Perimeter
;WIDTH:0.408344
G1 F1200
G1 X89.124 Y61.01 E.02545
M204 P1000
G1 E-2.24 F4200
;WIPE_START
G1 F7200
G1 X89.962 Y61.01 E-.46411
;WIPE_END
G1 E-.49589 F4200
G1 Z.4 F720
G1 X100.757 Y47.717 F9000
G1 Z.2 F720
G1 E3.2 F2400
M204 P800
;WIDTH:0.419999
G1 F1200
G1 X100.756 Y57.143 E.29554
G1 X78.33 Y57.141 E.70315
G1 X78.331 Y47.715 E.29554
M73 P2 R32
G1 X100.697 Y47.717 E.70126
M204 P1000
G1 X101.134 Y47.34 F9000
M204 P800
;TYPE:External perimeter
G1 F1200
G1 X101.133 Y57.52 E.31919
G1 X77.953 Y57.518 E.72679
G1 X77.954 Y47.338 E.31919
G1 X101.074 Y47.34 E.72491
M204 P1000
G1 X100.984 Y47.71 F9000
G1 X99.881 Y47.83
M204 P800
;TYPE:Solid infill
;WIDTH:0.420125
G1 F1200
G1 X100.474 Y48.423 E.0263
G1 X100.474 Y48.956 E.01673
G1 X99.518 Y47.999 E.04243
G1 X98.984 Y47.999 E.01673
G1 X100.474 Y49.489 E.06609
G1 X100.474 Y50.023 E.01673
G1 X98.451 Y47.999 E.08976
G1 X97.917 Y47.999 E.01673
G1 X100.474 Y50.556 E.11342
G1 X100.474 Y51.09 E.01673
G1 X97.384 Y47.999 E.13708
G1 X96.85 Y47.999 E.01673
G1 X100.474 Y51.623 E.16074
G1 X100.474 Y52.156 E.01673
G1 X96.317 Y47.999 E.1844
G1 X95.783 Y47.999 E.01673
G1 X100.474 Y52.69 E.20806
G1 X100.474 Y53.223 E.01673
G1 X95.25 Y47.999 E.23173
G1 X94.716 Y47.999 E.01673
G1 X100.474 Y53.757 E.25539
G1 X100.474 Y54.29 E.01673
G1 X94.183 Y47.999 E.27905
G1 X93.649 Y47.999 E.01673
G1 X100.474 Y54.823 E.30271
G1 X100.474 Y55.357 E.01673
G1 X93.116 Y47.999 E.32637
G1 X92.582 Y47.999 E.01673
G1 X100.474 Y55.89 E.35004
G1 X100.474 Y56.424 E.01673
G1 X92.049 Y47.999 E.3737
G1 X91.515 Y47.999 E.01673
G1 X100.376 Y56.86 E.39304
G1 X99.843 Y56.86 E.01673
G1 X90.982 Y47.999 E.39304
G1 X90.448 Y47.999 E.01673
G1 X99.309 Y56.86 E.39304
G1 X98.776 Y56.86 E.01673
G1 X89.915 Y47.999 E.39304
G1 X89.381 Y47.998 E.01673
G1 X98.242 Y56.86 E.39304
G1 X97.709 Y56.859 E.01673
G1 X88.848 Y47.998 E.39304
G1 X88.314 Y47.998 E.01673
G1 X97.175 Y56.859 E.39304
G1 X96.642 Y56.859 E.01673
G1 X87.781 Y47.998 E.39304
G1 X87.247 Y47.998 E.01673
G1 X96.108 Y56.859 E.39304
G1 X95.575 Y56.859 E.01673
G1 X86.714 Y47.998 E.39304
G1 X86.18 Y47.998 E.01673
G1 X95.041 Y56.859 E.39304
G1 X94.508 Y56.859 E.01673
G1 X85.647 Y47.998 E.39304
G1 X85.113 Y47.998 E.01673
G1 X93.974 Y56.859 E.39304
G1 X93.441 Y56.859 E.01673
M73 P3 R32
G1 X84.58 Y47.998 E.39304
G1 X84.046 Y47.998 E.01673
G1 X92.907 Y56.859 E.39304
G1 X92.374 Y56.859 E.01673
G1 X83.513 Y47.998 E.39304
G1 X82.979 Y47.998 E.01673
G1 X91.84 Y56.859 E.39304
G1 X91.307 Y56.859 E.01673
G1 X82.446 Y47.998 E.39304
G1 X81.912 Y47.998 E.01673
G1 X90.773 Y56.859 E.39304
G1 X90.24 Y56.859 E.01673
G1 X81.379 Y47.998 E.39304
G1 X80.845 Y47.998 E.01673
G1 X89.706 Y56.859 E.39304
G1 X89.173 Y56.859 E.01673
G1 X80.312 Y47.998 E.39304
G1 X79.778 Y47.998 E.01673
G1 X88.639 Y56.859 E.39304
G1 X88.106 Y56.859 E.01673
G1 X79.245 Y47.998 E.39304
G1 X78.711 Y47.998 E.01673
G1 X87.572 Y56.859 E.39304
G1 X87.039 Y56.859 E.01673
G1 X78.614 Y48.434 E.37369
G1 X78.614 Y48.967 E.01673
G1 X86.505 Y56.858 E.35003
G1 X85.972 Y56.858 E.01673
G1 X78.614 Y49.501 E.32637
G1 X78.614 Y50.034 E.01673
G1 X85.438 Y56.858 E.30271
G1 X84.905 Y56.858 E.01673
G1 X78.614 Y50.567 E.27904
G1 X78.614 Y51.101 E.01673
G1 X84.371 Y56.858 E.25538
G1 X83.838 Y56.858 E.01673
G1 X78.614 Y51.634 E.23172
G1 X78.614 Y52.168 E.01673
G1 X83.304 Y56.858 E.20806
G1 X82.771 Y56.858 E.01673
G1 X78.614 Y52.701 E.1844
G1 X78.614 Y53.234 E.01673
G1 X82.237 Y56.858 E.16074
G1 X81.704 Y56.858 E.01673
G1 X78.614 Y53.768 E.13707
G1 X78.613 Y54.301 E.01673
G1 X81.17 Y56.858 E.11341
G1 X80.637 Y56.858 E.01673
G1 X78.613 Y54.835 E.08975
G1 X78.613 Y55.368 E.01673
G1 X80.103 Y56.858 E.06609
G1 X79.57 Y56.858 E.01673
G1 X78.613 Y55.901 E.04243
G1 X78.613 Y56.435 E.01673
G1 X79.206 Y57.027 E.02629
M204 P1000
; stop printing object set_box_mini_prototype_with_snap_fit_001.stl_2 id:2 copy 0
; printing object set_box_mini_prototype_with_snap_fit_001.stl_2 id:1 copy 0
G1 E-2.24 F4200
;WIPE_START
G1 F7200
G1 X78.613 Y56.435 E-.46453
G1 X78.613 Y55.901 E-.29559
M73 P3 R31
G1 X78.807 Y56.095 E-.15187
;WIPE_END
G1 E-.048 F4200
G1 Z.4 F720
G1 X95.267 Y73.3 F9000
G1 Z.2 F720
G1 E3.2 F2400
M204 P800
;TYPE:Support material
;WIDTH:0.42
G1 F1200
G1 X84.733 Y73.3 E.33026
G1 X84.733 Y68.56 E.14862
G1 X95.267 Y68.56 E.33026
G1 X95.267 Y73.243 E.14685
M204 P1000
G1 X94.609 Y73.13 F9000
M204 P800
G1 F1200
G1 X94.609 Y68.899 E.13266
G1 X94.19 Y68.899 E.01314
G1 X94.19 Y72.961 E.12734
G1 X93.771 Y72.961 E.01314
G1 X93.771 Y68.899 E.12734
G1 X93.352 Y68.899 E.01314
G1 X93.352 Y72.961 E.12734
G1 X92.933 Y72.961 E.01314
G1 X92.933 Y68.899 E.12734
G1 X92.514 Y68.899 E.01314
G1 X92.514 Y72.961 E.12734
G1 X92.095 Y72.961 E.01314
G1 X92.095 Y68.899 E.12734
G1 X91.676 Y68.899 E.01314
G1 X91.676 Y72.961 E.12734
G1 X91.257 Y72.961 E.01314
G1 X91.257 Y68.899 E.12734
G1 X90.838 Y68.899 E.01314
G1 X90.838 Y72.961 E.12734
G1 X90.419 Y72.961 E.01314
G1 X90.419 Y68.899 E.12734
G1 X90 Y68.899 E.01314
G1 X90 Y72.961 E.12734
G1 X89.581 Y72.961 E.01314
G1 X89.581 Y68.899 E.12734
G1 X89.162 Y68.899 E.01314
G1 X89.162 Y72.961 E.12734
G1 X88.743 Y72.961 E.01314
G1 X88.743 Y68.899 E.12734
G1 X88.324 Y68.899 E.01314
G1 X88.324 Y72.961 E.12734
G1 X87.905 Y72.961 E.01314
G1 X87.905 Y68.899 E.12734
M73 P4 R31
G1 X87.486 Y68.899 E.01314
G1 X87.486 Y72.961 E.12734
G1 X87.067 Y72.961 E.01314
G1 X87.067 Y68.899 E.12734
G1 X86.648 Y68.899 E.01314
G1 X86.648 Y72.961 E.12734
G1 X86.229 Y72.961 E.01314
G1 X86.229 Y68.899 E.12734
G1 X85.81 Y68.899 E.01314
G1 X85.81 Y72.961 E.12734
G1 X85.391 Y72.961 E.01314
G1 X85.391 Y68.73 E.13266
M204 P1000
G1 E-2.24 F4200
;WIPE_START
G1 F7200
G1 X85.391 Y70.375 E-.912
;WIPE_END
G1 E-.048 F4200
G1 Z.4 F720
G1 X95.267 Y93 F9000
G1 Z.2 F720
G1 E3.2 F2400
M204 P800
G1 F1200
G1 X84.733 Y93 E.33026
G1 X84.733 Y88.26 E.14862
G1 X95.267 Y88.26 E.33026
G1 X95.267 Y92.943 E.14685
M204 P1000
G1 X94.609 Y92.83 F9000
M204 P800
G1 F1200
G1 X94.609 Y88.599 E.13266
G1 X94.19 Y88.599 E.01314
G1 X94.19 Y92.661 E.12734
G1 X93.771 Y92.661 E.01314
G1 X93.771 Y88.599 E.12734
G1 X93.352 Y88.599 E.01314
G1 X93.352 Y92.661 E.12734
G1 X92.933 Y92.661 E.01314
G1 X92.933 Y88.599 E.12734
G1 X92.514 Y88.599 E.01314
G1 X92.514 Y92.661 E.12734
G1 X92.095 Y92.661 E.01314
G1 X92.095 Y88.599 E.12734
G1 X91.676 Y88.599 E.01314
G1 X91.676 Y92.661 E.12734
G1 X91.257 Y92.661 E.01314
G1 X91.257 Y88.599 E.12734
G1 X90.838 Y88.599 E.01314
G1 X90.838 Y92.661 E.12734
G1 X90.419 Y92.661 E.01314
G1 X90.419 Y88.599 E.12734
G1 X90 Y88.599 E.01314
G1 X90 Y92.661 E.12734
G1 X89.581 Y92.661 E.01314
G1 X89.581 Y88.599 E.12734
G1 X89.162 Y88.599 E.01314
G1 X89.162 Y92.661 E.12734
G1 X88.743 Y92.661 E.01314
G1 X88.743 Y88.599 E.12734
G1 X88.324 Y88.599 E.01314
G1 X88.324 Y92.661 E.12734
G1 X87.905 Y92.661 E.01314
G1 X87.905 Y88.599 E.12734
G1 X87.486 Y88.599 E.01314
G1 X87.486 Y92.661 E.12734
G1 X87.067 Y92.661 E.01314
G1 X87.067 Y88.599 E.12734
G1 X86.648 Y88.599 E.01314
G1 X86.648 Y92.661 E.12734
G1 X86.229 Y92.661 E.01314
G1 X86.229 Y88.599 E.12734
G1 X85.81 Y88.599 E.01314
G1 X85.81 Y92.661 E.12734
G1 X85.391 Y92.661 E.01314
G1 X85.391 Y88.43 E.13266
M204 P1000
G1 E-2.24 F4200
;WIPE_START
G1 F7200
G1 X85.391 Y90.075 E-.912
;WIPE_END
G1 E-.048 F4200
G1 Z.4 F720
G1 X78.787 Y74.567 F9000
G1 Z.2 F720
G1 E3.2 F2400
M204 P800
;TYPE:Perimeter
;WIDTH:0.419999
G1 F1200
G1 X101.213 Y74.567 E.70315
G1 X101.213 Y86.993 E.3896
G1 X78.787 Y86.993 E.70315
G1 X78.787 Y74.627 E.38772
M204 P1000
G1 X78.41 Y74.19 F9000
M204 P800
;TYPE:External perimeter
G1 F1200
G1 X101.59 Y74.19 E.72679
G1 X101.59 Y87.37 E.41325
G1 X78.41 Y87.37 E.72679
G1 X78.41 Y74.25 E.41137
M204 P1000
G1 X78.804 Y74.259 F9000
G1 E-2.24 F4200
;WIPE_START
G1 F7200
G1 X80.056 Y74.246 E-.912
;WIPE_END
G1 E-.048 F4200
G1 Z.4 F720
G1 X100.329 Y74.68 F9000
G1 Z.2 F720
G1 E3.2 F2400
M204 P800
;TYPE:Solid infill
;WIDTH:0.423814
G1 F1200
G1 X100.93 Y75.281 E.0269
G1 X100.93 Y75.82 E.01706
G1 X99.96 Y74.85 E.04343
G1 X99.422 Y74.85 E.01706
G1 X100.93 Y76.358 E.06756
G1 X100.93 Y76.897 E.01706
G1 X98.883 Y74.85 E.09169
G1 X98.344 Y74.85 E.01706
G1 X100.93 Y77.436 E.11581
G1 X100.93 Y77.974 E.01706
G1 X97.806 Y74.85 E.13994
G1 X97.267 Y74.85 E.01706
G1 X100.93 Y78.513 E.16407
G1 X100.93 Y79.052 E.01706
G1 X96.728 Y74.85 E.18819
G1 X96.19 Y74.85 E.01706
G1 X100.93 Y79.59 E.21232
G1 X100.93 Y80.129 E.01706
G1 X95.651 Y74.85 E.23645
G1 X95.112 Y74.85 E.01706
G1 X100.93 Y80.668 E.26057
M73 P5 R31
G1 X100.93 Y81.206 E.01706
G1 X94.574 Y74.85 E.2847
G1 X94.035 Y74.85 E.01706
G1 X100.93 Y81.745 E.30883
G1 X100.93 Y82.284 E.01706
G1 X93.496 Y74.85 E.33295
G1 X92.958 Y74.85 E.01706
G1 X100.93 Y82.822 E.35708
G1 X100.93 Y83.361 E.01706
G1 X92.419 Y74.85 E.38121
G1 X91.88 Y74.85 E.01706
G1 X100.93 Y83.9 E.40534
G1 X100.93 Y84.438 E.01706
G1 X91.342 Y74.85 E.42946
G1 X90.803 Y74.85 E.01706
G1 X100.93 Y84.977 E.45359
G1 X100.93 Y85.516 E.01706
G1 X90.264 Y74.85 E.47772
G1 X89.726 Y74.85 E.01706
G1 X100.93 Y86.054 E.50184
G1 X100.93 Y86.593 E.01706
G1 X89.187 Y74.85 E.52597
G1 X88.648 Y74.85 E.01706
G1 X100.509 Y86.71 E.53122
G1 X99.97 Y86.71 E.01706
G1 X88.11 Y74.85 E.53122
G1 X87.571 Y74.85 E.01706
G1 X99.431 Y86.71 E.53122
G1 X98.893 Y86.71 E.01706
G1 X87.032 Y74.85 E.53122
G1 X86.494 Y74.85 E.01706
G1 X98.354 Y86.71 E.53122
G1 X97.815 Y86.71 E.01706
G1 X85.955 Y74.85 E.53122
G1 X85.417 Y74.85 E.01706
G1 X97.277 Y86.71 E.53122
G1 X96.738 Y86.71 E.01706
G1 X84.878 Y74.85 E.53122
G1 X84.339 Y74.85 E.01706
G1 X96.199 Y86.71 E.53122
G1 X95.661 Y86.71 E.01706
G1 X83.801 Y74.85 E.53122
G1 X83.262 Y74.85 E.01706
G1 X95.122 Y86.71 E.53122
G1 X94.583 Y86.71 E.01706
G1 X82.723 Y74.85 E.53122
G1 X82.185 Y74.85 E.01706
G1 X94.045 Y86.71 E.53122
G1 X93.506 Y86.71 E.01706
G1 X81.646 Y74.85 E.53122
G1 X81.107 Y74.85 E.01706
M73 P6 R31
G1 X92.967 Y86.71 E.53122
G1 X92.429 Y86.71 E.01706
G1 X80.569 Y74.85 E.53122
G1 X80.03 Y74.85 E.01706
G1 X91.89 Y86.71 E.53122
G1 X91.351 Y86.71 E.01706
G1 X79.491 Y74.85 E.53122
G1 X79.07 Y74.85 E.01334
G1 X79.07 Y74.967 E.00372
G1 X90.813 Y86.71 E.52597
G1 X90.274 Y86.71 E.01706
G1 X79.07 Y75.506 E.50184
G1 X79.07 Y76.045 E.01706
G1 X89.735 Y86.71 E.47771
G1 X89.197 Y86.71 E.01706
