; generated by PrusaSlicer 2.5.0+win64 on 2023-01-07 at 00:40:46 UTC


;
;

;
;
; 

; external perimeters extrusion width = 0.45mm
; perimeters extrusion width = 0.45mm
; infill extrusion width = 0.45mm
; solid infill extrusion width = 0.45mm
; top infill extrusion width = 0.40mm
; first layer extrusion width = 0.42mm

M73 P0 R27
M201 X2500 Y2500 Z400 E5000 ; sets maximum accelerations, mm/sec^2
M203 X180 Y180 Z12 E80 ; sets maximum feedrates, mm / sec
M204 P1250 R1250 T2500 ; sets acceleration (P, T) and retract acceleration (R), mm/sec^2
M205 X8.00 Y8.00 Z2.00 E10.00 ; sets the jerk limits, mm/sec
M205 S0 T0 ; sets the minimum extruding and travel feed rate, mm/sec
M107
;TYPE:Custom
M862.3 P "MINI" ; printer model check
G90 ; use absolute coordinates
M83 ; extruder relative mode
M104 S170 ; set extruder temp for bed leveling
M140 S60 ; set bed temp
M109 R170 ; wait for bed leveling temp
M190 S60 ; wait for bed temp
M204 T1250 ; set travel acceleration
G28 ; home all without mesh bed level
G29 ; mesh bed leveling 
M204 T2500 ; restore travel acceleration
M104 S215 ; set extruder temp
G92 E0
G1 Y-2 X179 F2400
G1 Z3 F720
M109 S215 ; wait for extruder temp

; intro line
G1 X170 F1000
G1 Z0.2 F720
G1 X110 E8 F900
G1 X40 E10 F700
G92 E0

M221 S95 ; set flow
G21 ; set units to millimeters
G90 ; use absolute coordinates
M83 ; use relative distances for extrusion
M900 K0.2 ; Filament gcode LA 1.5
; ; Filament gcode LA 1.0
M107
;LAYER_CHANGE
;Z:0.2
;HEIGHT:0.2
;BEFORE_LAYER_CHANGE
G92 E0.0
;0.2


G1 E-3.2 F4200
G1 Z.2 F720
;AFTER_LAYER_CHANGE
;0.2
G1 Z.4
G1 X81.639 Y77.583 F9000
G1 Z.2 F720
G1 E3.2 F2400
M204 P800
;TYPE:Skirt/Brim
;WIDTH:0.42
G1 F1200
M73 P1 R27
G1 X82.705 Y76.569 E.04612
G1 X84 Y76.246 E.04186
G1 X96 Y76.246 E.37625
G1 X97.417 Y76.639 E.04612
G1 X98.431 Y77.705 E.04612
G1 X98.754 Y79 E.04186
G1 X98.754 Y101 E.68979
G1 X98.361 Y102.417 E.04612
G1 X97.295 Y103.431 E.04612
G1 X96 Y103.754 E.04186
G1 X84 Y103.754 E.37625
G1 X82.583 Y103.361 E.04612
G1 X81.569 Y102.295 E.04612
G1 X81.246 Y101 E.04186
G1 X81.246 Y79 E.68979
G1 X81.623 Y77.64 E.04424
M204 P1000
G1 X81.997 Y77.752 F9000
M204 P800
G1 F1200
G1 X82.015 Y77.693 E.00195
G1 X83.06 Y76.817 E.04278
G1 X84 Y76.623 E.03008
G1 X96 Y76.623 E.37625
G1 X97.307 Y77.015 E.04278
G1 X98.183 Y78.06 E.04278
G1 X98.377 Y79 E.03008
G1 X98.377 Y101 E.68979
G1 X97.985 Y102.307 E.04278
G1 X96.94 Y103.183 E.04278
G1 X96 Y103.377 E.03008
G1 X84 Y103.377 E.37625
G1 X82.693 Y102.985 E.04278
G1 X81.817 Y101.94 E.04278
G1 X81.623 Y101 E.03008
M73 P1 R26
G1 X81.623 Y79 E.68979
G1 X81.979 Y77.81 E.03895
M204 P1000
; printing object set_box_mini_prototype.stl id:0 copy 0
G1 E-2.24 F4200
;WIPE_START
G1 F7200
G1 X82.015 Y77.693 E-.06768
G1 X83.06 Y76.817 E-.75612
G1 X83.216 Y76.784 E-.0882
;WIPE_END
G1 E-.048 F4200
G1 Z.4 F720
G1 X85.164 Y80.164 F9000
G1 Z.2 F720
G1 E3.2 F2400
M204 P800
;TYPE:Perimeter
;WIDTH:0.419999
G1 F1200
G1 X94.836 Y80.164 E.30325
G1 X94.836 Y99.836 E.61679
G1 X85.164 Y99.836 E.30325
G1 X85.164 Y80.224 E.61491
M204 P1000
G1 X84.787 Y79.787 F9000
M204 P800
G1 F1200
G1 X95.213 Y79.787 E.32689
G1 X95.213 Y100.213 E.64044
G1 X84.787 Y100.213 E.32689
G1 X84.787 Y79.847 E.63856
M204 P1000
G1 X84.41 Y79.41 F9000
M204 P800
;TYPE:External perimeter
G1 F1200
G1 X95.59 Y79.41 E.35054
G1 X95.59 Y100.59 E.66408
G1 X84.41 Y100.59 E.35054
M73 P2 R26
G1 X84.41 Y79.47 E.6622
M204 P1000
G1 X84.784 Y79.552 F9000
G1 E-2.24 F4200
;WIPE_START
G1 F7200
G1 X86.056 Y79.461 E-.912
;WIPE_END
G1 E-.048 F4200
G1 Z.4 F720
G1 X93.956 Y80.277 F9000
G1 Z.2 F720
G1 E3.2 F2400
M204 P800
;TYPE:Solid infill
;WIDTH:0.422221
G1 F1200
G1 X94.553 Y80.875 E.02664
G1 X94.553 Y81.411 E.01692
G1 X93.589 Y80.447 E.043
G1 X93.053 Y80.447 E.01692
G1 X94.553 Y81.947 E.06692
G1 X94.553 Y82.484 E.01692
G1 X92.516 Y80.447 E.09085
G1 X91.98 Y80.447 E.01692
G1 X94.553 Y83.02 E.11477
G1 X94.553 Y83.557 E.01692
G1 X91.443 Y80.447 E.1387
G1 X90.907 Y80.447 E.01692
G1 X94.553 Y84.093 E.16263
G1 X94.553 Y84.629 E.01692
G1 X90.371 Y80.447 E.18655
G1 X89.834 Y80.447 E.01692
G1 X94.553 Y85.166 E.21048
G1 X94.553 Y85.702 E.01692
G1 X89.298 Y80.447 E.2344
G1 X88.761 Y80.447 E.01692
G1 X94.553 Y86.239 E.25833
G1 X94.553 Y86.775 E.01692
G1 X88.225 Y80.447 E.28225
G1 X87.688 Y80.447 E.01692
G1 X94.553 Y87.312 E.30618
G1 X94.553 Y87.848 E.01692
G1 X87.152 Y80.447 E.3301
G1 X86.616 Y80.447 E.01692
G1 X94.553 Y88.384 E.35403
G1 X94.553 Y88.921 E.01692
G1 X86.079 Y80.447 E.37796
G1 X85.543 Y80.447 E.01692
G1 X94.553 Y89.457 E.40188
G1 X94.553 Y89.994 E.01692
G1 X85.447 Y80.887 E.40616
G1 X85.447 Y81.424 E.01692
G1 X94.553 Y90.53 E.40616
G1 X94.553 Y91.066 E.01692
G1 X85.447 Y81.96 E.40616
G1 X85.447 Y82.497 E.01692
G1 X94.553 Y91.603 E.40616
G1 X94.553 Y92.139 E.01692
G1 X85.447 Y83.033 E.40616
G1 X85.447 Y83.57 E.01692
G1 X94.553 Y92.676 E.40616
G1 X94.553 Y93.212 E.01692
G1 X85.447 Y84.106 E.40616
G1 X85.447 Y84.642 E.01692
G1 X94.553 Y93.748 E.40616
G1 X94.553 Y94.285 E.01692
G1 X85.447 Y85.179 E.40616
G1 X85.447 Y85.715 E.01692
G1 X94.553 Y94.821 E.40616
G1 X94.553 Y95.358 E.01692
G1 X85.447 Y86.252 E.40616
G1 X85.447 Y86.788 E.01692
G1 X94.553 Y95.894 E.40616
G1 X94.553 Y96.431 E.01692
M73 P3 R26
G1 X85.447 Y87.324 E.40616
G1 X85.447 Y87.861 E.01692
G1 X94.553 Y96.967 E.40616
G1 X94.553 Y97.503 E.01692
G1 X85.447 Y88.397 E.40616
G1 X85.447 Y88.934 E.01692
G1 X94.553 Y98.04 E.40616
G1 X94.553 Y98.576 E.01692
G1 X85.447 Y89.47 E.40616
G1 X85.447 Y90.007 E.01692
G1 X94.553 Y99.113 E.40616
G1 X94.553 Y99.553 E.01389
G1 X94.457 Y99.553 E.00303
G1 X85.447 Y90.543 E.40188
G1 X85.447 Y91.079 E.01692
G1 X93.921 Y99.553 E.37795
G1 X93.384 Y99.553 E.01692
G1 X85.447 Y91.616 E.35403
G1 X85.447 Y92.152 E.01692
G1 X92.848 Y99.553 E.3301
G1 X92.311 Y99.553 E.01692
G1 X85.447 Y92.689 E.30618
G1 X85.447 Y93.225 E.01692
G1 X91.775 Y99.553 E.28225
G1 X91.239 Y99.553 E.01692
G1 X85.447 Y93.761 E.25832
G1 X85.447 Y94.298 E.01692
G1 X90.702 Y99.553 E.2344
G1 X90.166 Y99.553 E.01692
G1 X85.447 Y94.834 E.21047
G1 X85.447 Y95.371 E.01692
G1 X89.629 Y99.553 E.18655
G1 X89.093 Y99.553 E.01692
G1 X85.447 Y95.907 E.16262
G1 X85.447 Y96.443 E.01692
G1 X88.557 Y99.553 E.1387
G1 X88.02 Y99.553 E.01692
G1 X85.447 Y96.98 E.11477
G1 X85.447 Y97.516 E.01692
G1 X87.484 Y99.553 E.09085
G1 X86.947 Y99.553 E.01692
G1 X85.447 Y98.053 E.06692
G1 X85.447 Y98.589 E.01692
G1 X86.411 Y99.553 E.04299
G1 X85.874 Y99.553 E.01692
G1 X85.277 Y98.956 E.02664
M204 P1000
; stop printing object set_box_mini_prototype.stl id:0 copy 0
M106 S84.15
;LAYER_CHANGE
;Z:0.3
;HEIGHT:0.1
;BEFORE_LAYER_CHANGE
G92 E0.0
;0.3


G1 E-2.24 F4200
;WIPE_START
G1 F7200
G1 X85.874 Y99.553 E-.46804
G1 X86.411 Y99.553 E-.29726
G1 X86.224 Y99.366 E-.1467
;WIPE_END
G1 E-.048 F4200
G1 Z.4 F720
;AFTER_LAYER_CHANGE
;0.3
G1 X86.224 Y103.754 F9000
G1 Z.3 F720
G1 E3.2 F2400
;TYPE:Skirt/Brim
;WIDTH:0.42
G1 X84 Y103.754 E.03685
G1 X82.583 Y103.361 E.02437
G1 X81.569 Y102.295 E.02437
G1 X81.246 Y101 E.02212
G1 X81.246 Y79 E.36453
G1 X81.639 Y77.583 E.02437
G1 X82.705 Y76.569 E.02437
G1 X84 Y76.246 E.02212
G1 X96 Y76.246 E.19883
G1 X97.417 Y76.639 E.02437
G1 X98.431 Y77.705 E.02437
G1 X98.754 Y79 E.02212
G1 X98.754 Y101 E.36453
G1 X98.361 Y102.417 E.02437
G1 X97.295 Y103.431 E.02437
G1 X96 Y103.754 E.02212
G1 X86.284 Y103.754 E.16099
G1 X86.284 Y103.377 F9000
G1 F2400
G1 X84 Y103.377 E.03784
G1 X82.693 Y102.985 E.02261
G1 X81.817 Y101.94 E.02261
G1 X81.623 Y101 E.0159
G1 X81.623 Y79 E.36453
G1 X82.015 Y77.693 E.02261
G1 X83.06 Y76.817 E.02261
G1 X84 Y76.623 E.0159
G1 X96 Y76.623 E.19883
G1 X97.307 Y77.015 E.02261
G1 X98.183 Y78.06 E.02261
G1 X98.377 Y79 E.0159
G1 X98.377 Y101 E.36453
G1 X97.985 Y102.307 E.02261
G1 X96.94 Y103.183 E.02261
G1 X96 Y103.377 E.0159
G1 X86.344 Y103.377 E.16
; printing object set_box_mini_prototype.stl id:0 copy 0
G1 E-2.24 F4200
;WIPE_START
G1 F7200
G1 X84.698 Y103.377 E-.912
;WIPE_END
G1 E-.048 F4200
G1 Z.5 F720
G1 X85.082 Y80.082 F9000
G1 Z.3 F720
G1 E3.2 F2400
M204 P600
;TYPE:Perimeter
;WIDTH:0.449999
G1 X94.918 Y80.082 E.17524
G1 X94.918 Y99.918 E.35341
M73 P4 R26
G1 X85.082 Y99.918 E.17524
G1 X85.082 Y80.142 E.35234
M204 P1000
G1 X84.654 Y79.654 F9000
M204 P600
G1 F2400
G1 X95.346 Y79.654 E.19051
G1 X95.346 Y100.346 E.36868
G1 X84.654 Y100.346 E.19051
G1 X84.654 Y79.714 E.36761
M204 P1000
G1 X84.225 Y79.225 F9000
M204 P600
;TYPE:External perimeter
G1 F1800
G1 X95.775 Y79.225 E.20578
G1 X95.775 Y100.775 E.38395
G1 X84.225 Y100.775 E.20578
G1 X84.225 Y79.285 E.38288
M204 P1000
G1 X84.599 Y79.366 F9000
G1 E-2.24 F4200
;WIPE_START
G1 F7200
G1 X85.871 Y79.276 E-.912
;WIPE_END
G1 E-.048 F4200
G1 Z.5 F720
G1 X94.789 Y98.918 F9000
G1 Z.3 F720
G1 E3.2 F2400
;TYPE:Solid infill
;WIDTH:0.452252
G1 F4800
G1 X94.111 Y99.597 E.01718
G1 X93.502 Y99.597 E.01091
G1 X94.597 Y98.502 E.02773
G1 X94.597 Y97.893 E.01091
G1 X92.893 Y99.597 E.04316
G1 X92.283 Y99.597 E.01091
G1 X94.597 Y97.283 E.05859
G1 X94.597 Y96.674 E.01091
G1 X91.674 Y99.597 E.07402
G1 X91.065 Y99.597 E.01091
G1 X94.597 Y96.065 E.08945
G1 X94.597 Y95.456 E.01091
G1 X90.456 Y99.597 E.10488
G1 X89.847 Y99.597 E.01091
G1 X94.597 Y94.847 E.12031
G1 X94.597 Y94.237 E.01091
G1 X89.237 Y99.597 E.13574
G1 X88.628 Y99.597 E.01091
G1 X94.597 Y93.628 E.15117
G1 X94.597 Y93.019 E.01091
G1 X88.019 Y99.597 E.16661
G1 X87.41 Y99.597 E.01091
G1 X94.597 Y92.41 E.18204
G1 X94.597 Y91.8 E.01091
G1 X86.8 Y99.597 E.19747
G1 X86.191 Y99.597 E.01091
G1 X94.597 Y91.191 E.2129
G1 X94.597 Y90.582 E.01091
G1 X85.582 Y99.597 E.22833
G1 X85.403 Y99.597 E.0032
G1 X85.403 Y99.166 E.00772
G1 X94.597 Y89.973 E.23285
G1 X94.597 Y89.363 E.01091
G1 X85.403 Y98.556 E.23285
G1 X85.403 Y97.947 E.01091
G1 X94.597 Y88.754 E.23285
G1 X94.597 Y88.145 E.01091
G1 X85.403 Y97.338 E.23285
G1 X85.403 Y96.729 E.01091
G1 X94.597 Y87.536 E.23285
G1 X94.597 Y86.927 E.01091
G1 X85.403 Y96.12 E.23285
G1 X85.403 Y95.51 E.01091
G1 X94.597 Y86.317 E.23285
G1 X94.597 Y85.708 E.01091
G1 X85.403 Y94.901 E.23285
G1 X85.403 Y94.292 E.01091
G1 X94.597 Y85.099 E.23285
G1 X94.597 Y84.49 E.01091
G1 X85.403 Y93.683 E.23285
G1 X85.403 Y93.073 E.01091
G1 X94.597 Y83.88 E.23285
G1 X94.597 Y83.271 E.01091
G1 X85.403 Y92.464 E.23285
G1 X85.403 Y91.855 E.01091
G1 X94.597 Y82.662 E.23285
G1 X94.597 Y82.053 E.01091
G1 X85.403 Y91.246 E.23285
G1 X85.403 Y90.636 E.01091
G1 X94.597 Y81.443 E.23285
G1 X94.597 Y80.834 E.01091
G1 X85.403 Y90.027 E.23285
G1 X85.403 Y89.418 E.01091
G1 X94.418 Y80.403 E.22833
G1 X93.809 Y80.403 E.01091
G1 X85.403 Y88.809 E.2129
G1 X85.403 Y88.2 E.01091
G1 X93.2 Y80.403 E.19747
G1 X92.59 Y80.403 E.01091
G1 X85.403 Y87.59 E.18203
G1 X85.403 Y86.981 E.01091
G1 X91.981 Y80.403 E.1666
G1 X91.372 Y80.403 E.01091
G1 X85.403 Y86.372 E.15117
G1 X85.403 Y85.763 E.01091
G1 X90.763 Y80.403 E.13574
G1 X90.153 Y80.403 E.01091
G1 X85.403 Y85.153 E.12031
G1 X85.403 Y84.544 E.01091
G1 X89.544 Y80.403 E.10488
G1 X88.935 Y80.403 E.01091
G1 X85.403 Y83.935 E.08945
G1 X85.403 Y83.326 E.01091
G1 X88.326 Y80.403 E.07402
G1 X87.716 Y80.403 E.01091
G1 X85.403 Y82.716 E.05858
G1 X85.403 Y82.107 E.01091
G1 X87.107 Y80.403 E.04315
G1 X86.498 Y80.403 E.01091
G1 X85.403 Y81.498 E.02772
G1 X85.403 Y80.889 E.01091
G1 X86.082 Y80.211 E.01718
; stop printing object set_box_mini_prototype.stl id:0 copy 0
M106 S170.85
;LAYER_CHANGE
;Z:0.4
;HEIGHT:0.1
;BEFORE_LAYER_CHANGE
G92 E0.0
;0.4


G1 E-2.24 F4200
;WIPE_START
G1 F7200
G1 X85.403 Y80.889 E-.53144
G1 X85.403 Y81.498 E-.33762
G1 X85.458 Y81.443 E-.04294
;WIPE_END
G1 E-.048 F4200
G1 Z.5 F720
;AFTER_LAYER_CHANGE
;0.4
G1 X81.246 Y81.443 F9000
G1 Z.4 F720
G1 E3.2 F2400
;TYPE:Skirt/Brim
;WIDTH:0.42
G1 X81.246 Y79 E.04048
G1 X81.639 Y77.583 E.02437
G1 X82.705 Y76.569 E.02437
G1 X84 Y76.246 E.02212
G1 X96 Y76.246 E.19883
G1 X97.417 Y76.639 E.02437
G1 X98.431 Y77.705 E.02437
G1 X98.754 Y79 E.02212
G1 X98.754 Y101 E.36453
M73 P5 R26
G1 X98.361 Y102.417 E.02437
G1 X97.295 Y103.431 E.02437
G1 X96 Y103.754 E.02212
G1 X84 Y103.754 E.19883
G1 X82.583 Y103.361 E.02437
G1 X81.569 Y102.295 E.02437
G1 X81.246 Y101 E.02212
G1 X81.246 Y81.503 E.32305
G1 X81.623 Y81.503 F9000
M73 P5 R25
G1 F2400
G1 X81.623 Y79 E.04148
G1 X82.015 Y77.693 E.02261
G1 X83.06 Y76.817 E.02261
G1 X84 Y76.623 E.0159
G1 X96 Y76.623 E.19883
G1 X97.307 Y77.015 E.02261
G1 X98.183 Y78.06 E.02261
G1 X98.377 Y79 E.0159
G1 X98.377 Y101 E.36453
G1 X97.985 Y102.307 E.02261
G1 X96.94 Y103.183 E.02261
G1 X96 Y103.377 E.0159
G1 X84 Y103.377 E.19883
G1 X82.693 Y102.985 E.02261
G1 X81.817 Y101.94 E.02261
G1 X81.623 Y101 E.0159
G1 X81.623 Y81.563 E.32206
; printing object set_box_mini_prototype.stl id:0 copy 0
G1 E-2.24 F4200
;WIPE_START
G1 F7200
G1 X81.623 Y79.917 E-.912
;WIPE_END
G1 E-.048 F4200
G1 Z.6 F720
G1 X85.082 Y80.082 F9000
G1 Z.4 F720
G1 E3.2 F2400
M204 P600
;TYPE:Perimeter
;WIDTH:0.449999
G1 X94.918 Y80.082 E.17524
G1 X94.918 Y99.918 E.35341
G1 X85.082 Y99.918 E.17524
G1 X85.082 Y80.142 E.35234
M204 P1000
G1 X84.654 Y79.654 F9000
M204 P600
G1 F2400
G1 X95.346 Y79.654 E.19051
G1 X95.346 Y100.346 E.36868
G1 X84.654 Y100.346 E.19051
G1 X84.654 Y79.714 E.36761
M204 P1000
G1 X84.225 Y79.225 F9000
M204 P600
;TYPE:External perimeter
G1 F1800
G1 X95.775 Y79.225 E.20578
G1 X95.775 Y100.775 E.38395
G1 X84.225 Y100.775 E.20578
G1 X84.225 Y79.285 E.38288
M204 P1000
G1 X84.599 Y79.366 F9000
G1 E-2.24 F4200
;WIPE_START
G1 F7200
G1 X85.871 Y79.276 E-.912
;WIPE_END
G1 E-.048 F4200
G1 Z.6 F720
G1 X93.918 Y80.211 F9000
G1 Z.4 F720
G1 E3.2 F2400
;TYPE:Solid infill
;WIDTH:0.452252
G1 F4800
G1 X94.597 Y80.889 E.01718
G1 X94.597 Y81.498 E.01091
G1 X93.502 Y80.403 E.02773
G1 X92.893 Y80.403 E.01091
G1 X94.597 Y82.107 E.04316
G1 X94.597 Y82.717 E.01091
G1 X92.283 Y80.403 E.05859
G1 X91.674 Y80.403 E.01091
G1 X94.597 Y83.326 E.07402
G1 X94.597 Y83.935 E.01091
G1 X91.065 Y80.403 E.08945
G1 X90.456 Y80.403 E.01091
G1 X94.597 Y84.544 E.10488
G1 X94.597 Y85.153 E.01091
G1 X89.847 Y80.403 E.12031
G1 X89.237 Y80.403 E.01091
G1 X94.597 Y85.763 E.13574
G1 X94.597 Y86.372 E.01091
G1 X88.628 Y80.403 E.15117
G1 X88.019 Y80.403 E.01091
G1 X94.597 Y86.981 E.16661
G1 X94.597 Y87.59 E.01091
G1 X87.41 Y80.403 E.18204
G1 X86.8 Y80.403 E.01091
G1 X94.597 Y88.2 E.19747
G1 X94.597 Y88.809 E.01091
G1 X86.191 Y80.403 E.2129
G1 X85.582 Y80.403 E.01091
G1 X94.597 Y89.418 E.22833
G1 X94.597 Y90.027 E.01091
G1 X85.403 Y80.834 E.23285
G1 X85.403 Y81.444 E.01091
G1 X94.597 Y90.637 E.23285
G1 X94.597 Y91.246 E.01091
G1 X85.403 Y82.053 E.23285
G1 X85.403 Y82.662 E.01091
G1 X94.597 Y91.855 E.23285
G1 X94.597 Y92.464 E.01091
G1 X85.403 Y83.271 E.23285
G1 X85.403 Y83.88 E.01091
G1 X94.597 Y93.073 E.23285
G1 X94.597 Y93.683 E.01091
G1 X85.403 Y84.49 E.23285
G1 X85.403 Y85.099 E.01091
G1 X94.597 Y94.292 E.23285
G1 X94.597 Y94.901 E.01091
G1 X85.403 Y85.708 E.23285
G1 X85.403 Y86.317 E.01091
G1 X94.597 Y95.51 E.23285
G1 X94.597 Y96.12 E.01091
G1 X85.403 Y86.927 E.23285
G1 X85.403 Y87.536 E.01091
G1 X94.597 Y96.729 E.23285
G1 X94.597 Y97.338 E.01091
G1 X85.403 Y88.145 E.23285
G1 X85.403 Y88.754 E.01091
G1 X94.597 Y97.947 E.23285
G1 X94.597 Y98.557 E.01091
M73 P6 R25
G1 X85.403 Y89.364 E.23285
G1 X85.403 Y89.973 E.01091
G1 X94.597 Y99.166 E.23285
G1 X94.597 Y99.597 E.00771
G1 X94.418 Y99.597 E.0032
G1 X85.403 Y90.582 E.22833
G1 X85.403 Y91.191 E.01091
G1 X93.809 Y99.597 E.2129
G1 X93.2 Y99.597 E.01091
G1 X85.403 Y91.8 E.19747
G1 X85.403 Y92.41 E.01091
G1 X92.59 Y99.597 E.18203
G1 X91.981 Y99.597 E.01091
G1 X85.403 Y93.019 E.1666
G1 X85.403 Y93.628 E.01091
G1 X91.372 Y99.597 E.15117
G1 X90.763 Y99.597 E.01091
G1 X85.403 Y94.237 E.13574
G1 X85.403 Y94.847 E.01091
G1 X90.153 Y99.597 E.12031
G1 X89.544 Y99.597 E.01091
G1 X85.403 Y95.456 E.10488
G1 X85.403 Y96.065 E.01091
G1 X88.935 Y99.597 E.08945
G1 X88.326 Y99.597 E.01091
G1 X85.403 Y96.674 E.07402
G1 X85.403 Y97.284 E.01091
G1 X87.716 Y99.597 E.05858
G1 X87.107 Y99.597 E.01091
G1 X85.403 Y97.893 E.04315
G1 X85.403 Y98.502 E.01091
G1 X86.498 Y99.597 E.02772
G1 X85.889 Y99.597 E.01091
G1 X85.211 Y98.918 E.01718
; stop printing object set_box_mini_prototype.stl id:0 copy 0
M106 S255
;LAYER_CHANGE
;Z:0.5
