; generated by PrusaSlicer 2.5.0+win64 on 2023-01-16 at 22:27:53 UTC


;
;

;
;
; 

; external perimeters extrusion width = 0.45mm
; perimeters extrusion width = 0.45mm
; infill extrusion width = 0.45mm
; solid infill extrusion width = 0.45mm
; top infill extrusion width = 0.40mm
; first layer extrusion width = 0.42mm

; external perimeters extrusion width = 0.45mm
; perimeters extrusion width = 0.45mm
; infill extrusion width = 0.45mm
; solid infill extrusion width = 0.45mm
; top infill extrusion width = 0.40mm
; first layer extrusion width = 0.42mm

M73 P0 R15
M201 X2500 Y2500 Z400 E5000 ; sets maximum accelerations, mm/sec^2
M203 X180 Y180 Z12 E80 ; sets maximum feedrates, mm / sec
M204 P1250 R1250 T2500 ; sets acceleration (P, T) and retract acceleration (R), mm/sec^2
M205 X8.00 Y8.00 Z2.00 E10.00 ; sets the jerk limits, mm/sec
M205 S0 T0 ; sets the minimum extruding and travel feed rate, mm/sec
M107
;TYPE:Custom
M862.3 P "MINI" ; printer model check
G90 ; use absolute coordinates
M83 ; extruder relative mode
M104 S170 ; set extruder temp for bed leveling
M140 S60 ; set bed temp
M109 R170 ; wait for bed leveling temp
M190 S60 ; wait for bed temp
M204 T1250 ; set travel acceleration
G28 ; home all without mesh bed level
G29 ; mesh bed leveling 
M204 T2500 ; restore travel acceleration
M104 S215 ; set extruder temp
G92 E0
G1 Y-2 X179 F2400
G1 Z3 F720
M109 S215 ; wait for extruder temp

; intro line
G1 X170 F1000
G1 Z0.2 F720
G1 X110 E8 F900
G1 X40 E10 F700
G92 E0

M221 S95 ; set flow
G21 ; set units to millimeters
G90 ; use absolute coordinates
M83 ; use relative distances for extrusion
M900 K0.2 ; Filament gcode LA 1.5
; ; Filament gcode LA 1.0
M107
;LAYER_CHANGE
;Z:0.2
;HEIGHT:0.2
;BEFORE_LAYER_CHANGE
G92 E0.0
;0.2


M73 P1 R15
G1 E-3.2 F4200
M73 P1 R14
G1 Z.2 F720
;AFTER_LAYER_CHANGE
;0.2
G1 Z.4
G1 X81.015 Y55.192 F9000
G1 Z.2 F720
G1 E3.2 F2400
M204 P800
;TYPE:Skirt/Brim
;WIDTH:0.42
G1 F1200
G1 X82.06 Y54.316 E.04278
G1 X83 Y54.122 E.03008
G1 X97.001 Y54.122 E.43899
G1 X98.308 Y54.514 E.04278
G1 X99.184 Y55.56 E.04278
G1 X99.378 Y56.5 E.03008
G1 X99.378 Y110.161 E1.68253
G1 X98.986 Y111.468 E.04278
M73 P2 R14
G1 X97.941 Y112.345 E.04278
G1 X97.001 Y112.538 E.03008
G1 X83 Y112.538 E.43899
G1 X81.693 Y112.147 E.04278
G1 X80.817 Y111.101 E.04278
G1 X80.623 Y110.161 E.03008
G1 X80.623 Y56.5 E1.68253
G1 X80.997 Y55.25 E.0409
M204 P1000
; printing object set_box_mini_prototype_with_snap_fit_005.stl_1 id:0 copy 0
G1 E-2.24 F4200
;WIPE_START
G1 F7200
G1 X82.06 Y54.316 E-.78411
G1 X82.286 Y54.269 E-.12789
;WIPE_END
G1 E-.048 F4200
G1 Z.4 F720
G1 X96.214 Y79.713 F9000
G1 Z.2 F720
G1 E3.2 F2400
M204 P800
;TYPE:Perimeter
;WIDTH:0.419999
G1 F1200
G1 X83.787 Y79.713 E.38963
G1 X83.787 Y57.287 E.70318
G1 X96.214 Y57.287 E.38963
G1 X96.214 Y79.653 E.7013
M204 P1000
G1 X96.591 Y80.091 F9000
M204 P800
;TYPE:External perimeter
M73 P3 R14
G1 F1200
G1 X83.41 Y80.091 E.41328
G1 X83.41 Y56.909 E.72682
G1 X96.591 Y56.909 E.41328
G1 X96.591 Y80.031 E.72494
M204 P1000
G1 X96.215 Y79.953 F9000
G1 E-2.24 F4200
;WIPE_START
G1 F7200
G1 X94.945 Y80.038 E-.912
;WIPE_END
G1 E-.048 F4200
G1 Z.4 F720
G1 X95.33 Y57.4 F9000
G1 Z.2 F720
G1 E3.2 F2400
M204 P800
;TYPE:Solid infill
;WIDTH:0.423836
G1 F1200
G1 X95.931 Y58 E.02691
G1 X95.931 Y58.539 E.01706
G1 X94.961 Y57.569 E.04344
G1 X94.423 Y57.569 E.01706
G1 X95.931 Y59.078 E.06757
G1 X95.931 Y59.617 E.01706
G1 X93.884 Y57.569 E.0917
G1 X93.345 Y57.569 E.01706
G1 X95.931 Y60.155 E.11583
G1 X95.931 Y60.694 E.01706
G1 X92.807 Y57.569 E.13996
G1 X92.268 Y57.569 E.01706
G1 X95.931 Y61.233 E.16409
G1 X95.931 Y61.771 E.01706
G1 X91.729 Y57.569 E.18822
G1 X91.191 Y57.569 E.01706
G1 X95.931 Y62.31 E.21235
G1 X95.931 Y62.849 E.01706
G1 X90.652 Y57.569 E.23647
G1 X90.113 Y57.569 E.01706
G1 X95.931 Y63.387 E.2606
G1 X95.931 Y63.926 E.01706
G1 X89.574 Y57.569 E.28473
G1 X89.036 Y57.569 E.01706
G1 X95.931 Y64.465 E.30886
G1 X95.931 Y65.003 E.01706
G1 X88.497 Y57.569 E.33299
G1 X87.958 Y57.569 E.01706
M73 P4 R14
G1 X95.931 Y65.542 E.35712
G1 X95.931 Y66.081 E.01706
G1 X87.42 Y57.569 E.38125
G1 X86.881 Y57.569 E.01706
G1 X95.931 Y66.62 E.40538
G1 X95.931 Y67.158 E.01706
G1 X86.342 Y57.569 E.42951
G1 X85.804 Y57.569 E.01706
G1 X95.931 Y67.697 E.45364
G1 X95.931 Y68.236 E.01706
G1 X85.265 Y57.569 E.47777
G1 X84.726 Y57.569 E.01706
G1 X95.931 Y68.774 E.5019
G1 X95.931 Y69.313 E.01706
G1 X84.187 Y57.569 E.52603
G1 X84.07 Y57.569 E.00372
G1 X84.07 Y57.99 E.01334
G1 X95.931 Y69.852 E.5313
G1 X95.931 Y70.39 E.01706
G1 X84.07 Y58.529 E.5313
G1 X84.07 Y59.068 E.01706
G1 X95.931 Y70.929 E.5313
G1 X95.931 Y71.468 E.01706
G1 X84.07 Y59.607 E.5313
G1 X84.07 Y60.145 E.01706
M73 P5 R14
G1 X95.931 Y72.007 E.5313
G1 X95.931 Y72.545 E.01706
G1 X84.07 Y60.684 E.5313
G1 X84.07 Y61.223 E.01706
G1 X95.931 Y73.084 E.5313
G1 X95.931 Y73.623 E.01706
G1 X84.07 Y61.761 E.5313
G1 X84.07 Y62.3 E.01706
G1 X95.931 Y74.161 E.5313
G1 X95.931 Y74.7 E.01706
G1 X84.07 Y62.839 E.5313
G1 X84.07 Y63.377 E.01706
G1 X95.931 Y75.239 E.5313
G1 X95.931 Y75.777 E.01706
G1 X84.07 Y63.916 E.5313
G1 X84.07 Y64.455 E.01706
G1 X95.931 Y76.316 E.5313
G1 X95.931 Y76.855 E.01706
G1 X84.07 Y64.994 E.5313
G1 X84.07 Y65.532 E.01706
M73 P6 R14
G1 X95.931 Y77.393 E.5313
G1 X95.931 Y77.932 E.01706
G1 X84.07 Y66.071 E.5313
G1 X84.07 Y66.61 E.01706
G1 X95.931 Y78.471 E.5313
G1 X95.931 Y79.01 E.01706
G1 X84.07 Y67.148 E.5313
G1 X84.07 Y67.687 E.01706
G1 X95.813 Y79.431 E.52603
G1 X95.275 Y79.431 E.01706
G1 X84.07 Y68.226 E.5019
G1 X84.07 Y68.764 E.01706
G1 X94.736 Y79.431 E.47777
G1 X94.197 Y79.431 E.01706
G1 X84.07 Y69.303 E.45364
G1 X84.07 Y69.842 E.01706
G1 X93.659 Y79.431 E.42951
G1 X93.12 Y79.431 E.01706
G1 X84.07 Y70.381 E.40538
G1 X84.07 Y70.919 E.01706
G1 X92.581 Y79.431 E.38125
G1 X92.043 Y79.431 E.01706
G1 X84.07 Y71.458 E.35712
G1 X84.07 Y71.997 E.01706
M73 P7 R14
G1 X91.504 Y79.431 E.33299
G1 X90.965 Y79.431 E.01706
G1 X84.07 Y72.535 E.30886
G1 X84.07 Y73.074 E.01706
G1 X90.427 Y79.431 E.28473
G1 X89.888 Y79.431 E.01706
G1 X84.07 Y73.613 E.2606
G1 X84.07 Y74.151 E.01706
G1 X89.349 Y79.431 E.23647
G1 X88.81 Y79.431 E.01706
G1 X84.07 Y74.69 E.21234
G1 X84.07 Y75.229 E.01706
G1 X88.272 Y79.431 E.18821
G1 X87.733 Y79.431 E.01706
G1 X84.07 Y75.767 E.16408
G1 X84.07 Y76.306 E.01706
G1 X87.194 Y79.431 E.13995
G1 X86.656 Y79.431 E.01706
G1 X84.07 Y76.845 E.11582
G1 X84.07 Y77.384 E.01706
G1 X86.117 Y79.431 E.09169
G1 X85.578 Y79.431 E.01706
G1 X84.07 Y77.922 E.06756
G1 X84.07 Y78.461 E.01706
G1 X85.04 Y79.431 E.04343
G1 X84.501 Y79.431 E.01706
G1 X83.9 Y78.83 E.0269
M204 P1000
; stop printing object set_box_mini_prototype_with_snap_fit_005.stl_1 id:0 copy 0
; printing object set_box_mini_prototype_with_snap_fit_005.stl_2 id:1 copy 0
G1 E-2.24 F4200
;WIPE_START
G1 F7200
G1 X84.501 Y79.431 E-.47074
G1 X85.04 Y79.431 E-.29853
G1 X84.857 Y79.248 E-.14273
;WIPE_END
G1 E-.048 F4200
G1 Z.4 F720
G1 X96.214 Y109.374 F9000
G1 Z.2 F720
G1 E3.2 F2400
M204 P800
;TYPE:Perimeter
;WIDTH:0.419999
G1 F1200
G1 X83.787 Y109.374 E.38963
G1 X83.787 Y86.947 E.70318
G1 X96.214 Y86.947 E.38963
M73 P7 R13
G1 X96.214 Y109.314 E.7013
M204 P1000
G1 X96.591 Y109.751 F9000
M204 P800
;TYPE:External perimeter
G1 F1200
M73 P8 R13
G1 X83.41 Y109.751 E.41328
G1 X83.41 Y86.57 E.72682
G1 X96.591 Y86.57 E.41328
G1 X96.591 Y109.691 E.72494
M204 P1000
G1 X96.215 Y109.614 F9000
G1 E-2.24 F4200
;WIPE_START
G1 F7200
G1 X94.945 Y109.699 E-.912
;WIPE_END
G1 E-.048 F4200
G1 Z.4 F720
G1 X95.33 Y87.061 F9000
G1 Z.2 F720
G1 E3.2 F2400
M204 P800
;TYPE:Solid infill
;WIDTH:0.423836
G1 F1200
G1 X95.931 Y87.661 E.02691
G1 X95.931 Y88.2 E.01706
G1 X94.961 Y87.23 E.04344
G1 X94.423 Y87.23 E.01706
G1 X95.931 Y88.739 E.06757
G1 X95.931 Y89.277 E.01706
G1 X93.884 Y87.23 E.0917
G1 X93.345 Y87.23 E.01706
G1 X95.931 Y89.816 E.11583
G1 X95.931 Y90.355 E.01706
G1 X92.807 Y87.23 E.13996
G1 X92.268 Y87.23 E.01706
G1 X95.931 Y90.893 E.16409
G1 X95.931 Y91.432 E.01706
G1 X91.729 Y87.23 E.18822
G1 X91.191 Y87.23 E.01706
G1 X95.931 Y91.971 E.21235
G1 X95.931 Y92.51 E.01706
G1 X90.652 Y87.23 E.23647
G1 X90.113 Y87.23 E.01706
G1 X95.931 Y93.048 E.2606
G1 X95.931 Y93.587 E.01706
G1 X89.574 Y87.23 E.28473
G1 X89.036 Y87.23 E.01706
G1 X95.931 Y94.126 E.30886
G1 X95.931 Y94.664 E.01706
G1 X88.497 Y87.23 E.33299
G1 X87.958 Y87.23 E.01706
G1 X95.931 Y95.203 E.35712
G1 X95.931 Y95.742 E.01706
M73 P9 R13
G1 X87.42 Y87.23 E.38125
G1 X86.881 Y87.23 E.01706
G1 X95.931 Y96.28 E.40538
G1 X95.931 Y96.819 E.01706
G1 X86.342 Y87.23 E.42951
G1 X85.804 Y87.23 E.01706
G1 X95.931 Y97.358 E.45364
G1 X95.931 Y97.896 E.01706
G1 X85.265 Y87.23 E.47777
G1 X84.726 Y87.23 E.01706
G1 X95.931 Y98.435 E.5019
G1 X95.931 Y98.974 E.01706
G1 X84.187 Y87.23 E.52603
G1 X84.07 Y87.23 E.00372
G1 X84.07 Y87.651 E.01334
G1 X95.931 Y99.513 E.5313
G1 X95.931 Y100.051 E.01706
G1 X84.07 Y88.19 E.5313
G1 X84.07 Y88.729 E.01706
G1 X95.931 Y100.59 E.5313
G1 X95.931 Y101.129 E.01706
G1 X84.07 Y89.267 E.5313
G1 X84.07 Y89.806 E.01706
G1 X95.931 Y101.667 E.5313
G1 X95.931 Y102.206 E.01706
M73 P10 R13
G1 X84.07 Y90.345 E.5313
G1 X84.07 Y90.883 E.01706
G1 X95.931 Y102.745 E.5313
G1 X95.931 Y103.283 E.01706
G1 X84.07 Y91.422 E.5313
G1 X84.07 Y91.961 E.01706
G1 X95.931 Y103.822 E.5313
G1 X95.931 Y104.361 E.01706
G1 X84.07 Y92.5 E.5313
G1 X84.07 Y93.038 E.01706
G1 X95.931 Y104.9 E.5313
G1 X95.931 Y105.438 E.01706
G1 X84.07 Y93.577 E.5313
G1 X84.07 Y94.116 E.01706
G1 X95.931 Y105.977 E.5313
G1 X95.931 Y106.516 E.01706
G1 X84.07 Y94.654 E.5313
G1 X84.07 Y95.193 E.01706
G1 X95.931 Y107.054 E.5313
G1 X95.931 Y107.593 E.01706
M73 P11 R13
G1 X84.07 Y95.732 E.5313
G1 X84.07 Y96.27 E.01706
G1 X95.931 Y108.132 E.5313
G1 X95.931 Y108.67 E.01706
G1 X84.07 Y96.809 E.5313
G1 X84.07 Y97.348 E.01706
G1 X95.813 Y109.091 E.52603
G1 X95.275 Y109.091 E.01706
G1 X84.07 Y97.887 E.5019
G1 X84.07 Y98.425 E.01706
G1 X94.736 Y109.091 E.47777
G1 X94.197 Y109.091 E.01706
G1 X84.07 Y98.964 E.45364
G1 X84.07 Y99.503 E.01706
G1 X93.659 Y109.091 E.42951
G1 X93.12 Y109.091 E.01706
G1 X84.07 Y100.041 E.40538
G1 X84.07 Y100.58 E.01706
G1 X92.581 Y109.091 E.38125
G1 X92.043 Y109.091 E.01706
G1 X84.07 Y101.119 E.35712
G1 X84.07 Y101.657 E.01706
G1 X91.504 Y109.091 E.33299
G1 X90.965 Y109.091 E.01706
M73 P12 R13
G1 X84.07 Y102.196 E.30886
G1 X84.07 Y102.735 E.01706
G1 X90.427 Y109.091 E.28473
G1 X89.888 Y109.091 E.01706
G1 X84.07 Y103.274 E.2606
G1 X84.07 Y103.812 E.01706
G1 X89.349 Y109.091 E.23647
G1 X88.81 Y109.091 E.01706
G1 X84.07 Y104.351 E.21234
G1 X84.07 Y104.89 E.01706
G1 X88.272 Y109.091 E.18821
G1 X87.733 Y109.091 E.01706
G1 X84.07 Y105.428 E.16408
G1 X84.07 Y105.967 E.01706
G1 X87.194 Y109.091 E.13995
G1 X86.656 Y109.091 E.01706
G1 X84.07 Y106.506 E.11582
G1 X84.07 Y107.044 E.01706
G1 X86.117 Y109.091 E.09169
G1 X85.578 Y109.091 E.01706
G1 X84.07 Y107.583 E.06756
G1 X84.07 Y108.122 E.01706
G1 X85.04 Y109.091 E.04343
G1 X84.501 Y109.091 E.01706
G1 X83.9 Y108.491 E.02691
M204 P1000
; stop printing object set_box_mini_prototype_with_snap_fit_005.stl_2 id:1 copy 0
M106 S84.15
;LAYER_CHANGE
;Z:0.4
;HEIGHT:0.2
;BEFORE_LAYER_CHANGE
G92 E0.0
;0.4


G1 E-2.24 F4200
;WIPE_START
G1 F7200
G1 X84.501 Y109.091 E-.47074
G1 X85.04 Y109.091 E-.29853
G1 X84.857 Y108.909 E-.14273
;WIPE_END
G1 E-.048 F4200
G1 Z.4 F720
;AFTER_LAYER_CHANGE
;0.4
G1 Z.6
G1 X84.857 Y112.538 F9000
G1 Z.4 F720
G1 E3.2 F2400
;TYPE:Skirt/Brim
;WIDTH:0.42
G1 X83 Y112.538 E.05824
G1 X81.693 Y112.147 E.04278
G1 X80.817 Y111.101 E.04278
G1 X80.623 Y110.161 E.03008
G1 X80.623 Y56.5 E1.68253
G1 X81.015 Y55.192 E.04278
G1 X82.06 Y54.316 E.04278
G1 X83 Y54.122 E.03008
G1 X97.001 Y54.122 E.43899
G1 X98.308 Y54.514 E.04278
G1 X99.184 Y55.56 E.04278
G1 X99.378 Y56.5 E.03008
G1 X99.378 Y110.161 E1.68253
G1 X98.986 Y111.468 E.04278
G1 X97.941 Y112.345 E.04278
G1 X97.001 Y112.538 E.03008
G1 X84.917 Y112.538 E.37887
; printing object set_box_mini_prototype_with_snap_fit_005.stl_1 id:0 copy 0
G1 E-2.24 F4200
;WIPE_START
G1 F7200
G1 X83.272 Y112.538 E-.912
;WIPE_END
G1 E-.048 F4200
G1 Z.6 F720
G1 X96.369 Y79.868 F9000
G1 Z.4 F720
M73 P13 R13
G1 E3.2 F2400
M204 P800
;TYPE:Perimeter
;WIDTH:0.449999
G1 F3000
G1 X83.632 Y79.868 E.43113
G1 X83.632 Y57.132 E.76961
G1 X96.369 Y57.132 E.43113
G1 X96.369 Y79.808 E.76758
M204 P1000
G1 X96.776 Y80.276 F9000
M204 P800
;TYPE:External perimeter
G1 F2400
G1 X83.225 Y80.276 E.45868
G1 X83.225 Y56.725 E.79717
G1 X96.776 Y56.725 E.45868
G1 X96.776 Y80.215 E.79514
M204 P1000
G1 X96.4 Y80.139 F9000
G1 X96.247 Y78.91
;TYPE:Solid infill
;WIDTH:0.456183
G1 F8400
G1 X95.594 Y79.563 E.03173
G1 X95.01 Y79.563 E.02008
G1 X96.064 Y78.509 E.05123
G1 X96.064 Y77.925 E.02008
G1 X94.425 Y79.563 E.07963
G1 X93.841 Y79.563 E.02008
G1 X96.064 Y77.34 E.10803
G1 X96.064 Y76.756 E.02008
G1 X93.256 Y79.563 E.13643
G1 X92.672 Y79.563 E.02008
G1 X96.064 Y76.171 E.16483
G1 X96.064 Y75.587 E.02008
G1 X92.087 Y79.563 E.19323
G1 X91.503 Y79.563 E.02008
G1 X96.064 Y75.002 E.22164
G1 X96.064 Y74.418 E.02008
G1 X90.918 Y79.563 E.25004
G1 X90.334 Y79.563 E.02008
G1 X96.064 Y73.833 E.27844
G1 X96.064 Y73.249 E.02008
G1 X89.75 Y79.563 E.30684
G1 X89.165 Y79.563 E.02008
G1 X96.064 Y72.665 E.33524
G1 X96.064 Y72.08 E.02008
G1 X88.581 Y79.563 E.36365
G1 X87.996 Y79.563 E.02008
G1 X96.064 Y71.496 E.39205
G1 X96.064 Y70.911 E.02008
G1 X87.412 Y79.563 E.42045
G1 X86.827 Y79.563 E.02008
G1 X96.064 Y70.327 E.44885
G1 X96.064 Y69.742 E.02008
G1 X86.243 Y79.563 E.47725
G1 X85.658 Y79.563 E.02008
G1 X96.064 Y69.158 E.50566
G1 X96.064 Y68.574 E.02008
G1 X85.074 Y79.563 E.53406
G1 X84.49 Y79.563 E.02008
G1 X96.064 Y67.989 E.56246
G1 X96.064 Y67.405 E.02008
G1 X83.937 Y79.531 E.58929
G1 X83.937 Y78.946 E.02008
G1 X96.064 Y66.82 E.58929
G1 X96.064 Y66.236 E.02008
G1 X83.937 Y78.362 E.58929
G1 X83.937 Y77.778 E.02008
G1 X96.064 Y65.651 E.58929
G1 X96.064 Y65.067 E.02008
G1 X83.937 Y77.193 E.58929
G1 X83.937 Y76.609 E.02008
G1 X96.064 Y64.482 E.58929
G1 X96.064 Y63.898 E.02008
M73 P14 R13
G1 X83.937 Y76.024 E.58929
G1 X83.937 Y75.44 E.02008
G1 X96.064 Y63.314 E.58929
G1 X96.064 Y62.729 E.02008
G1 X83.937 Y74.855 E.58929
G1 X83.937 Y74.271 E.02008
G1 X96.064 Y62.145 E.58929
G1 X96.064 Y61.56 E.02008
G1 X83.937 Y73.686 E.58929
G1 X83.937 Y73.102 E.02008
G1 X96.064 Y60.976 E.58929
G1 X96.064 Y60.391 E.02008
G1 X83.937 Y72.518 E.58929
G1 X83.937 Y71.933 E.02008
G1 X96.064 Y59.807 E.58929
G1 X96.064 Y59.222 E.02008
G1 X83.937 Y71.349 E.58929
G1 X83.937 Y70.764 E.02008
G1 X96.064 Y58.638 E.58929
G1 X96.064 Y58.054 E.02008
M73 P14 R12
G1 X83.937 Y70.18 E.58929
G1 X83.937 Y69.595 E.02008
G1 X96.064 Y57.469 E.58929
G1 X96.064 Y57.437 E.00111
G1 X95.511 Y57.437 E.01898
G1 X83.937 Y69.011 E.56246
G1 X83.937 Y68.426 E.02008
G1 X94.927 Y57.437 E.53405
G1 X94.343 Y57.437 E.02008
G1 X83.937 Y67.842 E.50565
G1 X83.937 Y67.258 E.02008
G1 X93.758 Y57.437 E.47725
G1 X93.174 Y57.437 E.02008
G1 X83.937 Y66.673 E.44885
G1 X83.937 Y66.089 E.02008
G1 X92.589 Y57.437 E.42045
G1 X92.005 Y57.437 E.02008
G1 X83.937 Y65.504 E.39205
G1 X83.937 Y64.92 E.02008
G1 X91.42 Y57.437 E.36364
G1 X90.836 Y57.437 E.02008
G1 X83.937 Y64.335 E.33524
G1 X83.937 Y63.751 E.02008
G1 X90.251 Y57.437 E.30684
G1 X89.667 Y57.437 E.02008
G1 X83.937 Y63.166 E.27844
G1 X83.937 Y62.582 E.02008
G1 X89.083 Y57.437 E.25004
G1 X88.498 Y57.437 E.02008
G1 X83.937 Y61.998 E.22163
G1 X83.937 Y61.413 E.02008
G1 X87.914 Y57.437 E.19323
G1 X87.329 Y57.437 E.02008
G1 X83.937 Y60.829 E.16483
G1 X83.937 Y60.244 E.02008
G1 X86.745 Y57.437 E.13643
G1 X86.16 Y57.437 E.02008
G1 X83.937 Y59.66 E.10803
G1 X83.937 Y59.075 E.02008
G1 X85.576 Y57.437 E.07962
G1 X84.991 Y57.437 E.02008
G1 X83.937 Y58.491 E.05122
G1 X83.937 Y57.906 E.02008
G1 X84.59 Y57.254 E.03172
; stop printing object set_box_mini_prototype_with_snap_fit_005.stl_1 id:0 copy 0
; printing object set_box_mini_prototype_with_snap_fit_005.stl_2 id:1 copy 0
G1 E-2.24 F4200
;WIPE_START
G1 F7200
G1 X83.937 Y57.906 E-.51159
G1 X83.937 Y58.491 E-.32388
G1 X84.035 Y58.393 E-.07653
;WIPE_END
G1 E-.048 F4200
G1 Z.6 F720
G1 X96.369 Y109.529 F9000
G1 Z.4 F720
G1 E3.2 F2400
M204 P800
