; generated by PrusaSlicer 2.5.0+win64 on 2023-01-18 at 05:26:16 UTC


;
;

;
;
; 

; external perimeters extrusion width = 0.45mm
; perimeters extrusion width = 0.45mm
; infill extrusion width = 0.45mm
; solid infill extrusion width = 0.45mm
; top infill extrusion width = 0.40mm
; support material extrusion width = 0.35mm
; first layer extrusion width = 0.42mm

; external perimeters extrusion width = 0.45mm
; perimeters extrusion width = 0.45mm
; infill extrusion width = 0.45mm
; solid infill extrusion width = 0.45mm
; top infill extrusion width = 0.40mm
; support material extrusion width = 0.35mm
; first layer extrusion width = 0.42mm

M73 P0 R22
M201 X2500 Y2500 Z400 E5000 ; sets maximum accelerations, mm/sec^2
M203 X180 Y180 Z12 E80 ; sets maximum feedrates, mm / sec
M204 P1250 R1250 T2500 ; sets acceleration (P, T) and retract acceleration (R), mm/sec^2
M205 X8.00 Y8.00 Z2.00 E10.00 ; sets the jerk limits, mm/sec
M205 S0 T0 ; sets the minimum extruding and travel feed rate, mm/sec
M107
;TYPE:Custom
M862.3 P "MINI" ; printer model check
G90 ; use absolute coordinates
M83 ; extruder relative mode
M104 S170 ; set extruder temp for bed leveling
M140 S60 ; set bed temp
M109 R170 ; wait for bed leveling temp
M190 S60 ; wait for bed temp
M204 T1250 ; set travel acceleration
G28 ; home all without mesh bed level
G29 ; mesh bed leveling 
M204 T2500 ; restore travel acceleration
M104 S215 ; set extruder temp
G92 E0
G1 Y-2 X179 F2400
G1 Z3 F720
M109 S215 ; wait for extruder temp

; intro line
G1 X170 F1000
G1 Z0.2 F720
G1 X110 E8 F900
G1 X40 E10 F700
G92 E0

M221 S95 ; set flow
G21 ; set units to millimeters
G90 ; use absolute coordinates
M83 ; use relative distances for extrusion
M900 K0.2 ; Filament gcode LA 1.5
; ; Filament gcode LA 1.0
M107
;LAYER_CHANGE
;Z:0.2
;HEIGHT:0.2
;BEFORE_LAYER_CHANGE
G92 E0.0
;0.2


G1 E-3.2 F4200
M73 P1 R22
G1 Z.2 F720
;AFTER_LAYER_CHANGE
;0.2
G1 Z.4
G1 X84.469 Y60.314 F9000
G1 Z.2 F720
G1 E3.2 F2400
M204 P800
;TYPE:Skirt/Brim
;WIDTH:0.42
G1 F1200
G1 X85.288 Y59.243 E.04225
G1 X88.768 Y56.479 E.13935
G1 X90.481 Y55.881 E.05688
G1 X97.558 Y55.881 E.22191
G1 X98.976 Y56.274 E.04612
G1 X99.989 Y57.34 E.04612
G1 X100.263 Y58.118 E.02585
G1 X104.883 Y82.25 E.77041
G1 X104.932 Y90.962 E.27316
G1 X104.539 Y92.38 E.04612
G1 X103.88 Y93.127 E.03124
G1 X98.809 Y97.115 E.20227
G1 X97.107 Y97.704 E.05649
M73 P1 R21
G1 X82.906 Y97.704 E.44526
G1 X81.203 Y97.115 E.05648
G1 X76.132 Y93.127 E.2023
G1 X75.26 Y91.942 E.04612
G1 X75.08 Y90.962 E.03125
G1 X75.08 Y82.768 E.25692
G1 X75.303 Y81.682 E.03475
G1 X84.446 Y60.369 E.72716
M204 P1000
G1 X84.792 Y60.518 F9000
M204 P800
G1 F1200
G1 X84.816 Y60.462 E.00188
G1 X85.522 Y59.538 E.03647
G1 X89.002 Y56.774 E.13935
G1 X90.481 Y56.258 E.0491
G1 X97.558 Y56.258 E.22191
G1 X98.865 Y56.65 E.04278
G1 X99.893 Y58.188 E.05801
G1 X104.512 Y82.321 E.77041
G1 X104.555 Y90.962 E.27093
G1 X104.163 Y92.269 E.04278
G1 X103.647 Y92.831 E.02391
G1 X98.576 Y96.819 E.20227
G1 X97.107 Y97.327 E.04876
G1 X82.906 Y97.327 E.44526
G1 X81.436 Y96.819 E.04875
G1 X76.365 Y92.831 E.2023
G1 X75.579 Y91.715 E.04278
G1 X75.457 Y90.962 E.02391
G1 X75.457 Y82.768 E.25692
G1 X75.649 Y81.831 E.03
M73 P2 R21
G1 X84.769 Y60.573 E.72528
M204 P1000
; printing object set_box_mini_prototype_with_snap_fit_007.stl_1 id:0 copy 0
G1 E-2.24 F4200
;WIPE_START
G1 F7200
G1 X84.816 Y60.462 E-.0665
G1 X85.522 Y59.538 E-.64456
G1 X85.806 Y59.313 E-.20094
;WIPE_END
G1 E-.048 F4200
G1 Z.4 F720
G1 X91.022 Y70.77 F9000
G1 Z.2 F720
G1 E3.2 F2400
M204 P800
;TYPE:Support material
G1 F1200
G1 X89.981 Y70.77 E.03261
G1 X89.981 Y66.229 E.14235
G1 X91.022 Y66.229 E.03261
G1 X91.022 Y70.713 E.14058
M204 P1000
G1 X90.419 Y70.6 F9000
M204 P800
G1 F1200
G1 X90.419 Y66.399 E.13171
M204 P1000
G1 E-2.24 F4200
;WIPE_START
G1 F7200
G1 X90.419 Y68.045 E-.912
;WIPE_END
G1 E-.048 F4200
G1 Z.4 F720
G1 X97.558 Y78.365 F9000
G1 Z.2 F720
G1 E3.2 F2400
M204 P800
G1 F1200
G1 X90.481 Y78.365 E.22191
G1 X90.481 Y76.08 E.07162
G1 X93.199 Y76.08 E.08524
G1 X93.481 Y75.799 E.01247
G1 X93.481 Y61.201 E.45773
G1 X93.199 Y60.919 E.01247
G1 X90.481 Y60.919 E.08524
G1 X90.481 Y58.635 E.07162
G1 X97.558 Y58.635 E.22191
G1 X97.558 Y78.308 E.61683
M204 P1000
G1 X97.123 Y78.195 F9000
M204 P800
G1 F1200
G1 X97.123 Y58.975 E.60264
G1 X96.704 Y58.975 E.01314
G1 X96.704 Y78.025 E.59732
G1 X96.285 Y78.025 E.01314
G1 X96.285 Y58.975 E.59732
G1 X95.866 Y58.975 E.01314
G1 X95.866 Y78.025 E.59732
G1 X95.447 Y78.025 E.01314
G1 X95.447 Y58.975 E.59732
G1 X95.028 Y58.975 E.01314
G1 X95.028 Y78.025 E.59732
G1 X94.609 Y78.025 E.01314
G1 X94.609 Y58.975 E.59732
G1 X94.19 Y58.975 E.01314
G1 X94.19 Y78.025 E.59732
G1 X93.771 Y78.025 E.01314
M73 P3 R21
G1 X93.771 Y58.975 E.59732
G1 X93.352 Y58.975 E.01314
G1 X93.352 Y60.593 E.05073
G1 X92.933 Y60.58 E.01314
G1 X92.933 Y58.975 E.05034
G1 X92.514 Y58.975 E.01314
G1 X92.514 Y60.58 E.05034
G1 X92.095 Y60.58 E.01314
G1 X92.095 Y58.975 E.05034
G1 X91.676 Y58.975 E.01314
G1 X91.676 Y60.58 E.05034
G1 X91.257 Y60.58 E.01314
G1 X91.257 Y58.975 E.05034
G1 X90.838 Y58.975 E.01314
G1 X90.838 Y60.75 E.05566
M204 P1000
G1 E-2.24 F4200
;WIPE_START
G1 F7200
G1 X90.838 Y59.104 E-.912
;WIPE_END
G1 E-.048 F4200
G1 Z.4 F720
G1 X93.352 Y78.195 F9000
G1 Z.2 F720
G1 E3.2 F2400
M204 P800
G1 F1200
G1 X93.352 Y76.407 E.05605
G1 X92.933 Y76.42 E.01314
G1 X92.933 Y78.025 E.05034
G1 X92.514 Y78.025 E.01314
G1 X92.514 Y76.42 E.05034
G1 X92.095 Y76.42 E.01314
G1 X92.095 Y78.025 E.05034
G1 X91.676 Y78.025 E.01314
G1 X91.676 Y76.42 E.05034
G1 X91.257 Y76.42 E.01314
G1 X91.257 Y78.025 E.05034
G1 X90.838 Y78.025 E.01314
G1 X90.838 Y76.25 E.05566
M204 P1000
G1 E-2.24 F4200
;WIPE_START
G1 F7200
G1 X90.838 Y77.896 E-.912
;WIPE_END
G1 E-.048 F4200
G1 Z.4 F720
G1 X89.18 Y72.001 F9000
G1 Z.2 F720
G1 E3.2 F2400
M204 P800
;TYPE:Perimeter
;WIDTH:0.419999
G1 F1200
G1 X89.28 Y72.037 E.00333
G1 X91.723 Y72.037 E.0766
G1 X92.213 Y71.625 E.02008
G1 X92.213 Y74.813 E.09998
G1 X87.788 Y74.813 E.13877
G1 X87.788 Y62.187 E.39591
G1 X92.213 Y62.187 E.13877
G1 X92.213 Y65.453 E.10241
G1 X91.723 Y64.962 E.02175
G1 X89.28 Y64.962 E.0766
G1 X88.922 Y65.09 E.01191
G1 X88.714 Y65.528 E.0152
G1 X88.714 Y71.471 E.18634
G1 X88.723 Y71.569 E.00308
G1 X88.922 Y71.909 E.01237
G1 X89.123 Y71.981 E.0067
M204 P1000
G1 E-2.24 F4200
;WIPE_START
G1 F7200
G1 X89.28 Y72.037 E-.09216
G1 X90.759 Y72.037 E-.81984
;WIPE_END
G1 E-.048 F4200
G1 Z.4 F720
G1 X92.591 Y61.809 F9000
G1 Z.2 F720
G1 E3.2 F2400
M204 P800
;TYPE:External perimeter
G1 F1200
G1 X92.591 Y63.574 E.05534
G1 X92.591 Y64.472 E.02814
;WIDTH:0.45774
G1 X92.572 Y64.736 E.00913
;WIDTH:0.49548
G1 X92.553 Y65 E.00996
;WIDTH:0.53322
G1 X92.534 Y65.264 E.01079
;WIDTH:0.57096
G1 X92.515 Y65.528 E.01162
G1 X92.515 Y71.471 E.26093
;WIDTH:0.57496
G1 X92.532 Y71.804 E.01475
;WIDTH:0.53622
G1 X92.552 Y72.045 E.00992
;WIDTH:0.49748
G1 X92.571 Y72.286 E.00914
;WIDTH:0.45874
G1 X92.591 Y72.527 E.00836
;WIDTH:0.419999
G1 X92.591 Y75.19 E.08351
G1 X87.411 Y75.19 E.16241
G1 X87.411 Y61.809 E.41955
G1 X92.531 Y61.809 E.16053
M204 P1000
G1 X92.541 Y62.206 F9000
G1 E-2.24 F4200
;WIPE_START
G1 F7200
G1 X92.586 Y63.454 E-.912
;WIPE_END
G1 E-.048 F4200
G1 Z.4 F720
G1 X89.28 Y71.659 F9000
G1 Z.2 F720
G1 E3.2 F2400
M204 P800
G1 F1200
G1 X89.161 Y71.617 E.00397
G1 X89.092 Y71.471 E.00507
G1 X89.092 Y65.528 E.18634
G1 X89.161 Y65.382 E.00507
G1 X89.28 Y65.34 E.00397
G1 X91.723 Y65.34 E.0766
;WIDTH:0.45774
G1 X91.789 Y65.387 E.0028
;WIDTH:0.49548
G1 X91.855 Y65.434 E.00305
;WIDTH:0.53322
G1 X91.921 Y65.481 E.00331
;WIDTH:0.57096
G1 X91.987 Y65.528 E.00356
G1 X91.987 Y71.471 E.26093
;WIDTH:0.57496
G1 X91.985 Y71.517 E.00204
G1 X91.919 Y71.553 E.0033
;WIDTH:0.53622
G1 X91.854 Y71.588 E.00306
;WIDTH:0.49748
G1 X91.788 Y71.624 E.00282
;WIDTH:0.45874
G1 X91.723 Y71.659 E.00258
;WIDTH:0.419999
G1 X89.34 Y71.659 E.07471
M204 P1000
G1 E-2.24 F4200
;WIPE_START
G1 F7200
G1 X89.161 Y71.617 E-.1021
G1 X89.092 Y71.471 E-.08956
G1 X89.092 Y70.171 E-.72034
;WIPE_END
G1 E-.048 F4200
G1 Z.4 F720
G1 X91.331 Y62.3 F9000
G1 Z.2 F720
G1 E3.2 F2400
M204 P800
;TYPE:Solid infill
;WIDTH:0.423289
G1 F1200
G1 X91.931 Y62.899 E.02682
G1 X91.931 Y63.437 E.01701
G1 X90.963 Y62.469 E.04329
G1 X90.425 Y62.469 E.01701
G1 X91.931 Y63.975 E.06735
G1 X91.931 Y64.513 E.01701
G1 X89.887 Y62.469 E.09141
G1 X89.349 Y62.469 E.01701
G1 X91.559 Y64.68 E.09886
G1 X91.022 Y64.68 E.01701
G1 X88.811 Y62.469 E.09887
G1 X88.273 Y62.469 E.01701
G1 X90.484 Y64.68 E.09888
G1 X89.946 Y64.68 E.01701
G1 X88.07 Y62.804 E.08391
G1 X88.07 Y63.342 E.01701
G1 X89.409 Y64.681 E.05986
G1 X89.223 Y64.681 E.00588
G1 X88.969 Y64.779 E.00861
G1 X88.07 Y63.88 E.04019
G1 X88.07 Y64.418 E.01701
G1 X88.666 Y65.013 E.02662
G1 X88.493 Y65.378 E.01277
G1 X88.07 Y64.956 E.01888
G1 X88.07 Y65.494 E.01701
G1 X88.432 Y65.856 E.01619
G1 X88.433 Y66.395 E.01705
G1 X88.07 Y66.032 E.01623
G1 X88.07 Y66.57 E.01701
G1 X88.434 Y66.934 E.01628
G1 X88.435 Y67.473 E.01705
G1 X88.07 Y67.108 E.01632
G1 X88.07 Y67.646 E.01701
G1 X88.436 Y68.012 E.01637
G1 X88.437 Y68.551 E.01705
G1 X88.07 Y68.184 E.01641
G1 X88.07 Y68.722 E.01701
G1 X88.438 Y69.09 E.01646
G1 X88.439 Y69.628 E.01705
G1 X88.07 Y69.26 E.0165
G1 X88.07 Y69.797 E.01701
G1 X88.44 Y70.167 E.01655
G1 X88.441 Y70.706 E.01705
G1 X88.07 Y70.335 E.01659
G1 X88.07 Y70.873 E.01701
G1 X88.612 Y71.415 E.02424
M204 P1000
G1 E-2.24 F4200
;WIPE_START
G1 F7200
G1 X88.07 Y70.873 E-.42471
G1 X88.07 Y70.335 E-.2981
G1 X88.312 Y70.577 E-.18919
;WIPE_END
G1 E-.048 F4200
G1 Z.4 F720
G1 X91.498 Y72.15 F9000
G1 Z.2 F720
G1 E3.2 F2400
M204 P800
G1 F1200
G1 X91.931 Y72.582 E.01933
G1 X91.931 Y73.12 E.01701
G1 X91.13 Y72.319 E.03581
G1 X90.592 Y72.319 E.01702
M73 P4 R21
G1 X91.931 Y73.658 E.05988
G1 X91.931 Y74.196 E.01701
G1 X90.054 Y72.319 E.08395
G1 X89.516 Y72.318 E.01702
G1 X91.728 Y74.531 E.09895
G1 X91.19 Y74.531 E.01701
G1 X88.07 Y71.411 E.13953
G1 X88.07 Y71.949 E.01701
G1 X90.652 Y74.531 E.11546
G1 X90.114 Y74.531 E.01701
G1 X88.07 Y72.487 E.0914
G1 X88.07 Y73.025 E.01701
G1 X89.576 Y74.531 E.06734
G1 X89.038 Y74.531 E.01701
G1 X88.07 Y73.563 E.04328
G1 X88.07 Y74.101 E.01701
G1 X88.67 Y74.7 E.02681
M204 P1000
; stop printing object set_box_mini_prototype_with_snap_fit_007.stl_1 id:0 copy 0
; printing object set_box_mini_prototype_with_snap_fit_007.stl_2 id:1 copy 0
G1 E-2.24 F4200
;WIPE_START
G1 F7200
G1 X88.07 Y74.101 E-.4698
G1 X88.07 Y73.563 E-.2981
G1 X88.254 Y73.747 E-.1441
;WIPE_END
G1 E-.048 F4200
G1 Z.4 F720
G1 X88.335 Y85.075 F9000
G1 Z.2 F720
G1 E3.2 F2400
M204 P800
;TYPE:Support material
;WIDTH:0.42
G1 F1200
G1 X91.676 Y85.075 E.10477
G1 X91.676 Y80.461 E.14467
G1 X99.87 Y80.461 E.25692
G1 X99.87 Y82.768 E.07234
G1 X102.177 Y82.768 E.07234
G1 X102.177 Y90.962 E.25692
G1 X99.87 Y90.962 E.07234
G1 X99.87 Y91.47 E.01593
G1 X97.587 Y91.47 E.0716
G1 X97.587 Y88.752 E.08524
G1 X97.306 Y88.47 E.01247
G1 X82.707 Y88.47 E.45773
G1 X82.426 Y88.752 E.01247
G1 X82.426 Y91.47 E.08524
G1 X80.141 Y91.47 E.07163
G1 X80.141 Y90.962 E.01593
G1 X77.834 Y90.962 E.07234
G1 X77.834 Y82.768 E.25692
G1 X80.141 Y82.768 E.07234
G1 X80.141 Y80.461 E.07234
G1 X88.335 Y80.461 E.25692
G1 X88.335 Y85.019 E.1429
M204 P1000
G1 E-2.24 F4200
;WIPE_START
G1 F7200
G1 X88.335 Y83.373 E-.912
;WIPE_END
G1 E-.048 F4200
G1 Z.4 F720
G1 X101.737 Y90.793 F9000
G1 Z.2 F720
G1 E3.2 F2400
M204 P800
G1 F1200
G1 X101.737 Y83.108 E.24096
G1 X101.318 Y83.108 E.01314
G1 X101.318 Y90.623 E.23563
G1 X100.899 Y90.623 E.01314
G1 X100.899 Y83.108 E.23563
G1 X100.48 Y83.108 E.01314
G1 X100.48 Y90.623 E.23563
G1 X100.061 Y90.623 E.01314
G1 X100.061 Y83.108 E.23563
G1 X99.642 Y83.108 E.01314
G1 X99.642 Y90.623 E.23563
G1 X99.531 Y90.623 E.00349
G1 X99.531 Y91.131 E.01593
G1 X99.223 Y91.131 E.00965
G1 X99.223 Y80.801 E.3239
G1 X98.804 Y80.801 E.01314
G1 X98.804 Y91.131 E.3239
G1 X98.385 Y91.131 E.01314
G1 X98.385 Y80.801 E.3239
G1 X97.966 Y80.801 E.01314
G1 X97.966 Y91.131 E.3239
G1 X97.926 Y91.131 E.00126
G1 X97.926 Y88.611 E.07901
G1 X97.547 Y88.232 E.0168
G1 X97.547 Y80.801 E.23301
G1 X97.128 Y80.801 E.01314
G1 X97.128 Y88.131 E.22984
G1 X96.709 Y88.131 E.01314
G1 X96.709 Y80.801 E.22984
G1 X96.29 Y80.801 E.01314
G1 X96.29 Y88.131 E.22984
G1 X95.871 Y88.131 E.01314
M73 P5 R21
G1 X95.871 Y80.801 E.22984
G1 X95.452 Y80.801 E.01314
G1 X95.452 Y88.131 E.22984
G1 X95.033 Y88.131 E.01314
G1 X95.033 Y80.801 E.22984
G1 X94.614 Y80.801 E.01314
G1 X94.614 Y88.131 E.22984
G1 X94.195 Y88.131 E.01314
G1 X94.195 Y80.801 E.22984
G1 X93.776 Y80.801 E.01314
G1 X93.776 Y88.131 E.22984
G1 X93.358 Y88.131 E.01314
G1 X93.358 Y80.801 E.22984
G1 X92.939 Y80.801 E.01314
G1 X92.939 Y88.131 E.22984
G1 X92.52 Y88.131 E.01314
G1 X92.52 Y80.801 E.22984
G1 X92.101 Y80.801 E.01314
G1 X92.101 Y88.131 E.22984
G1 X91.682 Y88.131 E.01314
G1 X91.682 Y85.415 E.08517
G1 X91.263 Y85.415 E.01314
G1 X91.263 Y88.131 E.08517
G1 X90.844 Y88.131 E.01314
G1 X90.844 Y85.415 E.08517
G1 X90.425 Y85.415 E.01314
G1 X90.425 Y88.131 E.08517
G1 X90.006 Y88.131 E.01314
G1 X90.006 Y85.415 E.08517
G1 X89.587 Y85.415 E.01314
G1 X89.587 Y88.131 E.08517
G1 X89.168 Y88.131 E.01314
G1 X89.168 Y85.415 E.08517
G1 X88.749 Y85.415 E.01314
G1 X88.749 Y88.131 E.08517
G1 X88.33 Y88.131 E.01314
G1 X88.33 Y85.415 E.08517
G1 X87.996 Y85.415 E.01048
G1 X87.996 Y80.801 E.14467
G1 X87.911 Y80.801 E.00266
G1 X87.911 Y88.131 E.22984
G1 X87.492 Y88.131 E.01314
G1 X87.492 Y80.801 E.22984
G1 X87.073 Y80.801 E.01314
G1 X87.073 Y88.131 E.22984
G1 X86.654 Y88.131 E.01314
G1 X86.654 Y80.801 E.22984
G1 X86.235 Y80.801 E.01314
G1 X86.235 Y88.131 E.22984
G1 X85.816 Y88.131 E.01314
G1 X85.816 Y80.801 E.22984
G1 X85.397 Y80.801 E.01314
G1 X85.397 Y88.131 E.22984
G1 X84.978 Y88.131 E.01314
G1 X84.978 Y80.801 E.22984
G1 X84.559 Y80.801 E.01314
G1 X84.559 Y88.131 E.22984
G1 X84.14 Y88.131 E.01314
G1 X84.14 Y80.801 E.22984
G1 X83.721 Y80.801 E.01314
G1 X83.721 Y88.131 E.22984
G1 X83.302 Y88.131 E.01314
G1 X83.302 Y80.801 E.22984
G1 X82.883 Y80.801 E.01314
G1 X82.883 Y88.131 E.22984
G1 X82.566 Y88.131 E.00993
G1 X82.464 Y88.233 E.00453
G1 X82.464 Y80.801 E.23305
G1 X82.045 Y80.801 E.01314
G1 X82.045 Y91.131 E.3239
G1 X81.626 Y91.131 E.01314
G1 X81.626 Y80.801 E.3239
G1 X81.207 Y80.801 E.01314
M73 P5 R20
G1 X81.207 Y91.131 E.3239
G1 X80.788 Y91.131 E.01314
G1 X80.788 Y80.801 E.3239
G1 X80.48 Y80.801 E.00965
M73 P6 R20
G1 X80.48 Y83.108 E.07234
G1 X80.369 Y83.108 E.00349
G1 X80.369 Y90.623 E.23563
G1 X79.95 Y90.623 E.01314
G1 X79.95 Y83.108 E.23563
G1 X79.531 Y83.108 E.01314
G1 X79.531 Y90.623 E.23563
G1 X79.112 Y90.623 E.01314
G1 X79.112 Y83.108 E.23563
G1 X78.693 Y83.108 E.01314
G1 X78.693 Y90.623 E.23563
G1 X78.274 Y90.623 E.01314
G1 X78.274 Y82.938 E.24096
M204 P1000
G1 E-2.24 F4200
;WIPE_START
G1 F7200
G1 X78.274 Y84.584 E-.912
;WIPE_END
G1 E-.048 F4200
G1 Z.4 F720
G1 X83.693 Y89.737 F9000
G1 Z.2 F720
G1 E3.2 F2400
M204 P800
;TYPE:Perimeter
;WIDTH:0.419999
G1 F1200
G1 X96.32 Y89.737 E.39591
G1 X96.32 Y94.163 E.13877
G1 X83.693 Y94.163 E.39591
G1 X83.693 Y89.797 E.13689
M204 P1000
G1 X83.316 Y89.36 F9000
M204 P800
;TYPE:External perimeter
G1 F1200
G1 X96.697 Y89.36 E.41955
G1 X96.697 Y94.54 E.16242
G1 X83.316 Y94.54 E.41955
G1 X83.316 Y89.42 E.16053
M204 P1000
G1 X83.713 Y89.409 F9000
G1 E-2.24 F4200
;WIPE_START
G1 F7200
G1 X84.961 Y89.413 E-.912
;WIPE_END
G1 E-.048 F4200
G1 Z.4 F720
G1 X95.437 Y89.851 F9000
G1 Z.2 F720
G1 E3.2 F2400
M204 P800
;TYPE:Solid infill
;WIDTH:0.423289
G1 F1200
G1 X96.037 Y90.45 E.02682
G1 X96.037 Y90.988 E.01701
G1 X95.069 Y90.02 E.04329
G1 X94.531 Y90.02 E.01701
G1 X96.037 Y91.526 E.06735
G1 X96.037 Y92.064 E.01701
G1 X93.993 Y90.02 E.09141
G1 X93.455 Y90.02 E.01701
G1 X96.037 Y92.602 E.11547
G1 X96.037 Y93.14 E.01701
G1 X92.917 Y90.02 E.13953
G1 X92.379 Y90.02 E.01701
G1 X96.037 Y93.678 E.16359
G1 X96.037 Y93.88 E.00642
G1 X95.702 Y93.88 E.0106
G1 X91.841 Y90.02 E.17266
G1 X91.304 Y90.02 E.01701
G1 X95.164 Y93.88 E.17266
G1 X94.626 Y93.88 E.01701
G1 X90.766 Y90.02 E.17266
G1 X90.228 Y90.02 E.01701
G1 X94.088 Y93.88 E.17266
G1 X93.55 Y93.88 E.01701
G1 X89.69 Y90.02 E.17266
