; generated by PrusaSlicer 2.5.0+win64 on 2023-01-16 at 16:17:40 UTC


;
;

;
;
; 

; external perimeters extrusion width = 0.45mm
; perimeters extrusion width = 0.45mm
; infill extrusion width = 0.45mm
; solid infill extrusion width = 0.45mm
; top infill extrusion width = 0.40mm
; first layer extrusion width = 0.42mm

; external perimeters extrusion width = 0.45mm
; perimeters extrusion width = 0.45mm
; infill extrusion width = 0.45mm
; solid infill extrusion width = 0.45mm
; top infill extrusion width = 0.40mm
; first layer extrusion width = 0.42mm

M73 P0 R39
M201 X2500 Y2500 Z400 E5000 ; sets maximum accelerations, mm/sec^2
M203 X180 Y180 Z12 E80 ; sets maximum feedrates, mm / sec
M204 P1250 R1250 T2500 ; sets acceleration (P, T) and retract acceleration (R), mm/sec^2
M205 X8.00 Y8.00 Z2.00 E10.00 ; sets the jerk limits, mm/sec
M205 S0 T0 ; sets the minimum extruding and travel feed rate, mm/sec
M107
;TYPE:Custom
M862.3 P "MINI" ; printer model check
G90 ; use absolute coordinates
M83 ; extruder relative mode
M104 S170 ; set extruder temp for bed leveling
M140 S60 ; set bed temp
M109 R170 ; wait for bed leveling temp
M190 S60 ; wait for bed temp
M204 T1250 ; set travel acceleration
G28 ; home all without mesh bed level
G29 ; mesh bed leveling 
M204 T2500 ; restore travel acceleration
M104 S215 ; set extruder temp
G92 E0
G1 Y-2 X179 F2400
G1 Z3 F720
M109 S215 ; wait for extruder temp

; intro line
M73 P0 R38
G1 X170 F1000
G1 Z0.2 F720
G1 X110 E8 F900
G1 X40 E10 F700
G92 E0

M221 S95 ; set flow
G21 ; set units to millimeters
G90 ; use absolute coordinates
M83 ; use relative distances for extrusion
M900 K0.2 ; Filament gcode LA 1.5
; ; Filament gcode LA 1.0
M107
;LAYER_CHANGE
;Z:0.2
;HEIGHT:0.2
;BEFORE_LAYER_CHANGE
G92 E0.0
;0.2


G1 E-3.2 F4200
G1 Z.2 F720
;AFTER_LAYER_CHANGE
;0.2
G1 Z.4
G1 X80.76 Y36.664 F9000
G1 Z.2 F720
G1 E3.2 F2400
M204 P800
;TYPE:Skirt/Brim
;WIDTH:0.42
G1 F1200
G1 X81.806 Y35.787 E.04278
G1 X82.746 Y35.593 E.03008
G1 X106.747 Y35.593 E.75253
G1 X108.054 Y35.985 E.04278
G1 X108.93 Y37.031 E.04278
G1 X109.124 Y37.946 E.02933
G1 X109.823 Y105.983 E2.13337
G1 X109.824 Y120.009 E.43976
G1 X109.432 Y121.316 E.04278
G1 X108.386 Y122.192 E.04278
G1 X107.446 Y122.386 E.03008
G1 X83.445 Y122.386 E.75253
G1 X82.138 Y121.994 E.04278
G1 X81.262 Y120.948 E.04278
G1 X81.069 Y120.033 E.02933
G1 X80.369 Y51.996 E2.13337
G1 X80.369 Y37.971 E.43976
M73 P1 R38
G1 X80.743 Y36.721 E.0409
M204 P1000
; printing object set_box_mini_prototype_with_snap_fit_004.stl_1 id:0 copy 0
G1 E-2.24 F4200
;WIPE_START
G1 F7200
G1 X81.806 Y35.787 E-.78411
G1 X82.032 Y35.741 E-.12789
;WIPE_END
G1 E-.048 F4200
G1 Z.4 F720
G1 X105.96 Y51.184 F9000
G1 Z.2 F720
G1 E3.2 F2400
M204 P800
;TYPE:Perimeter
;WIDTH:0.419999
G1 F1200
G1 X83.533 Y51.184 E.70318
G1 X83.533 Y38.758 E.38963
G1 X105.96 Y38.758 E.70318
G1 X105.96 Y51.124 E.38775
M204 P1000
G1 X106.337 Y51.562 F9000
M204 P800
;TYPE:External perimeter
G1 F1200
G1 X83.156 Y51.562 E.72682
G1 X83.156 Y38.381 E.41328
G1 X106.337 Y38.381 E.72682
G1 X106.337 Y51.502 E.4114
M204 P1000
G1 X105.943 Y51.493 F9000
G1 E-2.24 F4200
;WIPE_START
G1 F7200
G1 X104.691 Y51.506 E-.912
;WIPE_END
G1 E-.048 F4200
G1 Z.4 F720
G1 X105.076 Y38.871 F9000
G1 Z.2 F720
G1 E3.2 F2400
M204 P800
;TYPE:Solid infill
;WIDTH:0.423836
G1 F1200
G1 X105.677 Y39.471 E.02691
G1 X105.677 Y40.01 E.01706
G1 X104.707 Y39.04 E.04344
G1 X104.168 Y39.04 E.01706
G1 X105.677 Y40.549 E.06757
G1 X105.677 Y41.088 E.01706
G1 X103.63 Y39.04 E.0917
G1 X103.091 Y39.04 E.01706
G1 X105.677 Y41.626 E.11583
G1 X105.677 Y42.165 E.01706
G1 X102.552 Y39.04 E.13996
G1 X102.014 Y39.04 E.01706
G1 X105.677 Y42.704 E.16409
G1 X105.677 Y43.242 E.01706
G1 X101.475 Y39.04 E.18822
G1 X100.936 Y39.04 E.01706
G1 X105.677 Y43.781 E.21235
G1 X105.677 Y44.32 E.01706
G1 X100.397 Y39.04 E.23647
G1 X99.859 Y39.04 E.01706
G1 X105.677 Y44.858 E.2606
G1 X105.677 Y45.397 E.01706
G1 X99.32 Y39.04 E.28473
G1 X98.781 Y39.04 E.01706
G1 X105.677 Y45.936 E.30886
G1 X105.677 Y46.475 E.01706
G1 X98.243 Y39.04 E.33299
G1 X97.704 Y39.04 E.01706
G1 X105.677 Y47.013 E.35712
G1 X105.677 Y47.552 E.01706
G1 X97.165 Y39.04 E.38125
G1 X96.627 Y39.04 E.01706
G1 X105.677 Y48.091 E.40538
G1 X105.677 Y48.629 E.01706
G1 X96.088 Y39.04 E.42951
G1 X95.549 Y39.04 E.01706
G1 X105.677 Y49.168 E.45364
G1 X105.677 Y49.707 E.01706
G1 X95.01 Y39.04 E.47777
G1 X94.472 Y39.04 E.01706
G1 X105.677 Y50.245 E.5019
G1 X105.677 Y50.784 E.01706
G1 X93.933 Y39.04 E.52603
G1 X93.394 Y39.04 E.01706
G1 X105.256 Y50.902 E.5313
G1 X104.717 Y50.902 E.01706
M73 P2 R38
G1 X92.856 Y39.04 E.5313
G1 X92.317 Y39.04 E.01706
G1 X104.178 Y50.902 E.5313
G1 X103.64 Y50.902 E.01706
G1 X91.778 Y39.04 E.5313
G1 X91.24 Y39.04 E.01706
G1 X103.101 Y50.902 E.5313
G1 X102.562 Y50.902 E.01706
G1 X90.701 Y39.04 E.5313
G1 X90.162 Y39.04 E.01706
G1 X102.023 Y50.902 E.5313
G1 X101.485 Y50.902 E.01706
G1 X89.623 Y39.04 E.5313
G1 X89.085 Y39.04 E.01706
G1 X100.946 Y50.902 E.5313
G1 X100.407 Y50.902 E.01706
G1 X88.546 Y39.04 E.5313
G1 X88.007 Y39.04 E.01706
G1 X99.869 Y50.902 E.5313
G1 X99.33 Y50.902 E.01706
G1 X87.469 Y39.04 E.5313
G1 X86.93 Y39.04 E.01706
G1 X98.791 Y50.902 E.5313
G1 X98.253 Y50.902 E.01706
G1 X86.391 Y39.04 E.5313
G1 X85.853 Y39.04 E.01706
G1 X97.714 Y50.902 E.5313
G1 X97.175 Y50.902 E.01706
G1 X85.314 Y39.04 E.5313
G1 X84.775 Y39.04 E.01706
G1 X96.636 Y50.902 E.5313
G1 X96.098 Y50.902 E.01706
G1 X84.237 Y39.04 E.5313
G1 X83.815 Y39.04 E.01334
G1 X83.815 Y39.158 E.00373
G1 X95.559 Y50.902 E.52603
G1 X95.02 Y50.902 E.01706
G1 X83.815 Y39.697 E.5019
G1 X83.815 Y40.235 E.01706
G1 X94.482 Y50.902 E.47777
G1 X93.943 Y50.902 E.01706
M73 P2 R37
G1 X83.815 Y40.774 E.45364
G1 X83.815 Y41.313 E.01706
G1 X93.404 Y50.902 E.42951
G1 X92.866 Y50.902 E.01706
G1 X83.815 Y41.852 E.40538
G1 X83.815 Y42.39 E.01706
G1 X92.327 Y50.902 E.38125
G1 X91.788 Y50.902 E.01706
G1 X83.815 Y42.929 E.35712
G1 X83.815 Y43.468 E.01706
G1 X91.249 Y50.902 E.33299
G1 X90.711 Y50.902 E.01706
G1 X83.815 Y44.006 E.30886
G1 X83.815 Y44.545 E.01706
G1 X90.172 Y50.902 E.28473
G1 X89.633 Y50.902 E.01706
G1 X83.815 Y45.084 E.2606
G1 X83.815 Y45.622 E.01706
G1 X89.095 Y50.902 E.23647
G1 X88.556 Y50.902 E.01706
M73 P3 R37
G1 X83.815 Y46.161 E.21234
G1 X83.815 Y46.7 E.01706
G1 X88.017 Y50.902 E.18821
G1 X87.479 Y50.902 E.01706
G1 X83.815 Y47.239 E.16408
G1 X83.815 Y47.777 E.01706
G1 X86.94 Y50.902 E.13995
G1 X86.401 Y50.902 E.01706
G1 X83.815 Y48.316 E.11582
G1 X83.815 Y48.855 E.01706
G1 X85.863 Y50.902 E.09169
G1 X85.324 Y50.902 E.01706
G1 X83.815 Y49.393 E.06756
G1 X83.815 Y49.932 E.01706
G1 X84.785 Y50.902 E.04343
G1 X84.246 Y50.902 E.01706
G1 X83.646 Y50.301 E.0269
M204 P1000
; stop printing object set_box_mini_prototype_with_snap_fit_004.stl_1 id:0 copy 0
M106 S84.15
;LAYER_CHANGE
;Z:0.35
;HEIGHT:0.15
;BEFORE_LAYER_CHANGE
G92 E0.0
;0.35


G1 E-2.24 F4200
;WIPE_START
G1 F7200
G1 X84.246 Y50.902 E-.47074
G1 X84.785 Y50.902 E-.29853
G1 X84.603 Y50.72 E-.14274
;WIPE_END
G1 E-.048 F4200
G1 Z.4 F720
;AFTER_LAYER_CHANGE
;0.35
G1 X80.369 Y50.72 F9000
G1 Z.35 F720
G1 E3.2 F2400
;TYPE:Skirt/Brim
;WIDTH:0.42
G1 X80.369 Y37.971 E.30833
G1 X80.76 Y36.664 E.033
G1 X81.806 Y35.787 E.033
G1 X82.746 Y35.593 E.02321
G1 X106.747 Y35.593 E.58046
G1 X108.054 Y35.985 E.033
G1 X108.93 Y37.031 E.033
G1 X109.124 Y37.946 E.02263
G1 X109.823 Y105.983 E1.64556
G1 X109.824 Y120.009 E.3392
G1 X109.432 Y121.316 E.033
G1 X108.386 Y122.192 E.033
G1 X107.446 Y122.386 E.02321
G1 X83.445 Y122.386 E.58046
G1 X82.138 Y121.994 E.033
G1 X81.262 Y120.948 E.033
G1 X81.069 Y120.033 E.02263
G1 X80.369 Y50.78 E1.67497
; printing object set_box_mini_prototype_with_snap_fit_004.stl_1 id:0 copy 0
G1 E-2.24 F4200
;WIPE_START
G1 F7200
G1 X80.369 Y49.134 E-.912
;WIPE_END
G1 E-.048 F4200
G1 Z.55 F720
G1 X106.104 Y51.329 F9000
G1 Z.35 F720
G1 E3.2 F2400
M204 P800
;TYPE:Perimeter
;WIDTH:0.449999
G1 X83.388 Y51.329 E.59187
G1 X83.388 Y38.613 E.33131
G1 X106.104 Y38.613 E.59187
G1 X106.104 Y51.269 E.32975
M204 P1000
G1 X106.522 Y51.747 F9000
M204 P800
;TYPE:External perimeter
G1 F1800
G1 X82.971 Y51.747 E.61364
G1 X82.971 Y38.196 E.35308
G1 X106.522 Y38.196 E.61364
G1 X106.522 Y51.687 E.35152
M204 P1000
G1 X106.128 Y51.677 F9000
G1 X105.978 Y50.355
;TYPE:Solid infill
;WIDTH:0.451815
G1 F4800
G1 X105.318 Y51.015 E.02444
G1 X104.725 Y51.015 E.01553
G1 X105.79 Y49.95 E.03945
G1 X105.79 Y49.356 E.01553
G1 X104.131 Y51.015 E.06141
G1 X103.538 Y51.015 E.01553
G1 X105.79 Y48.763 E.08337
G1 X105.79 Y48.169 E.01553
G1 X102.944 Y51.015 E.10533
G1 X102.351 Y51.015 E.01553
G1 X105.79 Y47.576 E.1273
G1 X105.79 Y46.982 E.01553
G1 X101.757 Y51.015 E.14926
G1 X101.164 Y51.015 E.01553
G1 X105.79 Y46.389 E.17122
G1 X105.79 Y45.795 E.01553
G1 X100.57 Y51.015 E.19318
G1 X99.977 Y51.015 E.01553
G1 X105.79 Y45.202 E.21514
G1 X105.79 Y44.609 E.01553
G1 X99.384 Y51.015 E.23711
G1 X98.79 Y51.015 E.01553
G1 X105.79 Y44.015 E.25907
G1 X105.79 Y43.422 E.01553
G1 X98.197 Y51.015 E.28103
G1 X97.603 Y51.015 E.01553
G1 X105.79 Y42.828 E.30299
G1 X105.79 Y42.235 E.01553
G1 X97.01 Y51.015 E.32496
G1 X96.416 Y51.015 E.01553
G1 X105.79 Y41.641 E.34692
G1 X105.79 Y41.048 E.01553
G1 X95.823 Y51.015 E.36888
G1 X95.23 Y51.015 E.01553
G1 X105.79 Y40.454 E.39084
G1 X105.79 Y39.861 E.01553
G1 X94.636 Y51.015 E.41281
G1 X94.043 Y51.015 E.01553
G1 X105.79 Y39.268 E.43477
G1 X105.79 Y38.927 E.00892
G1 X105.538 Y38.927 E.00661
G1 X93.449 Y51.015 E.44738
G1 X92.856 Y51.015 E.01553
G1 X104.944 Y38.927 E.44738
G1 X104.351 Y38.927 E.01553
G1 X92.262 Y51.015 E.44738
G1 X91.669 Y51.015 E.01553
G1 X103.758 Y38.927 E.44738
G1 X103.164 Y38.927 E.01553
G1 X91.075 Y51.015 E.44738
G1 X90.482 Y51.015 E.01553
G1 X102.571 Y38.927 E.44738
G1 X101.977 Y38.927 E.01553
G1 X89.889 Y51.015 E.44738
G1 X89.295 Y51.015 E.01553
G1 X101.384 Y38.927 E.44738
G1 X100.79 Y38.927 E.01553
G1 X88.702 Y51.015 E.44738
G1 X88.108 Y51.015 E.01553
G1 X100.197 Y38.927 E.44738
G1 X99.604 Y38.927 E.01553
G1 X87.515 Y51.015 E.44738
G1 X86.921 Y51.015 E.01553
G1 X99.01 Y38.927 E.44738
G1 X98.417 Y38.927 E.01553
G1 X86.328 Y51.015 E.44738
G1 X85.735 Y51.015 E.01553
G1 X97.823 Y38.927 E.44738
G1 X97.23 Y38.927 E.01553
G1 X85.141 Y51.015 E.44738
G1 X84.548 Y51.015 E.01553
G1 X96.636 Y38.927 E.44738
G1 X96.043 Y38.927 E.01553
G1 X83.954 Y51.015 E.44738
G1 X83.702 Y51.015 E.00661
G1 X83.702 Y50.674 E.00892
G1 X95.449 Y38.927 E.43476
G1 X94.856 Y38.927 E.01553
G1 X83.702 Y50.081 E.4128
G1 X83.702 Y49.487 E.01553
G1 X94.263 Y38.927 E.39084
G1 X93.669 Y38.927 E.01553
G1 X83.702 Y48.894 E.36888
G1 X83.702 Y48.301 E.01553
M73 P4 R37
G1 X93.076 Y38.927 E.34691
G1 X92.482 Y38.927 E.01553
G1 X83.702 Y47.707 E.32495
G1 X83.702 Y47.114 E.01553
G1 X91.889 Y38.927 E.30299
G1 X91.295 Y38.927 E.01553
G1 X83.702 Y46.52 E.28103
G1 X83.702 Y45.927 E.01553
G1 X90.702 Y38.927 E.25907
G1 X90.108 Y38.927 E.01553
G1 X83.702 Y45.333 E.2371
G1 X83.702 Y44.74 E.01553
G1 X89.515 Y38.927 E.21514
G1 X88.922 Y38.927 E.01553
G1 X83.702 Y44.147 E.19318
G1 X83.702 Y43.553 E.01553
G1 X88.328 Y38.927 E.17122
G1 X87.735 Y38.927 E.01553
G1 X83.702 Y42.96 E.14925
G1 X83.702 Y42.366 E.01553
G1 X87.141 Y38.927 E.12729
G1 X86.548 Y38.927 E.01553
G1 X83.702 Y41.773 E.10533
G1 X83.702 Y41.179 E.01553
G1 X85.954 Y38.927 E.08337
G1 X85.361 Y38.927 E.01553
G1 X83.702 Y40.586 E.0614
G1 X83.702 Y39.992 E.01553
G1 X84.768 Y38.927 E.03944
G1 X84.174 Y38.927 E.01553
G1 X83.514 Y39.587 E.02444
; stop printing object set_box_mini_prototype_with_snap_fit_004.stl_1 id:0 copy 0
M106 S170.85
;LAYER_CHANGE
;Z:0.5
;HEIGHT:0.15
;BEFORE_LAYER_CHANGE
G92 E0.0
;0.5


G1 E-2.24 F4200
;WIPE_START
G1 F7200
G1 X84.174 Y38.927 E-.51751
G1 X84.768 Y38.927 E-.32886
G1 X84.684 Y39.01 E-.06562
;WIPE_END
G1 E-.048 F4200
G1 Z.55 F720
;AFTER_LAYER_CHANGE
;0.5
G1 X84.684 Y35.593 F9000
G1 Z.5 F720
G1 E3.2 F2400
;TYPE:Skirt/Brim
;WIDTH:0.42
G1 X106.747 Y35.593 E.53359
G1 X108.054 Y35.985 E.033
G1 X108.93 Y37.031 E.033
G1 X109.124 Y37.946 E.02263
G1 X109.823 Y105.983 E1.64556
G1 X109.824 Y120.009 E.3392
G1 X109.432 Y121.316 E.033
G1 X108.386 Y122.192 E.033
G1 X107.446 Y122.386 E.02321
G1 X83.445 Y122.386 E.58046
G1 X82.138 Y121.994 E.033
G1 X81.262 Y120.948 E.033
G1 X81.069 Y120.033 E.02263
G1 X80.369 Y51.996 E1.64556
G1 X80.369 Y37.971 E.3392
G1 X80.76 Y36.664 E.033
G1 X81.806 Y35.787 E.033
G1 X82.746 Y35.593 E.02321
G1 X84.624 Y35.593 E.04542
; printing object set_box_mini_prototype_with_snap_fit_004.stl_1 id:0 copy 0
G1 E-2.24 F4200
;WIPE_START
G1 F7200
G1 X86.269 Y35.593 E-.912
;WIPE_END
G1 E-.048 F4200
G1 Z.7 F720
G1 X106.104 Y51.329 F9000
G1 Z.5 F720
G1 E3.2 F2400
M204 P800
;TYPE:Perimeter
;WIDTH:0.449999
G1 X83.388 Y51.329 E.59187
G1 X83.388 Y38.613 E.33131
G1 X106.104 Y38.613 E.59187
G1 X106.104 Y51.269 E.32975
M204 P1000
G1 X106.522 Y51.747 F9000
M204 P800
;TYPE:External perimeter
G1 F1800
G1 X82.971 Y51.747 E.61364
G1 X82.971 Y38.196 E.35308
G1 X106.522 Y38.196 E.61364
G1 X106.522 Y51.687 E.35152
M204 P1000
G1 X106.128 Y51.677 F9000
G1 E-2.24 F4200
;WIPE_START
G1 F7200
G1 X104.876 Y51.691 E-.912
;WIPE_END
G1 E-.048 F4200
G1 Z.7 F720
G1 X105.13 Y38.739 F9000
G1 Z.5 F720
G1 E3.2 F2400
;TYPE:Solid infill
;WIDTH:0.451815
G1 F4800
G1 X105.79 Y39.399 E.02444
G1 X105.79 Y39.993 E.01553
G1 X104.725 Y38.927 E.03945
G1 X104.131 Y38.927 E.01553
G1 X105.79 Y40.586 E.06141
G1 X105.79 Y41.179 E.01553
G1 X103.538 Y38.927 E.08337
G1 X102.944 Y38.927 E.01553
G1 X105.79 Y41.773 E.10533
G1 X105.79 Y42.366 E.01553
G1 X102.351 Y38.927 E.1273
G1 X101.757 Y38.927 E.01553
G1 X105.79 Y42.96 E.14926
G1 X105.79 Y43.553 E.01553
G1 X101.164 Y38.927 E.17122
G1 X100.57 Y38.927 E.01553
G1 X105.79 Y44.147 E.19318
G1 X105.79 Y44.74 E.01553
G1 X99.977 Y38.927 E.21514
G1 X99.384 Y38.927 E.01553
G1 X105.79 Y45.334 E.23711
G1 X105.79 Y45.927 E.01553
G1 X98.79 Y38.927 E.25907
G1 X98.197 Y38.927 E.01553
G1 X105.79 Y46.52 E.28103
G1 X105.79 Y47.114 E.01553
G1 X97.603 Y38.927 E.30299
G1 X97.01 Y38.927 E.01553
G1 X105.79 Y47.707 E.32496
G1 X105.79 Y48.301 E.01553
G1 X96.416 Y38.927 E.34692
G1 X95.823 Y38.927 E.01553
G1 X105.79 Y48.894 E.36888
G1 X105.79 Y49.488 E.01553
G1 X95.23 Y38.927 E.39084
G1 X94.636 Y38.927 E.01553
G1 X105.79 Y50.081 E.41281
G1 X105.79 Y50.674 E.01553
G1 X94.043 Y38.927 E.43477
G1 X93.449 Y38.927 E.01553
G1 X105.538 Y51.015 E.44738
G1 X104.944 Y51.015 E.01553
G1 X92.856 Y38.927 E.44738
G1 X92.262 Y38.927 E.01553
G1 X104.351 Y51.015 E.44738
G1 X103.758 Y51.015 E.01553
G1 X91.669 Y38.927 E.44738
G1 X91.075 Y38.927 E.01553
G1 X103.164 Y51.015 E.44738
G1 X102.571 Y51.015 E.01553
G1 X90.482 Y38.927 E.44738
G1 X89.889 Y38.927 E.01553
G1 X101.977 Y51.015 E.44738
G1 X101.384 Y51.015 E.01553
G1 X89.295 Y38.927 E.44738
G1 X88.702 Y38.927 E.01553
G1 X100.79 Y51.015 E.44738
G1 X100.197 Y51.015 E.01553
G1 X88.108 Y38.927 E.44738
G1 X87.515 Y38.927 E.01553
G1 X99.604 Y51.015 E.44738
G1 X99.01 Y51.015 E.01553
G1 X86.921 Y38.927 E.44738
G1 X86.328 Y38.927 E.01553
G1 X98.417 Y51.015 E.44738
G1 X97.823 Y51.015 E.01553
G1 X85.735 Y38.927 E.44738
G1 X85.141 Y38.927 E.01553
G1 X97.23 Y51.015 E.44738
G1 X96.636 Y51.015 E.01553
G1 X84.548 Y38.927 E.44738
G1 X83.954 Y38.927 E.01553
M73 P5 R37
G1 X96.043 Y51.015 E.44738
G1 X95.449 Y51.015 E.01553
G1 X83.702 Y39.268 E.43476
G1 X83.702 Y39.861 E.01553
G1 X94.856 Y51.015 E.4128
G1 X94.263 Y51.015 E.01553
G1 X83.702 Y40.455 E.39084
G1 X83.702 Y41.048 E.01553
G1 X93.669 Y51.015 E.36888
G1 X93.076 Y51.015 E.01553
G1 X83.702 Y41.641 E.34691
G1 X83.702 Y42.235 E.01553
G1 X92.482 Y51.015 E.32495
G1 X91.889 Y51.015 E.01553
G1 X83.702 Y42.828 E.30299
G1 X83.702 Y43.422 E.01553
G1 X91.295 Y51.015 E.28103
G1 X90.702 Y51.015 E.01553
G1 X83.702 Y44.015 E.25907
G1 X83.702 Y44.609 E.01553
G1 X90.108 Y51.015 E.2371
G1 X89.515 Y51.015 E.01553
G1 X83.702 Y45.202 E.21514
G1 X83.702 Y45.796 E.01553
G1 X88.922 Y51.015 E.19318
G1 X88.328 Y51.015 E.01553
G1 X83.702 Y46.389 E.17122
G1 X83.702 Y46.982 E.01553
G1 X87.735 Y51.015 E.14925
G1 X87.141 Y51.015 E.01553
G1 X83.702 Y47.576 E.12729
G1 X83.702 Y48.169 E.01553
G1 X86.548 Y51.015 E.10533
G1 X85.954 Y51.015 E.01553
