; generated by PrusaSlicer 2.5.0+win64 on 2023-01-18 at 23:06:21 UTC


;
;

;
;
; 

; external perimeters extrusion width = 0.45mm
; perimeters extrusion width = 0.45mm
; infill extrusion width = 0.45mm
; solid infill extrusion width = 0.45mm
; top infill extrusion width = 0.40mm
; first layer extrusion width = 0.42mm

; external perimeters extrusion width = 0.45mm
; perimeters extrusion width = 0.45mm
; infill extrusion width = 0.45mm
; solid infill extrusion width = 0.45mm
; top infill extrusion width = 0.40mm
; first layer extrusion width = 0.42mm

M73 P0 R53
M201 X2500 Y2500 Z400 E5000 ; sets maximum accelerations, mm/sec^2
M203 X180 Y180 Z12 E80 ; sets maximum feedrates, mm / sec
M204 P1250 R1250 T2500 ; sets acceleration (P, T) and retract acceleration (R), mm/sec^2
M205 X8.00 Y8.00 Z2.00 E10.00 ; sets the jerk limits, mm/sec
M205 S0 T0 ; sets the minimum extruding and travel feed rate, mm/sec
M107
;TYPE:Custom
M862.3 P "MINI" ; printer model check
G90 ; use absolute coordinates
M83 ; extruder relative mode
M104 S170 ; set extruder temp for bed leveling
M140 S60 ; set bed temp
M109 R170 ; wait for bed leveling temp
M190 S60 ; wait for bed temp
M204 T1250 ; set travel acceleration
G28 ; home all without mesh bed level
G29 ; mesh bed leveling 
M204 T2500 ; restore travel acceleration
M104 S215 ; set extruder temp
G92 E0
G1 Y-2 X179 F2400
G1 Z3 F720
M109 S215 ; wait for extruder temp

; intro line
G1 X170 F1000
G1 Z0.2 F720
G1 X110 E8 F900
G1 X40 E10 F700
G92 E0

M221 S95 ; set flow
G21 ; set units to millimeters
G90 ; use absolute coordinates
M83 ; use relative distances for extrusion
M900 K0.2 ; Filament gcode LA 1.5
; ; Filament gcode LA 1.0
M107
;LAYER_CHANGE
;Z:0.2
;HEIGHT:0.2
;BEFORE_LAYER_CHANGE
G92 E0.0
;0.2


G1 E-3.2 F4200
G1 Z.2 F720
;AFTER_LAYER_CHANGE
;0.2
G1 Z.4
G1 X88.096 Y53.314 F9000
G1 Z.2 F720
G1 E3.2 F2400
M204 P800
;TYPE:Skirt/Brim
;WIDTH:0.42
G1 F1200
G1 X89.198 Y52.509 E.04278
G1 X89.99 Y52.374 E.02519
G1 X101.99 Y52.374 E.37625
G1 X103.297 Y52.765 E.04278
G1 X104.308 Y54.225 E.05567
G1 X116.975 Y110.05 E1.79486
G1 X117.034 Y110.576 E.0166
G1 X117.034 Y122.576 E.37625
G1 X116.642 Y123.883 E.04278
G1 X115.597 Y124.759 E.04278
G1 X114.657 Y124.953 E.03008
G1 X86.255 Y124.953 E.89052
G1 X84.948 Y124.561 E.04278
G1 X84.071 Y123.516 E.04278
G1 X83.878 Y122.576 E.03008
G1 X83.878 Y110.576 E.37625
G1 X87.618 Y54.592 E1.75925
G1 X88.075 Y53.37 E.0409
M204 P1000
; printing object set_box_mini_prototype_with_snap_fit_007.stl_1 id:0 copy 0
M73 P0 R52
G1 E-2.24 F4200
;WIPE_START
G1 F7200
G1 X89.198 Y52.509 E-.78411
G1 X89.425 Y52.47 E-.12789
;WIPE_END
G1 E-.048 F4200
G1 Z.4 F720
G1 X101.202 Y82.366 F9000
G1 Z.2 F720
G1 E3.2 F2400
M204 P800
;TYPE:Perimeter
;WIDTH:0.419999
G1 F1200
G1 X90.777 Y82.366 E.32689
G1 X90.777 Y55.538 E.84117
G1 X101.202 Y55.538 E.32689
G1 X101.202 Y82.306 E.83929
M204 P1000
G1 X101.58 Y82.743 F9000
M204 P800
;TYPE:External perimeter
G1 F1200
G1 X90.4 Y82.743 E.35054
G1 X90.4 Y55.161 E.86481
G1 X101.58 Y55.161 E.35054
M73 P1 R52
G1 X101.58 Y82.683 E.86293
M204 P1000
G1 X101.21 Y82.589 F9000
G1 E-2.24 F4200
;WIPE_START
G1 F7200
G1 X99.934 Y82.692 E-.912
;WIPE_END
G1 E-.048 F4200
G1 Z.4 F720
G1 X94.208 Y74.716 F9000
G1 Z.2 F720
G1 E3.2 F2400
M204 P800
;TYPE:Perimeter
G1 F1200
G1 X94.204 Y63.229 E.36015
G1 X94.24 Y63.031 E.00631
G1 X94.335 Y62.868 E.00593
G1 X94.592 Y62.692 E.00977
G1 X94.77 Y62.664 E.00564
G1 X99.213 Y62.664 E.1393
G1 X99.431 Y62.707 E.00696
G1 X99.665 Y62.89 E.00933
G1 X99.779 Y63.229 E.01122
G1 X99.779 Y74.672 E.35878
G1 X99.665 Y75.012 E.01122
G1 X99.431 Y75.194 E.00933
G1 X99.213 Y75.238 E.00696
G1 X94.77 Y75.238 E.1393
G1 X94.593 Y75.209 E.00564
G1 X94.335 Y75.034 E.00977
G1 X94.215 Y74.775 E.00894
M204 P1000
G1 X94.582 Y74.672 F9000
M204 P800
;TYPE:External perimeter
G1 F1200
G1 X94.582 Y63.229 E.35878
G1 X94.625 Y63.109 E.00402
G1 X94.77 Y63.041 E.00502
G1 X99.213 Y63.041 E.1393
G1 X99.364 Y63.116 E.00529
G1 X99.402 Y63.229 E.00374
G1 X99.402 Y74.672 E.35878
G1 X99.364 Y74.785 E.00374
G1 X99.213 Y74.861 E.00529
G1 X94.77 Y74.861 E.1393
G1 X94.625 Y74.793 E.00502
G1 X94.602 Y74.729 E.00214
M204 P1000
G1 X94.195 Y74.569 F9000
G1 E-2.24 F4200
;WIPE_START
G1 F7200
G1 X94.599 Y73.083 E-.912
;WIPE_END
G1 E-.048 F4200
G1 Z.4 F720
G1 X100.325 Y55.651 F9000
G1 Z.2 F720
G1 E3.2 F2400
M204 P800
;TYPE:Solid infill
;WIDTH:0.420829
G1 F1200
G1 X100.92 Y56.245 E.02641
G1 X100.92 Y56.78 E.01679
G1 X99.961 Y55.821 E.04262
G1 X99.426 Y55.821 E.01679
G1 X100.92 Y57.314 E.06637
G1 X100.92 Y57.849 E.01679
G1 X98.892 Y55.821 E.09012
G1 X98.357 Y55.821 E.01679
G1 X100.92 Y58.383 E.11387
G1 X100.92 Y58.918 E.01679
G1 X97.823 Y55.821 E.13762
G1 X97.288 Y55.821 E.01679
G1 X100.92 Y59.452 E.16137
G1 X100.92 Y59.986 E.01679
G1 X96.754 Y55.821 E.18512
G1 X96.219 Y55.821 E.01679
G1 X100.92 Y60.521 E.20887
G1 X100.92 Y61.055 E.01679
G1 X95.685 Y55.821 E.23262
G1 X95.151 Y55.821 E.01679
G1 X100.92 Y61.59 E.25637
G1 X100.92 Y62.124 E.01679
G1 X94.616 Y55.821 E.28012
G1 X94.082 Y55.821 E.01679
G1 X100.92 Y62.659 E.30387
G1 X100.92 Y63.193 E.01679
G1 X93.547 Y55.821 E.32762
G1 X93.013 Y55.821 E.01679
G1 X100.92 Y63.728 E.35138
G1 X100.92 Y64.262 E.01679
G1 X100.061 Y63.404 E.03814
G1 X100.061 Y63.214 E.00596
G1 X99.897 Y62.72 E.01637
G1 X99.543 Y62.445 E.01407
G1 X99.222 Y62.381 E.01029
G1 X99.039 Y62.381 E.00577
G1 X92.478 Y55.821 E.29153
G1 X91.944 Y55.821 E.01679
G1 X98.504 Y62.381 E.29153
G1 X97.97 Y62.381 E.01679
G1 X91.409 Y55.821 E.29153
G1 X91.059 Y55.821 E.011
G1 X91.059 Y56.005 E.00579
G1 X97.435 Y62.381 E.28334
G1 X96.901 Y62.381 E.01679
G1 X91.059 Y56.539 E.25959
G1 X91.059 Y57.074 E.01679
G1 X96.366 Y62.381 E.23584
G1 X95.832 Y62.381 E.01679
G1 X91.059 Y57.608 E.21209
G1 X91.059 Y58.143 E.01679
G1 X95.297 Y62.381 E.18834
G1 X94.763 Y62.381 E.01679
G1 X91.059 Y58.677 E.16459
G1 X91.059 Y59.212 E.01679
G1 X94.346 Y62.499 E.14607
G1 X94.116 Y62.687 E.00935
G1 X94.074 Y62.76 E.00267
G1 X91.059 Y59.746 E.13395
G1 X91.059 Y60.281 E.01679
G1 X93.934 Y63.155 E.12773
G1 X93.922 Y63.677 E.01642
G1 X91.059 Y60.815 E.1272
G1 X91.059 Y61.349 E.01679
G1 X93.922 Y64.212 E.1272
G1 X93.922 Y64.746 E.01679
G1 X91.059 Y61.884 E.1272
G1 X91.059 Y62.418 E.01679
G1 X93.922 Y65.281 E.1272
G1 X93.922 Y65.815 E.01679
G1 X91.059 Y62.953 E.1272
G1 X91.059 Y63.487 E.01679
G1 X93.922 Y66.349 E.1272
G1 X93.922 Y66.884 E.01679
G1 X91.059 Y64.022 E.1272
G1 X91.059 Y64.556 E.01679
G1 X93.922 Y67.418 E.1272
G1 X93.922 Y67.953 E.01679
G1 X91.059 Y65.091 E.1272
G1 X91.059 Y65.625 E.01679
G1 X93.922 Y68.487 E.1272
G1 X93.922 Y69.022 E.01679
G1 X91.059 Y66.159 E.1272
G1 X91.059 Y66.694 E.01679
G1 X93.922 Y69.556 E.1272
G1 X93.922 Y70.091 E.01679
G1 X91.059 Y67.228 E.1272
G1 X91.059 Y67.763 E.01679
G1 X93.922 Y70.625 E.1272
G1 X93.922 Y71.159 E.01679
G1 X91.059 Y68.297 E.1272
G1 X91.059 Y68.832 E.01679
G1 X93.922 Y71.694 E.1272
G1 X93.922 Y72.228 E.01679
G1 X91.059 Y69.366 E.1272
G1 X91.059 Y69.901 E.01679
G1 X93.922 Y72.763 E.1272
G1 X93.922 Y73.297 E.01679
G1 X91.059 Y70.435 E.1272
G1 X91.059 Y70.969 E.01679
G1 X93.922 Y73.832 E.1272
G1 X93.922 Y74.366 E.01679
G1 X90.89 Y71.334 E.13474
M204 P1000
G1 E-2.24 F4200
;WIPE_START
G1 F7200
G1 X92.053 Y72.498 E-.912
;WIPE_END
G1 E-.048 F4200
G1 Z.4 F720
G1 X99.892 Y63.768 F9000
G1 Z.2 F720
G1 E3.2 F2400
M204 P800
G1 F1200
G1 X100.92 Y64.796 E.04568
G1 X100.92 Y65.331 E.01679
G1 X100.061 Y64.473 E.03814
G1 X100.061 Y65.007 E.01679
G1 X100.92 Y65.865 E.03814
G1 X100.92 Y66.4 E.01679
G1 X100.061 Y65.541 E.03814
G1 X100.061 Y66.076 E.01679
G1 X100.92 Y66.934 E.03814
G1 X100.92 Y67.469 E.01679
G1 X100.061 Y66.61 E.03814
G1 X100.061 Y67.145 E.01679
G1 X100.92 Y68.003 E.03814
G1 X100.92 Y68.538 E.01679
G1 X100.061 Y67.679 E.03814
G1 X100.061 Y68.214 E.01679
G1 X100.92 Y69.072 E.03814
G1 X100.92 Y69.606 E.01679
G1 X100.061 Y68.748 E.03814
G1 X100.061 Y69.283 E.01679
G1 X100.92 Y70.141 E.03814
G1 X100.92 Y70.675 E.01679
G1 X100.061 Y69.817 E.03814
G1 X100.061 Y70.351 E.01679
G1 X100.92 Y71.21 E.03814
G1 X100.92 Y71.744 E.01679
G1 X100.061 Y70.886 E.03814
G1 X100.061 Y71.42 E.01679
G1 X100.92 Y72.279 E.03814
G1 X100.92 Y72.813 E.01679
G1 X100.061 Y71.955 E.03814
G1 X100.061 Y72.489 E.01679
G1 X100.92 Y73.348 E.03814
G1 X100.92 Y73.882 E.01679
G1 X100.061 Y73.024 E.03814
G1 X100.061 Y73.558 E.01679
G1 X100.92 Y74.416 E.03814
G1 X100.92 Y74.951 E.01679
G1 X100.061 Y74.093 E.03814
G1 X100.061 Y74.627 E.01679
G1 X100.92 Y75.485 E.03814
G1 X100.92 Y76.02 E.01679
G1 X99.951 Y75.051 E.04305
G1 X99.893 Y75.184 E.00456
G1 X99.7 Y75.335 E.00769
G1 X100.92 Y76.554 E.0542
G1 X100.92 Y77.089 E.01679
G1 X99.33 Y75.499 E.07064
G1 X99.222 Y75.521 E.00346
G1 X98.817 Y75.52 E.01274
G1 X100.92 Y77.623 E.09344
G1 X100.92 Y78.157 E.01679
G1 X98.282 Y75.52 E.11722
G1 X97.747 Y75.519 E.01681
G1 X100.92 Y78.692 E.14099
G1 X100.92 Y79.226 E.01679
G1 X97.212 Y75.519 E.16476
G1 X96.677 Y75.518 E.01681
G1 X100.92 Y79.761 E.18853
G1 X100.92 Y80.295 E.01679
G1 X96.142 Y75.518 E.2123
G1 X95.607 Y75.518 E.01681
G1 X100.92 Y80.83 E.23607
G1 X100.92 Y81.364 E.01679
G1 X94.903 Y75.347 E.26739
M204 P1000
G1 E-2.24 F4200
;WIPE_START
G1 F7200
G1 X96.066 Y76.511 E-.912
;WIPE_END
G1 E-.048 F4200
G1 Z.4 F720
G1 X90.89 Y71.869 F9000
G1 Z.2 F720
G1 E3.2 F2400
M204 P800
G1 F1200
G1 X100.92 Y81.899 E.44572
G1 X100.92 Y82.083 E.00579
G1 X100.569 Y82.083 E.011
G1 X91.059 Y72.573 E.42262
G1 X91.059 Y73.107 E.01679
G1 X100.035 Y82.083 E.39887
G1 X99.501 Y82.083 E.01679
G1 X91.059 Y73.642 E.37512
G1 X91.059 Y74.176 E.01679
G1 X98.966 Y82.083 E.35137
G1 X98.432 Y82.083 E.01679
G1 X91.059 Y74.711 E.32762
G1 X91.059 Y75.245 E.01679
G1 X97.897 Y82.083 E.30387
G1 X97.363 Y82.083 E.01679
G1 X91.059 Y75.779 E.28012
G1 X91.059 Y76.314 E.01679
M73 P2 R52
G1 X96.828 Y82.083 E.25637
G1 X96.294 Y82.083 E.01679
G1 X91.059 Y76.848 E.23262
G1 X91.059 Y77.383 E.01679
G1 X95.759 Y82.083 E.20887
G1 X95.225 Y82.083 E.01679
G1 X91.059 Y77.917 E.18512
G1 X91.059 Y78.452 E.01679
G1 X94.691 Y82.083 E.16137
G1 X94.156 Y82.083 E.01679
G1 X91.059 Y78.986 E.13762
G1 X91.059 Y79.521 E.01679
G1 X93.622 Y82.083 E.11387
G1 X93.087 Y82.083 E.01679
G1 X91.059 Y80.055 E.09012
G1 X91.059 Y80.589 E.01679
G1 X92.553 Y82.083 E.06637
G1 X92.018 Y82.083 E.01679
G1 X91.059 Y81.124 E.04262
G1 X91.059 Y81.658 E.01679
G1 X91.654 Y82.253 E.02641
M204 P1000
; stop printing object set_box_mini_prototype_with_snap_fit_007.stl_1 id:0 copy 0
; printing object set_box_mini_prototype_with_snap_fit_007.stl_2 id:1 copy 0
G1 E-2.24 F4200
;WIPE_START
G1 F7200
G1 X91.059 Y81.658 E-.46569
G1 X91.059 Y81.124 E-.29617
G1 X91.251 Y81.315 E-.15014
;WIPE_END
G1 E-.048 F4200
G1 Z.4 F720
G1 X113.87 Y111.363 F9000
G1 Z.2 F720
G1 E3.2 F2400
M204 P800
;TYPE:Perimeter
;WIDTH:0.419999
G1 F1200
G1 X113.87 Y121.789 E.32689
G1 X87.042 Y121.789 E.84117
G1 X87.042 Y111.363 E.32689
G1 X113.81 Y111.363 E.83929
M204 P1000
G1 X114.247 Y110.986 F9000
M204 P800
;TYPE:External perimeter
G1 F1200
G1 X114.247 Y122.166 E.35054
G1 X86.665 Y122.166 E.86481
G1 X86.665 Y110.986 E.35054
G1 X114.187 Y110.986 E.86293
M204 P1000
G1 X114.093 Y111.355 F9000
G1 X112.993 Y111.476
M204 P800
;TYPE:Solid infill
;WIDTH:0.420829
G1 F1200
G1 X113.587 Y112.071 E.02641
G1 X113.587 Y112.605 E.01679
G1 X112.628 Y111.646 E.04262
G1 X112.093 Y111.646 E.01679
G1 X113.587 Y113.139 E.06637
G1 X113.587 Y113.674 E.01679
G1 X111.559 Y111.646 E.09012
G1 X111.025 Y111.646 E.01679
G1 X113.587 Y114.208 E.11387
G1 X113.587 Y114.743 E.01679
G1 X110.49 Y111.646 E.13762
G1 X109.956 Y111.646 E.01679
G1 X113.587 Y115.277 E.16137
G1 X113.587 Y115.812 E.01679
G1 X109.421 Y111.646 E.18512
G1 X108.887 Y111.646 E.01679
G1 X113.587 Y116.346 E.20887
G1 X113.587 Y116.881 E.01679
G1 X108.352 Y111.646 E.23262
G1 X107.818 Y111.646 E.01679
G1 X113.587 Y117.415 E.25637
G1 X113.587 Y117.949 E.01679
G1 X107.283 Y111.646 E.28012
G1 X106.749 Y111.646 E.01679
G1 X113.587 Y118.484 E.30387
G1 X113.587 Y119.018 E.01679
G1 X106.215 Y111.646 E.32762
G1 X105.68 Y111.646 E.01679
G1 X113.587 Y119.553 E.35138
G1 X113.587 Y120.087 E.01679
G1 X105.146 Y111.646 E.37513
G1 X104.611 Y111.646 E.01679
G1 X113.587 Y120.622 E.39888
G1 X113.587 Y121.156 E.01679
G1 X104.077 Y111.646 E.42263
G1 X103.542 Y111.646 E.01679
G1 X113.403 Y121.506 E.43818
G1 X112.868 Y121.506 E.01679
G1 X103.008 Y111.646 E.43818
G1 X102.473 Y111.646 E.01679
M73 P2 R51
G1 X112.334 Y121.506 E.43818
G1 X111.799 Y121.506 E.01679
G1 X101.939 Y111.646 E.43818
G1 X101.405 Y111.646 E.01679
G1 X111.265 Y121.506 E.43818
G1 X110.73 Y121.506 E.01679
G1 X100.87 Y111.646 E.43818
G1 X100.336 Y111.646 E.01679
G1 X110.196 Y121.506 E.43818
G1 X109.662 Y121.506 E.01679
G1 X99.801 Y111.646 E.43818
G1 X99.267 Y111.646 E.01679
G1 X109.127 Y121.506 E.43818
G1 X108.593 Y121.506 E.01679
G1 X98.732 Y111.646 E.43818
G1 X98.198 Y111.646 E.01679
G1 X108.058 Y121.506 E.43818
G1 X107.524 Y121.506 E.01679
G1 X97.663 Y111.646 E.43818
G1 X97.129 Y111.646 E.01679
G1 X106.989 Y121.506 E.43818
G1 X106.455 Y121.506 E.01679
G1 X96.595 Y111.646 E.43818
G1 X96.06 Y111.646 E.01679
G1 X105.92 Y121.506 E.43818
G1 X105.386 Y121.506 E.01679
G1 X95.526 Y111.646 E.43818
G1 X94.991 Y111.646 E.01679
G1 X104.852 Y121.506 E.43818
G1 X104.317 Y121.506 E.01679
G1 X94.457 Y111.646 E.43818
G1 X93.922 Y111.646 E.01679
G1 X103.783 Y121.506 E.43818
G1 X103.248 Y121.506 E.01679
M73 P3 R51
G1 X93.388 Y111.646 E.43818
G1 X92.853 Y111.646 E.01679
G1 X102.714 Y121.506 E.43818
G1 X102.179 Y121.506 E.01679
G1 X92.319 Y111.646 E.43818
G1 X91.785 Y111.646 E.01679
G1 X101.645 Y121.506 E.43818
G1 X101.11 Y121.506 E.01679
G1 X91.25 Y111.646 E.43818
G1 X90.716 Y111.646 E.01679
G1 X100.576 Y121.506 E.43818
G1 X100.042 Y121.506 E.01679
G1 X90.181 Y111.646 E.43818
G1 X89.647 Y111.646 E.01679
G1 X99.507 Y121.506 E.43818
G1 X98.973 Y121.506 E.01679
G1 X89.112 Y111.646 E.43818
G1 X88.578 Y111.646 E.01679
G1 X98.438 Y121.506 E.43818
G1 X97.904 Y121.506 E.01679
G1 X88.043 Y111.646 E.43818
G1 X87.509 Y111.646 E.01679
G1 X97.369 Y121.506 E.43818
G1 X96.835 Y121.506 E.01679
G1 X87.325 Y111.996 E.42262
G1 X87.325 Y112.53 E.01679
G1 X96.3 Y121.506 E.39887
G1 X95.766 Y121.506 E.01679
G1 X87.325 Y113.065 E.37512
G1 X87.325 Y113.599 E.01679
G1 X95.232 Y121.506 E.35137
G1 X94.697 Y121.506 E.01679
G1 X87.325 Y114.134 E.32762
G1 X87.325 Y114.668 E.01679
G1 X94.163 Y121.506 E.30387
G1 X93.628 Y121.506 E.01679
G1 X87.325 Y115.203 E.28012
G1 X87.325 Y115.737 E.01679
G1 X93.094 Y121.506 E.25637
G1 X92.559 Y121.506 E.01679
G1 X87.325 Y116.272 E.23262
G1 X87.325 Y116.806 E.01679
G1 X92.025 Y121.506 E.20887
G1 X91.49 Y121.506 E.01679
G1 X87.325 Y117.34 E.18512
G1 X87.325 Y117.875 E.01679
G1 X90.956 Y121.506 E.16137
G1 X90.422 Y121.506 E.01679
G1 X87.325 Y118.409 E.13762
G1 X87.325 Y118.944 E.01679
G1 X89.887 Y121.506 E.11387
G1 X89.353 Y121.506 E.01679
G1 X87.325 Y119.478 E.09012
G1 X87.325 Y120.013 E.01679
G1 X88.818 Y121.506 E.06637
G1 X88.284 Y121.506 E.01679
G1 X87.325 Y120.547 E.04262
G1 X87.325 Y121.082 E.01679
G1 X87.919 Y121.676 E.02641
M204 P1000
; stop printing object set_box_mini_prototype_with_snap_fit_007.stl_2 id:1 copy 0
M106 S84.15
;LAYER_CHANGE
;Z:0.4
;HEIGHT:0.2
;BEFORE_LAYER_CHANGE
G92 E0.0
;0.4


G1 E-2.24 F4200
;WIPE_START
G1 F7200
G1 X87.325 Y121.082 E-.46569
G1 X87.325 Y120.547 E-.29617
G1 X87.516 Y120.739 E-.15014
;WIPE_END
G1 E-.048 F4200
G1 Z.4 F720
;AFTER_LAYER_CHANGE
;0.4
G1 Z.6
G1 X83.878 Y120.739 F9000
G1 Z.4 F720
G1 E3.2 F2400
;TYPE:Skirt/Brim
;WIDTH:0.42
G1 X83.878 Y110.576 E.31865
G1 X87.618 Y54.592 E1.75925
G1 X88.096 Y53.314 E.04278
G1 X89.198 Y52.509 E.04278
G1 X89.99 Y52.374 E.02519
G1 X101.99 Y52.374 E.37625
G1 X103.297 Y52.765 E.04278
G1 X104.308 Y54.225 E.05567
G1 X116.975 Y110.05 E1.79486
G1 X117.034 Y110.576 E.0166
G1 X117.034 Y122.576 E.37625
G1 X116.642 Y123.883 E.04278
G1 X115.597 Y124.759 E.04278
G1 X114.657 Y124.953 E.03008
G1 X86.255 Y124.953 E.89052
G1 X84.948 Y124.561 E.04278
G1 X84.071 Y123.516 E.04278
G1 X83.878 Y122.576 E.03008
G1 X83.878 Y120.799 E.05573
; printing object set_box_mini_prototype_with_snap_fit_007.stl_1 id:0 copy 0
