; generated by PrusaSlicer 2.5.0+win64 on 2023-01-30 at 02:18:02 UTC


;
;

;
;
; 

; external perimeters extrusion width = 0.45mm
; perimeters extrusion width = 0.45mm
; infill extrusion width = 0.45mm
; solid infill extrusion width = 0.45mm
; top infill extrusion width = 0.40mm
; support material extrusion width = 0.35mm
; first layer extrusion width = 0.42mm

M73 P0 R99
M201 X2500 Y2500 Z400 E5000 ; sets maximum accelerations, mm/sec^2
M203 X180 Y180 Z12 E80 ; sets maximum feedrates, mm / sec
M204 P1250 R1250 T2500 ; sets acceleration (P, T) and retract acceleration (R), mm/sec^2
M205 X8.00 Y8.00 Z2.00 E10.00 ; sets the jerk limits, mm/sec
M205 S0 T0 ; sets the minimum extruding and travel feed rate, mm/sec
M107
;TYPE:Custom
M862.3 P "MINI" ; printer model check
G90 ; use absolute coordinates
M83 ; extruder relative mode
M104 S170 ; set extruder temp for bed leveling
M140 S60 ; set bed temp
M109 R170 ; wait for bed leveling temp
M190 S60 ; wait for bed temp
M204 T1250 ; set travel acceleration
G28 ; home all without mesh bed level
G29 ; mesh bed leveling 
M204 T2500 ; restore travel acceleration
M104 S215 ; set extruder temp
G92 E0
G1 Y-2 X179 F2400
G1 Z3 F720
M109 S215 ; wait for extruder temp

; intro line
G1 X170 F1000
G1 Z0.2 F720
G1 X110 E8 F900
G1 X40 E10 F700
G92 E0

M221 S95 ; set flow
G21 ; set units to millimeters
G90 ; use absolute coordinates
M83 ; use relative distances for extrusion
M900 K0.2 ; Filament gcode LA 1.5
; ; Filament gcode LA 1.0
M107
;LAYER_CHANGE
;Z:0.2
;HEIGHT:0.2
;BEFORE_LAYER_CHANGE
G92 E0.0
;0.2


G1 E-3.2 F4200
G1 Z.2 F720
;AFTER_LAYER_CHANGE
;0.2
G1 Z.4
G1 X20.407 Y42.99 F9000
G1 Z.2 F720
G1 E3.2 F2400
M204 P800
;TYPE:Skirt/Brim
;WIDTH:0.42
G1 F1200
G1 X21.174 Y42.803 E.02475
G1 X36.313 Y41.705 E.47592
G1 X135.986 Y41.712 E3.1252
G1 X150.952 Y42.803 E.47047
M73 P0 R98
G1 X152.227 Y43.288 E.04278
G1 X153.025 Y44.395 E.04278
G1 X153.156 Y45.174 E.02475
G1 X153.156 Y71.642 E.82991
G1 X152.764 Y72.949 E.04278
G1 X151.718 Y73.826 E.04278
G1 X150.952 Y74.013 E.02475
G1 X135.814 Y75.111 E.47589
G1 X36.313 Y75.111 E3.11978
G1 X21.174 Y74.013 E.47592
G1 X19.898 Y73.528 E.04278
G1 X19.1 Y72.421 E.04278
G1 X18.969 Y71.642 E.02475
G1 X18.969 Y45.174 E.82991
G1 X19.361 Y43.866 E.04278
G1 X20.361 Y43.029 E.0409
M204 P1000
; printing object set_box_mini_prototype_with_snap_fit_016.stl id:0 copy 0
G1 E-2.24 F4200
;WIPE_START
G1 F7200
G1 X21.174 Y42.803 E-.46755
G1 X21.973 Y42.745 E-.44445
;WIPE_END
G1 E-.048 F4200
G1 Z.4 F720
G1 X35.733 Y71.642 F9000
G1 Z.2 F720
G1 E3.2 F2400
M204 P800
;TYPE:Support material
G1 F1200
G1 X21.346 Y71.642 E.45107
G1 X21.346 Y45.174 E.82991
G1 X35.733 Y45.174 E.45107
G1 X35.733 Y71.586 E.82814
M204 P1000
G1 X35.366 Y71.473 F9000
M204 P800
G1 F1200
G1 X35.366 Y45.513 E.81395
G1 X34.947 Y45.513 E.01314
G1 X34.947 Y71.303 E.80863
G1 X34.528 Y71.303 E.01314
G1 X34.528 Y45.513 E.80863
G1 X34.109 Y45.513 E.01314
G1 X34.109 Y71.303 E.80863
G1 X33.69 Y71.303 E.01314
G1 X33.69 Y45.513 E.80863
G1 X33.271 Y45.513 E.01314
G1 X33.271 Y71.303 E.80863
G1 X32.852 Y71.303 E.01314
G1 X32.852 Y45.513 E.80863
G1 X32.433 Y45.513 E.01314
G1 X32.433 Y71.303 E.80863
G1 X32.015 Y71.303 E.01314
G1 X32.015 Y45.513 E.80863
G1 X31.596 Y45.513 E.01314
G1 X31.596 Y71.303 E.80863
G1 X31.177 Y71.303 E.01314
G1 X31.177 Y45.513 E.80863
G1 X30.758 Y45.513 E.01314
G1 X30.758 Y71.303 E.80863
G1 X30.339 Y71.303 E.01314
G1 X30.339 Y45.513 E.80863
G1 X29.92 Y45.513 E.01314
G1 X29.92 Y71.303 E.80863
G1 X29.501 Y71.303 E.01314
G1 X29.501 Y45.513 E.80863
G1 X29.082 Y45.513 E.01314
G1 X29.082 Y71.303 E.80863
G1 X28.663 Y71.303 E.01314
G1 X28.663 Y45.513 E.80863
G1 X28.244 Y45.513 E.01314
M73 P1 R98
G1 X28.244 Y71.303 E.80863
G1 X27.825 Y71.303 E.01314
G1 X27.825 Y45.513 E.80863
G1 X27.406 Y45.513 E.01314
G1 X27.406 Y71.303 E.80863
G1 X26.987 Y71.303 E.01314
G1 X26.987 Y45.513 E.80863
G1 X26.568 Y45.513 E.01314
G1 X26.568 Y71.303 E.80863
G1 X26.149 Y71.303 E.01314
G1 X26.149 Y45.513 E.80863
G1 X25.73 Y45.513 E.01314
G1 X25.73 Y71.303 E.80863
G1 X25.311 Y71.303 E.01314
G1 X25.311 Y45.513 E.80863
G1 X24.892 Y45.513 E.01314
G1 X24.892 Y71.303 E.80863
G1 X24.473 Y71.303 E.01314
G1 X24.473 Y45.513 E.80863
G1 X24.054 Y45.513 E.01314
G1 X24.054 Y71.303 E.80863
G1 X23.635 Y71.303 E.01314
G1 X23.635 Y45.513 E.80863
G1 X23.216 Y45.513 E.01314
G1 X23.216 Y71.303 E.80863
G1 X22.797 Y71.303 E.01314
G1 X22.797 Y45.513 E.80863
G1 X22.378 Y45.513 E.01314
G1 X22.378 Y71.303 E.80863
G1 X21.959 Y71.303 E.01314
M73 P1 R97
G1 X21.959 Y45.343 E.81395
M204 P1000
G1 E-2.24 F4200
;WIPE_START
G1 F7200
G1 X21.959 Y46.989 E-.912
;WIPE_END
G1 E-.048 F4200
G1 Z.4 F720
G1 X150.779 Y71.642 F9000
G1 Z.2 F720
G1 E3.2 F2400
M204 P800
G1 F1200
G1 X136.394 Y71.642 E.45104
G1 X136.394 Y45.174 E.82991
G1 X150.779 Y45.174 E.45104
G1 X150.779 Y71.586 E.82814
M204 P1000
G1 X150.166 Y71.473 F9000
M204 P800
G1 F1200
G1 X150.166 Y45.513 E.81395
G1 X149.747 Y45.513 E.01314
G1 X149.747 Y71.303 E.80863
G1 X149.328 Y71.303 E.01314
G1 X149.328 Y45.513 E.80863
G1 X148.909 Y45.513 E.01314
G1 X148.909 Y71.303 E.80863
G1 X148.49 Y71.303 E.01314
G1 X148.49 Y45.513 E.80863
G1 X148.071 Y45.513 E.01314
G1 X148.071 Y71.303 E.80863
G1 X147.652 Y71.303 E.01314
G1 X147.652 Y45.513 E.80863
G1 X147.233 Y45.513 E.01314
G1 X147.233 Y71.303 E.80863
G1 X146.814 Y71.303 E.01314
G1 X146.814 Y45.513 E.80863
G1 X146.395 Y45.513 E.01314
G1 X146.395 Y71.303 E.80863
G1 X145.976 Y71.303 E.01314
G1 X145.976 Y45.513 E.80863
G1 X145.557 Y45.513 E.01314
G1 X145.557 Y71.303 E.80863
G1 X145.138 Y71.303 E.01314
G1 X145.138 Y45.513 E.80863
G1 X144.719 Y45.513 E.01314
G1 X144.719 Y71.303 E.80863
G1 X144.3 Y71.303 E.01314
G1 X144.3 Y45.513 E.80863
G1 X143.881 Y45.513 E.01314
G1 X143.881 Y71.303 E.80863
G1 X143.462 Y71.303 E.01314
G1 X143.462 Y45.513 E.80863
G1 X143.043 Y45.513 E.01314
G1 X143.043 Y71.303 E.80863
G1 X142.624 Y71.303 E.01314
G1 X142.624 Y45.513 E.80863
G1 X142.205 Y45.513 E.01314
G1 X142.205 Y71.303 E.80863
G1 X141.786 Y71.303 E.01314
G1 X141.786 Y45.513 E.80863
G1 X141.368 Y45.513 E.01314
G1 X141.368 Y71.303 E.80863
G1 X140.949 Y71.303 E.01314
G1 X140.949 Y45.513 E.80863
G1 X140.53 Y45.513 E.01314
G1 X140.53 Y71.303 E.80863
G1 X140.111 Y71.303 E.01314
G1 X140.111 Y45.513 E.80863
G1 X139.692 Y45.513 E.01314
M73 P2 R97
G1 X139.692 Y71.303 E.80863
G1 X139.273 Y71.303 E.01314
G1 X139.273 Y45.513 E.80863
G1 X138.854 Y45.513 E.01314
G1 X138.854 Y71.303 E.80863
G1 X138.435 Y71.303 E.01314
G1 X138.435 Y45.513 E.80863
G1 X138.016 Y45.513 E.01314
G1 X138.016 Y71.303 E.80863
G1 X137.597 Y71.303 E.01314
G1 X137.597 Y45.513 E.80863
G1 X137.178 Y45.513 E.01314
G1 X137.178 Y71.303 E.80863
G1 X136.759 Y71.303 E.01314
G1 X136.759 Y45.343 E.81395
M204 P1000
G1 E-2.24 F4200
;WIPE_START
G1 F7200
G1 X136.759 Y46.989 E-.912
;WIPE_END
G1 E-.048 F4200
G1 Z.4 F720
G1 X135.126 Y45.345 F9000
G1 Z.2 F720
G1 E3.2 F2400
M204 P800
;TYPE:Perimeter
;WIDTH:0.419999
G1 F1200
G1 X135.126 Y71.471 E.81919
G1 X37 Y71.471 E3.07669
G1 X37 Y45.345 E.81919
G1 X135.066 Y45.345 E3.07481
M204 P1000
G1 X135.504 Y44.967 F9000
M204 P800
;TYPE:External perimeter
M73 P2 R96
G1 F1200
G1 X135.504 Y71.848 E.84283
G1 X36.623 Y71.848 E3.10034
G1 X36.623 Y44.967 E.84283
G1 X135.444 Y44.967 E3.09846
M204 P1000
G1 X135.335 Y45.33 F9000
G1 X134.25 Y45.458
M204 P800
;TYPE:Solid infill
;WIDTH:0.42048
G1 F1200
G1 X134.844 Y46.051 E.02635
G1 X134.844 Y46.585 E.01676
G1 X133.886 Y45.627 E.04253
G1 X133.352 Y45.627 E.01676
G1 X134.844 Y47.119 E.06623
G1 X134.844 Y47.653 E.01676
G1 X132.818 Y45.627 E.08994
G1 X132.284 Y45.627 E.01676
G1 X134.844 Y48.187 E.11365
G1 X134.844 Y48.721 E.01676
G1 X131.75 Y45.627 E.13735
G1 X131.216 Y45.627 E.01676
G1 X134.844 Y49.255 E.16106
G1 X134.844 Y49.789 E.01676
G1 X130.682 Y45.627 E.18477
G1 X130.148 Y45.627 E.01676
G1 X134.844 Y50.323 E.20847
G1 X134.844 Y50.857 E.01676
G1 X129.614 Y45.627 E.23218
G1 X129.08 Y45.627 E.01676
G1 X134.844 Y51.391 E.25589
G1 X134.844 Y51.925 E.01676
G1 X128.546 Y45.627 E.27959
G1 X128.012 Y45.627 E.01676
G1 X134.844 Y52.459 E.3033
G1 X134.844 Y52.993 E.01676
G1 X127.478 Y45.627 E.327
G1 X126.944 Y45.627 E.01676
G1 X134.844 Y53.527 E.35071
G1 X134.844 Y54.061 E.01676
G1 X126.41 Y45.627 E.37442
G1 X125.877 Y45.627 E.01676
G1 X134.844 Y54.594 E.39812
G1 X134.844 Y55.128 E.01676
G1 X125.343 Y45.627 E.42183
G1 X124.809 Y45.627 E.01676
G1 X134.844 Y55.662 E.44554
G1 X134.844 Y56.196 E.01676
G1 X124.275 Y45.627 E.46924
G1 X123.741 Y45.627 E.01676
G1 X134.844 Y56.73 E.49295
G1 X134.844 Y57.264 E.01676
G1 X123.207 Y45.627 E.51666
G1 X122.673 Y45.627 E.01676
G1 X134.844 Y57.798 E.54036
G1 X134.844 Y58.332 E.01676
G1 X122.139 Y45.627 E.56407
G1 X121.605 Y45.627 E.01676
G1 X134.844 Y58.866 E.58778
G1 X134.844 Y59.4 E.01676
G1 X121.071 Y45.627 E.61148
G1 X120.537 Y45.627 E.01676
G1 X134.844 Y59.934 E.63519
G1 X134.844 Y60.468 E.01676
G1 X120.003 Y45.627 E.65889
G1 X119.469 Y45.627 E.01676
G1 X134.844 Y61.002 E.6826
G1 X134.844 Y61.536 E.01676
G1 X118.935 Y45.627 E.70631
G1 X118.401 Y45.627 E.01676
G1 X134.844 Y62.07 E.73001
G1 X134.844 Y62.604 E.01676
G1 X117.867 Y45.627 E.75372
G1 X117.333 Y45.627 E.01676
G1 X134.844 Y63.138 E.77743
G1 X134.844 Y63.672 E.01676
G1 X116.799 Y45.627 E.80113
G1 X116.265 Y45.627 E.01676
M73 P3 R96
G1 X134.844 Y64.206 E.82484
G1 X134.844 Y64.74 E.01676
G1 X115.731 Y45.627 E.84855
G1 X115.198 Y45.627 E.01676
G1 X134.844 Y65.273 E.87225
G1 X134.844 Y65.807 E.01676
G1 X114.664 Y45.627 E.89596
G1 X114.13 Y45.627 E.01676
G1 X134.844 Y66.341 E.91967
G1 X134.844 Y66.875 E.01676
G1 X113.596 Y45.627 E.94337
G1 X113.062 Y45.627 E.01676
G1 X134.844 Y67.409 E.96708
G1 X134.844 Y67.943 E.01676
G1 X112.528 Y45.627 E.99078
G1 X111.994 Y45.627 E.01676
G1 X134.844 Y68.477 E1.01449
G1 X134.844 Y69.011 E.01676
G1 X111.46 Y45.627 E1.0382
G1 X110.926 Y45.627 E.01676
G1 X134.844 Y69.545 E1.0619
G1 X134.844 Y70.079 E.01676
G1 X110.392 Y45.627 E1.08561
G1 X109.858 Y45.627 E.01676
G1 X134.844 Y70.613 E1.10932
G1 X134.844 Y71.147 E.01676
M73 P3 R95
G1 X109.324 Y45.627 E1.13302
G1 X108.79 Y45.627 E.01676
G1 X134.351 Y71.189 E1.13487
G1 X133.817 Y71.189 E.01676
G1 X108.256 Y45.627 E1.13487
G1 X107.722 Y45.627 E.01676
G1 X133.283 Y71.189 E1.13487
G1 X132.75 Y71.189 E.01676
G1 X107.188 Y45.627 E1.13487
G1 X106.654 Y45.627 E.01676
G1 X132.216 Y71.189 E1.13487
G1 X131.682 Y71.189 E.01676
G1 X106.12 Y45.627 E1.13487
G1 X105.586 Y45.627 E.01676
G1 X131.148 Y71.189 E1.13487
G1 X130.614 Y71.189 E.01676
G1 X105.052 Y45.627 E1.13487
G1 X104.519 Y45.627 E.01676
G1 X130.08 Y71.189 E1.13487
G1 X129.546 Y71.189 E.01676
G1 X103.985 Y45.627 E1.13487
G1 X103.451 Y45.627 E.01676
G1 X129.012 Y71.189 E1.13487
G1 X128.478 Y71.189 E.01676
G1 X102.917 Y45.627 E1.13487
G1 X102.383 Y45.627 E.01676
G1 X127.944 Y71.189 E1.13487
G1 X127.41 Y71.189 E.01676
G1 X101.849 Y45.627 E1.13487
G1 X101.315 Y45.627 E.01676
G1 X126.876 Y71.189 E1.13487
G1 X126.342 Y71.189 E.01676
G1 X100.781 Y45.627 E1.13487
G1 X100.247 Y45.627 E.01676
G1 X125.808 Y71.189 E1.13487
G1 X125.274 Y71.189 E.01676
G1 X99.713 Y45.627 E1.13487
G1 X99.179 Y45.627 E.01676
G1 X124.74 Y71.189 E1.13487
G1 X124.206 Y71.189 E.01676
G1 X98.645 Y45.627 E1.13487
G1 X98.111 Y45.627 E.01676
M73 P4 R95
G1 X123.672 Y71.189 E1.13487
G1 X123.138 Y71.189 E.01676
G1 X97.577 Y45.627 E1.13487
G1 X97.043 Y45.627 E.01676
G1 X122.604 Y71.189 E1.13487
G1 X122.071 Y71.189 E.01676
G1 X96.509 Y45.627 E1.13487
G1 X95.975 Y45.627 E.01676
G1 X121.537 Y71.189 E1.13487
G1 X121.003 Y71.189 E.01676
G1 X95.441 Y45.627 E1.13487
G1 X94.907 Y45.627 E.01676
G1 X120.469 Y71.189 E1.13487
G1 X119.935 Y71.189 E.01676
G1 X94.373 Y45.627 E1.13487
G1 X93.84 Y45.627 E.01676
G1 X119.401 Y71.189 E1.13487
G1 X118.867 Y71.189 E.01676
G1 X93.306 Y45.627 E1.13487
G1 X92.772 Y45.627 E.01676
G1 X118.333 Y71.189 E1.13487
G1 X117.799 Y71.189 E.01676
G1 X92.238 Y45.627 E1.13487
G1 X91.704 Y45.627 E.01676
M73 P4 R94
G1 X117.265 Y71.189 E1.13487
G1 X116.731 Y71.189 E.01676
G1 X91.17 Y45.627 E1.13487
G1 X90.636 Y45.627 E.01676
G1 X116.197 Y71.189 E1.13487
G1 X115.663 Y71.189 E.01676
G1 X90.102 Y45.627 E1.13487
G1 X89.568 Y45.627 E.01676
G1 X115.129 Y71.189 E1.13487
G1 X114.595 Y71.189 E.01676
G1 X89.034 Y45.627 E1.13487
G1 X88.5 Y45.627 E.01676
G1 X114.061 Y71.189 E1.13487
G1 X113.527 Y71.189 E.01676
G1 X87.966 Y45.627 E1.13487
G1 X87.432 Y45.627 E.01676
G1 X112.993 Y71.189 E1.13487
G1 X112.459 Y71.189 E.01676
G1 X86.898 Y45.627 E1.13487
G1 X86.364 Y45.627 E.01676
G1 X111.925 Y71.189 E1.13487
G1 X111.392 Y71.189 E.01676
G1 X85.83 Y45.627 E1.13487
G1 X85.296 Y45.627 E.01676
G1 X110.858 Y71.189 E1.13487
G1 X110.324 Y71.189 E.01676
G1 X84.762 Y45.627 E1.13487
G1 X84.228 Y45.627 E.01676
G1 X109.79 Y71.189 E1.13487
G1 X109.256 Y71.189 E.01676
G1 X83.694 Y45.627 E1.13487
G1 X83.161 Y45.627 E.01676
G1 X108.722 Y71.189 E1.13487
G1 X108.188 Y71.189 E.01676
G1 X82.627 Y45.627 E1.13487
G1 X82.093 Y45.627 E.01676
G1 X107.654 Y71.189 E1.13487
G1 X107.12 Y71.189 E.01676
G1 X81.559 Y45.627 E1.13487
G1 X81.025 Y45.627 E.01676
G1 X106.586 Y71.189 E1.13487
G1 X106.052 Y71.189 E.01676
M73 P5 R94
G1 X80.491 Y45.627 E1.13487
G1 X79.957 Y45.627 E.01676
G1 X105.518 Y71.189 E1.13487
G1 X104.984 Y71.189 E.01676
G1 X79.423 Y45.627 E1.13487
G1 X78.889 Y45.627 E.01676
G1 X104.45 Y71.189 E1.13487
G1 X103.916 Y71.189 E.01676
G1 X78.355 Y45.627 E1.13487
G1 X77.821 Y45.627 E.01676
G1 X103.382 Y71.189 E1.13487
G1 X102.848 Y71.189 E.01676
G1 X77.287 Y45.627 E1.13487
G1 X76.753 Y45.627 E.01676
G1 X102.314 Y71.189 E1.13487
G1 X101.78 Y71.189 E.01676
G1 X76.219 Y45.627 E1.13487
G1 X75.685 Y45.627 E.01676
G1 X101.246 Y71.189 E1.13487
G1 X100.713 Y71.189 E.01676
G1 X75.151 Y45.627 E1.13487
G1 X74.617 Y45.627 E.01676
M73 P5 R93
G1 X100.179 Y71.189 E1.13487
G1 X99.645 Y71.189 E.01676
G1 X74.083 Y45.627 E1.13487
G1 X73.549 Y45.627 E.01676
G1 X99.111 Y71.189 E1.13487
G1 X98.577 Y71.189 E.01676
G1 X73.015 Y45.627 E1.13487
G1 X72.481 Y45.627 E.01676
G1 X98.043 Y71.189 E1.13487
G1 X97.509 Y71.189 E.01676
G1 X71.948 Y45.627 E1.13487
G1 X71.414 Y45.627 E.01676
G1 X96.975 Y71.189 E1.13487
G1 X96.441 Y71.189 E.01676
G1 X70.88 Y45.627 E1.13487
G1 X70.346 Y45.627 E.01676
G1 X95.907 Y71.189 E1.13487
G1 X95.373 Y71.189 E.01676
G1 X69.812 Y45.627 E1.13487
G1 X69.278 Y45.627 E.01676
G1 X94.839 Y71.189 E1.13487
G1 X94.305 Y71.189 E.01676
G1 X68.744 Y45.627 E1.13487
G1 X68.21 Y45.627 E.01676
G1 X93.771 Y71.189 E1.13487
G1 X93.237 Y71.189 E.01676
G1 X67.676 Y45.627 E1.13487
G1 X67.142 Y45.627 E.01676
G1 X92.703 Y71.189 E1.13487
G1 X92.169 Y71.189 E.01676
G1 X66.608 Y45.627 E1.13487
G1 X66.074 Y45.627 E.01676
G1 X91.635 Y71.189 E1.13487
G1 X91.101 Y71.189 E.01676
G1 X65.54 Y45.627 E1.13487
G1 X65.006 Y45.627 E.01676
G1 X90.567 Y71.189 E1.13487
G1 X90.033 Y71.189 E.01676
G1 X64.472 Y45.627 E1.13487
G1 X63.938 Y45.627 E.01676
G1 X89.5 Y71.189 E1.13487
G1 X88.966 Y71.189 E.01676
M73 P6 R93
G1 X63.404 Y45.627 E1.13487
G1 X62.87 Y45.627 E.01676
G1 X88.432 Y71.189 E1.13487
G1 X87.898 Y71.189 E.01676
G1 X62.336 Y45.627 E1.13487
G1 X61.802 Y45.627 E.01676
G1 X87.364 Y71.189 E1.13487
G1 X86.83 Y71.189 E.01676
G1 X61.269 Y45.627 E1.13487
G1 X60.735 Y45.627 E.01676
G1 X86.296 Y71.189 E1.13487
G1 X85.762 Y71.189 E.01676
G1 X60.201 Y45.627 E1.13487
G1 X59.667 Y45.627 E.01676
G1 X85.228 Y71.189 E1.13487
G1 X84.694 Y71.189 E.01676
G1 X59.133 Y45.627 E1.13487
G1 X58.599 Y45.627 E.01676
G1 X84.16 Y71.189 E1.13487
G1 X83.626 Y71.189 E.01676
G1 X58.065 Y45.627 E1.13487
G1 X57.531 Y45.627 E.01676
M73 P6 R92
G1 X83.092 Y71.189 E1.13487
G1 X82.558 Y71.189 E.01676
G1 X56.997 Y45.627 E1.13487
G1 X56.463 Y45.627 E.01676
G1 X82.024 Y71.189 E1.13487
G1 X81.49 Y71.189 E.01676
G1 X55.929 Y45.627 E1.13487
G1 X55.395 Y45.627 E.01676
G1 X80.956 Y71.189 E1.13487
G1 X80.422 Y71.189 E.01676
G1 X54.861 Y45.627 E1.13487
G1 X54.327 Y45.627 E.01676
G1 X79.888 Y71.189 E1.13487
G1 X79.354 Y71.189 E.01676
G1 X53.793 Y45.627 E1.13487
G1 X53.259 Y45.627 E.01676
G1 X78.821 Y71.189 E1.13487
G1 X78.287 Y71.189 E.01676
G1 X52.725 Y45.627 E1.13487
G1 X52.191 Y45.627 E.01676
