; generated by PrusaSlicer 2.5.0+win64 on 2023-01-28 at 00:58:14 UTC


;
;

;
;
; 

; external perimeters extrusion width = 0.45mm
; perimeters extrusion width = 0.45mm
; infill extrusion width = 0.45mm
; solid infill extrusion width = 0.45mm
; top infill extrusion width = 0.40mm
; support material extrusion width = 0.35mm
; first layer extrusion width = 0.42mm

M73 P0 R143
M201 X2500 Y2500 Z400 E5000 ; sets maximum accelerations, mm/sec^2
M203 X180 Y180 Z12 E80 ; sets maximum feedrates, mm / sec
M204 P1250 R1250 T2500 ; sets acceleration (P, T) and retract acceleration (R), mm/sec^2
M205 X8.00 Y8.00 Z2.00 E10.00 ; sets the jerk limits, mm/sec
M205 S0 T0 ; sets the minimum extruding and travel feed rate, mm/sec
M107
;TYPE:Custom
M862.3 P "MINI" ; printer model check
G90 ; use absolute coordinates
M83 ; extruder relative mode
M104 S170 ; set extruder temp for bed leveling
M140 S60 ; set bed temp
M109 R170 ; wait for bed leveling temp
M190 S60 ; wait for bed temp
M204 T1250 ; set travel acceleration
G28 ; home all without mesh bed level
G29 ; mesh bed leveling 
M204 T2500 ; restore travel acceleration
M104 S215 ; set extruder temp
G92 E0
G1 Y-2 X179 F2400
G1 Z3 F720
M109 S215 ; wait for extruder temp

; intro line
G1 X170 F1000
G1 Z0.2 F720
G1 X110 E8 F900
G1 X40 E10 F700
G92 E0

M221 S95 ; set flow
G21 ; set units to millimeters
G90 ; use absolute coordinates
M83 ; use relative distances for extrusion
M900 K0.2 ; Filament gcode LA 1.5
; ; Filament gcode LA 1.0
M107
;LAYER_CHANGE
;Z:0.2
;HEIGHT:0.2
;BEFORE_LAYER_CHANGE
G92 E0.0
;0.2


G1 E-3.2 F4200
G1 Z.2 F720
;AFTER_LAYER_CHANGE
;0.2
G1 Z.4
G1 X47.93 Y60.733 F9000
G1 Z.2 F720
G1 E3.2 F2400
M204 P800
;TYPE:Skirt/Brim
;WIDTH:0.42
G1 F1200
G1 X49.611 Y60.037 E.05704
G1 X156.612 Y60.037 E3.35494
G1 X158.293 Y60.733 E.05704
G1 X158.868 Y61.308 E.0255
G1 X159.564 Y62.989 E.05704
G1 X159.564 Y109.99 E1.47368
G1 X158.868 Y111.67 E.05704
G1 X158.293 Y112.245 E.0255
G1 X156.612 Y112.942 E.05704
G1 X49.611 Y112.942 E3.35494
G1 X47.93 Y112.245 E.05704
G1 X47.355 Y111.67 E.0255
G1 X46.659 Y109.99 E.05704
G1 X46.659 Y62.989 E1.47368
G1 X47.355 Y61.308 E.05704
G1 X47.888 Y60.775 E.02362
M204 P1000
; printing object set_box_mini_prototype_with_snap_fit_011.stl_1 id:0 copy 0
G1 E-2.24 F4200
;WIPE_START
G1 F7200
G1 X49.4 Y60.127 E-.912
;WIPE_END
G1 E-.048 F4200
G1 Z.4 F720
G1 X155.925 Y63.676 F9000
G1 Z.2 F720
G1 E3.2 F2400
M204 P800
;TYPE:Perimeter
;WIDTH:0.419999
G1 F1200
G1 X155.925 Y109.303 E1.4306
G1 X50.298 Y109.303 E3.31185
G1 X50.298 Y63.676 E1.4306
G1 X155.865 Y63.676 E3.30997
M204 P1000
G1 X156.302 Y63.299 F9000
M204 P800
;TYPE:External perimeter
G1 F1200
G1 X156.302 Y109.68 E1.45424
G1 X49.921 Y109.68 E3.3355
G1 X49.921 Y63.299 E1.45424
M73 P0 R142
G1 X156.242 Y63.299 E3.33361
M204 P1000
G1 X156.151 Y63.669 F9000
G1 X155.047 Y63.789
M204 P800
;TYPE:Solid infill
;WIDTH:0.421238
G1 F1200
G1 X155.642 Y64.384 E.02648
G1 X155.642 Y64.919 E.01683
G1 X154.682 Y63.959 E.04273
G1 X154.146 Y63.959 E.01683
G1 X155.642 Y65.454 E.06653
G1 X155.642 Y65.989 E.01683
G1 X153.611 Y63.959 E.09034
G1 X153.076 Y63.959 E.01683
G1 X155.642 Y66.524 E.11414
G1 X155.642 Y67.059 E.01683
G1 X152.541 Y63.959 E.13794
G1 X152.006 Y63.959 E.01683
G1 X155.642 Y67.594 E.16174
G1 X155.642 Y68.129 E.01683
G1 X151.471 Y63.959 E.18554
G1 X150.936 Y63.959 E.01683
G1 X155.642 Y68.664 E.20934
G1 X155.642 Y69.199 E.01683
G1 X150.401 Y63.959 E.23315
G1 X149.866 Y63.959 E.01683
G1 X155.642 Y69.734 E.25695
G1 X155.642 Y70.269 E.01683
G1 X149.331 Y63.959 E.28075
G1 X148.796 Y63.959 E.01683
G1 X155.642 Y70.804 E.30455
G1 X155.642 Y71.339 E.01683
G1 X148.261 Y63.959 E.32835
G1 X147.726 Y63.959 E.01683
G1 X155.642 Y71.874 E.35215
G1 X155.642 Y72.409 E.01683
G1 X147.191 Y63.959 E.37596
G1 X146.656 Y63.959 E.01683
G1 X155.642 Y72.944 E.39976
G1 X155.642 Y73.479 E.01683
G1 X146.121 Y63.959 E.42356
G1 X145.586 Y63.959 E.01683
G1 X155.642 Y74.014 E.44736
G1 X155.642 Y74.549 E.01683
G1 X145.051 Y63.959 E.47116
G1 X144.516 Y63.959 E.01683
G1 X155.642 Y75.084 E.49496
G1 X155.642 Y75.62 E.01683
G1 X143.981 Y63.959 E.51877
G1 X143.446 Y63.959 E.01683
G1 X155.642 Y76.155 E.54257
G1 X155.642 Y76.69 E.01683
G1 X142.911 Y63.959 E.56637
G1 X142.376 Y63.959 E.01683
G1 X155.642 Y77.225 E.59017
G1 X155.642 Y77.76 E.01683
G1 X141.841 Y63.959 E.61397
G1 X141.306 Y63.959 E.01683
G1 X155.642 Y78.295 E.63777
G1 X155.642 Y78.83 E.01683
G1 X140.771 Y63.959 E.66158
G1 X140.236 Y63.959 E.01683
G1 X155.642 Y79.365 E.68538
G1 X155.642 Y79.9 E.01683
G1 X139.701 Y63.959 E.70918
G1 X139.166 Y63.959 E.01683
G1 X155.642 Y80.435 E.73298
G1 X155.642 Y80.97 E.01683
G1 X138.631 Y63.959 E.75678
G1 X138.096 Y63.959 E.01683
G1 X155.642 Y81.505 E.78059
G1 X155.642 Y82.04 E.01683
M73 P1 R142
G1 X137.561 Y63.959 E.80439
G1 X137.026 Y63.959 E.01683
G1 X155.642 Y82.575 E.82819
G1 X155.642 Y83.11 E.01683
G1 X136.491 Y63.959 E.85199
G1 X135.956 Y63.959 E.01683
G1 X155.642 Y83.645 E.87579
G1 X155.642 Y84.18 E.01683
G1 X135.421 Y63.959 E.89959
G1 X134.886 Y63.959 E.01683
G1 X155.642 Y84.715 E.9234
G1 X155.642 Y85.25 E.01683
G1 X134.351 Y63.959 E.9472
G1 X133.816 Y63.959 E.01683
G1 X155.642 Y85.785 E.971
G1 X155.642 Y86.32 E.01683
G1 X133.281 Y63.959 E.9948
G1 X132.746 Y63.959 E.01683
G1 X155.642 Y86.855 E1.0186
G1 X155.642 Y87.39 E.01683
G1 X132.211 Y63.959 E1.0424
G1 X131.676 Y63.959 E.01683
G1 X155.642 Y87.925 E1.06621
G1 X155.642 Y88.46 E.01683
G1 X131.141 Y63.959 E1.09001
G1 X130.605 Y63.959 E.01683
G1 X155.642 Y88.995 E1.11381
G1 X155.642 Y89.53 E.01683
G1 X130.07 Y63.959 E1.13761
G1 X129.535 Y63.959 E.01683
G1 X155.642 Y90.065 E1.16141
G1 X155.642 Y90.6 E.01683
G1 X129 Y63.959 E1.18521
G1 X128.465 Y63.959 E.01683
G1 X155.642 Y91.135 E1.20902
G1 X155.642 Y91.67 E.01683
M73 P1 R141
G1 X127.93 Y63.959 E1.23282
G1 X127.395 Y63.959 E.01683
G1 X155.642 Y92.205 E1.25662
G1 X155.642 Y92.74 E.01683
G1 X126.86 Y63.959 E1.28042
G1 X126.325 Y63.959 E.01683
G1 X155.642 Y93.275 E1.30422
G1 X155.642 Y93.81 E.01683
G1 X125.79 Y63.959 E1.32802
G1 X125.255 Y63.959 E.01683
G1 X155.642 Y94.345 E1.35183
G1 X155.642 Y94.88 E.01683
G1 X124.72 Y63.959 E1.37563
G1 X124.185 Y63.959 E.01683
G1 X155.642 Y95.415 E1.39943
G1 X155.642 Y95.95 E.01683
G1 X123.65 Y63.959 E1.42323
G1 X123.115 Y63.959 E.01683
G1 X155.642 Y96.485 E1.44703
G1 X155.642 Y97.02 E.01683
G1 X122.58 Y63.959 E1.47083
G1 X122.045 Y63.959 E.01683
G1 X155.642 Y97.555 E1.49464
G1 X155.642 Y98.09 E.01683
G1 X121.51 Y63.959 E1.51844
G1 X120.975 Y63.959 E.01683
G1 X155.642 Y98.625 E1.54224
G1 X155.642 Y99.161 E.01683
G1 X120.44 Y63.959 E1.56604
G1 X119.905 Y63.959 E.01683
G1 X155.642 Y99.696 E1.58984
G1 X155.642 Y100.231 E.01683
G1 X119.37 Y63.959 E1.61364
G1 X118.835 Y63.959 E.01683
G1 X155.642 Y100.766 E1.63745
G1 X155.642 Y101.301 E.01683
G1 X118.3 Y63.959 E1.66125
G1 X117.765 Y63.959 E.01683
G1 X155.642 Y101.836 E1.68505
G1 X155.642 Y102.371 E.01683
G1 X117.23 Y63.959 E1.70885
G1 X116.695 Y63.959 E.01683
G1 X155.642 Y102.906 E1.73265
G1 X155.642 Y103.441 E.01683
G1 X116.16 Y63.959 E1.75645
G1 X115.625 Y63.959 E.01683
G1 X155.642 Y103.976 E1.78026
G1 X155.642 Y104.511 E.01683
M73 P2 R141
G1 X115.09 Y63.959 E1.80406
G1 X114.555 Y63.959 E.01683
M73 P2 R140
G1 X155.642 Y105.046 E1.82786
G1 X155.642 Y105.581 E.01683
G1 X114.02 Y63.959 E1.85166
G1 X113.485 Y63.959 E.01683
G1 X155.642 Y106.116 E1.87546
G1 X155.642 Y106.651 E.01683
G1 X112.95 Y63.959 E1.89927
G1 X112.415 Y63.959 E.01683
G1 X155.642 Y107.186 E1.92307
G1 X155.642 Y107.721 E.01683
G1 X111.88 Y63.959 E1.94687
G1 X111.345 Y63.959 E.01683
G1 X155.642 Y108.256 E1.97067
G1 X155.642 Y108.791 E.01683
G1 X110.81 Y63.959 E1.99447
G1 X110.275 Y63.959 E.01683
G1 X155.336 Y109.02 E2.00465
G1 X154.801 Y109.02 E.01683
G1 X109.74 Y63.959 E2.00465
G1 X109.205 Y63.959 E.01683
G1 X154.266 Y109.02 E2.00465
G1 X153.731 Y109.02 E.01683
G1 X108.67 Y63.959 E2.00465
G1 X108.135 Y63.959 E.01683
G1 X153.196 Y109.02 E2.00465
G1 X152.661 Y109.02 E.01683
G1 X107.6 Y63.959 E2.00465
G1 X107.065 Y63.959 E.01683
G1 X152.126 Y109.02 E2.00465
G1 X151.591 Y109.02 E.01683
G1 X106.529 Y63.959 E2.00465
G1 X105.994 Y63.959 E.01683
G1 X151.056 Y109.02 E2.00465
G1 X150.521 Y109.02 E.01683
G1 X105.459 Y63.959 E2.00465
G1 X104.924 Y63.959 E.01683
G1 X149.986 Y109.02 E2.00465
G1 X149.451 Y109.02 E.01683
M73 P2 R139
G1 X104.389 Y63.959 E2.00465
G1 X103.854 Y63.959 E.01683
G1 X148.916 Y109.02 E2.00465
G1 X148.381 Y109.02 E.01683
G1 X103.319 Y63.959 E2.00465
G1 X102.784 Y63.959 E.01683
G1 X147.846 Y109.02 E2.00465
G1 X147.311 Y109.02 E.01683
G1 X102.249 Y63.959 E2.00465
G1 X101.714 Y63.959 E.01683
G1 X146.776 Y109.02 E2.00465
G1 X146.241 Y109.02 E.01683
G1 X101.179 Y63.959 E2.00465
G1 X100.644 Y63.959 E.01683
M73 P3 R139
G1 X145.705 Y109.02 E2.00465
G1 X145.17 Y109.02 E.01683
G1 X100.109 Y63.959 E2.00465
G1 X99.574 Y63.959 E.01683
G1 X144.635 Y109.02 E2.00465
G1 X144.1 Y109.02 E.01683
G1 X99.039 Y63.959 E2.00465
G1 X98.504 Y63.959 E.01683
G1 X143.565 Y109.02 E2.00465
G1 X143.03 Y109.02 E.01683
G1 X97.969 Y63.959 E2.00465
G1 X97.434 Y63.959 E.01683
G1 X142.495 Y109.02 E2.00465
G1 X141.96 Y109.02 E.01683
G1 X96.899 Y63.959 E2.00465
G1 X96.364 Y63.959 E.01683
G1 X141.425 Y109.02 E2.00465
G1 X140.89 Y109.02 E.01683
G1 X95.829 Y63.959 E2.00465
G1 X95.294 Y63.959 E.01683
G1 X140.355 Y109.02 E2.00465
G1 X139.82 Y109.02 E.01683
M73 P3 R138
G1 X94.759 Y63.959 E2.00465
G1 X94.224 Y63.959 E.01683
G1 X139.285 Y109.02 E2.00465
G1 X138.75 Y109.02 E.01683
G1 X93.689 Y63.959 E2.00465
G1 X93.154 Y63.959 E.01683
G1 X138.215 Y109.02 E2.00465
G1 X137.68 Y109.02 E.01683
G1 X92.619 Y63.959 E2.00465
G1 X92.084 Y63.959 E.01683
G1 X137.145 Y109.02 E2.00465
G1 X136.61 Y109.02 E.01683
G1 X91.549 Y63.959 E2.00465
G1 X91.014 Y63.959 E.01683
G1 X136.075 Y109.02 E2.00465
G1 X135.54 Y109.02 E.01683
G1 X90.479 Y63.959 E2.00465
G1 X89.944 Y63.959 E.01683
G1 X135.005 Y109.02 E2.00465
G1 X134.47 Y109.02 E.01683
G1 X89.409 Y63.959 E2.00465
G1 X88.874 Y63.959 E.01683
G1 X133.935 Y109.02 E2.00465
G1 X133.4 Y109.02 E.01683
G1 X88.339 Y63.959 E2.00465
G1 X87.804 Y63.959 E.01683
G1 X132.865 Y109.02 E2.00465
G1 X132.33 Y109.02 E.01683
G1 X87.269 Y63.959 E2.00465
G1 X86.734 Y63.959 E.01683
G1 X131.795 Y109.02 E2.00465
G1 X131.26 Y109.02 E.01683
M73 P4 R138
G1 X86.199 Y63.959 E2.00465
G1 X85.664 Y63.959 E.01683
G1 X130.725 Y109.02 E2.00465
G1 X130.19 Y109.02 E.01683
G1 X85.129 Y63.959 E2.00465
G1 X84.594 Y63.959 E.01683
M73 P4 R137
G1 X129.655 Y109.02 E2.00465
G1 X129.12 Y109.02 E.01683
G1 X84.059 Y63.959 E2.00465
G1 X83.524 Y63.959 E.01683
G1 X128.585 Y109.02 E2.00465
G1 X128.05 Y109.02 E.01683
G1 X82.988 Y63.959 E2.00465
G1 X82.453 Y63.959 E.01683
G1 X127.515 Y109.02 E2.00465
G1 X126.98 Y109.02 E.01683
G1 X81.918 Y63.959 E2.00465
G1 X81.383 Y63.959 E.01683
G1 X126.445 Y109.02 E2.00465
G1 X125.91 Y109.02 E.01683
G1 X80.848 Y63.959 E2.00465
G1 X80.313 Y63.959 E.01683
G1 X125.375 Y109.02 E2.00465
G1 X124.84 Y109.02 E.01683
G1 X79.778 Y63.959 E2.00465
G1 X79.243 Y63.959 E.01683
G1 X124.305 Y109.02 E2.00465
G1 X123.77 Y109.02 E.01683
G1 X78.708 Y63.959 E2.00465
G1 X78.173 Y63.959 E.01683
G1 X123.235 Y109.02 E2.00465
G1 X122.7 Y109.02 E.01683
G1 X77.638 Y63.959 E2.00465
G1 X77.103 Y63.959 E.01683
G1 X122.164 Y109.02 E2.00465
G1 X121.629 Y109.02 E.01683
G1 X76.568 Y63.959 E2.00465
G1 X76.033 Y63.959 E.01683
G1 X121.094 Y109.02 E2.00465
G1 X120.559 Y109.02 E.01683
G1 X75.498 Y63.959 E2.00465
G1 X74.963 Y63.959 E.01683
G1 X120.024 Y109.02 E2.00465
G1 X119.489 Y109.02 E.01683
M73 P4 R136
G1 X74.428 Y63.959 E2.00465
G1 X73.893 Y63.959 E.01683
G1 X118.954 Y109.02 E2.00465
G1 X118.419 Y109.02 E.01683
G1 X73.358 Y63.959 E2.00465
G1 X72.823 Y63.959 E.01683
G1 X117.884 Y109.02 E2.00465
G1 X117.349 Y109.02 E.01683
G1 X72.288 Y63.959 E2.00465
G1 X71.753 Y63.959 E.01683
M73 P5 R136
G1 X116.814 Y109.02 E2.00465
G1 X116.279 Y109.02 E.01683
G1 X71.218 Y63.959 E2.00465
G1 X70.683 Y63.959 E.01683
G1 X115.744 Y109.02 E2.00465
G1 X115.209 Y109.02 E.01683
G1 X70.148 Y63.959 E2.00465
G1 X69.613 Y63.959 E.01683
G1 X114.674 Y109.02 E2.00465
G1 X114.139 Y109.02 E.01683
G1 X69.078 Y63.959 E2.00465
G1 X68.543 Y63.959 E.01683
G1 X113.604 Y109.02 E2.00465
G1 X113.069 Y109.02 E.01683
G1 X68.008 Y63.959 E2.00465
G1 X67.473 Y63.959 E.01683
G1 X112.534 Y109.02 E2.00465
G1 X111.999 Y109.02 E.01683
G1 X66.938 Y63.959 E2.00465
G1 X66.403 Y63.959 E.01683
G1 X111.464 Y109.02 E2.00465
G1 X110.929 Y109.02 E.01683
G1 X65.868 Y63.959 E2.00465
G1 X65.333 Y63.959 E.01683
G1 X110.394 Y109.02 E2.00465
G1 X109.859 Y109.02 E.01683
M73 P5 R135
G1 X64.798 Y63.959 E2.00465
G1 X64.263 Y63.959 E.01683
G1 X109.324 Y109.02 E2.00465
G1 X108.789 Y109.02 E.01683
G1 X63.728 Y63.959 E2.00465
G1 X63.193 Y63.959 E.01683
G1 X108.254 Y109.02 E2.00465
G1 X107.719 Y109.02 E.01683
G1 X62.658 Y63.959 E2.00465
G1 X62.123 Y63.959 E.01683
G1 X107.184 Y109.02 E2.00465
G1 X106.649 Y109.02 E.01683
G1 X61.588 Y63.959 E2.00465
G1 X61.053 Y63.959 E.01683
G1 X106.114 Y109.02 E2.00465
G1 X105.579 Y109.02 E.01683
G1 X60.518 Y63.959 E2.00465
G1 X59.983 Y63.959 E.01683
G1 X105.044 Y109.02 E2.00465
G1 X104.509 Y109.02 E.01683
G1 X59.448 Y63.959 E2.00465
G1 X58.912 Y63.959 E.01683
G1 X103.974 Y109.02 E2.00465
G1 X103.439 Y109.02 E.01683
G1 X58.377 Y63.959 E2.00465
G1 X57.842 Y63.959 E.01683
M73 P6 R135
G1 X102.904 Y109.02 E2.00465
G1 X102.369 Y109.02 E.01683
G1 X57.307 Y63.959 E2.00465
G1 X56.772 Y63.959 E.01683
G1 X101.834 Y109.02 E2.00465
G1 X101.299 Y109.02 E.01683
G1 X56.237 Y63.959 E2.00465
G1 X55.702 Y63.959 E.01683
G1 X100.764 Y109.02 E2.00465
G1 X100.229 Y109.02 E.01683
G1 X55.167 Y63.959 E2.00465
G1 X54.632 Y63.959 E.01683
M73 P6 R134
G1 X99.694 Y109.02 E2.00465
G1 X99.159 Y109.02 E.01683
G1 X54.097 Y63.959 E2.00465
G1 X53.562 Y63.959 E.01683
G1 X98.624 Y109.02 E2.00465
G1 X98.088 Y109.02 E.01683
G1 X53.027 Y63.959 E2.00465
G1 X52.492 Y63.959 E.01683
G1 X97.553 Y109.02 E2.00465
G1 X97.018 Y109.02 E.01683
G1 X51.957 Y63.959 E2.00465
G1 X51.422 Y63.959 E.01683
G1 X96.483 Y109.02 E2.00465
G1 X95.948 Y109.02 E.01683
G1 X50.887 Y63.959 E2.00465
G1 X50.581 Y63.959 E.00964
G1 X50.581 Y64.187 E.00719
G1 X95.413 Y109.02 E1.99448
G1 X94.878 Y109.02 E.01683
G1 X50.581 Y64.722 E1.97068
G1 X50.581 Y65.257 E.01683
G1 X94.343 Y109.02 E1.94688
G1 X93.808 Y109.02 E.01683
G1 X50.581 Y65.792 E1.92307
G1 X50.581 Y66.327 E.01683
G1 X93.273 Y109.02 E1.89927
G1 X92.738 Y109.02 E.01683
G1 X50.581 Y66.862 E1.87547
G1 X50.581 Y67.397 E.01683
G1 X92.203 Y109.02 E1.85167
G1 X91.668 Y109.02 E.01683
G1 X50.581 Y67.932 E1.82787
G1 X50.581 Y68.467 E.01683
G1 X91.133 Y109.02 E1.80407
G1 X90.598 Y109.02 E.01683
G1 X50.581 Y69.002 E1.78026
G1 X50.581 Y69.537 E.01683
G1 X90.063 Y109.02 E1.75646
G1 X89.528 Y109.02 E.01683
M73 P6 R133
G1 X50.581 Y70.072 E1.73266
G1 X50.581 Y70.607 E.01683
G1 X88.993 Y109.02 E1.70886
G1 X88.458 Y109.02 E.01683
G1 X50.581 Y71.142 E1.68506
G1 X50.581 Y71.678 E.01683
M73 P7 R133
G1 X87.923 Y109.02 E1.66126
G1 X87.388 Y109.02 E.01683
G1 X50.581 Y72.213 E1.63745
G1 X50.581 Y72.748 E.01683
G1 X86.853 Y109.02 E1.61365
G1 X86.318 Y109.02 E.01683
G1 X50.581 Y73.283 E1.58985
G1 X50.581 Y73.818 E.01683
G1 X85.783 Y109.02 E1.56605
G1 X85.248 Y109.02 E.01683
G1 X50.581 Y74.353 E1.54225
G1 X50.581 Y74.888 E.01683
G1 X84.713 Y109.02 E1.51845
G1 X84.178 Y109.02 E.01683
G1 X50.581 Y75.423 E1.49464
G1 X50.581 Y75.958 E.01683
G1 X83.643 Y109.02 E1.47084
G1 X83.108 Y109.02 E.01683
G1 X50.581 Y76.493 E1.44704
G1 X50.581 Y77.028 E.01683
G1 X82.573 Y109.02 E1.42324
G1 X82.038 Y109.02 E.01683
G1 X50.581 Y77.563 E1.39944
G1 X50.581 Y78.098 E.01683
G1 X81.503 Y109.02 E1.37564
G1 X80.968 Y109.02 E.01683
G1 X50.581 Y78.633 E1.35183
G1 X50.581 Y79.168 E.01683
G1 X80.433 Y109.02 E1.32803
G1 X79.898 Y109.02 E.01683
G1 X50.581 Y79.703 E1.30423
G1 X50.581 Y80.238 E.01683
G1 X79.363 Y109.02 E1.28043
G1 X78.828 Y109.02 E.01683
G1 X50.581 Y80.773 E1.25663
G1 X50.581 Y81.308 E.01683
G1 X78.293 Y109.02 E1.23283
G1 X77.758 Y109.02 E.01683
G1 X50.581 Y81.843 E1.20902
G1 X50.581 Y82.378 E.01683
G1 X77.223 Y109.02 E1.18522
G1 X76.688 Y109.02 E.01683
